P2
256 256
255
51 143 167 227 138 155 227 226 132 144 225 129 128 229 172 124 123 227 205 119 222 217 210 114 194 210 210 154 141 209 215 113 206 204 212 101 201 211 210 98 197 208 207 95 207 206 93 92 204 90 90 102 203 89 88 103 87 86 103 103 178 85 103 173 171 103 103 166 164 103 162 160 195 103 157 194 194 155 154 192 192 152 192 191 78 78 190 189 77 103 188 77 76 102 46 76 102 102 75 75 101 149 74 101 101 149 74 100 149 149 178 99 149 149 176 184 149 174 173 172 159 171 72 149 158 168 72 157 166 22 72 85 162 73 149 81 16 74 78 145 13 149 73 140 10 150 83 130 150 150 83 114 150 84 98 151 134 84 75 130 3 85 150 124 101 150 150 1 108 150 150 0 151 149 0 0 151 149 0 151 151 86 0 151 86 86 151 151 87 41 151 87 87 149 151 88 88 149 88 88 149 149 89 90 149 0 0 149 149 0 151 149 0 0 151 149 0 151 152 97 0 151 151 0 185 151 100 101 151 59 102 149 151 103 103 149 63 103 148 148 65 104 148 22 104 121 149 37 104 148 124 54 150 148 65 230
187 166 228 183 182 183 228 179 182 228 44 175 181 226 125 180 179 41 121 179 178 40 131 177 40 40 145 165 40 151 152 163 40 152 162 162 152 152 161 196 152 161 161 173 152 160 160 172 160 160 172 172 44 171 171 45 45 171 171 46 155 170 46 47 154 170 48 154 154 199 48 154 161 161 81 153 162 162 153 103 163 168 152 164 164 168 103 166 167 167 103 168 167 49 102 150 166 48 150 149 185 46 150 165 44 74 149 182 42 149 149 179 73 149 185 177 73 96 173 72 72 94 147 159 92 91 149 158 88 98 149 166 84 148 156 163 80 146 160 15 142 142 156 78 150 153 152 80 150 148 83 84 63 143 86 88 60 90 92 58 58 97 56 56 39 103 54 54 28 120 53 23 23 113 52 22 109 108 22 23 103 102 27 100 98 134 33 95 137 139 92 91 141 142 50 144 145 50 50 147 148 51 74 150 51 51 85 52 52 92 93 53 53 98 95 96 101 101 99 100 102 102 103 181 104 106 107 193 149 109 203 206 112 3 214 63 115 220 222 65 113 226 66 67 118 230 69 124 127 151 72 134 127 74 104 147
230 168 169 230 230 137 229 229 134 132 228 228 129 230 227 125 124 227 226 120 218 212 41 116 182 210 113 149 129 206 205 109 163 200 217 101 196 195 215 161 192 213 213 161 175 211 95 160 174 209 92 103 208 46 89 103 206 88 155 103 48 86 103 160 49 155 103 163 50 154 161 158 154 154 161 155 198 162 162 170 196 164 151 170 52 165 170 193 52 169 169 51 78 168 168 50 150 168 49 50 150 101 48 150 150 183 46 149 186 186 149 149 186 185 149 181 178 162 149 163 156 161 33 132 160 160 29 104 159 25 25 158 157 22 149 156 19 18 149 155 15 149 149 158 12 150 150 83 81 150 84 84 150 62 84 151 150 85 85 151 57 85 151 151 55 85 150 1 54 24 150 0 0 20 118 0 151 149 111 126 151 107 0 132 151 102 135 151 50 98 139 151 87 49 143 51 88 149 51 50 68 149 51 51 79 92 52 87 89 94 52 95 97 0 99 99 100 0 152 103 104 175 151 106 183 186 58 110 195 198 60 205 208 62 62 216 218 64 111 223 65 66 116 122 68 120 122 125 71 129 128 129 138 141 131 133
187 188 187 184 183 187 47 179 186 185 45 175 185 44 44 203 184 43 43 127 227 42 135 139 42 42 147 165 42 151 152 163 107 152 163 162 103 152 162 177 100 101 161 176 176 102 186 175 47 160 185 211 48 182 175 209 49 177 207 50 87 170 206 51 155 103 204 85 155 161 84 83 103 161 83 82 103 153 82 103 164 151 81 103 151 172 103 103 150 171 54 150 150 192 54 149 191 190 77 149 189 188 77 187 187 76 75 185 184 75 99 182 74 74 98 149 74 96 95 149 74 93 149 149 91 90 149 149 88 149 148 171 84 147 146 168 74 143 166 165 76 163 162 78 79 159 158 81 66 155 83 84 62 151 87 61 60 91 93 58 44 41 56 55 31 28 55 24 23 129 53 20 19 124 86 19 119 118 20 21 114 129 25 110 108 134 51 105 137 139 51 101 141 51 51 0 144 51 51 0 151 51 73 150 151 90 85 97 52 91 93 100 92 98 149 103 94 101 105 169 97 149 108 179 99 149 0 191 149 114 1 151 62 3 212 151 64 6 151 66 104 13 151 68 118 151 151 104 127 151 104 104 148 151 104 104
231 144 172 189 49 138 188 232 47 133 187 45 130 130 186 44 125 226 44 43 131 205 210 141 144 166 206 150 120 164 181 152 163 195 180 152 162 179 219 161 161 179 47 98 178 178 48 96 177 49 49 154 176 50 50 154 51 51 155 155 52 52 155 160 53 155 155 160 175 155 161 161 175 154 162 175 175 163 163 174 174 164 174 174 57 166 173 57 57 150 173 56 56 151 193 55 150 150 190 55 150 180 53 77 150 184 51 149 100 187 75 149 185 167 167 97 172 165 165 95 149 164 38 119 149 162 33 148 161 174 29 147 172 25 74 144 169 21 149 76 166 78 149 83 163 80 68 84 82 83 64 84 85 62 61 64 90 59 48 44 57 56 33 151 141 25 23 137 1 19 18 131 114 17 127 126 121 123 122 126 127 118 117 131 51 51 135 136 50 87 139 50 50 47 143 51 51 58 51 51 67 70 52 76 79 101 52 87 89 103 155 95 105 105 160 99 107 165 166 109 110 173 57 113 181 184 58 115 194 60 61 203 206 62 63 109 64 65 111 112 67 67 115 127 69 120 123 130 104 130 133 134 104 143 137 230
236 171 143 234 234 181 138 232 189 192 232 231 200 189 231 206 207 230 44 209 229 229 119 208 227 227 115 226 226 112 111 224 224 108 101 101 105 104 101 101 102 101 102 182 99 102 181 181 103 103 180 179 103 177 176 213 213 172 170 211 89 166 210 209 88 208 208 87 86 206 206 86 103 205 85 85 103 203 83 103 103 151 82 103 103 150 103 103 150 150 103 149 149 195 102 149 149 193 178 149 191 190 183 149 189 77 77 170 187 77 99 185 50 76 98 183 75 149 95 44 75 93 92 39 149 90 148 148 149 86 147 174 83 83 144 172 82 140 158 169 83 130 167 16 83 155 164 81 84 154 10 85 62 153 7 150 59 6 5 150 56 3 151 151 85 2 150 54 85 151 151 85 16 151 151 86 150 128 86 86 149 0 86 149 149 0 86 149 0 0 149 149 0 0 149 0 0 151 51 0 151 151 89 0 151 151 90 152 151 91 91 151 152 92 149 152 94 94 149 152 96 149 149 0 98 149 0 1 106 149 1 1 149 123 3 151 148 5 7 151 128 12 151 151 131 230 151 104 104 231 151 104 148 231 76 104
53 144 235 177 140 152 233 188 144 232 177 199 132 231 205 190 127 171 209 231 134 168 188 229 118 166 187 46 114 185 185 47 110 184 47 47 152 183 49 104 152 49 50 152 102 51 51 153 160 177 154 154 160 180 155 160 160 180 156 160 179 179 160 161 179 210 161 179 179 59 87 179 59 60 155 178 61 61 154 203 61 153 153 62 62 152 168 62 151 152 172 62 151 174 175 175 151 178 175 175 101 183 174 174 186 149 173 56 187 172 171 53 149 170 51 50 149 183 47 149 149 181 43 149 102 179 75 149 88 35 75 84 83 76 149 79 83 77 76 83 129 158 71 118 156 16 67 98 155 12 80 74 161 9 56 153 158 92 38 154 4 97 151 150 102 150 54 145 108 53 85 113 114 51 86 119 51 51 17 126 51 51 22 50 50 27 29 50 34 36 118 118 44 46 115 143 55 113 113 146 67 112 148 149 112 111 151 52 112 154 155 53 54 158 54 54 100 163 56 56 102 57 57 104 104 58 59 105 123 60 106 106 126 107 108 128 128 218 111 130 223 225 132 133 228 229 136 231 231 73 139 232 75 76 60 231
236 174 176 235 235 184 234 233 193 195 234 232 202 233 233 208 208 233 125 209 232 232 121 119 230 118 117 117 229 114 112 103 111 110 101 101 107 106 101 177 104 102 102 175 153 103 175 175 219 103 174 217 217 160 171 216 216 167 182 214 92 162 213 59 90 181 210 89 89 181 61 88 104 104 62 86 103 151 64 154 103 150 85 153 168 150 152 103 171 178 152 173 149 178 151 177 177 194 81 182 176 192 80 175 175 60 79 174 58 58 149 173 55 77 149 53 52 149 95 132 48 149 109 148 149 149 91 147 149 85 84 164 149 83 162 162 82 83 160 160 84 159 158 19 18 157 156 15 150 155 12 11 150 163 9 150 150 6 6 151 85 4 151 150 85 3 150 85 85 151 151 86 86 150 51 86 150 150 51 18 150 0 86 23 149 0 29 149 126 0 151 149 0 151 151 120 0 151 88 118 147 151 89 0 150 52 90 152 151 53 91 155 54 92 99 149 55 94 149 121 57 103 149 0 104 104 126 0 105 106 127 200 107 129 130 212 109 132 220 222 67 135 226 69 69 230 230 72 104 232 74 75 142 231 77 77
54 159 157 186 52 151 182 181 143 140 178 177 132 175 174 193 193 171 171 192 47 168 191 191 48 200 190 48 48 189 189 49 152 188 50 50 152 152 51 152 152 161 53 153 153 161 101 153 160 160 97 103 160 184 155 160 161 184 104 161 184 184 61 161 183 62 62 155 183 63 155 153 209 64 155 182 206 87 154 205 66 86 153 203 85 152 103 171 84 151 173 149 83 102 177 179 102 102 149 178 101 101 149 192 101 149 149 189 100 149 188 188 79 149 186 78 77 185 185 78 149 183 77 77 90 181 77 77 86 77 77 83 82 140 77 79 134 131 75 74 121 173 71 106 101 171 66 84 169 169 66 60 167 165 45 164 163 92 94 160 96 98 55 157 102 104 53 107 108 52 52 113 115 52 13 120 51 51 16 126 50 20 21 136 50 26 133 132 33 35 129 129 43 127 126 143 54 124 124 146 149 123 148 149 52 0 151 53 53 154 154 53 96 157 54 55 100 163 56 102 102 152 58 104 104 151 99 105 131 131 101 149 133 206 108 148 135 216 148 137 8 225 149 140 228 151 148 28 231 73 41 46 151 76 152 62
237 177 179 155 185 187 236 234 196 199 235 177 205 235 235 130 209 235 126 125 194 233 122 147 192 49 118 111 231 50 152 102 51 112 152 101 52 152 102 162 169 152 161 168 188 153 161 168 222 161 161 187 220 161 161 186 60 161 186 186 62 161 185 63 64 156 185 65 156 104 66 66 155 104 67 155 155 165 68 154 154 167 153 153 169 170 183 172 172 182 182 175 176 182 69 179 181 181 68 184 180 67 66 179 179 65 150 178 64 63 149 149 61 149 149 153 58 149 149 119 78 149 100 96 77 149 87 169 149 85 83 167 82 83 136 164 33 83 163 176 28 110 160 23 22 88 172 18 150 65 170 86 150 167 167 90 150 85 94 95 56 85 99 150 85 15 105 52 86 151 111 52 13 150 51 51 14 147 51 17 18 143 0 22 140 139 135 30 136 0 139 134 133 141 151 131 144 145 51 129 146 147 51 149 149 52 52 86 152 53 92 94 54 54 98 99 55 101 101 131 57 103 132 133 104 104 133 134 105 135 136 198 202 138 138 211 65 140 219 220 68 224 226 70 70 229 230 72 130 232 74 75 145 149 77 157
236 145 156 237 236 141 147 182 137 136 233 177 133 132 227 209 129 214 171 208 182 168 202 195 130 120 191 232 51 182 179 231 52 172 230 230 110 166 228 55 107 226 226 105 153 225 103 102 103 223 100 99 103 164 98 104 104 161 96 104 159 158 104 104 155 215 104 154 153 212 104 152 211 210 151 151 208 208 89 206 205 88 88 203 203 88 103 201 86 86 103 86 85 102 102 85 85 102 149 149 101 101 149 149 101 149 149 190 100 149 189 188 149 149 187 186 149 186 185 79 148 184 184 79 90 183 79 78 86 181 79 82 81 41 78 78 126 79 149 73 109 80 69 84 87 150 65 69 64 173 85 48 171 170 85 155 168 93 85 153 165 98 152 152 4 104 152 160 3 151 52 2 115 51 51 1 151 50 15 1 152 86 20 151 151 86 28 151 86 86 149 151 87 44 149 0 87 149 135 0 149 149 0 149 149 149 0 151 149 0 0 152 149 0 152 152 0 0 152 152 95 152 152 97 98 152 99 99 149 151 101 101 149 63 102 148 148 103 103 149 8 9 149 149 16 152 148 26 30 151 148 43 151 151 158 60
159 190 54 154 152 185 201 144 181 180 200 178 177 199 199 174 173 198 50 170 197 197 51 168 196 51 52 184 195 53 53 152 232 54 152 152 55 110 152 162 57 153 153 161 105 153 161 161 103 155 161 190 100 104 161 190 64 104 158 190 66 162 156 217 68 154 189 69 69 152 212 70 156 151 210 72 155 166 207 90 154 169 89 89 103 172 88 152 103 149 87 103 178 149 86 102 149 185 102 102 149 193 72 149 149 191 70 149 190 189 82 149 188 188 81 187 186 80 80 185 185 80 91 184 79 79 87 142 79 84 83 136 79 80 128 125 76 75 113 108 71 97 92 177 67 74 175 175 85 52 174 173 88 172 171 91 92 169 169 96 55 167 100 101 53 164 106 52 52 110 112 52 11 12 51 51 14 14 51 17 17 151 50 22 23 148 86 30 146 146 36 149 144 141 47 142 142 145 51 141 146 147 51 140 149 52 52 0 152 53 53 0 152 55 98 158 152 94 101 141 57 103 103 143 97 104 143 144 100 105 145 196 101 148 147 209 148 148 5 219 149 151 11 152 71 18 230 152 73 33 151 75 104 51 151 78
237 146 145 236 238 142 236 235 139 138 233 232 134 228 225 210 131 205 207 204 236 154 196 193 235 186 182 234 234 172 169 233 116 162 232 231 112 157 230 110 109 228 228 107 103 103 105 105 103 103 103 103 104 158 100 104 104 157 158 104 156 155 104 162 154 216 104 153 152 213 94 151 212 211 93 151 209 92 91 190 206 91 90 204 76 90 103 201 89 152 103 149 88 103 102 149 151 102 149 149 150 101 149 192 150 189 149 190 182 178 183 188 159 149 182 68 82 180 185 64 81 178 61 80 149 176 57 80 85 53 51 149 80 47 149 149 84 40 150 150 84 165 150 85 85 162 150 85 160 175 85 85 158 15 85 156 156 11 86 154 8 7 150 153 5 5 151 4 3 151 151 2 2 151 85 1 152 152 86 126 151 86 86 151 151 86 149 149 86 86 149 149 87 149 149 0 87 149 0 0 65 149 0 0 77 145 0 151 149 145 0 152 91 0 157 152 93 0 152 56 95 167 152 97 103 177 60 99 149 189 62 106 148 1 64 108 148 4 111 112 155 8 117 158 14 229 126 161 28 152 163 164 233 151 167 168
148 205 205 55 143 204 53 53 141 203 52 52 134 176 52 134 210 172 52 143 170 196 148 150 167 199 152 166 166 197 152 164 196 197 57 163 196 196 58 196 195 60 60 195 195 62 154 194 63 64 156 224 65 157 157 67 68 158 162 162 158 158 162 162 158 163 163 192 158 164 192 192 104 166 191 191 104 150 191 77 169 150 191 78 154 191 202 78 152 190 78 89 152 197 78 151 185 195 87 150 189 193 87 101 189 187 86 100 179 186 98 161 149 184 97 148 183 186 94 147 181 65 145 144 184 61 140 139 183 81 149 182 181 81 149 181 81 81 72 180 82 69 68 84 84 65 85 85 62 61 37 88 59 58 24 174 56 18 17 172 14 13 171 170 11 11 169 107 10 166 166 114 11 164 119 120 51 162 125 126 50 129 130 50 50 134 50 50 31 138 50 50 41 50 50 49 52 51 51 62 152 151 71 74 151 150 83 151 151 153 92 151 155 155 152 151 159 160 152 163 165 57 153 171 173 59 105 181 61 62 106 151 63 107 108 151 65 110 159 68 103 115 161 70 121 148 164 231 134 167 232 232 148 170 232 233
238 147 146 205 239 142 141 205 53 139 233 231 53 134 221 209 132 139 182 200 146 141 169 185 151 110 172 199 152 165 158 234 152 164 198 233 115 162 197 60 112 197 196 62 109 196 64 64 155 196 66 105 104 68 68 158 104 70 158 159 162 152 159 159 163 194 159 164 164 194 157 165 193 193 167 167 193 208 169 193 193 79 93 193 80 80 153 192 80 80 152 80 80 152 151 80 80 151 189 79 150 150 190 87 150 187 184 188 150 169 187 187 98 137 186 185 112 147 184 70 92 182 184 66 141 180 62 61 134 183 57 149 149 181 51 149 84 181 82 150 85 39 84 66 85 85 150 85 40 88 60 85 160 159 58 20 157 14 55 14 155 9 12 11 172 6 10 170 170 111 10 168 2 117 167 166 122 151 50 164 128 50 86 131 133 50 86 136 50 50 35 140 50 44 46 51 51 55 58 51 65 68 157 156 77 80 157 151 87 157 156 154 157 157 157 157 157 158 161 57 158 166 168 59 59 175 60 61 105 187 62 63 107 64 64 109 109 66 112 113 165 69 117 120 168 125 128 170 171 232 143 173 233 233 176 176
238 187 207 56 56 199 206 54 140 207 239 54 135 205 54 134 138 239 54 145 148 238 128 150 168 167 125 104 166 201 121 102 164 199 102 102 143 199 103 162 141 231 103 142 197 229 145 146 227 67 107 148 225 105 158 224 223 103 159 221 102 102 104 219 100 104 104 99 98 104 104 98 104 104 150 195 104 104 150 206 103 149 149 203 149 149 201 201 149 149 199 92 149 196 196 91 91 194 90 90 101 192 89 89 101 88 88 100 99 87 98 98 148 86 96 96 146 94 94 145 144 184 90 140 184 183 135 132 183 83 123 182 182 83 107 182 83 84 172 180 84 84 180 39 85 64 63 87 88 60 30 89 58 58 20 150 56 15 14 150 54 11 174 53 85 10 173 172 10 152 171 115 11 170 2 121 151 168 125 127 150 1 130 50 150 0 135 50 0 0 152 51 41 141 152 87 52 152 51 88 149 152 88 73 149 152 89 149 162 90 91 149 163 92 149 149 0 159 149 0 0 152 149 0 0 152 0 0 152 62 1 1 152 101 2 152 152 103 112 152 103 103 148 152 104 148 148 104 104 148 148 104 148 148 52 104
208 57 147 151 208 56 145 235 55 55 137 180 54 136 136 175 55 141 172 171 147 148 169 169 151 167 167 202 237 165 165 202 60 164 201 200 62 136 200 63 64 199 199 65 154 199 67 68 156 157 69 158 158 162 72 159 162 162 104 159 163 163 160 104 164 197 159 165 165 197 104 166 197 197 81 168 196 82 83 150 196 83 155 149 203 84 153 196 199 94 152 197 84 93 152 195 92 151 102 191 91 101 189 149 90 100 178 192 99 99 148 190 97 97 147 185 95 145 144 184 92 141 184 71 85 134 183 84 149 182 182 84 149 182 84 84 73 181 84 85 68 85 86 65 64 43 62 61 32 29 59 58 21 179 57 16 15 177 54 12 176 176 10 10 175 175 9 174 174 112 113 173 117 118 50 171 122 123 50 126 128 50 50 131 133 50 26 136 50 50 35 152 51 43 46 166 51 55 166 166 64 67 166 166 76 167 167 151 87 168 168 153 149 169 156 157 56 0 160 57 58 165 167 59 103 174 60 61 105 185 62 106 107 152 65 109 174 152 103 113 175 176 103 148 178 228 130 148 180 231 148 183 42 233 149 186
58 191 193 240 56 202 240 240 141 209 240 240 138 240 240 136 135 176 132 132 136 126 129 129 108 159 127 103 103 145 123 102 137 136 102 102 132 131 103 131 131 232 231 133 230 230 112 137 228 228 110 226 226 108 108 224 224 106 104 221 105 105 104 149 103 104 104 149 101 104 150 150 104 104 150 150 104 149 149 206 103 149 149 203 177 149 200 199 96 197 198 95 95 195 195 94 102 193 93 93 101 191 92 101 100 84 91 99 148 83 149 98 147 147 149 104 145 184 93 89 140 183 85 135 186 183 84 124 182 86 84 182 182 85 179 179 58 85 70 181 51 150 66 45 87 150 62 37 150 59 85 29 151 86 16 150 150 85 12 178 86 85 156 177 85 85 154 7 85 153 153 4 86 152 3 2 151 151 2 152 151 1 1 152 50 0 152 152 86 0 152 152 87 152 152 87 87 152 88 88 149 152 88 88 149 52 89 149 149 0 90 149 0 0 97 149 0 0 149 175 0 152 149 0 152 152 175 0 152 152 100 191 152 101 101 205 152 102 148 152 69 103 148 71 104 128 148 74 104 148 186 77 160 149 50 55
211 239 58 198 209 57 143 207 240 56 138 209 240 137 138 240 240 135 145 172 132 149 115 169 129 105 167 145 126 102 165 203 102 102 129 202 103 103 126 233 66 126 127 231 69 130 230 229 112 135 228 111 110 226 225 108 160 223 107 107 104 220 106 105 104 149 104 104 104 149 104 104 149 149 104 104 149 207 104 149 149 204 103 149 201 201 149 149 198 198 97 196 195 96 96 193 95 95 102 191 94 94 101 93 93 100 100 92 92 98 147 147 97 96 145 184 94 142 141 183 91 136 182 182 129 125 182 182 115 182 182 87 96 181 181 86 71 181 86 86 67 52 88 64 63 44 89 60 25 90 151 58 18 94 56 85 13 151 54 11 158 178 85 10 178 178 85 154 177 112 86 153 176 118 152 175 2 124 151 175 128 152 50 1 133 50 86 0 152 50 35 0 152 87 45 152 152 87 57 152 88 88 149 152 89 149 149 0 90 149 178 0 149 149 0 157 149 149 0 152 149 0 0 152 149 0 152 152 0 0 152 100 101 152 152 102 102 152 103 103 148 152 103 104 148 72 104 148 148 104 152 149 40 104 149 149
239 194 197 240 238 205 207 240 142 210 240 240 139 208 241 136 136 207 240 134 127 239 59 131 106 239 129 103 103 62 125 102 127 125 152 103 122 121 153 163 121 233 103 162 124 231 162 128 202 228 162 135 227 76 111 202 224 109 161 201 80 108 104 201 82 161 104 84 85 160 104 86 160 159 170 87 157 172 173 200 156 176 149 200 179 180 199 198 183 184 199 89 188 199 199 89 191 198 89 89 198 198 89 150 150 88 88 150 99 87 149 149 113 85 149 149 93 91 149 87 85 149 84 84 190 189 84 84 188 74 84 185 185 68 85 182 64 62 58 179 57 55 176 181 49 150 172 43 90 151 86 34 150 150 85 96 151 86 86 100 151 85 157 105 52 85 155 51 51 10 154 51 86 11 177 3 13 151 177 2 17 177 1 132 22 176 1 152 176 176 139 152 177 142 142 51 87 144 152 51 63 147 52 88 75 149 53 84 149 54 54 92 183 55 97 98 185 57 100 185 185 164 103 186 186 172 186 186 180 183 187 187 193 64 188 204 207 67 213 216 69 70 223 225 72 130 135 74 74 149 154 77 165 171 198 80
198 212 152 193 192 211 143 187 210 210 227 181 209 209 178 194 208 59 173 208 240 60 151 207 61 61 152 239 62 152 152 237 64 152 164 235 122 153 163 120 120 103 162 118 156 104 121 203 104 162 129 203 104 135 203 79 104 142 202 81 144 145 219 84 147 217 216 107 161 213 87 106 104 209 104 159 104 206 103 104 176 103 102 103 149 101 103 103 149 100 103 149 149 193 102 149 149 190 148 148 188 188 148 148 186 96 147 185 185 95 184 184 94 94 183 182 93 93 92 92 91 89 88 91 86 84 110 89 80 97 91 77 75 76 71 71 61 57 181 181 43 40 181 90 30 181 181 91 21 180 93 94 181 181 96 55 181 99 100 53 180 103 52 52 9 108 51 51 10 151 51 11 11 50 86 13 179 50 15 16 179 86 19 178 179 86 26 179 138 139 150 179 141 142 149 0 144 52 181 0 152 52 0 148 53 53 0 152 54 88 90 152 55 95 188 152 92 99 190 94 94 149 191 96 103 148 0 98 148 192 0 100 149 1 199 152 148 2 212 69 4 6 152 71 10 152 152 104 21 152 152 104 151 151 104 104
240 197 201 240 240 191 211 240 143 185 210 58 140 209 209 59 137 208 60 60 150 208 61 132 151 168 63 152 102 166 64 152 165 116 153 153 163 205 154 163 163 205 155 162 205 204 74 162 204 204 77 204 203 79 80 203 81 81 162 203 83 84 163 218 86 162 162 87 87 161 169 169 161 160 172 172 158 174 175 202 157 178 202 202 103 182 202 202 103 149 202 92 190 148 201 92 151 201 92 92 150 187 92 150 150 185 91 150 134 183 96 149 103 89 95 94 89 196 149 90 126 195 87 84 112 193 82 99 191 180 77 79 188 74 64 59 180 68 47 42 180 91 150 180 180 92 59 180 93 94 57 181 95 55 55 98 98 53 86 101 53 52 10 106 51 9 10 181 51 10 10 181 11 12 180 181 13 14 180 127 17 181 180 133 22 181 136 137 50 181 139 50 51 142 142 51 51 145 52 52 63 147 53 53 75 53 53 83 85 54 90 92 192 193 96 97 194 158 100 194 195 163 103 195 169 171 196 196 179 182 197 188 192 65 198 202 67 68 114 215 69 70 123 152 72 134 139 152 75 153 204 77 172 178 206 104
239 240 149 238 237 146 145 233 187 143 223 216 200 210 185 184 178 241 132 159 153 240 143 138 240 240 127 124 239 129 117 237 237 127 236 236 125 124 103 234 122 104 104 121 120 104 104 118 104 104 120 116 104 104 130 104 104 136 138 221 141 143 218 217 145 146 214 110 147 212 211 109 147 208 108 107 205 204 107 103 202 106 106 103 103 105 103 103 148 104 103 103 148 152 102 148 148 151 101 147 187 101 177 147 184 154 145 183 183 98 142 182 97 96 199 180 96 95 197 88 95 88 180 85 149 83 83 93 149 78 76 150 74 86 58 150 69 45 185 150 86 32 180 150 86 178 180 86 86 173 46 86 170 169 36 98 166 30 27 151 162 21 105 151 16 14 151 51 11 152 152 86 7 152 152 86 152 152 86 86 151 152 86 151 151 86 86 150 183 87 150 150 0 87 149 0 0 53 149 0 0 152 0 0 153 153 0 0 153 90 0 152 152 91 155 152 92 93 159 152 94 149 152 60 96 148 148 98 105 149 0 100 148 148 1 110 148 2 3 116 204 5 152 127 205 11 152 207 208 232 152 104 36 233 80 104
154 199 197 213 146 192 212 212 230 186 211 211 203 191 210 60 61 165 210 61 150 209 240 63 152 239 64 132 152 238 66 152 103 237 127 153 164 163 125 103 163 206 123 104 163 206 104 104 111 206 104 119 122 226 104 130 205 223 136 138 220 87 114 143 216 112 164 213 212 111 104 209 110 110 104 205 109 104 104 108 108 103 181 107 103 103 148 204 103 103 148 191 102 148 148 188 147 147 186 186 146 147 184 101 145 183 182 100 100 181 99 99 95 180 98 93 92 97 97 89 88 96 86 85 98 95 81 80 79 77 76 65 60 178 70 48 179 179 37 34 179 93 27 180 180 94 20 180 95 95 181 181 97 98 181 100 100 53 53 103 52 51 10 107 51 51 10 152 51 11 11 152 50 12 183 50 86 15 183 183 17 151 183 133 22 184 1 137 150 185 140 141 150 0 143 51 149 0 146 52 0 0 153 53 74 153 153 89 85 153 55 90 149 152 92 97 201 152 93 149 203 94 95 148 204 96 148 148 0 180 148 0 1 152 148 1 204 152 2 3 152 71 6 7 152 104 13 152 152 104 148 152 104 104 149 151
240 150 149 238 237 210 146 231 208 206 217 208 192 241 171 173 166 241 123 147 241 240 132 128 240 240 119 239 239 131 131 238 130 129 103 236 127 127 103 73 125 104 104 76 123 104 102 121 160 104 112 115 104 164 124 224 104 132 206 220 165 139 217 216 167 205 213 114 169 205 209 111 205 205 93 111 104 94 94 159 103 95 109 103 185 95 155 103 148 96 153 192 147 152 152 193 147 151 188 184 203 183 166 203 203 95 131 202 181 94 202 202 93 100 201 201 92 149 200 91 91 149 85 89 149 149 85 87 150 86 85 150 150 86 86 150 86 86 189 150 86 86 185 60 86 181 181 59 16 177 52 50 173 172 42 151 168 35 32 151 164 25 151 151 183 18 152 86 183 116 152 86 86 121 50 86 153 152 86 86 152 50 86 151 151 50 86 150 1 51 34 150 0 152 45 190 0 152 149 192 147 153 195 0 149 153 198 151 153 54 201 153 55 91 155 155 57 92 149 58 58 102 148 60 61 104 208 62 105 106 209 64 108 210 210 111 112 211 210 118 212 212 221 152 213 226 228 75 214 231 232 77 233 233 80 80
151 240 199 208 241 235 210 213 241 220 199 241 61 181 174 241 62 153 241 241 137 132 241 136 136 240 239 133 133 103 132 131 103 103 130 129 103 95 127 104 104 93 125 104 94 95 104 104 102 228 104 111 114 225 224 123 222 222 118 134 219 218 117 216 215 115 115 212 115 114 104 208 113 113 104 147 112 104 104 147 111 103 148 148 103 103 147 147 103 147 147 188 102 147 186 185 191 146 184 183 105 204 182 105 104 180 180 104 98 179 102 102 95 94 101 92 92 93 100 88 101 92 149 83 84 78 80 85 65 177 74 52 49 177 86 39 178 178 86 189 178 96 86 185 179 97 182 181 60 98 55 181 50 151 54 43 102 151 86 32 151 51 86 23 152 86 11 152 151 86 12 184 86 86 154 185 86 86 152 3 86 152 151 2 151 151 1 1 150 150 0 152 150 0 0 152 52 0 152 152 88 0 153 89 89 153 152 89 90 152 90 90 149 152 91 92 149 58 93 148 148 0 95 148 0 0 148 148 0 152 148 0 0 152 148 1 152 152 215 3 152 152 103 223 152 104 104 229 76 104 148 152 79 104 149 81
240 240 62 147 236 61 147 142 189 61 141 199 182 62 145 178 154 211 150 173 132 240 171 170 210 240 168 210 210 69 166 209 209 71 209 209 73 74 208 208 76 157 157 78 79 160 104 82 162 162 164 85 164 164 165 165 166 165 166 166 166 167 207 166 168 169 207 93 171 207 207 95 145 207 95 96 146 207 96 160 206 97 97 157 206 97 155 155 192 97 153 153 194 109 152 191 189 108 101 176 205 150 100 144 205 99 117 135 204 97 94 204 177 95 118 203 94 102 102 176 93 149 85 175 100 150 176 176 99 150 176 98 98 69 177 98 66 65 28 97 62 86 188 59 59 18 184 56 56 15 180 54 13 13 181 53 12 182 182 105 11 183 109 110 183 184 113 151 184 117 118 50 185 122 123 50 126 127 50 50 130 50 50 21 23 50 50 28 189 51 34 36 192 51 44 193 194 53 56 197 198 64 199 200 149 76 203 151 151 55 206 153 154 56 155 156 57 58 159 159 59 101 164 61 61 103 152 63 105 106 64 64 108 217 217 112 113 218 218 120 218 219 220 135 219 220 228 148 221 231 232 148 33 234 80 81
240 63 209 240 240 148 208 241 62 142 204 242 144 145 180 142 142 120 175 140 139 105 120 138 103 103 108 136 103 102 100 238 103 95 236 236 89 88 234 76 85 233 233 127 85 231 230 126 228 227 124 124 225 224 122 104 104 122 121 104 131 120 104 104 138 118 104 141 142 104 104 144 145 104 145 145 200 104 146 196 196 114 146 193 192 113 190 189 112 112 187 186 111 102 184 110 110 101 181 109 101 100 139 108 99 135 133 98 97 127 124 95 118 115 176 92 103 99 175 85 86 174 175 85 201 175 101 101 199 175 100 71 175 87 99 67 176 99 150 62 79 99 60 86 73 150 56 16 66 151 86 14 180 151 86 12 182 86 86 168 183 86 11 183 25 86 161 184 116 158 157 12 121 50 154 7 152 50 5 4 152 51 3 152 153 86 1 153 87 87 153 153 87 42 153 87 88 150 198 88 88 149 0 89 149 149 0 89 149 0 0 149 149 0 153 149 0 0 153 148 0 153 152 95 0 152 152 97 175 152 99 99 152 66 101 148 152 102 102 147 71 103 147 147 74 104 147 14 17 174 148 28 33 148 224 47
152 63 63 147 146 63 143 142 190 188 142 143 183 212 146 178 177 211 150 174 211 211 104 170 211 68 168 103 210 70 166 210 237 73 154 209 75 76 156 234 78 158 159 232 81 161 164 229 126 164 164 125 166 104 165 123 168 166 123 208 104 168 208 208 104 138 208 95 104 142 205 96 143 144 201 97 145 197 196 116 160 193 98 115 103 190 115 155 103 186 113 102 194 113 112 102 142 111 101 101 138 110 100 134 133 177 98 126 123 176 117 114 175 175 103 174 174 106 87 174 174 105 174 174 104 104 174 174 102 73 72 102 101 68 67 101 65 64 25 101 60 21 20 58 57 18 17 56 16 15 179 179 14 14 180 105 13 181 182 108 182 183 110 111 183 184 115 50 185 118 119 50 186 123 50 50 15 127 50 50 19 152 51 22 23 51 87 28 192 52 34 37 194 87 44 197 197 88 55 200 147 148 149 204 149 54 206 0 151 56 211 153 153 57 0 155 58 59 0 153 60 101 101 152 62 103 220 152 97 106 221 99 99 147 222 101 115 147 2 102 147 224 5 103 147 9 228 151 147 20 151 79 32 37 151 82
240 152 151 240 240 149 148 241 147 146 194 241 145 153 140 143 143 115 111 141 106 105 114 110 103 103 104 239 103 97 95 238 91 90 236 236 84 82 234 132 77 233 232 130 76 230 129 128 104 227 127 127 104 90 126 104 104 124 104 104 125 123 104 104 134 169 104 138 140 167 104 142 202 201 179 143 197 118 144 208 193 117 144 190 99 116 208 186 115 115 207 99 115 102 102 99 113 101 137 99 151 100 132 150 150 108 123 150 96 91 206 149 86 100 205 149 85 205 173 97 85 203 96 106 202 202 94 105 202 93 92 150 199 90 103 150 88 87 151 61 84 82 150 86 19 151 151 86 186 151 86 86 181 151 86 177 175 86 86 171 170 86 167 165 30 27 162 23 20 152 158 15 13 152 187 9 152 152 6 5 152 86 3 153 153 87 2 153 87 87 150 153 87 150 150 53 88 149 149 53 61 149 0 89 72 149 0 79 149 211 0 88 214 0 154 153 217 0 153 93 219 161 152 95 222 167 64 96 174 152 65 99 187 67 100 113 147 70 121 147 226 72 138 147 7 155 162 227 16 182 188 228 233 206 228 228
152 240 240 151 146 240 240 148 210 241 146 145 160 241 144 125 118 143 142 107 117 141 103 103 106 211 103 100 98 238 103 91 90 237 85 83 235 235 77 234 233 132 72 231 231 130 229 228 129 129 104 224 127 104 104 127 126 104 104 125 104 104 128 124 104 133 135 104 104 138 139 201 140 141 198 197 142 142 194 119 142 191 189 118 208 187 117 117 184 183 116 102 181 116 115 101 101 114 101 101 131 114 99 99 122 150 97 114 111 95 88 99 173 92 87 84 172 85 72 171 171 108 57 172 107 107 203 172 106 71 202 93 105 67 173 90 150 62 88 104 150 59 20 151 57 86 18 151 54 16 185 151 86 15 179 86 86 175 181 86 86 170 38 86 165 164 27 117 161 20 121 152 157 13 152 50 9 8 152 51 5 152 153 87 3 153 153 87 153 153 87 87 150 153 88 150 149 88 88 149 0 88 149 149 0 89 149 0 0 149 149 0 0 153 0 0 153 153 0 153 153 94 0 152 152 95 169 152 97 97 180 152 99 147 152 69 101 147 147 102 131 147 5 103 147 229 11 172 148 19 23 199 230 36 151 219
239 152 204 215 240 149 197 213 64 147 213 241 65 145 130 66 144 150 108 68 142 104 171 69 152 103 100 152 153 166 92 154 154 165 211 155 164 76 211 233 164 210 231 84 164 210 87 131 210 210 90 129 209 92 93 171 209 94 94 172 96 96 172 171 172 97 171 174 175 169 169 178 209 167 181 182 209 163 185 209 209 189 190 208 208 100 208 208 100 100 209 100 100 153 208 100 100 151 176 100 151 150 174 100 150 99 100 114 150 88 87 150 92 85 206 149 85 68 206 84 86 205 205 79 46 204 96 73 38 202 94 32 201 172 92 150 172 90 105 150 173 86 151 57 175 106 151 86 177 106 53 86 107 107 52 86 178 51 51 14 172 51 14 14 183 50 14 162 185 14 14 186 16 15 16 188 128 17 189 189 133 51 191 135 137 51 193 140 52 53 142 143 53 53 145 53 53 52 147 54 54 63 55 55 71 73 211 78 81 214 215 87 89 218 155 93 221 221 158 99 223 161 162 225 225 167 65 66 174 176 67 67 185 69 69 116 199 71 72 129 73 74 144 150 76 77 170 231 79 190 196 232 233 213 232 232
239 207 214 233 201 199 214 65 179 213 241 65 148 212 66 145 125 241 68 151 112 240 142 152 240 239 141 152 167 139 139 103 166 138 104 104 76 136 104 164 68 104 104 65 210 104 104 68 226 104 76 80 222 130 92 219 218 128 108 214 127 127 210 209 126 172 205 125 125 104 200 124 124 104 123 123 103 103 139 103 103 139 139 103 103 138 183 103 136 136 180 102 133 178 177 129 128 175 117 117 174 174 116 116 172 116 116 96 171 115 114 93 114 114 90 89 113 113 85 56 112 81 79 45 169 75 39 37 170 69 33 170 171 87 28 171 171 25 172 173 108 22 173 107 107 193 175 107 107 53 75 108 52 52 66 109 51 16 111 151 51 15 114 50 86 14 152 50 15 161 186 86 15 187 188 86 155 189 131 86 153 191 135 152 152 3 139 151 2 1 153 150 1 144 153 88 0 153 54 88 0 153 89 68 153 153 89 78 153 90 90 148 153 91 148 148 91 92 148 224 0 147 147 0 165 147 147 0 152 147 0 0 152 0 1 152 152 1 2 152 102 103 152 152 103 103 151 104 104 148 151 104 104 148 84 104
215 65 206 214 214 65 144 213 65 66 145 213 66 148 148 67 68 151 106 69 152 152 171 71 152 169 168 141 153 167 166 211 166 165 211 211 165 165 211 83 164 211 211 86 165 210 89 90 66 211 92 171 210 220 94 173 174 96 129 174 170 97 174 174 173 127 173 176 177 125 104 179 209 125 104 184 209 100 103 136 209 101 193 136 183 101 135 209 180 101 131 178 101 120 126 176 119 151 174 173 119 150 106 117 117 97 90 117 150 94 79 116 91 86 66 88 87 56 206 83 81 46 168 77 41 39 169 97 35 169 169 111 30 169 170 110 171 171 109 109 172 109 109 56 173 109 109 54 19 109 53 52 18 110 52 17 17 51 51 16 181 51 16 16 183 50 15 184 185 15 16 186 187 126 187 188 129 130 189 132 133 52 192 137 137 52 139 140 53 53 142 143 54 41 145 54 55 51 54 55 59 62 208 56 70 212 213 89 79 216 218 86 148 221 155 92 223 224 158 63 226 161 162 65 0 167 67 67 0 175 69 110 0 152 71 119 197 152 102 134 152 76 103 157 234 103 178 234 234 104 148 234 233 104 148 234
238 208 206 240 225 191 184 240 168 160 240 240 139 240 240 146 119 240 240 145 104 240 144 144 103 239 142 103 103 141 141 104 83 139 104 104 72 138 104 64 62 104 104 58 57 227 59 60 224 223 67 71 221 132 83 217 215 131 213 212 130 130 208 207 129 104 104 128 128 104 104 127 104 104 132 125 103 133 133 163 103 133 132 103 194 131 180 102 128 128 177 122 123 175 175 121 116 173 120 120 209 171 119 98 209 101 119 95 169 101 150 92 101 117 89 87 54 150 83 47 46 150 86 40 168 150 87 35 168 87 87 204 169 87 29 202 94 86 201 170 92 151 198 89 111 151 194 84 151 53 79 77 151 52 71 151 151 86 61 152 152 86 173 152 86 86 167 86 86 163 161 86 86 159 16 86 156 155 9 87 154 6 5 152 152 3 153 153 2 2 153 153 1 153 153 88 0 153 153 88 148 153 89 89 150 153 89 148 153 90 90 148 0 90 148 148 0 91 147 0 0 99 147 0 0 103 230 0 152 146 231 180 152 99 0 194 152 101 204 152 77 102 217 152 103 176 226 82 104 147 231 85 218 148 87 87
215 66 233 199 214 66 208 171 240 66 147 212 240 67 125 240 69 146 111 240 145 152 103 239 144 152 168 143 142 103 167 141 141 104 77 140 104 104 65 104 104 58 56 228 104 54 226 225 58 60 221 94 70 218 217 132 86 214 212 131 209 208 130 130 204 129 129 104 104 128 128 104 127 128 103 103 129 126 103 129 129 103 103 128 181 103 125 124 177 102 120 175 175 123 113 173 172 122 171 171 121 121 170 169 121 96 168 120 119 93 101 119 90 89 54 118 85 48 46 81 80 42 40 75 38 37 167 69 34 168 168 87 31 168 168 87 203 169 113 113 200 171 112 55 172 88 112 53 173 112 52 52 78 113 51 19 69 152 51 18 116 152 86 17 182 50 86 17 184 86 17 161 186 86 158 188 13 87 155 190 134 153 153 5 139 53 151 3 153 54 1 1 153 55 1 153 153 88 0 153 88 89 153 153 89 72 153 89 89 148 219 90 90 148 0 91 147 147 0 147 147 0 0 146 146 0 152 146 0 0 152 145 0 152 152 100 2 152 152 102 210 152 103 103 152 103 103 147 151 104 104 147 87 104 148 148
237 204 201 146 221 182 174 145 195 150 240 240 186 127 240 147 115 240 240 146 105 239 145 145 212 239 144 103 212 77 143 104 236 80 157 104 69 140 161 104 58 164 104 165 51 169 166 53 211 173 167 62 218 168 169 211 213 133 171 211 99 132 210 210 100 131 210 101 101 175 210 101 173 171 101 101 168 103 102 165 163 194 123 160 159 194 209 156 189 186 209 176 169 209 209 143 134 209 102 109 209 209 102 92 209 102 102 150 208 102 102 150 101 101 150 150 101 150 150 86 101 150 150 87 118 150 87 87 205 150 87 205 205 62 87 204 96 87 29 202 94 87 199 170 91 26 197 87 86 24 174 81 151 151 176 74 152 86 178 117 152 86 119 119 51 86 122 153 51 17 125 51 86 159 129 52 19 156 11 52 21 191 6 24 25 194 3 29 196 197 144 36 200 1 146 202 204 148 153 58 208 149 59 89 151 151 61 76 152 62 62 84 154 64 89 90 66 66 95 96 68 98 100 231 231 103 232 232 171 108 234 234 183 234 235 192 196 236 236 206 81 236 216 218 84 237 225 86 87 210 231 88 223 227 90 91
205 238 229 192 185 239 169 161 240 240 139 133 240 149 148 240 240 148 104 239 146 146 103 239 145 103 103 144 144 104 104 143 104 104 74 71 104 64 61 231 104 53 51 227 49 48 224 223 51 53 220 136 61 216 215 135 76 211 134 134 104 206 133 104 104 132 132 104 104 131 104 104 117 129 103 103 119 167 103 119 119 162 195 117 178 177 192 112 175 126 106 209 172 125 96 171 102 124 209 169 124 124 209 102 123 95 95 102 150 92 54 102 150 87 47 150 150 87 42 150 78 87 207 150 87 38 165 87 87 206 166 118 87 204 98 117 204 203 96 116 201 94 94 151 199 91 115 151 88 87 151 52 82 152 152 86 22 152 152 86 179 152 86 86 173 153 86 168 167 86 86 162 26 87 159 158 16 14 155 11 9 153 153 6 5 153 195 3 153 153 2 1 153 88 1 153 153 88 148 153 89 89 149 153 89 149 148 63 89 148 148 65 85 147 0 91 91 228 0 96 146 0 0 101 232 0 152 152 233 0 152 97 235 185 152 100 1 199 82 102 210 152 85 175 221 87 103 203 147 89 218 147 238 92 232 148
149 213 195 238 146 203 213 239 196 194 212 240 187 212 212 70 179 212 240 72 212 212 73 146 212 75 76 154 104 78 79 156 166 82 158 159 165 86 162 165 165 166 167 166 211 171 166 166 211 211 167 211 211 97 169 211 211 99 78 211 100 100 211 211 101 180 211 101 101 177 192 102 175 173 188 102 169 192 192 129 164 194 194 161 103 192 209 157 183 100 209 101 154 209 209 101 82 209 102 102 71 209 102 150 61 166 102 150 208 165 123 150 165 102 122 84 164 122 150 78 87 121 74 87 39 121 69 87 206 65 63 36 205 61 35 34 166 57 33 32 167 31 31 169 169 117 29 171 117 151 172 172 117 152 175 118 119 51 177 120 50 51 121 122 51 51 124 51 51 19 19 52 52 19 187 53 20 20 189 22 22 191 192 24 25 194 141 29 197 198 144 145 200 146 147 58 205 148 149 60 150 150 62 63 151 63 64 74 153 65 66 82 153 68 88 89 227 70 93 230 230 98 99 232 164 103 234 234 171 109 235 178 181 144 236 192 195 237 2 205 87 87 215 218 89 194 225 91 92 217 151 94 228 231 151 97
237 238 154 218 239 153 152 174 239 151 135 126 150 150 110 107 111 105 104 105 104 103 103 99 237 103 94 92 236 87 84 235 234 75 71 233 143 61 230 229 142 142 227 141 141 104 223 140 104 104 139 138 104 104 137 104 104 70 136 104 104 83 201 104 92 94 196 104 100 192 191 104 105 186 131 106 183 182 131 105 179 130 129 209 175 129 129 102 103 128 101 101 127 153 101 76 127 99 99 66 151 98 59 57 150 95 52 164 150 86 47 164 164 86 208 163 124 42 208 102 123 208 163 101 122 207 101 122 150 206 100 121 61 87 99 151 58 35 151 151 87 33 151 151 87 200 151 86 86 196 152 86 193 191 86 86 188 76 121 183 181 65 122 176 56 53 153 169 43 39 153 33 29 153 153 21 19 153 87 12 154 154 87 153 154 87 87 151 153 88 150 150 88 88 150 149 88 149 149 0 88 149 0 0 153 148 0 0 153 221 0 153 153 225 0 153 91 0 158 153 92 0 153 77 94 165 152 95 108 144 83 97 143 143 85 131 143 2 88 155 144 4 177 185 239 8 204 239 239 229 224 239 28 151 99 239
149 216 213 154 146 205 202 152 155 195 212 148 116 185 212 106 180 108 212 73 103 212 238 75 97 212 77 147 89 236 81 157 78 233 144 160 231 231 144 104 166 143 142 104 166 141 104 104 41 140 104 169 211 104 104 58 211 104 104 71 203 104 80 83 197 135 90 193 191 134 96 188 133 133 184 183 132 169 180 131 131 103 176 131 102 102 130 129 102 102 79 101 101 72 70 100 100 63 166 98 57 55 165 96 51 164 163 48 47 163 126 126 163 162 125 125 162 125 124 76 163 124 124 70 124 124 67 65 123 63 62 40 123 59 58 39 164 56 37 36 166 54 35 167 168 33 32 169 169 31 171 171 121 28 173 121 122 187 175 122 123 51 65 124 51 51 52 127 52 21 129 153 53 21 153 54 87 22 153 55 23 154 192 87 26 194 195 88 151 198 145 88 150 202 148 150 149 0 150 148 0 150 153 148 0 152 68 89 0 153 71 81 0 153 90 88 153 153 91 145 153 92 92 144 153 94 143 143 95 96 143 237 0 143 142 1 194 143 143 3 152 144 4 5 152 8 9 152 152 17 20 152 104 104 151 151
237 156 155 211 238 153 153 162 139 152 127 120 120 151 107 112 110 104 103 104 103 103 100 99 237 104 93 236 235 167 84 234 233 145 212 231 145 145 212 228 144 104 225 93 142 104 96 141 180 104 98 140 104 170 50 186 104 59 62 187 175 71 199 186 179 81 193 182 86 211 188 187 211 184 103 192 210 180 133 168 210 103 131 102 209 103 158 102 103 103 155 140 103 153 153 107 103 152 93 91 151 151 87 49 209 86 86 209 163 86 86 208 103 87 208 208 102 208 208 102 102 207 207 102 150 151 102 102 150 150 101 151 151 87 100 150 87 87 123 151 87 87 151 52 87 201 151 87 86 197 91 87 194 193 85 87 189 80 78 26 183 70 153 178 178 58 153 171 47 130 153 183 33 153 153 87 135 154 87 87 138 57 87 153 142 58 88 151 60 60 34 150 62 88 42 204 1 49 149 209 0 59 212 0 152 68 218 153 153 222 223 155 153 226 156 156 79 229 158 158 82 96 161 85 85 103 87 88 109 142 91 92 122 237 94 137 144 239 97 164 239 239 187 194 240 240 224 240 240 228 230 240 231 232 106 240
157 223 214 155 154 183 149 213 143 132 126 212 113 115 113 238 104 107 238 238 103 101 238 237 97 236 236 148 89 234 234 147 104 232 146 146 104 145 145 104 104 144 144 104 37 143 104 104 36 142 104 39 42 104 104 48 51 205 57 60 200 199 67 196 195 137 76 190 189 136 186 185 135 135 182 180 134 103 177 133 133 103 77 132 102 102 70 131 102 64 62 154 101 57 55 100 98 51 165 98 48 47 163 129 45 163 162 128 208 161 128 127 208 161 127 80 161 103 127 74 161 127 150 69 102 126 65 87 45 150 61 45 44 151 87 43 163 151 87 41 165 87 87 202 166 87 37 200 94 87 197 169 90 152 192 85 125 153 187 77 153 51 69 66 153 52 57 153 153 87 42 153 87 87 161 153 87 23 157 87 87 155 191 88 88 152 5 88 151 151 2 88 150 1 1 149 149 0 153 153 0 0 153 153 0 153 153 89 0 153 153 89 155 153 90 90 153 84 91 144 153 92 92 142 0 93 142 141 0 95 141 0 0 130 141 2 2 154 239 3 152 142 240 216 152 103 10 225 152 104 229 152 110 104 232 152
216 237 68 146 213 69 154 147 212 69 149 115 71 71 151 182 72 152 152 175 103 153 172 171 212 154 168 168 212 167 166 212 213 166 166 213 89 166 212 212 92 42 212 95 96 179 212 97 183 185 99 99 187 188 100 189 190 174 101 190 177 177 139 189 181 182 187 104 185 211 211 188 190 210 103 192 210 210 103 192 210 103 103 66 209 103 158 60 168 103 155 154 166 131 153 98 103 130 151 88 130 151 95 86 129 92 86 44 129 88 87 208 84 82 46 208 103 76 47 160 103 48 48 161 102 47 161 102 127 48 161 127 151 162 162 127 151 163 126 126 53 87 126 127 52 40 126 51 51 37 51 51 34 34 51 51 32 172 51 29 28 175 52 26 177 178 130 24 179 180 132 182 182 135 135 185 137 138 57 188 140 141 59 142 143 61 61 30 146 63 34 36 65 66 42 204 68 49 51 209 72 58 213 215 65 67 219 220 73 222 223 155 155 226 228 156 88 230 158 159 92 0 161 94 96 165 166 99 111 172 101 102 128 182 104 145 152 239 107 174 240 240 102 203 240 240 103 145 241 228 232 146 240 232 147 240
157 217 208 156 155 172 158 153 134 125 123 153 110 114 112 151 104 107 105 103 174 101 237 236 97 95 235 149 88 233 233 148 213 231 148 147 213 228 146 104 212 94 145 104 220 97 182 104 31 144 187 104 35 190 104 173 42 191 175 49 211 192 179 57 192 182 184 211 186 138 188 211 103 136 210 210 103 172 210 103 135 166 209 103 161 102 103 103 157 101 103 154 154 103 45 152 152 89 209 151 87 86 208 86 86 208 208 86 87 208 103 87 208 208 103 87 208 103 103 150 207 103 151 151 102 102 150 150 102 151 151 87 102 151 151 87 128 151 87 87 204 151 87 202 202 52 87 200 95 87 38 197 92 87 194 170 86 32 188 81 79 29 174 71 153 153 177 132 153 87 180 134 153 87 136 154 57 87 139 154 88 25 142 61 87 152 63 64 31 150 3 67 38 202 1 44 46 206 0 53 210 212 152 63 216 0 153 220 221 154 153 87 156 156 90 89 157 157 95 92 159 98 99 99 163 102 106 109 105 106 120 238 108 136 142 239 2 164 240 240 206 194 240 240 218 240 240 225 227 241 241 230 120 241 232 232
216 69 69 147 214 69 69 147 237 70 149 149 188 72 151 182 180 152 152 175 212 153 104 171 212 154 169 212 212 104 167 212 213 104 68 213 90 91 50 225 94 176 212 220 97 183 217 98 145 188 211 100 191 104 205 142 193 175 200 141 104 178 211 140 104 54 211 103 103 57 210 103 58 58 178 103 57 209 174 55 54 171 104 135 169 168 134 158 167 166 133 101 165 133 132 99 163 132 97 97 131 131 94 86 131 91 90 46 208 86 47 48 159 80 50 50 159 51 51 159 159 52 52 159 130 52 160 160 130 160 161 130 130 56 161 129 54 54 129 129 53 52 129 52 52 44 129 51 51 41 51 51 39 38 169 35 34 171 171 32 31 173 131 29 175 176 132 27 178 134 135 166 181 137 58 184 28 139 59 60 142 61 62 27 144 64 65 30 154 68 34 36 153 88 42 204 74 88 50 209 88 58 147 215 153 66 219 0 155 145 224 156 156 144 0 157 98 142 0 153 103 0 0 153 107 104 153 153 94 118 153 114 96 138 153 99 161 139 100 101 140 240 102 102 142 9 103 143 144 18 229 145 28 32 152 147
236 178 170 237 237 155 140 237 154 154 237 237 153 153 237 153 152 104 237 152 152 104 151 151 104 104 93 104 104 86 83 104 104 71 229 104 58 54 225 104 41 222 221 167 31 217 146 27 213 212 145 144 207 144 143 104 201 142 142 104 102 141 104 104 103 140 103 49 139 188 103 51 184 103 191 50 175 103 49 209 171 178 45 169 168 151 209 167 134 117 209 104 134 209 209 103 133 98 103 103 151 95 103 132 150 86 103 150 87 49 103 150 87 52 150 150 88 207 150 88 88 207 159 88 206 206 103 88 206 160 102 206 206 102 131 205 101 101 151 205 100 100 152 99 99 152 152 87 97 153 87 87 153 153 87 87 153 87 87 188 153 87 183 181 54 87 176 173 59 27 169 48 44 164 162 33 154 159 23 20 154 188 13 154 154 192 7 154 88 197 148 153 88 88 150 77 88 148 153 81 55 147 86 88 146 146 91 70 145 0 96 77 144 0 82 84 230 0 153 140 233 160 153 235 0 164 115 237 169 153 119 238 179 121 98 188 191 124 100 139 126 127 208 140 128 222 225 241 129 234 235 241 238 239 241 242
184 175 236 156 152 237 70 155 237 237 154 150 237 237 153 104 236 153 153 103 236 152 104 104 152 151 104 104 89 104 104 79 75 104 67 62 226 104 48 44 222 37 34 219 217 28 26 213 146 25 209 208 145 104 203 144 143 104 197 142 104 104 142 142 104 103 140 103 103 44 139 103 103 44 176 103 43 42 172 181 41 169 169 38 38 167 135 36 165 165 134 36 163 134 134 209 162 134 96 96 104 133 93 92 133 150 89 49 132 84 83 52 150 78 54 54 150 72 56 158 151 88 57 158 132 88 206 159 132 56 206 102 132 205 160 102 132 205 101 132 152 203 100 152 51 48 98 152 51 45 153 153 87 42 153 153 87 191 153 87 34 185 154 87 180 175 87 87 172 57 137 167 166 42 140 161 31 28 154 156 19 16 154 12 10 154 154 6 154 154 88 3 153 153 88 148 153 88 88 147 153 88 147 146 88 88 145 145 88 144 144 0 89 143 0 0 153 140 0 0 153 234 0 153 153 236 0 153 94 1 173 153 96 181 153 129 99 195 153 101 138 139 133 102 140 141 134 231 143 18 136 237 145 33 240 147
235 201 220 214 236 210 137 213 237 197 212 237 154 186 212 74 154 103 212 76 153 104 78 79 155 104 82 152 158 167 86 162 104 166 90 169 166 52 175 177 166 212 219 167 168 212 213 169 212 212 101 171 212 212 102 212 211 102 103 211 103 103 198 211 103 103 195 187 103 190 189 189 103 184 189 188 177 175 180 177 169 165 158 209 162 134 209 208 104 104 208 209 104 36 209 104 104 40 208 104 151 208 159 104 150 159 104 150 150 158 104 150 88 88 133 150 88 88 133 69 88 207 150 63 88 207 60 88 59 206 56 58 206 159 54 57 205 102 133 55 161 101 152 52 162 134 153 164 164 134 51 165 134 134 52 167 134 53 53 37 135 54 87 33 56 56 31 175 58 58 28 178 61 27 26 182 26 26 184 185 26 26 188 146 146 191 192 148 154 196 150 150 81 201 151 85 87 152 152 91 93 153 96 97 63 154 102 104 71 222 108 76 78 227 114 83 230 231 88 90 233 160 97 235 236 164 111 237 169 171 131 238 178 181 134 187 191 137 137 201 138 139 214 214 139 140 229 152 141 235 236 152 142 239 241 241
180 235 236 157 149 236 156 156 236 236 155 155 236 154 154 104 236 154 153 104 103 153 104 104 98 153 104 92 89 104 104 79 228 104 66 62 225 104 47 221 220 166 32 217 215 148 212 211 147 147 212 101 146 104 200 145 145 104 103 144 104 104 103 143 103 32 32 195 103 33 33 188 188 33 174 103 182 209 170 170 31 209 167 142 209 165 104 111 208 163 136 155 208 104 135 98 104 104 151 95 104 104 151 86 104 150 150 87 104 150 87 88 150 150 88 59 207 88 88 206 157 88 206 206 103 88 206 206 103 205 205 103 102 205 205 102 151 152 102 101 152 87 101 152 152 87 99 153 87 87 153 153 87 88 153 88 88 191 154 88 88 185 82 88 180 179 71 31 173 61 58 28 166 46 154 162 182 31 154 157 21 145 154 189 12 154 77 88 149 153 88 88 151 87 88 148 152 93 88 147 98 100 58 145 105 88 67 220 0 73 143 225 156 79 228 0 153 86 232 159 153 234 235 161 153 236 166 167 136 238 173 138 139 157 184 141 98 187 143 143 207 137 145 145 224 241 146 232 234 242 147 237 242 242 239 239
216 223 220 214 214 211 207 213 71 72 212 212 73 151 212 74 75 153 213 77 153 154 79 80 156 156 83 158 159 166 87 164 166 165 213 172 166 166 213 104 166 213 213 104 168 212 100 169 21 212 101 172 212 201 102 22 211 103 145 202 190 103 201 201 184 143 198 186 179 141 192 187 140 140 103 182 139 177 102 28 209 102 142 209 165 101 29 208 104 100 33 162 104 37 38 160 104 43 159 160 134 49 159 134 134 87 158 134 150 81 134 134 77 88 134 134 70 61 134 66 65 62 135 62 63 63 58 58 62 158 158 62 62 159 159 61 159 159 136 59 160 160 136 161 162 136 136 162 137 137 52 52 137 137 53 45 137 54 55 40 138 56 37 36 57 59 33 32 60 30 30 177 64 28 179 180 144 27 183 184 146 186 187 148 148 190 191 149 84 195 151 151 90 3 152 95 97 1 154 102 53 56 153 110 63 65 114 88 71 223 120 76 77 227 88 82 230 231 89 136 234 160 161 134 236 164 140 132 1 170 143 239 177 153 146 3 190 148 100 5 152 150 219 8 152 103 231 242 152 104 236 242 104 104 146 242
197 186 158 158 146 140 156 119 114 122 156 106 115 113 104 104 108 235 104 105 104 234 233 100 232 232 153 93 230 230 153 228 227 152 152 224 223 151 104 219 151 150 104 99 149 104 104 20 149 104 19 19 202 104 19 20 104 177 21 190 104 23 211 184 184 24 180 179 186 209 176 141 141 209 172 140 102 209 104 139 102 167 104 164 101 104 137 159 95 104 156 99 36 38 153 85 43 159 152 86 50 158 86 87 207 157 87 206 206 104 88 206 157 104 206 206 104 135 150 206 104 151 62 104 103 151 58 103 151 151 88 103 151 88 88 152 152 88 88 152 88 88 203 202 88 88 201 100 87 199 198 98 50 196 95 95 193 191 91 154 187 87 85 154 154 78 154 154 87 65 154 154 88 143 154 88 88 145 73 88 155 154 79 88 152 83 88 150 150 6 88 149 3 3 40 147 1 153 48 208 0 153 145 214 155 153 219 0 155 153 224 156 153 131 88 157 135 89 89 159 140 89 133 143 144 112 131 147 147 136 239 149 159 166 240 3 189 241 241 201 213 242 211 214 242 242 221 151 242 226 228 157 242 230 230 157
217 148 167 153 214 131 208 130 235 109 119 212 235 104 111 235 75 108 106 234 78 103 233 232 154 157 231 230 154 104 228 153 153 104 152 152 104 104 151 151 104 32 151 104 104 22 212 104 19 18 203 104 17 198 197 18 18 192 191 19 187 186 145 21 182 181 144 178 177 142 142 103 173 141 103 103 140 140 102 23 139 102 101 25 138 101 29 30 100 100 35 36 98 40 42 159 160 47 159 159 136 53 158 158 135 206 157 135 135 157 157 135 75 156 135 135 69 67 136 64 63 66 136 60 66 66 151 56 66 66 152 88 65 158 52 64 64 158 88 63 160 160 139 202 161 139 139 200 162 140 53 197 98 140 54 165 94 154 56 91 141 154 59 84 154 61 88 35 154 88 32 168 154 88 29 179 88 88 158 182 88 88 153 16 88 151 151 8 150 150 5 4 153 148 2 153 153 1 1 153 116 0 153 153 87 0 153 153 87 153 153 88 88 138 88 88 136 135 89 89 133 0 90 131 131 1 91 129 2 2 129 128 3 153 129 4 5 153 153 6 152 152 101 10 152 151 103 223 151 103 104 228 150 104 145 150
188 175 158 148 138 140 157 116 111 122 151 105 115 113 235 181 109 234 234 173 104 233 155 169 213 231 155 93 214 87 154 214 225 92 152 213 94 152 184 104 98 192 104 167 100 199 104 18 203 204 171 16 206 206 174 211 207 177 178 211 103 180 210 210 103 182 210 104 143 209 209 104 142 209 104 104 181 208 104 104 171 104 104 165 163 99 160 159 90 88 156 155 86 207 153 86 86 207 152 86 206 206 87 87 206 104 88 206 206 104 104 206 104 104 151 206 104 104 151 156 104 151 151 156 104 151 88 104 137 152 88 204 151 52 88 204 152 88 65 203 52 88 202 202 52 61 200 100 52 57 162 98 54 53 164 96 154 166 93 142 154 168 87 154 62 170 143 154 88 173 145 69 88 146 146 75 29 147 80 81 28 154 87 28 29 188 94 30 149 193 33 35 197 3 39 201 203 154 48 208 209 155 212 214 156 155 133 220 156 137 139 157 157 143 144 157 147 148 90 159 151 100 104 153 155 118 125 238 138 145 239 239 169 176 240 186 197 241 241 200 241 242 210 213 242 242 221 166 242 226 227 166 167 230 167 167
176 170 157 153 146 125 135 130 235 108 120 117 234 113 112 234 234 156 107 233 156 155 232 231 155 155 230 155 154 104 227 154 104 104 153 153 104 104 45 104 104 31 28 104 104 21 207 104 17 16 200 171 15 196 194 15 15 190 147 16 186 184 146 145 181 145 144 103 176 143 143 103 104 142 102 102 104 179 102 21 140 169 101 25 163 101 92 32 161 99 39 207 160 85 46 159 104 86 206 158 136 87 206 104 136 206 206 104 136 77 104 136 151 71 104 137 66 88 104 151 62 69 151 151 88 69 151 151 88 204 151 88 88 203 157 88 203 202 102 88 202 102 102 201 200 101 142 200 100 100 153 197 98 98 154 96 96 154 154 88 91 154 88 88 154 154 88 175 154 88 88 168 154 88 163 161 80 88 157 156 27 28 153 18 15 151 189 9 154 149 5 4 153 198 2 153 153 204 1 153 87 210 155 153 87 87 153 141 87 139 153 87 78 136 150 88 133 133 154 94 130 1 157 111 127 1 129 135 238 3 153 239 239 180 153 240 6 193 168 241 203 152 169 242 216 170 103 223 225 171 104 142 171 171 235 145
149 216 71 71 148 212 72 150 150 198 151 152 189 185 153 153 178 213 154 173 171 213 156 167 214 213 104 165 214 88 89 80 214 92 94 214 220 96 188 213 98 99 197 210 100 203 204 204 102 207 170 171 149 210 173 211 148 104 177 210 210 178 14 209 103 179 209 209 103 15 209 104 103 16 169 104 182 18 166 104 172 164 164 140 163 162 104 139 99 160 138 155 97 159 138 95 86 137 137 91 59 206 87 86 63 205 81 65 66 156 74 67 67 156 68 69 156 156 70 156 155 138 138 156 156 138 55 156 139 139 53 156 140 52 52 140 140 51 52 141 52 51 67 142 52 64 64 160 53 60 59 162 57 56 163 164 52 51 165 144 47 167 167 145 168 169 146 147 171 172 147 75 77 147 148 82 84 149 88 90 28 150 96 98 29 154 105 30 31 112 88 35 196 197 39 41 202 155 47 207 208 155 57 213 155 156 140 219 156 148 137 0 156 153 228 158 154 157 93 159 160 161 109 153 163 126 133 153 166 155 239 153 94 185 240 96 97 126 241 100 220 130 12 213 134 242 18 223 138 26 227 149 142 43 147 176
71 149 147 153 71 149 114 131 234 151 195 118 234 104 113 213 233 175 108 232 232 169 214 230 156 165 214 86 155 104 214 91 155 104 94 95 185 104 97 153 196 164 100 201 104 166 206 207 168 15 210 211 171 211 192 173 174 210 186 176 209 209 104 177 209 209 104 209 208 104 104 208 104 104 188 207 104 104 178 114 104 169 167 94 104 162 87 86 158 157 85 206 154 85 86 205 152 86 205 205 104 87 205 205 104 66 204 104 104 204 204 104 151 204 104 104 151 155 104 151 151 155 104 151 88 88 139 152 88 88 140 53 88 203 152 52 71 202 52 88 69 201 52 68 200 159 53 64 198 100 145 60 162 98 154 55 164 146 154 165 166 146 66 167 147 147 70 170 147 76 88 34 148 83 88 161 88 91 29 155 97 29 29 184 106 29 30 189 32 33 192 194 36 37 198 155 155 203 204 155 153 209 155 156 146 216 156 150 152 156 156 155 156 157 158 159 89 158 162 163 103 234 166 118 124 237 138 145 238 239 168 175 240 179 195 241 241 192 215 241 203 206 177 242 215 178 178 222 224 178 179 228 179 179 234 230
149 149 233 159 148 212 72 158 108 198 157 152 104 185 157 104 177 109 157 104 170 214 230 104 100 214 85 104 92 226 90 81 76 222 155 60 218 97 154 39 212 153 202 104 207 152 208 167 151 151 104 169 150 104 104 11 149 103 103 11 103 103 11 12 103 103 12 175 173 13 13 170 104 15 168 168 142 19 166 142 142 163 163 141 141 161 140 140 99 160 139 139 96 52 138 94 93 59 90 89 63 64 85 83 66 156 79 68 69 156 72 70 156 155 138 71 155 155 138 155 155 139 139 155 139 140 54 156 140 140 53 104 141 52 52 142 142 52 72 71 52 52 70 158 53 68 66 160 55 64 161 161 88 59 162 163 88 190 164 147 50 185 166 148 70 168 82 148 77 74 149 154 85 59 150 91 31 43 154 100 29 27 154 88 30 186 154 88 148 190 87 34 146 196 87 145 201 1 87 143 207 156 142 141 0 156 139 0 0 154 158 0 0 154 87 0 154 154 87 1 154 88 88 154 154 89 143 153 91 91 120 152 94 121 121 7 97 123 124 11 126 128 14 16 132 133 22 148 137 30 34 147 242 48 145 144
233 233 160 217 234 159 158 234 234 158 105 105 158 158 104 112 157 104 104 107 157 104 104 103 160 104 97 95 167 161 85 223 104 161 66 218 155 49 213 213 154 213 209 153 153 212 203 152 104 211 102 151 104 191 103 215 103 10 149 214 172 11 213 103 169 11 208 163 12 207 201 148 14 169 130 124 206 165 105 101 206 104 141 206 206 104 160 205 104 104 156 205 104 153 153 104 104 152 90 104 151 151 88 104 151 88 88 204 151 89 88 203 88 88 203 203 89 89 202 104 89 202 202 104 89 202 104 104 152 202 104 152 152 157 103 153 153 103 153 153 89 103 153 153 88 145 153 88 88 146 57 88 194 193 60 88 191 97 88 53 186 92 88 181 167 86 42 174 78 75 37 171 65 154 33 175 151 154 88 178 152 154 88 153 153 120 87 154 154 129 33 155 135 87 39 141 143 45 143 205 150 54 210 0 62 64 216 0 72 221 222 157 81 226 157 158 229 231 159 154 233 160 161 172 89 164 165 175 163 170 177 177 190 179 179 206 210 181 182 220 242 183 227 228 242 184 231 242 242 225 232 242 242 229 242 242
161 145 233 159 159 114 159 158 106 105 123 158 104 116 114 104 104 110 214 104 107 106 230 104 102 100 227 96 92 224 224 81 221 220 155 155 216 215 155 104 211 154 154 104 205 153 104 104 152 152 104 11 151 104 104 10 150 103 10 10 181 103 10 10 176 10 11 173 172 12 13 170 144 15 167 167 143 206 164 142 142 206 162 141 100 99 140 140 98 98 139 96 95 57 139 92 61 63 152 88 66 67 151 88 69 156 156 88 71 155 138 72 202 155 138 74 155 104 139 202 155 140 151 202 104 141 54 201 104 152 52 76 104 152 52 76 153 153 89 74 153 89 89 199 153 89 70 197 89 89 195 161 89 88 192 98 149 189 188 95 149 183 92 90 155 177 84 154 154 76 73 154 93 62 154 154 88 32 154 154 88 152 154 87 87 149 87 87 147 147 87 87 145 4 87 144 143 1 86 142 1 1 154 140 0 0 154 217 0 154 154 0 157 154 86 0 154 154 86 159 154 87 88 162 153 89 117 117 178 91 116 6 181 199 118 9 97 215 242 14 223 125 242 20 229 242 27 146 145 242 40 143 104 242 229 140
219 232 71 218 217 72 159 215 215 74 152 214 75 75 153 214 77 155 155 79 80 158 104 163 162 163 161 96 170 160 159 214 181 159 159 213 104 159 213 213 160 161 212 101 161 212 211 102 102 210 103 103 217 209 103 217 218 184 104 217 216 104 148 214 159 104 210 209 146 145 202 131 125 206 102 108 206 205 101 91 205 104 100 37 204 104 85 47 159 104 54 204 158 104 61 157 104 139 152 156 139 151 82 155 138 151 88 138 138 70 89 138 139 64 74 139 61 89 76 155 57 77 201 155 54 77 155 104 77 78 156 104 77 156 156 144 77 157 157 145 157 157 146 147 55 147 147 57 58 148 148 60 65 149 64 65 60 150 69 55 54 74 76 49 166 82 45 43 168 169 39 170 171 152 35 173 174 153 176 177 153 154 180 181 154 131 184 155 155 140 33 156 146 147 39 156 153 45 47 157 158 54 57 161 63 66 215 166 74 220 221 86 86 225 227 158 126 230 159 159 233 233 161 177 236 163 164 180 238 169 182 183 8 179 184 210 12 149 186 222 224 147 101 228 242 190 102 231 243 103 231 140 242 104 143 242
162 137 232 160 160 111 233 159 106 105 74 159 104 104 158 154 104 111 158 104 167 106 159 104 102 101 226 160 94 223 222 158 78 219 156 157 213 214 155 38 213 100 155 212 203 102 215 211 103 153 218 104 103 218 103 9 104 218 103 9 217 217 157 9 214 149 146 206 208 133 13 205 104 111 205 166 104 94 204 104 143 204 204 104 142 204 104 104 158 203 104 155 154 104 104 153 152 87 152 152 88 88 151 151 89 202 151 88 89 202 67 89 201 201 89 89 201 104 89 201 201 104 104 200 104 104 152 200 104 104 152 156 104 153 153 156 145 153 89 103 146 153 89 197 154 56 89 195 154 89 194 193 63 89 190 99 69 60 187 96 89 54 164 91 49 176 167 84 154 169 75 153 154 171 61 154 113 175 154 154 87 155 154 132 87 155 155 141 32 156 146 148 36 145 154 41 42 200 159 50 204 206 57 60 211 0 70 216 218 157 81 222 224 157 226 227 158 159 176 232 160 178 179 161 162 181 164 166 183 183 190 174 185 204 209 187 188 218 220 242 224 225 242 242 228 242 243 222 230 243 243 227 242 242 229 229
220 220 72 161 217 73 73 137 233 74 152 215 232 75 154 176 77 155 156 167 80 159 162 161 158 165 159 214 158 104 156 214 185 104 67 213 104 156 43 213 100 29 212 203 101 17 210 102 154 12 193 103 219 188 187 151 219 182 181 150 103 178 149 149 103 142 148 102 102 12 146 102 16 18 102 101 23 204 101 31 34 162 100 42 45 160 142 52 158 159 141 61 158 140 140 157 156 139 86 156 139 139 80 155 139 75 73 139 139 68 67 76 64 62 77 77 59 78 78 155 56 79 79 155 80 80 155 155 80 80 155 144 80 156 156 145 145 156 146 146 54 157 148 56 56 148 149 59 60 150 63 63 67 151 68 69 63 162 75 58 57 164 89 52 165 166 47 45 168 154 41 169 170 154 36 172 154 155 154 176 155 155 134 24 156 142 143 13 154 149 33 156 154 156 39 154 160 86 47 154 165 55 139 154 85 68 214 0 85 132 220 157 85 127 1 158 123 122 2 159 119 2 3 152 114 5 165 151 7 8 150 186 202 149 148 95 216 146 146 98 120 144 100 101 127 142 102 132 134 103 103 138 61 66 142 143
162 149 219 72 160 109 73 73 151 105 74 75 153 181 76 154 155 170 111 157 164 163 215 163 159 215 214 157 156 214 221 155 214 214 96 155 213 213 99 213 212 100 101 215 101 102 218 218 103 103 220 156 103 220 221 155 104 221 152 151 219 219 144 141 205 134 130 205 205 116 205 204 104 99 204 204 104 28 203 104 104 40 203 104 164 202 159 104 157 85 104 141 154 87 104 153 88 88 139 152 88 88 139 77 89 200 139 70 89 200 66 64 77 200 104 78 79 154 104 80 199 154 141 81 155 104 152 81 155 143 153 155 155 145 52 89 146 147 54 89 148 55 56 77 148 59 89 74 62 63 72 191 67 69 67 161 74 63 61 163 153 56 164 165 153 50 166 154 154 168 169 154 155 170 155 155 124 174 155 132 135 156 156 142 144 30 148 149 32 32 154 156 36 192 160 41 43 198 165 50 203 205 59 62 210 157 157 215 216 157 157 221 158 158 177 227 158 159 180 159 160 182 182 161 184 184 174 166 186 186 196 239 189 209 212 241 191 219 242 242 99 225 242 212 228 128 243 222 229 243 56 227 140 243 229 229
188 221 120 165 158 232 73 141 136 232 160 125 232 231 160 117 231 159 159 229 229 159 104 227 159 159 104 224 159 104 104 84 158 104 104 61 104 104 43 38 104 104 25 202 104 17 15 195 12 11 191 190 9 9 186 152 151 182 180 150 150 177 149 149 103 173 148 102 102 147 147 102 102 146 101 101 28 31 101 100 39 161 99 48 51 159 98 58 158 158 86 64 157 140 68 200 156 140 71 156 104 139 77 155 139 140 70 104 140 66 65 104 151 61 79 104 151 56 81 152 152 89 81 152 52 89 197 155 89 82 197 155 89 196 156 146 89 196 104 148 195 195 103 149 194 103 102 154 63 102 151 155 89 100 154 75 89 154 154 89 59 155 155 88 175 155 88 88 168 154 88 163 162 68 88 157 156 51 153 152 37 33 150 25 22 154 147 14 12 154 187 7 154 154 4 3 154 85 85 154 154 85 137 154 85 85 134 154 84 131 130 177 84 125 124 179 119 120 2 3 143 115 4 151 111 236 7 149 238 10 148 147 240 16 146 94 241 192 143 98 29 206 197 101 125 138 200 228 133 201 103 229 139 203 228 142
149 124 175 168 150 211 148 232 152 195 217 232 184 180 216 231 171 215 216 80 160 216 227 84 166 215 87 159 177 91 92 188 104 95 96 201 150 98 209 211 150 101 216 150 150 210 220 149 149 209 148 148 207 207 146 206 206 104 140 206 205 104 9 205 104 104 204 203 104 208 206 104 104 197 88 104 187 183 83 104 174 83 83 143 164 84 85 142 95 86 201 200 87 87 200 104 88 200 199 104 74 199 104 104 76 199 104 152 78 155 104 151 198 154 141 151 89 104 141 54 89 142 152 53 89 143 52 89 83 145 51 89 195 53 53 83 195 54 55 81 157 103 80 80 158 151 77 158 159 152 74 159 152 152 160 161 154 154 162 154 154 92 89 155 101 104 50 155 112 115 43 121 124 39 38 132 135 34 173 142 32 32 177 150 31 180 181 157 33 185 157 157 189 191 158 157 195 158 157 170 201 157 157 173 158 158 176 176 157 177 178 99 104 180 180 119 227 182 136 143 232 185 161 235 235 179 183 237 238 198 239 239 176 179 240 186 189 195 242 200 203 199 38 212 200 201 220 222 203 228 226 204 205 228 127 206
193 231 231 170 163 231 231 145 231 231 160 129 231 231 160 216 230 160 160 229 81 160 104 104 159 160 104 99 159 104 104 85 159 104 68 62 206 104 44 38 215 147 25 200 104 17 209 194 155 11 190 188 154 206 184 152 152 205 179 151 103 204 104 150 102 104 104 214 102 16 147 204 89 24 194 101 83 36 180 83 45 201 168 84 55 159 85 85 200 158 87 199 199 104 141 199 199 104 152 199 104 104 152 198 104 152 68 104 104 151 89 104 152 152 89 104 152 89 89 196 152 89 89 196 89 89 196 196 89 89 195 104 89 194 194 104 84 194 104 104 154 192 103 154 154 103 103 155 155 102 155 154 89 101 154 89 89 154 155 89 89 155 99 89 173 171 111 88 167 82 88 42 160 69 88 156 172 53 34 151 39 157 32 178 23 154 32 182 157 154 86 187 158 154 85 157 157 171 85 157 173 84 64 158 176 84 132 177 178 94 128 2 180 114 224 2 131 137 229 4 155 233 234 162 177 235 165 166 238 238 172 144 240 180 183 196 95 193 196 199 224 207 201 202 227 203 204 228 228 206 206 227 243 207 227 227
149 150 218 221 150 210 206 219 104 195 217 217 76 179 217 77 78 216 216 80 81 215 83 84 169 215 88 178 181 220 92 192 195 215 159 205 146 145 158 215 144 210 219 104 143 209 222 141 12 208 103 138 206 185 103 8 205 104 103 9 177 104 222 10 172 104 216 170 104 148 207 167 147 198 101 164 146 183 82 145 145 99 83 200 144 97 62 199 95 94 68 198 90 71 72 156 84 74 156 155 75 75 155 104 77 155 155 140 151 154 154 141 59 154 141 142 55 142 142 53 53 143 143 52 86 144 52 51 86 146 52 86 86 156 54 85 85 156 84 83 157 157 82 157 157 152 80 158 158 153 159 159 154 154 83 161 155 91 93 155 155 102 58 156 111 114 52 156 122 46 45 131 134 40 38 142 36 35 173 174 33 33 176 158 32 179 180 158 145 184 158 158 142 189 157 171 193 2 158 174 200 157 154 176 74 158 178 88 93 153 180 109 114 152 84 131 226 151 84 154 231 85 172 109 235 164 191 237 15 170 105 239 177 140 107 29 190 199 112 39 136 202 47 50 132 205 61 130 130 103 227 126 104 104 140 121
222 190 149 216 213 220 151 203 145 231 191 187 217 230 161 217 217 79 161 216 216 82 166 216 85 86 176 215 90 186 190 94 95 201 104 143 210 212 142 39 218 141 140 210 222 138 138 208 136 135 206 206 132 130 205 104 124 204 204 104 224 202 104 104 221 201 104 215 213 168 104 204 201 104 147 191 82 104 180 177 83 145 168 84 85 198 96 86 198 198 92 87 198 104 87 73 198 104 89 75 155 104 77 197 104 141 79 154 104 152 152 154 141 152 89 155 142 152 90 143 143 52 90 144 152 52 87 145 52 90 87 155 53 86 192 156 56 85 156 104 84 84 157 103 82 157 158 153 78 159 154 154 159 160 155 155 91 155 155 100 103 156 156 113 56 156 122 125 49 157 133 44 42 141 143 38 171 150 35 34 174 175 33 177 178 158 34 181 182 158 184 185 158 158 190 158 158 173 196 158 158 176 68 158 178 179 88 158 180 103 109 182 182 126 131 184 143 149 228 186 166 232 233 85 186 235 236 166 104 238 172 174 239 240 183 198 241 193 197 202 47 207 204 205 59 218 207 227 74 126 210 227 227 122 104 226
164 150 112 179 162 106 206 152 161 104 138 218 104 104 125 217 104 118 117 227 104 112 225 224 107 105 222 221 160 219 218 160 160 214 212 159 104 207 158 158 104 201 158 104 104 157 157 103 12 11 103 103 9 9 103 8 9 179 103 9 10 175 11 12 172 171 15 169 169 149 24 166 166 148 101 163 146 146 100 161 145 98 98 145 145 96 95 143 94 92 70 143 89 72 73 153 82 75 76 155 89 78 155 155 79 80 155 141 82 154 154 142 195 154 142 142 194 154 143 52 154 104 144 52 52 145 153 52 88 147 53 53 87 153 55 87 86 154 90 86 156 154 90 83 157 153 90 186 158 154 77 184 102 155 182 160 100 155 178 98 157 155 172 94 155 124 90 88 155 135 46 155 155 87 40 155 154 87 151 154 87 86 147 86 86 145 179 85 85 143 9 85 142 142 4 158 140 2 2 154 137 1 154 154 1 1 153 153 2 153 152 83 3 151 150 83 118 149 83 84 111 146 85 108 106 86 86 104 20 88 103 103 29 91 105 37 40 221 110 49 52 130 242 62 128 128 243 222 125 103 91 226 121 104 228 118
220 224 150 215 212 222 221 202 220 219 75 185 218 76 77 124 217 79 79 216 227 82 168 215 85 86 179 144 90 190 194 141 95 204 138 138 160 215 136 210 158 104 132 208 224 104 15 206 103 124 11 204 103 9 203 181 104 9 177 104 153 11 173 104 222 171 170 150 214 168 167 149 101 165 148 148 100 82 147 99 83 58 145 97 64 196 95 94 69 196 91 72 73 156 85 75 76 155 142 77 155 155 142 155 155 142 142 154 154 142 59 154 142 142 55 154 143 53 53 144 144 51 51 89 52 52 89 89 53 89 89 155 54 88 88 156 87 87 156 156 86 85 157 152 83 157 158 154 78 158 155 155 88 160 155 97 101 156 157 110 113 157 120 123 58 157 131 134 51 166 142 45 44 168 87 40 170 171 36 35 173 158 34 176 177 158 35 180 158 158 142 184 158 173 174 3 158 176 176 2 154 178 76 158 153 180 97 153 182 83 121 151 184 138 120 149 83 160 228 160 84 110 232 162 85 105 19 167 103 238 27 175 103 36 184 133 106 48 130 204 58 61 128 208 225 126 125 102 226 122 121 103 137 118 104 104
165 113 110 185 162 105 105 159 104 104 143 139 104 104 128 229 104 121 119 227 161 114 225 224 161 107 221 161 161 218 217 161 160 213 160 160 104 206 159 159 104 30 159 104 104 17 225 103 13 12 103 103 10 183 103 9 10 178 103 10 175 174 91 14 171 151 151 198 168 150 150 198 104 149 101 163 104 147 99 104 146 170 97 104 145 95 68 104 157 91 72 157 154 88 75 155 80 89 194 155 89 80 194 155 89 193 154 104 90 193 104 143 152 192 104 143 53 104 104 152 52 104 104 153 90 104 153 153 90 104 153 90 90 154 154 90 187 187 90 90 186 156 90 185 185 103 90 183 183 102 182 181 102 101 179 101 100 155 175 98 98 155 88 95 155 155 88 89 155 88 87 158 155 87 87 155 158 86 149 155 86 147 146 29 85 145 144 16 38 143 9 8 44 141 4 154 139 192 3 154 196 1 158 153 203 2 152 182 83 158 151 83 83 158 185 83 117 159 188 83 111 189 190 193 106 192 202 204 237 196 212 102 239 181 218 241 50 194 222 242 205 126 242 243 216 211 243 222 223 214 243 227 216 216 227 227
226 225 72 72 223 73 73 152 152 74 75 154 181 76 157 158 165 79 162 156 153 162 170 147 216 179 104 141 214 194 137 89 212 96 133 211 211 99 46 209 101 101 26 196 102 226 16 190 103 227 186 103 156 228 104 104 228 103 95 153 226 89 87 152 102 83 197 151 101 27 197 101 101 39 196 100 49 52 162 104 60 195 159 146 67 159 104 145 158 157 144 155 156 156 143 81 156 143 143 74 155 143 68 66 83 143 62 60 85 58 57 87 191 54 88 89 154 52 90 90 154 91 91 154 154 146 91 155 148 148 155 155 149 57 155 150 151 62 156 152 67 69 153 154 75 78 154 82 85 80 79 94 97 76 160 106 72 71 161 68 66 162 163 61 59 164 158 54 165 166 158 47 168 158 158 159 170 158 164 165 42 159 168 168 159 155 171 38 159 173 174 44 154 175 51 55 190 177 65 194 196 83 85 200 158 102 130 208 158 127 213 4 158 121 221 158 159 115 9 160 189 190 16 138 192 201 24 134 196 211 132 131 90 217 129 203 94 106 126 97 224 113 124 100 120 243 91 102 128 105 226 134 136 127 227 140
72 165 109 72 163 151 104 74 162 104 189 144 156 104 132 218 159 160 122 227 166 149 216 224 143 141 215 220 137 214 213 94 161 212 97 97 218 210 100 160 224 101 102 226 104 102 103 227 111 103 228 228 103 104 228 97 94 199 228 89 198 198 83 82 197 170 80 196 196 104 79 196 195 104 45 195 104 104 194 161 104 170 167 104 104 161 87 104 157 156 88 104 154 88 88 144 153 89 89 153 71 89 192 192 89 85 191 104 90 191 191 104 89 190 104 104 90 190 104 152 91 154 104 153 154 154 147 153 90 104 149 56 90 150 154 61 90 151 66 90 88 153 74 90 181 81 83 83 180 92 80 79 159 101 76 74 161 157 70 162 98 158 64 163 158 155 165 165 158 152 166 159 159 159 86 159 163 164 39 159 167 168 38 170 170 38 40 173 173 43 181 174 49 52 186 58 61 190 191 158 79 196 158 158 201 203 158 158 209 158 158 184 216 158 186 187 159 159 189 190 160 191 191 198 200 193 194 208 237 197 213 215 239 201 218 241 241 221 222 242 206 224 242 243 216 218 243 222 224 217 243 226 227 219 139 227
150 227 230 164 151 230 73 163 153 230 162 155 180 229 163 159 164 163 162 104 150 163 104 104 111 215 104 136 102 217 104 90 212 211 104 67 207 99 47 41 200 160 27 196 194 159 227 190 158 158 103 184 157 157 103 156 155 102 102 154 154 102 15 153 102 102 23 101 101 31 35 165 101 45 164 163 54 56 161 161 63 160 159 147 70 158 146 146 157 157 145 144 156 144 144 79 77 144 144 71 82 144 66 65 85 143 60 87 88 56 56 89 154 53 91 91 154 154 92 154 154 146 92 154 154 148 186 155 149 149 155 104 150 60 155 151 151 66 104 153 71 74 87 154 82 85 84 155 93 81 80 155 89 77 160 116 89 170 161 89 68 166 163 88 162 164 159 159 157 166 159 158 152 73 159 164 61 57 155 168 43 159 155 85 26 155 173 84 44 155 84 49 141 154 83 62 188 82 82 137 194 82 135 134 2 82 130 129 4 127 126 6 6 144 120 9 141 140 14 15 136 83 21 133 132 84 33 129 86 87 127 126 89 90 124 92 93 105 107 97 97 112 89 100 119 121 104 225 128 117 123 225 136 139 112 140
72 150 150 214 73 152 152 202 153 154 189 184 156 175 171 219 161 159 155 217 104 147 216 216 85 138 215 89 90 213 212 94 95 211 96 97 221 209 100 225 226 198 102 227 228 192 159 228 101 99 158 229 93 199 229 88 86 197 102 82 196 195 102 78 195 104 101 28 194 104 79 41 165 104 195 192 163 104 179 160 104 148 167 159 147 161 92 158 146 156 88 145 145 81 89 190 144 74 82 190 68 66 85 154 62 87 88 154 57 89 154 154 91 91 154 104 92 154 154 146 153 154 154 147 53 154 148 149 55 149 150 58 60 151 151 64 91 153 70 72 89 154 79 87 86 157 91 84 158 158 81 80 159 160 76 160 161 158 71 162 162 158 163 163 159 159 152 165 159 157 159 159 159 163 45 159 166 167 42 159 170 40 41 172 173 43 44 174 47 48 181 182 56 184 185 159 70 189 190 159 136 194 158 158 133 201 158 183 207 158 158 185 215 158 187 188 180 159 189 191 194 132 192 202 204 128 85 210 236 198 87 216 239 90 218 103 241 196 107 242 88 209 114 243 217 119 123 114 224 219 132 134 113 222 150 156
218 213 229 229 194 230 230 163 168 230 229 163 104 229 163 163 104 163 163 104 104 163 163 104 113 163 104 104 103 163 104 91 87 104 104 68 206 204 48 42 200 198 28 195 193 160 17 189 187 158 199 184 158 157 197 179 156 102 176 104 155 102 18 154 102 101 27 152 101 36 40 207 100 49 52 191 82 60 161 98 85 191 159 86 72 191 158 147 190 157 104 146 190 156 145 153 189 104 144 69 189 104 153 62 104 104 153 90 90 153 152 90 92 153 90 90 186 153 90 94 185 90 90 185 154 90 184 183 104 90 182 181 104 154 180 104 104 155 178 104 155 155 104 103 155 92 103 155 155 89 102 156 89 89 158 156 89 89 166 89 88 162 161 88 88 158 91 87 154 153 83 51 150 73 70 46 147 57 155 155 172 39 155 155 26 159 155 83 15 154 154 83 159 154 82 82 159 179 82 137 158 180 82 134 4 183 132 130 6 81 155 212 9 171 120 219 159 187 225 21 160 199 231 162 126 233 235 168 123 86 174 176 202 90 186 121 207 221 200 211 97 223 214 215 224 121 219 220 224 243 134 225 225 243 156 224
229 150 215 213 227 73 206 225 224 74 189 222 75 76 220 219 78 163 218 80 81 173 216 84 184 188 132 88 200 204 125 211 214 120 118 222 223 113 206 227 108 106 203 103 100 201 201 103 92 198 103 103 12 196 104 104 195 177 104 229 193 104 104 226 171 104 221 219 167 152 211 80 165 151 194 82 190 150 98 85 190 169 95 72 190 92 87 75 157 86 77 189 104 80 81 156 104 83 84 154 104 153 155 154 145 153 154 104 145 55 154 145 153 52 146 146 52 90 147 147 52 94 183 53 54 94 182 56 94 94 155 61 94 155 155 93 92 156 156 91 156 156 155 88 157 158 156 102 158 157 157 116 159 158 127 130 158 158 140 71 159 147 149 65 159 155 60 59 160 162 53 52 167 49 48 169 170 46 171 171 160 45 173 174 160 176 176 160 159 179 180 159 177 177 159 159 179 180 159 180 181 107 158 182 125 131 146 184 149 155 185 81 170 215 188 183 186 223 160 196 227 229 162 107 233 165 166 103 236 172 201 101 71 183 206 241 86 119 211 97 207 214 216 224 118 219 224 224 116 103 224 243 113 104 224 244
218 217 229 165 165 227 229 164 164 229 75 163 104 229 163 161 104 78 163 104 104 81 178 104 115 86 194 104 105 216 210 120 88 210 115 113 207 203 108 44 198 101 100 201 192 161 92 198 103 160 197 196 103 158 103 104 104 230 102 104 229 229 75 104 226 101 77 219 217 78 44 207 203 81 189 163 83 84 189 104 85 189 188 104 87 188 104 104 188 188 104 104 188 104 104 154 187 104 104 153 90 104 153 153 90 145 153 90 90 152 153 90 185 153 90 90 184 153 90 183 183 53 90 181 104 104 95 180 104 104 95 155 104 154 177 104 104 155 156 104 155 155 157 103 155 90 90 157 155 89 168 158 124 89 165 156 138 74 161 146 88 68 157 155 64 154 164 161 58 166 83 160 52 168 70 155 169 170 160 155 172 173 160 174 175 160 160 175 178 159 176 176 159 159 178 82 86 179 180 102 136 181 119 125 197 183 143 149 204 160 165 210 212 178 216 218 159 192 224 225 160 193 230 162 163 196 234 168 200 200 174 177 204 205 186 208 209 221 201 213 223 223 242 218 223 224 243 224 224 243 243 224 224 244 226 224
230 230 215 208 228 73 205 226 225 74 166 223 75 76 146 220 77 165 168 225 80 176 139 222 164 192 129 88 164 104 120 164 217 104 112 163 104 106 50 162 104 34 201 193 103 21 199 103 16 15 184 103 14 14 179 158 14 176 175 157 19 173 155 227 170 169 154 101 78 153 153 100 81 152 99 99 64 151 97 97 70 95 94 73 74 91 76 77 157 157 79 80 156 147 83 155 155 146 86 155 146 146 154 154 145 146 154 146 146 54 154 146 52 52 95 147 51 51 96 52 53 96 95 54 55 95 154 58 95 95 155 90 94 155 155 93 93 156 154 155 156 157 156 156 157 157 157 112 158 158 158 126 102 158 135 139 159 156 147 72 71 153 155 66 164 160 62 60 166 165 56 167 167 85 51 169 160 85 144 171 160 50 143 31 160 175 176 18 159 176 11 160 153 178 7 159 179 81 5 149 181 119 146 145 81 142 141 140 80 128 207 80 80 123 216 81 119 221 29 81 112 39 161 108 107 55 166 104 67 71 116 102 83 88 117 91 98 118 117 96 111 118 99 100 117 117 102 125 116 103 103 133 113 104 139 140
216 216 229 229 211 228 227 74 199 225 74 75 222 222 76 77 220 78 79 171 175 81 82 185 132 85 198 202 123 164 213 116 114 163 223 108 205 228 101 99 202 230 93 200 199 102 85 197 196 103 15 194 103 104 14 178 104 231 190 174 104 230 172 104 155 224 77 104 217 101 80 153 203 82 61 152 98 84 187 151 96 72 186 93 92 76 186 87 78 79 157 104 82 186 155 147 86 155 104 146 155 155 147 153 154 154 146 55 154 146 147 52 154 147 51 51 96 148 51 96 96 53 54 96 178 57 96 95 155 63 95 95 155 94 94 156 156 154 92 156 155 156 157 157 157 109 158 157 157 123 159 158 133 137 159 159 145 148 159 152 154 70 68 160 66 65 165 164 60 59 167 56 55 168 168 52 52 170 160 52 172 173 160 56 175 160 160 176 177 160 177 177 159 159 178 179 159 179 180 113 158 182 182 135 142 183 152 157 203 80 172 209 211 80 188 217 159 197 116 224 160 205 229 53 164 107 234 168 170 103 82 178 205 207 97 117 211 221 110 118 217 223 118 118 100 223 117 224 102 129 115 103 224 244 104 104
227 168 106 105 208 104 104 190 184 229 104 166 229 228 151 146 227 165 135 226 225 164 123 222 164 164 219 218 164 165 214 164 164 104 104 164 104 104 52 163 104 103 31 103 103 22 20 103 103 16 184 103 15 15 179 102 16 176 175 157 22 173 157 156 170 169 155 155 167 154 154 100 165 153 152 98 104 152 97 96 72 168 93 75 76 160 88 78 157 83 89 82 156 75 85 185 155 90 88 155 155 90 183 154 147 147 183 104 147 53 182 104 147 52 104 104 153 52 104 149 53 90 104 153 56 96 153 154 90 96 155 154 90 171 155 90 90 168 156 90 167 166 104 90 164 158 103 162 161 103 159 156 102 102 156 146 100 100 156 88 98 156 156 87 94 156 87 86 156 156 86 146 156 85 85 144 143 84 143 143 44 83 142 142 28 64 141 19 16 141 141 11 152 140 8 7 148 185 7 146 144 80 8 140 80 80 158 134 80 80 157 187 80 124 122 80 196 119 191 81 114 112 54 209 108 67 71 213 104 84 114 217 239 100 116 104 240 198 117 242 120 211 220 243 217 118 224 102 223 226 103 224 225 228 104 140
107 215 231 72 104 205 229 73 187 181 229 75 159 223 76 164 166 227 78 174 177 224 165 189 129 220 165 104 118 165 165 104 109 165 104 104 66 203 104 93 41 196 103 29 196 190 103 19 186 103 16 16 181 160 16 178 177 159 231 174 157 157 101 171 156 156 101 156 155 100 100 154 99 99 64 153 98 97 71 96 95 74 75 158 91 77 158 157 80 81 156 156 84 155 155 148 88 155 147 147 155 154 148 148 154 147 148 54 52 148 148 51 96 148 52 51 97 52 52 97 97 55 55 97 154 59 97 97 155 155 96 155 155 154 94 156 156 155 166 156 156 156 157 103 157 118 158 158 158 132 102 159 141 144 80 160 152 76 75 156 159 72 163 163 86 67 165 167 63 145 167 85 59 168 168 84 143 170 160 160 142 172 160 174 142 25 160 176 17 15 152 177 10 159 149 81 8 146 180 80 128 141 80 144 135 134 80 132 201 80 80 128 209 80 124 122 37 80 118 116 52 113 112 65 69 111 107 82 112 202 94 98 114 89 108 116 117 93 119 118 97 98 119 119 100 101 118 102 102 130 131 103 136 137 179 104
230 226 105 218 212 229 104 196 190 229 190 172 229 228 156 222 227 165 138 225 225 165 216 222 165 165 104 218 165 104 104 92 165 104 80 164 229 104 53 164 103 86 33 231 103 24 22 231 75 18 183 182 73 17 179 160 72 187 175 159 185 185 104 157 185 169 104 220 183 104 155 207 99 104 193 98 85 104 177 86 74 168 165 87 77 160 88 88 183 156 89 89 183 89 89 182 155 104 90 182 104 148 181 181 104 153 181 104 104 153 180 104 153 153 104 104 153 153 104 153 153 91 91 153 91 91 172 153 91 90 169 74 90 167 166 90 90 164 104 90 161 161 104 103 158 103 103 155 156 103 156 156 160 102 156 156 161 160 156 87 98 160 156 86 160 156 167 86 144 169 85 62 143 171 84 143 62 172 61 142 44 174 67 174 28 74 142 176 17 86 178 12 159 148 181 158 145 180 185 158 139 80 158 157 183 80 157 157 185 176 156 187 188 190 213 190 198 201 221 192 206 227 228 210 211 232 84 214 235 236 175 217 239 239 188 240 240 198 202 218 208 211 222 223 217 219 226 223 223 228 229 223 224 230 223 223
150 150 214 168 152 208 206 154 155 194 226 159 180 175 223 222 158 220 219 79 140 217 81 82 121 213 85 87 109 215 91 222 206 209 95 229 204 98 164 231 86 164 231 80 78 163 231 75 190 162 103 72 188 231 102 19 186 102 72 25 184 101 31 183 170 104 44 168 104 156 57 165 104 197 163 163 153 180 161 160 152 93 159 152 151 88 80 151 83 80 84 149 75 87 88 68 66 91 181 61 93 93 154 56 95 95 154 96 96 154 154 149 154 154 149 149 154 154 150 54 154 151 151 59 154 152 64 66 153 153 74 96 155 83 86 94 94 97 93 93 157 112 90 90 158 89 88 158 159 85 84 159 159 81 161 161 160 158 162 160 160 164 163 160 167 167 161 161 169 170 161 170 171 63 161 172 63 64 155 173 68 69 173 82 76 175 175 81 88 177 159 99 140 180 158 114 183 158 158 138 187 157 182 136 16 156 184 185 23 119 186 186 156 113 189 198 110 191 80 205 107 81 209 113 108 82 214 234 98 85 106 238 181 88 106 120 195 108 109 129 208 114 136 138 120 121 148 119 119 160 165 116 230 103 114 112
216 72 151 212 216 153 154 203 195 156 190 186 226 162 169 164 221 77 148 219 218 80 131 215 83 84 212 212 88 217 208 91 93 227 204 96 230 231 87 99 231 231 79 231 231 75 74 231 72 72 187 231 71 71 185 102 72 184 183 102 74 183 104 104 39 182 104 104 181 167 104 206 181 104 155 188 162 104 176 173 160 152 165 87 158 152 158 89 181 156 78 89 181 71 90 90 180 63 90 180 154 57 95 179 104 53 96 154 104 97 97 154 104 153 154 154 150 153 154 151 151 57 154 152 153 64 153 153 71 91 154 154 83 95 162 93 97 94 156 108 92 91 157 123 89 158 158 86 86 159 159 83 160 161 160 80 162 162 161 163 163 160 160 166 160 161 168 169 161 161 170 66 161 171 172 66 160 173 69 70 174 174 76 173 174 84 87 176 177 96 178 179 158 111 181 181 157 183 184 157 157 187 189 156 183 184 156 156 185 180 155 187 187 194 156 190 200 203 106 193 207 209 196 81 212 231 200 214 108 236 175 217 238 239 188 108 240 199 202 111 242 210 224 243 144 218 228 243 221 119 231 172 222 231 104 222
171 150 228 228 169 104 206 167 166 104 185 166 104 104 163 166 104 148 144 104 104 133 216 104 123 120 219 104 111 107 213 166 94 209 208 166 204 202 165 165 197 196 165 103 191 164 164 103 186 163 102 102 19 162 102 21 22 102 102 28 30 101 35 38 170 101 48 52 167 58 60 165 165 67 69 163 155 154 161 160 153 92 159 153 152 87 157 152 81 79 104 151 72 70 151 66 64 92 150 59 94 95 154 55 97 97 154 91 98 154 154 91 98 154 150 99 174 154 151 98 154 104 152 169 154 153 153 71 104 154 80 83 104 155 94 95 104 155 109 93 155 155 89 90 156 89 89 148 159 88 84 145 102 88 144 161 100 87 142 99 161 142 141 95 161 140 91 89 156 140 82 156 156 83 69 155 172 83 155 154 82 78 153 153 81 142 150 81 81 141 80 80 141 141 80 80 140 14 15 139 139 18 19 137 23 24 117 134 31 34 110 204 44 106 105 56 155 104 80 80 104 105 81 115 107 82 83 111 112 85 108 108 210 88 108 127 216 219 111 135 97 221 243 144 122 122 243 157 121 244 170 221 117 244 190 114
215 71 151 212 210 168 154 203 231 230 104 186 227 226 169 160 222 77 147 219 218 80 130 215 82 83 118 218 87 220 223 212 92 228 92 206 166 232 83 99 165 103 76 165 232 103 72 164 103 70 21 163 102 21 182 104 102 25 181 104 31 34 172 104 43 179 169 158 56 167 104 157 165 164 156 187 162 161 155 94 87 154 153 89 88 153 84 82 85 152 76 74 89 69 67 92 92 61 94 94 154 154 96 97 154 150 98 154 154 150 99 154 150 151 154 154 151 55 154 152 152 60 154 153 66 68 98 154 76 80 97 86 90 95 95 101 106 94 156 117 92 92 157 90 89 158 158 87 86 159 160 160 160 161 160 161 162 160 160 165 163 161 167 168 94 161 169 170 161 157 171 71 71 172 172 73 170 172 77 79 172 174 86 173 174 81 97 176 159 80 142 178 158 120 141 15 157 180 183 19 156 182 22 155 184 184 31 111 186 183 43 105 188 195 103 102 79 203 102 193 80 119 227 81 212 114 232 83 111 236 119 86 109 126 188 110 110 134 202 113 139 141 124 119 149 152 122 102 163 120 120 103 118 117 104 104
173 171 105 170 169 104 104 168 168 104 190 166 104 104 167 104 104 152 147 104 104 135 223 223 125 122 219 218 112 215 214 167 95 210 167 167 198 203 166 166 197 100 165 103 103 165 164 103 23 164 102 102 21 163 102 24 25 233 101 31 174 231 76 42 170 101 80 177 168 158 63 166 165 157 177 163 156 156 178 104 155 92 178 104 154 85 104 104 157 77 104 152 155 90 92 154 62 90 95 154 90 96 177 153 91 176 154 91 91 175 154 91 173 173 104 152 171 170 104 153 168 104 104 153 104 104 154 154 104 104 154 90 104 155 155 90 104 155 90 90 147 155 89 89 144 89 89 141 141 88 139 139 102 87 138 138 100 80 137 98 98 78 137 95 157 157 91 89 156 84 82 156 156 83 69 155 82 82 161 153 81 81 160 174 81 141 141 176 80 142 19 80 120 141 18 130 141 182 21 144 140 25 154 160 190 34 109 176 196 153 103 79 204 153 189 79 154 154 192 80 156 195 196 211 160 200 82 213 204 206 216 110 211 213 217 240 134 219 219 242 207 220 242 242 215 221 243 218 218 244 244 218 119 244 217 216
106 226 171 105 104 169 168 104 200 167 104 104 180 167 104 104 159 104 104 144 140 224 133 129 221 220 119 116 217 167 105 213 211 167 85 206 166 166 201 199 166 103 194 166 166 103 103 165 102 102 23 164 102 102 24 102 102 28 30 101 101 37 172 101 47 50 169 81 60 167 166 158 69 164 157 157 162 161 156 155 160 155 155 88 158 154 83 81 104 153 74 72 91 155 65 93 94 154 59 96 154 55 91 98 154 52 99 154 154 91 99 154 152 91 171 154 152 152 169 104 153 63 154 104 154 73 104 155 154 86 104 154 98 90 104 155 114 94 155 155 89 92 158 156 89 139 159 88 88 136 160 87 135 135 101 87 134 100 99 134 135 97 161 157 94 92 157 170 87 85 156 83 76 155 155 82 154 153 82 81 151 151 81 141 147 80 80 142 176 80 142 141 20 79 141 141 22 140 141 25 27 140 31 33 108 138 42 45 102 197 56 99 98 79 71 98 79 79 153 101 80 121 105 198 81 116 111 83 214 113 208 86 112 111 133 217 112 138 140 219 116 145 126 220 243 156 124 244 244 218 122 244 187 217 234 244
71 173 233 71 170 153 233 73 168 104 73 74 164 104 171 75 174 152 150 185 189 131 134 202 118 113 210 217 104 206 205 94 91 201 208 95 196 195 98 167 191 189 100 232 186 102 102 231 103 103 232 231 103 103 232 71 104 233 233 75 36 232 77 78 176 226 80 81 175 82 83 175 175 85 176 175 104 86 176 176 104 79 176 104 104 159 176 104 156 156 156 104 155 90 104 152 155 90 104 154 55 90 152 154 91 91 174 51 91 173 172 52 91 170 104 55 100 168 104 100 100 154 104 99 161 154 155 98 155 104 156 154 156 157 155 90 156 158 126 89 158 159 140 89 159 149 151 88 160 157 87 85 162 163 83 132 162 166 81 163 97 80 79 165 161 79 166 166 161 79 168 161 161 169 169 161 161 172 160 160 173 174 160 174 175 107 159 176 176 118 177 177 127 130 178 179 139 182 180 148 152 185 186 162 188 190 150 178 195 150 150 201 203 150 150 210 151 151 193 219 153 154 197 157 158 201 202 213 206 207 214 215 213 215 217 240 219 218 218 241 226 219 242 243 100 220 243 244 216 132 243 216 215 244 197 213
236 234 71 71 223 227 72 157 205 228 168 162 228 228 168 172 227 168 168 104 225 168 199 104 169 168 104 105 114 168 104 102 201 104 104 80 205 103 61 55 197 103 41 192 191 32 30 187 185 166 183 182 164 164 178 164 164 101 175 162 162 101 162 162 101 101 161 160 100 65 159 99 98 71 73 97 75 76 162 93 79 160 159 82 83 158 157 87 157 157 154 91 156 155 153 155 155 153 153 56 153 153 53 52 152 152 51 100 152 51 52 100 153 54 100 100 153 59 100 100 154 91 100 154 154 99 157 155 156 97 155 155 157 147 156 157 158 142 157 158 137 137 103 159 149 89 103 156 158 86 161 162 87 84 157 166 83 82 157 85 81 164 157 84 81 166 84 83 134 167 161 136 137 73 161 138 170 58 151 140 47 160 146 141 34 141 175 29 27 133 79 127 126 124 79 138 117 79 79 141 107 78 78 140 78 78 138 137 78 78 136 73 78 133 132 89 97 129 100 104 103 124 114 108 110 121 124 116 118 130 121 122 87 136 125 91 92 196 128 96 97 119 229 100 123 125 101 102 130 176 103 136 137 195 104 141
71 71 234 71 71 154 155 72 158 159 192 74 166 168 170 168 176 152 145 188 192 129 215 205 116 111 210 84 100 205 204 88 88 199 93 94 74 193 97 98 52 196 100 232 184 101 166 232 186 103 231 232 70 165 233 72 73 164 233 75 173 163 101 78 173 226 100 61 173 99 83 69 165 98 73 173 162 104 78 161 104 157 82 159 104 159 158 157 155 156 156 155 155 65 155 154 154 58 97 153 54 53 99 153 52 99 172 51 51 100 170 52 100 100 154 57 101 154 154 100 100 154 154 155 154 155 156 156 155 155 157 107 156 157 157 123 158 158 135 138 159 159 147 90 159 154 156 88 87 161 86 85 161 165 84 84 163 83 83 164 164 83 165 165 161 83 166 167 161 170 168 161 161 171 169 161 172 172 160 160 173 104 159 174 174 114 157 175 122 125 126 178 132 135 179 79 142 181 181 151 154 184 148 164 188 189 146 138 193 146 146 136 202 146 189 132 98 147 193 194 112 106 198 209 155 114 82 212 119 209 85 214 125 88 215 115 129 93 217 241 148 98 121 242 210 101 128 169 213 133 134 188 123 139 201 205
236 234 225 104 224 227 227 212 207 227 228 191 228 227 169 170 226 226 168 104 225 169 169 104 222 169 104 104 169 169 104 104 169 104 104 82 168 103 63 57 198 103 43 40 191 68 32 187 186 69 177 182 165 28 179 178 165 173 175 164 163 172 172 163 101 100 104 161 100 99 104 204 98 73 160 185 86 77 173 92 87 81 163 88 85 174 158 89 90 157 104 90 174 155 154 174 173 104 154 173 173 104 153 172 104 104 153 171 104 153 153 91 104 153 57 101 153 153 91 100 153 91 91 157 153 90 90 151 90 90 147 145 90 89 141 104 104 136 135 104 156 131 103 103 157 126 103 157 157 103 102 157 157 101 157 157 85 99 157 157 84 126 157 84 84 129 170 83 132 133 170 82 135 73 81 96 138 59 81 140 172 46 140 141 39 157 131 176 34 124 122 177 153 114 78 180 150 105 78 148 147 182 78 145 93 184 176 139 186 78 137 199 188 197 134 101 191 203 216 114 207 208 224 124 210 229 231 160 212 234 169 172 215 238 184 130 223 194 196 227 97 204 206 232 218 209 234 234 220 210 235 220 220 244 235 220
224 71 231 225 226 171 216 227 72 161 227 227 169 170 227 227 169 104 145 169 170 104 138 169 104 104 123 169 104 113 109 104 104 94 195 104 76 70 202 103 54 196 195 168 37 190 189 167 185 185 166 166 181 180 166 102 177 165 164 101 174 164 101 101 55 163 100 63 65 99 99 71 72 98 75 76 163 95 79 80 160 82 83 159 158 87 158 157 156 156 156 156 156 63 155 155 155 57 155 154 53 53 154 154 51 51 154 51 52 100 154 54 100 101 154 59 101 101 154 91 100 154 154 90 99 155 156 99 147 155 157 142 156 104 158 136 157 159 155 145 104 159 153 155 103 156 160 88 103 157 165 86 157 158 86 85 157 85 85 122 164 84 86 165 93 83 129 167 161 82 133 79 161 136 137 67 147 139 57 54 141 141 46 134 132 79 39 125 176 79 117 114 78 138 107 104 78 142 98 78 78 142 78 78 141 140 78 78 139 86 89 137 136 100 103 134 110 113 101 130 120 109 111 225 129 118 120 134 161 125 85 86 129 130 90 118 131 93 95 120 132 98 123 124 234 101 129 173 235 219 136 191 103 219 244 207
213 233 224 210 224 235 226 171 208 227 73 170 231 227 170 170 226 75 170 104 219 77 170 104 80 170 220 104 83 228 104 86 100 233 104 83 191 233 72 60 199 233 68 181 192 67 68 177 102 69 174 173 103 72 172 103 103 234 170 104 165 232 104 104 228 100 104 104 216 83 104 203 198 85 188 184 86 86 171 169 87 172 171 88 88 172 172 89 172 173 104 89 173 104 104 97 172 104 104 172 155 104 153 153 104 104 153 91 104 153 153 91 104 153 91 91 155 153 91 159 153 77 90 153 153 90 99 147 104 90 142 140 104 96 135 104 104 94 157 104 155 91 158 103 156 159 160 161 157 161 102 161 167 86 161 158 168 85 161 169 84 87 161 169 89 127 169 169 92 131 170 96 98 169 72 102 104 171 159 110 172 173 157 174 174 155 123 176 176 153 177 177 149 149 179 179 146 180 181 153 142 182 183 165 184 184 175 179 186 185 188 198 188 196 198 207 202 203 215 217 206 206 223 147 149 229 230 156 209 234 165 169 217 238 180 223 225 190 193 229 231 200 232 233 217 217 235 235 217 243 236 219 219 244 104 219
233 150 211 209 235 104 204 235 235 104 198 233 73 104 177 228 75 162 157 225 77 203 216 223 170 218 220 82 170 228 215 170 232 104 209 170 103 72 169 169 103 68 169 103 103 37 176 102 102 31 183 102 31 171 179 34 36 177 104 43 46 174 165 55 171 171 164 65 168 163 163 98 165 162 161 96 161 160 93 92 160 89 87 86 159 81 78 91 74 71 94 95 156 62 97 155 155 98 99 155 156 100 154 154 155 100 154 155 155 154 154 155 155 154 155 156 65 68 156 156 77 100 156 89 94 99 102 107 98 98 120 124 97 156 136 95 94 157 148 93 158 158 159 91 159 160 160 115 161 160 161 162 101 161 167 163 161 161 168 98 161 169 169 95 161 169 93 94 153 170 98 169 148 81 103 170 172 80 139 172 79 117 141 174 79 142 175 48 151 143 49 149 178 143 55 144 180 62 64 89 182 73 138 85 78 85 85 185 78 98 89 78 193 137 95 78 135 212 79 79 131 221 80 128 127 135 82 124 123 140 121 121 143 144 120 146 147 135 135 151 153 134 99 161 132 133 102 176 130 103 103 128 127 103 104 124
212 211 234 152 208 235 235 202 199 234 234 188 232 231 74 165 227 225 75 152 219 77 77 212 222 80 222 225 82 83 231 83 87 234 234 74 92 234 70 69 170 233 68 179 169 102 68 174 173 102 32 171 103 73 34 169 103 39 168 175 104 50 173 104 165 61 170 104 216 99 167 163 197 85 164 162 95 87 161 161 90 88 160 84 82 89 159 75 93 171 68 66 96 171 104 98 98 155 104 100 100 154 156 100 154 154 156 154 154 156 155 154 154 156 62 154 156 156 73 91 157 84 89 100 157 102 106 99 115 120 97 97 132 96 96 157 146 93 93 158 159 91 159 159 160 89 160 160 161 161 161 160 167 163 161 161 168 164 161 169 169 161 161 169 169 94 169 169 98 99 170 170 104 169 171 108 110 171 80 115 173 173 121 123 174 153 129 175 176 149 148 177 146 145 179 179 141 180 181 74 136 182 183 86 83 184 175 132 86 187 187 197 189 78 197 206 192 202 134 216 79 205 222 135 81 127 230 151 84 123 142 165 121 121 145 180 227 149 189 136 232 156 135 234 101 169 132 236 216 130 129 103 217 126 125 104
179 178 104 104 174 104 104 211 171 104 104 193 226 104 178 172 226 104 158 225 224 144 140 223 171 129 220 219 171 115 216 171 171 212 210 171 171 103 170 171 103 103 170 170 103 40 169 102 102 33 232 102 33 34 101 101 39 177 101 46 49 174 173 57 172 171 165 67 169 164 164 167 166 163 162 168 104 162 92 161 104 161 86 87 160 158 77 92 159 70 89 96 155 61 98 155 154 90 100 155 154 91 169 154 91 101 167 154 156 165 154 104 156 161 104 156 153 157 104 157 84 104 104 153 101 104 104 153 89 104 153 154 89 96 154 88 88 121 155 88 116 115 87 87 111 160 86 109 108 102 85 107 107 101 157 109 100 100 157 99 98 155 155 96 95 153 82 91 150 149 81 83 143 80 80 158 135 79 79 140 173 79 142 142 79 128 143 59 78 144 143 63 140 144 69 71 147 144 78 83 143 182 90 82 77 98 129 84 77 109 89 188 78 128 99 78 78 130 195 79 133 135 200 81 129 139 208 206 126 142 207 207 237 146 209 122 239 183 210 241 155 192 212 242 196 134 243 243 197 237 103 194 194 237 104 189
105 211 234 104 207 219 236 104 199 236 225 104 187 232 73 74 167 225 75 197 148 224 171 214 222 221 171 226 219 171 171 104 213 171 235 103 171 171 103 69 59 103 103 47 175 102 102 37 187 102 34 34 182 102 36 179 178 42 45 176 175 167 174 173 166 226 171 165 165 99 168 164 164 97 163 163 95 94 162 162 89 85 161 84 82 90 158 75 94 95 156 65 97 155 156 99 99 155 155 100 154 154 157 101 154 154 157 154 154 156 156 59 156 157 66 69 157 157 79 100 157 92 97 100 157 110 99 98 153 129 97 156 156 89 95 157 157 93 158 158 160 91 159 159 160 107 161 160 160 104 162 161 168 163 101 161 168 91 161 156 168 94 160 169 82 98 150 169 103 104 144 80 109 170 135 80 138 171 79 79 140 173 152 142 142 64 148 144 176 67 92 144 72 139 85 144 81 82 181 88 91 80 77 165 81 82 77 177 86 77 77 140 95 78 196 138 78 79 136 215 79 133 132 138 81 130 129 141 134 126 144 145 137 124 147 138 138 151 152 138 137 159 136 136 101 173 134 102 102 192 131 103 103 141 237 104
70 179 104 224 221 104 104 210 205 104 197 192 225 104 177 172 225 152 158 224 224 125 140 223 172 129 207 220 172 104 216 84 172 104 211 171 235 103 93 171 103 103 97 233 102 42 100 232 70 36 232 232 73 36 180 75 76 165 176 78 52 165 104 81 164 172 104 83 165 104 165 165 166 104 186 95 104 104 170 91 104 162 161 88 104 157 76 89 156 155 89 97 155 90 90 169 154 90 90 168 104 91 168 167 104 91 165 104 104 163 162 104 104 159 104 104 152 154 104 153 153 154 104 152 152 90 158 153 89 89 153 154 89 123 154 88 88 115 158 87 110 108 163 86 104 103 103 89 101 102 102 89 163 101 157 103 164 100 155 165 99 159 153 166 159 150 81 168 158 143 80 132 157 170 80 137 125 172 120 140 173 79 126 174 175 130 144 176 176 136 177 77 140 142 178 85 80 180 180 128 79 182 183 123 184 186 122 121 186 120 120 188 189 121 121 192 197 198 196 197 201 134 202 201 201 228 210 202 233 233 203 204 237 237 205 239 239 178 207 241 241 186 236 242 190 190 237 243 189 238 238 187 186 237 214 181
105 104 178 177 104 216 212 104 104 200 224 104 186 181 224 104 167 224 224 152 148 223 223 136 222 221 172 122 219 218 172 104 214 172 172 103 90 172 103 103 172 171 103 49 171 102 102 40 170 102 37 37 182 102 39 179 178 77 47 176 175 55 164 173 167 65 171 170 166 164 168 165 165 165 165 164 95 93 104 163 89 86 104 159 81 92 161 156 89 96 155 64 90 98 154 90 100 168 154 90 167 154 104 91 166 154 157 164 163 104 158 160 159 104 152 155 104 157 152 149 104 152 105 90 104 153 89 98 153 153 89 96 154 88 88 116 154 88 87 108 87 87 104 103 86 101 100 103 102 98 98 102 157 99 101 101 156 104 100 154 153 98 98 150 149 96 146 144 80 92 138 80 79 135 126 79 79 139 172 79 141 141 174 78 143 77 78 134 144 81 138 144 177 88 79 144 94 126 77 180 103 78 79 183 118 83 77 188 117 91 77 116 101 190 78 118 193 78 197 137 199 80 134 224 206 200 131 143 216 201 235 146 202 202 238 169 204 240 240 180 205 241 184 185 237 243 186 134 238 185 184 238 103 180 178 237
70 69 150 104 70 155 158 200 71 165 168 188 174 177 172 166 189 152 145 224 222 125 118 215 77 101 207 205 80 85 198 83 84 191 189 88 89 183 92 93 234 176 96 233 233 69 100 232 232 71 170 232 74 74 170 234 77 163 234 101 80 163 101 81 163 163 104 83 163 104 104 75 164 104 104 79 164 104 169 166 161 104 160 160 104 162 156 157 161 155 65 90 161 154 90 100 160 54 90 167 159 52 102 166 52 53 102 154 57 102 102 154 67 101 154 154 157 101 154 104 158 155 155 158 152 155 156 158 136 156 159 159 150 159 159 157 159 93 159 163 91 91 165 166 90 97 167 89 90 162 168 90 163 164 92 92 165 165 95 165 166 158 158 167 167 157 169 168 155 155 169 169 154 170 170 152 151 172 123 149 173 173 128 145 175 132 133 175 176 137 138 177 140 142 178 179 146 179 180 120 154 182 182 116 144 185 113 113 186 191 112 188 189 131 113 192 194 116 197 198 196 121 204 197 197 136 212 198 198 140 86 199 236 237 91 201 239 172 202 128 241 180 130 242 174 182 135 243 182 133 139 205 178 237 144 216
182 226 218 219 176 220 220 174 174 104 222 173 104 104 172 172 104 152 172 104 104 144 173 104 132 129 104 104 119 116 104 108 104 213 212 89 83 207 172 68 202 200 172 52 195 172 172 189 188 171 102 184 171 171 101 180 170 101 101 52 169 101 101 62 100 100 68 70 99 72 74 167 98 77 78 165 86 81 162 162 164 87 160 163 163 159 158 162 162 157 161 161 61 156 160 56 54 104 159 52 52 104 153 52 102 102 152 57 102 154 63 91 102 154 90 101 152 154 90 101 155 104 90 138 155 158 89 129 104 159 147 119 104 159 157 104 104 154 163 103 155 155 86 103 156 167 90 156 156 84 90 163 156 83 95 164 82 82 102 101 81 109 111 100 81 119 99 99 126 127 97 152 133 95 94 113 171 92 91 100 78 90 91 89 78 85 83 78 78 78 77 77 145 75 77 77 145 75 77 145 145 115 77 145 121 122 171 144 127 129 143 194 132 110 142 135 137 123 211 140 131 133 80 142 137 82 83 134 140 85 130 149 226 90 128 142 233 199 128 236 98 130 131 237 204 134 185 190 207 243 203 133 210 243 214 130
215 69 149 206 69 177 158 200 70 166 104 187 236 179 172 165 231 104 145 225 223 104 139 215 77 104 126 205 79 116 112 216 83 236 188 211 173 235 206 92 234 103 199 172 233 70 192 172 102 73 172 171 102 75 170 101 101 48 162 101 55 58 174 101 65 161 172 71 72 169 104 75 76 166 166 79 164 163 165 85 161 164 164 83 159 164 75 72 162 162 65 62 161 59 57 100 161 54 53 101 52 52 102 102 154 102 102 154 154 102 102 154 159 101 154 154 158 101 154 158 159 155 155 159 158 156 159 159 144 147 158 153 155 95 159 161 162 93 164 165 92 91 166 167 90 162 167 90 90 163 83 91 164 164 158 94 165 157 157 103 166 156 156 167 102 154 168 168 152 152 169 101 150 170 171 99 104 172 124 126 92 173 129 174 82 78 133 176 177 77 145 177 77 141 178 110 77 146 180 112 111 145 122 107 184 145 127 105 186 131 132 107 190 135 106 121 78 139 129 199 79 135 136 81 192 134 140 83 132 233 86 87 130 237 91 129 129 156 96 130 162 166 132 132 178 183 136 192 196 135 133 207 210 132 104 217
184 181 215 179 178 104 219 175 174 104 174 173 104 104 173 173 104 158 173 104 104 142 173 104 132 129 220 104 119 218 217 78 105 214 212 90 183 208 173 70 203 201 173 171 196 172 172 102 100 172 102 102 102 171 101 45 171 235 101 54 170 101 81 64 229 100 69 161 215 84 75 168 167 85 162 165 166 87 163 162 165 164 165 104 164 165 158 104 155 166 104 162 154 104 104 154 54 90 104 154 90 102 153 152 91 102 152 90 90 159 152 90 155 153 90 90 149 147 104 143 141 104 159 134 132 104 152 124 104 104 153 115 104 153 153 104 104 154 86 103 155 155 85 85 155 84 84 88 155 83 83 88 168 82 91 93 82 97 100 103 81 107 109 104 108 118 105 105 125 127 105 115 111 171 105 101 98 172 142 89 78 103 137 174 77 134 76 176 77 126 178 77 139 146 179 77 146 179 181 149 146 123 156 159 184 129 168 171 188 101 179 193 195 101 121 203 103 129 198 213 109 137 80 116 119 213 83 129 221 222 189 144 228 230 191 233 234 193 193 240 237 195 241 242 198 199 242 171 202 242 242 167 205 242 162 161
213 213 181 151 216 177 177 104 218 174 104 104 173 173 104 104 173 104 104 148 173 104 104 135 221 104 125 122 218 104 113 216 215 100 95 212 174 80 207 205 173 63 200 173 173 194 193 173 172 102 172 172 102 101 172 101 101 50 171 101 101 59 232 101 66 68 100 100 73 170 99 76 77 167 166 81 165 164 166 86 162 166 165 164 159 164 164 165 104 164 64 157 163 162 57 101 162 53 53 102 153 52 102 102 152 57 102 154 152 90 102 154 78 90 151 154 90 101 144 155 158 137 155 104 159 127 104 159 152 117 104 159 159 104 104 153 164 104 103 154 85 103 155 154 84 86 154 84 83 85 154 83 87 88 82 82 93 166 81 101 103 105 80 112 115 108 126 123 109 110 113 111 111 102 99 111 110 90 78 111 82 80 78 110 75 77 78 72 71 77 146 146 77 77 146 146 77 146 146 124 77 146 146 129 160 146 132 133 172 144 136 115 144 198 139 127 78 142 103 136 79 143 140 210 81 119 143 84 85 134 226 88 132 148 233 187 131 157 237 190 132 169 193 194 241 186 197 138 242 165 201 242 213 133 205 241
69 208 231 214 179 234 235 69 175 237 236 71 179 236 72 72 194 152 73 207 211 124 75 221 105 127 229 231 86 116 235 77 75 189 237 70 69 180 88 69 174 172 93 169 168 96 97 165 164 100 233 162 101 101 234 160 102 235 234 103 103 233 81 82 228 226 83 83 214 84 84 161 193 85 85 161 95 86 162 162 89 88 164 104 88 95 165 104 155 165 156 104 154 166 104 162 153 155 104 153 153 154 161 152 91 154 160 63 90 157 160 77 90 152 92 97 101 144 113 89 137 155 133 99 128 104 148 98 157 104 96 95 158 159 153 159 159 159 153 160 159 159 167 162 159 154 167 158 158 168 82 157 168 168 96 155 168 168 100 166 168 106 107 168 168 112 168 169 116 117 170 170 120 171 171 139 124 172 136 135 173 174 131 130 175 126 125 177 177 120 117 178 138 112 180 180 142 181 181 147 149 183 183 156 183 184 164 167 188 189 175 193 195 94 180 202 205 98 210 213 103 105 221 110 113 216 228 123 127 225 181 138 231 233 182 151 236 184 185 142 238 188 241 239 101 192 242 239 196 141 242 159 200 242 241 153
210 211 182 104 213 178 178 104 69 175 104 104 174 174 104 160 156 104 104 145 142 104 136 133 219 104 124 122 218 82 113 216 215 73 186 212 174 82 177 206 174 103 201 93 173 102 194 173 232 102 100 173 102 77 102 234 101 51 103 234 81 61 232 231 82 69 173 83 73 159 170 84 78 167 104 86 161 164 167 162 162 104 166 163 163 104 155 71 104 104 154 62 104 154 154 90 104 153 90 90 153 153 90 102 152 90 90 159 152 90 90 154 104 90 149 147 104 90 141 104 104 134 131 104 151 123 104 104 151 113 104 152 152 159 104 152 153 86 159 153 85 84 153 168 84 82 153 83 83 81 168 82 83 85 168 81 90 106 107 103 102 110 111 111 168 115 116 123 119 141 102 170 123 92 89 172 135 81 78 173 130 74 78 144 124 176 77 145 177 178 135 146 179 77 139 178 181 142 146 180 182 149 181 134 157 160 185 137 111 189 191 90 125 197 92 92 197 207 96 98 205 102 104 213 215 114 117 222 176 135 228 230 177 237 235 178 179 239 238 181 240 240 185 186 241 241 190 241 242 158 195 241 241 152 237 241
69 207 230 68 68 195 234 69 69 169 216 70 180 184 71 173 197 152 73 209 212 124 174 223 105 99 174 232 85 200 197 104 74 189 186 70 87 179 86 69 173 203 91 59 167 95 96 48 191 99 233 45 186 101 234 78 181 172 234 81 172 172 101 82 170 226 100 72 170 99 84 77 169 97 80 160 95 93 86 162 104 90 92 160 104 95 159 158 165 99 157 157 164 156 156 164 153 155 155 163 53 90 162 161 59 102 161 67 71 102 161 84 102 102 101 107 102 101 123 100 100 155 141 99 98 156 159 97 157 158 159 158 158 159 159 159 160 159 167 161 159 158 168 162 158 168 168 157 156 168 93 94 168 167 97 98 167 101 103 167 167 107 109 168 79 113 169 169 117 118 170 136 135 171 171 132 172 172 129 128 174 174 124 175 176 126 118 177 177 112 67 178 135 104 180 77 140 179 182 144 146 181 77 152 183 184 77 162 187 87 78 145 195 87 174 144 143 91 143 213 145 143 211 146 108 145 221 148 145 228 87 151 145 234 173 145 144 96 176 143 99 100 136 241 102 184 139 201 103 142 241 214 104 145 219 145
205 202 104 104 193 190 104 183 180 215 104 168 165 216 171 154 218 218 145 229 218 174 174 218 217 174 104 217 174 174 104 215 175 103 103 82 175 103 103 174 235 103 63 60 102 72 52 194 102 47 47 187 76 47 184 182 79 53 180 172 81 158 176 171 158 158 103 171 100 171 104 198 98 104 169 176 95 104 165 91 87 104 158 88 94 155 155 88 98 154 89 89 164 156 90 90 164 104 90 163 163 104 90 161 104 162 159 157 104 151 154 104 104 151 106 104 151 151 89 104 151 151 89 150 151 88 88 151 87 87 106 151 86 86 95 166 85 89 87 103 84 82 103 103 79 77 104 103 77 104 104 148 80 106 143 141 166 110 134 131 167 143 120 79 79 138 106 79 126 95 169 78 135 170 78 122 140 172 78 142 174 174 127 144 131 130 130 176 130 67 133 177 131 71 178 133 95 80 179 91 88 183 181 86 104 77 84 84 187 78 146 84 192 170 144 197 199 171 210 205 170 169 220 215 168 226 228 167 166 233 151 167 236 237 141 145 239 239 149 239 240 153 153 239 154 154 239 239 152 150 238 190 147 238 238 196
206 104 194 229 68 185 182 212 68 171 214 214 175 158 215 216 174 217 216 174 174 104 217 174 104 104 175 175 104 82 175 103 103 101 175 103 88 84 103 103 72 68 102 61 58 198 197 51 49 191 174 48 187 185 173 183 182 173 172 179 178 172 101 176 172 171 100 173 171 99 99 77 170 98 97 82 95 94 86 87 89 91 92 161 80 96 97 158 89 99 158 157 165 101 156 164 164 155 155 163 55 155 162 162 62 154 162 72 77 104 161 93 99 104 151 117 101 101 151 138 100 156 150 88 98 157 88 96 109 158 87 94 159 104 85 91 160 158 84 83 104 158 168 77 103 150 168 104 154 148 167 106 144 167 80 109 135 167 104 127 123 79 110 168 108 78 121 169 78 78 131 140 78 136 138 140 78 141 138 138 143 144 135 115 145 134 134 66 178 133 68 69 77 134 74 77 77 82 85 77 77 96 100 77 147 112 77 77 146 127 78 146 146 143 78 144 145 145 166 143 146 146 142 222 147 146 139 149 150 146 234 152 146 146 93 141 145 96 97 148 143 100 138 142 239 102 140 140 103 183 144 238 104 146 147 237
194 192 145 104 183 209 159 195 170 212 212 183 236 214 175 148 234 72 174 231 216 73 174 221 75 175 231 208 76 175 104 78 78 237 103 93 82 237 70 76 236 235 71 167 234 72 73 162 233 75 160 159 77 78 158 183 80 157 157 102 173 157 103 103 229 157 103 103 214 104 104 197 191 104 104 176 86 104 165 162 87 104 157 88 88 162 154 88 163 163 63 89 164 163 89 164 164 104 90 162 162 104 102 161 104 104 151 154 104 151 151 154 104 151 90 104 160 150 89 104 150 150 88 159 150 88 87 159 163 87 102 99 166 93 92 104 168 91 83 104 91 91 163 104 91 74 164 153 93 165 106 150 165 166 146 135 167 167 140 167 79 136 135 168 79 131 169 169 118 126 170 78 119 171 171 121 141 173 123 123 174 139 125 125 175 108 127 176 176 101 129 177 95 94 178 178 89 181 179 85 84 183 184 80 185 186 151 78 189 189 159 192 193 162 162 199 201 161 210 208 160 159 220 158 157 226 228 113 155 232 124 128 236 236 137 139 238 143 144 240 239 147 239 240 194 147 239 239 176 238 238 182 184 238 238 189
203 104 183 206 206 174 172 209 177 163 211 211 175 175 213 174 174 104 214 174 174 104 175 175 104 104 175 175 104 114 175 103 103 103 238 103 89 85 209 103 73 205 204 71 60 199 198 53 194 193 174 49 188 174 174 157 183 174 173 101 102 173 101 101 103 172 100 73 172 209 99 77 171 98 85 82 171 94 86 159 160 87 92 161 161 88 162 159 167 89 163 158 166 163 163 104 165 163 104 104 152 161 104 163 151 104 104 151 84 102 104 151 90 102 151 150 89 101 150 89 89 125 150 88 117 114 87 87 105 159 104 97 95 104 158 88 85 103 149 80 104 103 149 103 104 148 147 105 105 144 81 108 139 137 80 80 128 79 79 97 114 79 79 112 168 78 121 124 78 118 132 151 78 137 138 149 121 142 146 145 64 144 142 64 64 175 139 66 77 177 96 72 77 138 90 181 77 84 93 182 77 80 184 77 147 147 187 77 147 143 191 156 146 145 157 157 204 146 156 144 215 91 153 222 148 104 147 230 115 147 234 235 129 237 93 136 139 239 98 143 240 240 160 145 239 240 167 239 238 174 176 240 238 182 239 238
206 204 144 147 200 198 159 194 191 234 176 181 236 236 104 163 235 234 146 133 230 73 118 222 220 75 232 209 76 76 236 213 78 237 238 211 80 238 70 208 175 236 72 88 175 102 74 175 233 102 76 159 102 78 51 157 101 56 156 180 101 64 156 103 70 71 175 103 75 76 172 171 191 170 104 171 95 166 170 162 89 163 169 83 88 169 168 72 89 167 64 61 101 167 57 55 102 155 55 103 103 155 103 103 154 154 103 103 154 162 103 154 154 162 102 155 160 160 156 156 160 156 159 159 159 163 164 159 166 167 94 158 167 168 92 168 168 91 91 168 168 91 163 163 92 92 164 150 94 165 166 146 97 166 141 139 167 167 134 132 168 128 127 168 169 122 169 169 116 118 170 171 118 69 172 119 119 173 174 120 174 175 122 122 175 177 124 176 176 77 126 177 90 88 147 178 84 82 147 141 78 183 181 142 75 186 143 74 134 190 144 140 195 152 152 144 203 151 210 146 80 148 220 147 83 141 228 85 144 140 234 90 138 237 159 95 138 168 139 145 138 186 142 240 199 202 141 239 212 214 139 104 219 137 137 104
139 104 203 226 203 198 160 231 207 188 234 208 175 173 236 211 175 235 233 72 174 228 213 73 228 217 75 175 235 82 76 237 103 74 78 238 71 86 237 237 71 72 235 73 73 163 234 75 160 160 96 77 158 157 99 156 156 101 101 156 156 102 232 156 103 103 223 156 103 208 203 104 104 185 85 85 170 167 86 86 159 87 87 160 155 88 88 161 69 89 162 162 59 101 163 104 89 102 162 104 152 161 155 104 151 157 104 151 151 154 104 150 89 155 161 150 89 104 161 154 88 122 148 163 87 110 166 86 94 99 168 85 91 161 168 91 82 104 91 91 163 104 91 92 164 151 144 165 165 146 138 166 141 139 167 167 134 167 167 128 126 168 78 121 168 168 115 115 169 170 116 171 171 117 117 172 173 118 173 173 119 120 175 100 121 176 176 95 122 176 90 88 180 178 84 82 181 79 78 183 183 75 184 185 136 72 188 189 144 191 193 146 147 198 200 147 204 207 144 144 215 218 141 222 225 102 139 230 113 116 234 234 126 129 237 133 135 240 239 138 139 240 149 139 240 239 157 141 239 164 166 138 238 174 238 237
104 203 187 146 199 157 181 104 190 232 104 104 142 236 104 104 134 209 71 129 127 211 73 122 211 211 175 117 211 76 175 212 211 175 238 210 176 175 103 208 175 175 102 66 175 102 102 56 175 102 52 51 102 102 53 186 101 57 58 181 101 64 179 178 173 71 176 175 173 174 173 172 172 171 170 172 96 167 171 171 90 171 170 83 81 169 169 72 99 100 64 62 101 102 57 102 102 156 56 103 155 155 103 103 155 155 103 154 154 163 103 155 155 162 138 155 161 161 155 104 160 162 163 159 159 166 96 159 168 168 93 158 169 92 92 162 169 91 91 163 82 91 164 164 81 68 165 147 95 70 166 140 75 167 121 132 87 167 125 104 167 147 118 168 78 159 79 169 115 164 70 78 115 66 65 77 116 62 77 77 144 63 77 119 146 145 77 147 176 89 147 147 142 83 147 147 142 102 147 142 143 119 147 144 130 133 77 144 139 77 78 143 145 78 141 146 79 80 145 148 81 81 143 82 83 142 142 86 87 141 154 156 139 140 162 147 139 173 177 145 140 190 144 143 239 206 141 141 214 133 140 104 220 138 237 104
192 189 104 200 184 104 104 147 179 104 104 140 187 104 134 133 204 150 128 209 104 125 122 210 106 119 216 210 86 113 210 76 176 190 210 176 176 178 80 176 103 169 84 236 102 88 89 234 102 93 234 234 78 97 234 101 56 155 235 81 63 180 82 82 155 177 83 83 155 103 84 156 155 104 85 156 104 104 163 157 104 157 156 104 104 154 75 104 153 153 88 104 152 152 89 152 152 89 89 152 152 89 159 159 89 89 155 104 89 151 149 104 89 142 104 104 101 131 104 104 122 157 104 147 110 104 159 146 85 104 145 145 84 157 145 83 83 156 145 82 72 153 168 81 68 141 167 94 68 112 80 73 167 122 100 84 132 137 106 168 149 92 111 169 162 79 170 170 106 70 171 103 102 172 77 101 63 174 115 98 175 77 116 94 177 117 147 178 178 117 147 179 117 118 178 181 119 179 179 73 122 181 181 70 183 183 68 68 187 188 69 196 194 71 72 205 75 77 213 216 132 87 224 129 129 230 232 127 127 236 127 127 235 240 128 129 237 131 132 238 239 136 238 239 134 134 238 239 132 238 238 128 127 237 236 122
104 196 188 187 104 184 182 104 104 139 178 104 134 133 104 104 128 127 104 125 124 208 104 120 208 208 117 115 209 209 111 209 209 175 176 209 209 176 103 207 175 176 102 204 175 102 102 89 175 102 54 175 234 102 54 55 101 80 59 182 101 65 67 179 82 71 177 176 83 155 174 173 84 155 171 172 156 156 104 171 91 165 104 155 81 104 170 153 70 104 152 62 101 104 152 89 102 152 152 89 103 152 89 89 157 155 89 103 152 104 89 146 155 104 139 136 104 161 127 124 104 147 114 104 104 145 169 104 144 144 84 104 143 144 83 144 144 83 82 144 82 82 68 142 81 81 67 167 80 69 71 119 79 78 129 133 88 92 146 96 103 159 162 82 119 169 73 72 171 172 66 65 172 98 63 77 77 96 63 77 145 65 176 77 146 177 77 147 147 179 77 147 144 181 115 147 144 144 116 180 144 128 147 182 67 138 184 145 67 144 190 68 146 201 199 72 148 80 78 81 220 82 144 92 230 123 142 235 236 122 234 239 122 122 236 240 125 238 238 128 130 238 199 135 239 238 131 141 238 129 128 238 237 123 121 237
69 68 139 222 66 66 158 66 66 174 179 67 188 193 165 68 205 209 144 175 219 125 119 227 229 101 219 215 87 84 203 76 76 192 188 77 72 179 79 80 78 169 82 84 66 203 87 235 235 198 92 234 78 96 235 235 80 175 235 81 81 174 233 82 154 174 101 83 154 154 100 79 155 103 85 83 169 104 87 156 166 104 93 164 104 170 98 160 104 152 159 159 169 152 89 157 168 57 89 167 166 68 103 165 85 92 103 164 115 103 103 137 143 102 138 156 101 100 156 104 99 157 158 159 96 159 159 158 160 160 157 156 162 162 156 169 163 154 153 168 82 150 168 168 92 143 167 94 95 167 167 98 99 167 101 102 168 167 105 107 169 109 109 169 169 101 170 170 98 97 171 172 95 172 173 93 93 174 174 92 176 176 90 88 177 178 85 178 179 111 111 180 111 111 178 181 111 112 179 77 114 181 181 117 118 183 65 123 187 189 66 198 195 68 70 208 204 75 217 220 149 85 227 229 150 149 234 117 110 149 239 117 148 240 95 119 237 98 122 141 238 101 128 238 208 103 144 238 127 103 147 221 122 148 149 224
104 104 190 142 104 135 183 104 104 131 179 104 127 127 198 104 124 203 213 138 120 204 175 114 225 205 175 114 213 74 176 201 206 76 176 186 77 176 238 174 80 176 102 83 84 236 102 60 235 235 78 55 234 235 80 155 235 81 81 154 235 82 154 154 82 82 154 102 83 154 154 103 173 155 103 103 169 156 104 104 158 104 104 154 154 104 104 152 88 104 152 152 88 169 152 89 89 161 152 89 160 159 89 89 157 156 89 153 151 104 89 145 104 104 102 134 104 104 147 157 104 145 144 158 104 142 85 104 157 140 84 104 141 169 82 154 141 82 91 151 168 81 66 66 167 93 66 114 167 95 71 126 99 100 167 144 103 168 168 106 108 169 172 77 170 170 96 68 78 171 92 172 77 91 91 174 77 89 175 175 108 87 177 108 108 178 178 108 147 177 107 107 177 145 107 107 178 70 108 180 180 66 181 182 65 64 184 186 64 195 190 66 66 204 207 70 213 216 117 79 224 226 114 230 232 112 113 236 112 112 233 240 113 113 236 114 115 237 237 129 120 238 130 129 238 237 128 239 237 124 123 237 235 119 237 237
190 68 136 219 66 186 157 197 65 174 104 199 177 194 163 159 175 104 143 234 174 104 119 229 104 103 114 218 104 111 206 205 103 104 190 76 176 89 205 79 237 76 205 176 236 203 202 176 235 199 175 175 102 193 175 102 102 175 175 101 81 65 101 101 70 153 101 101 75 176 100 78 79 173 81 83 171 170 87 89 167 172 94 164 164 171 171 161 171 170 66 159 169 169 58 169 168 59 61 168 68 73 103 167 94 103 104 120 128 103 103 155 152 102 156 156 101 101 157 160 98 158 158 159 95 160 157 157 161 161 156 156 169 155 154 168 169 152 151 168 91 146 167 167 92 134 167 94 95 125 167 98 167 167 79 102 168 168 105 103 169 98 108 170 180 93 128 171 90 89 137 176 88 173 142 167 87 175 161 86 69 177 105 83 178 77 104 87 179 104 148 103 77 102 178 119 77 148 179 77 77 148 181 64 148 148 146 63 147 147 147 148 147 147 68 148 147 148 149 223 149 149 149 84 151 149 149 88 108 149 91 92 142 149 96 142 142 99 100 143 238 102 143 143 211 103 145 146 219 135 147 222 223 139 234 225
104 122 191 191 195 125 194 195 124 227 197 178 121 199 66 175 234 200 174 174 233 70 175 104 227 72 175 104 112 74 238 103 106 239 103 75 94 239 103 83 172 238 75 71 204 236 76 160 200 176 78 157 195 176 155 155 96 175 154 98 99 234 153 101 175 227 102 102 215 101 103 103 190 84 81 173 168 85 155 159 86 86 156 154 87 157 158 87 88 159 159 88 160 160 104 88 160 104 104 152 160 104 104 151 156 104 150 150 104 104 149 88 104 148 148 88 104 146 87 87 116 143 86 106 103 171 84 94 91 83 91 84 104 82 76 74 105 91 69 106 106 91 166 110 134 133 167 119 125 79 167 117 111 79 149 107 168 78 99 84 168 78 93 169 78 106 88 171 106 136 172 173 104 142 170 102 102 174 161 102 102 175 82 101 176 176 79 176 177 76 74 177 178 71 181 77 68 67 184 77 64 186 187 102 62 191 192 108 196 198 110 110 205 110 109 202 205 108 107 213 82 106 221 223 95 104 229 105 109 232 233 117 240 235 122 123 240 237 126 240 240 113 126 239 239 121 239 238 128 131 238 238 140 233 237 149
187 188 119 120 191 187 185 194 194 181 179 196 178 177 104 198 175 175 104 174 174 104 104 174 104 104 112 111 104 103 109 202 103 104 101 203 103 91 203 204 80 77 203 203 70 203 202 176 61 200 176 176 102 195 176 176 102 96 175 102 101 175 175 101 71 175 101 101 76 209 101 79 80 184 99 83 172 171 85 89 168 167 94 156 165 172 98 162 161 171 158 160 171 170 159 104 169 62 64 104 168 80 104 104 151 114 103 166 149 89 103 149 160 88 136 147 87 101 123 144 86 112 159 104 85 99 161 157 90 87 104 154 80 78 104 136 72 105 106 137 107 108 135 167 114 116 128 79 95 119 116 79 99 105 78 78 94 89 78 107 111 78 78 122 125 78 131 133 183 182 139 140 175 65 143 168 165 69 146 159 75 77 154 153 86 77 150 97 101 77 148 114 77 77 148 129 77 77 148 185 77 148 148 189 99 148 147 78 104 148 147 105 147 197 147 105 147 149 76 149 216 150 149 149 225 99 149 88 231 111 240 93 118 119 241 98 123 240 100 107 144 239 102 145 236 239 119 147 220 127 129 233 223 139 143 231
201 199 214 189 194 191 220 65 183 225 194 64 229 230 66 176 232 233 68 218 104 69 70 229 104 71 234 235 91 74 238 82 80 239 239 76 75 240 75 74 174 171 75 76 165 81 77 160 159 86 78 157 89 91 155 154 94 236 154 97 98 235 153 100 230 228 82 101 215 210 83 174 190 84 84 174 98 85 154 159 93 86 155 87 86 97 157 76 87 158 161 104 102 159 104 104 103 157 104 151 104 156 168 151 156 104 167 150 156 165 149 160 88 164 147 88 101 162 172 86 115 172 172 95 101 171 171 91 162 170 91 91 164 169 90 164 165 147 91 166 108 139 166 166 131 128 167 121 119 167 168 109 106 167 101 98 168 168 92 90 169 104 104 170 170 103 171 171 101 100 172 173 98 173 173 97 96 174 174 95 175 175 78 77 176 176 75 179 177 72 71 181 69 68 182 183 65 64 185 89 62 187 188 93 60 193 97 98 188 201 101 193 195 101 101 203 206 100 211 214 82 98 222 223 96 145 229 105 108 144 233 116 241 240 178 122 240 101 124 147 240 106 124 239 111 113 143 238 120 122 141 104 132 231 230 104
184 185 194 214 188 189 187 190 191 182 104 193 178 177 104 194 175 104 104 113 174 104 112 112 230 104 111 110 236 88 108 198 103 79 102 199 76 92 181 201 75 79 201 176 176 163 201 176 102 158 86 176 102 197 91 236 102 94 175 236 102 98 233 101 82 100 224 82 76 153 204 83 80 176 84 84 154 172 85 85 154 103 86 155 156 104 87 156 104 104 151 158 104 151 151 104 104 151 68 104 151 151 88 104 151 150 88 150 149 88 88 148 88 88 135 132 87 87 121 104 86 110 107 104 85 97 104 104 91 85 104 104 78 164 105 132 71 107 134 133 80 111 131 130 80 124 124 79 79 111 112 79 83 100 168 78 98 168 78 103 115 190 78 125 171 189 100 135 185 183 97 172 176 69 94 173 166 75 174 174 77 86 175 76 75 179 77 72 112 180 85 69 181 77 83 65 184 83 148 186 187 86 181 190 90 91 185 198 95 190 191 63 97 198 148 69 206 209 76 149 217 219 89 236 225 99 102 240 108 110 240 240 96 118 241 97 97 240 240 100 101 239 104 106 235 238 111 234 234 119 122 232 231 131 229 229
104 198 211 193 104 190 217 104 181 113 223 64 167 228 193 65 113 232 66 67 111 194 69 229 111 195 174 235 196 196 175 238 81 175 175 103 76 176 239 102 82 176 102 77 72 102 102 65 159 102 102 60 198 102 59 59 194 93 62 190 189 175 68 185 184 175 182 181 175 175 179 174 174 100 175 174 174 98 174 173 94 92 93 173 86 97 98 77 74 101 162 67 102 103 160 62 103 158 158 104 104 157 157 168 156 156 167 167 156 156 166 167 156 164 164 172 162 162 173 174 160 160 173 95 157 172 171 91 91 170 90 90 164 169 90 165 165 80 90 166 166 92 65 167 124 93 167 167 110 75 168 101 98 168 169 90 168 168 187 84 169 102 80 71 171 99 77 172 78 95 68 174 92 92 173 78 89 174 174 77 147 175 74 77 147 176 72 148 148 149 68 148 178 148 136 148 147 62 144 186 147 146 190 78 147 148 78 90 149 149 79 93 149 80 80 147 149 81 82 147 83 84 146 224 154 145 145 159 108 145 145 170 150 144 183 187 148 144 200 147 146 210 213 144 144 103 143 143 104 104 141 104 104 150 141 104
207 182 195 194 212 66 186 217 219 64 182 224 64 64 201 229 65 213 216 67 67 225 104 69 231 232 101 71 236 237 86 175 239 81 79 196 239 77 183 179 76 76 171 78 77 164 162 81 78 159 84 85 59 155 88 90 154 194 93 236 235 96 176 232 82 99 224 221 83 175 204 83 83 174 178 84 153 174 97 85 154 154 91 94 154 103 87 99 163 104 101 157 161 104 103 159 104 171 104 158 104 151 157 157 168 150 88 167 166 162 87 166 165 172 102 163 174 86 99 161 173 97 106 173 172 92 91 171 90 90 164 104 90 165 165 145 91 166 166 136 167 167 126 123 167 167 112 167 168 103 100 168 98 92 168 168 100 83 169 101 101 170 170 99 98 172 96 94 172 173 91 173 173 88 87 174 174 74 174 175 74 73 175 176 72 179 177 70 69 180 177 66 182 182 64 63 184 73 60 187 188 77 79 193 82 84 185 201 88 88 192 79 90 199 201 91 147 210 77 90 217 220 90 238 226 100 103 240 231 110 241 241 177 117 241 240 195 148 240 96 120 145 103 100 144 238 103 108 232 104 115 149 229 104 127 226
104 104 94 209 104 105 107 186 104 110 110 189 110 110 190 190 110 110 191 174 110 191 191 174 104 191 174 174 103 192 175 103 103 175 176 103 103 176 103 102 84 176 102 102 74 102 102 67 65 200 62 61 199 198 60 60 195 176 62 192 191 175 68 187 176 175 184 183 175 101 180 175 175 100 100 174 99 98 87 174 95 94 93 153 88 97 98 79 76 101 163 68 103 103 160 171 103 159 159 170 104 157 169 169 156 157 168 167 151 104 166 171 157 104 147 175 104 162 142 174 98 137 173 95 94 126 172 91 164 117 81 89 165 81 81 71 166 80 91 67 114 80 67 167 127 112 71 141 102 110 82 165 90 168 180 185 85 169 193 78 76 78 195 72 72 78 136 71 78 78 142 75 78 144 145 78 78 146 161 78 147 147 155 77 148 152 151 148 148 149 149 136 148 147 142 143 147 147 147 78 147 148 148 78 58 149 78 79 59 149 79 148 149 221 80 147 147 82 147 147 151 84 146 155 156 88 145 162 165 88 233 175 150 145 235 193 149 101 205 119 146 102 215 145 238 103 116 143 104 109 112 237 104 150 105 236
76 71 123 104 100 192 150 181 107 172 104 167 222 188 156 109 228 189 138 231 190 67 120 231 190 174 228 226 71 174 218 73 73 240 203 74 75 240 78 76 240 239 77 77 238 78 78 238 237 79 63 237 80 80 155 236 80 154 153 81 81 153 152 96 152 152 98 99 152 152 100 198 152 101 102 173 176 102 161 158 172 103 153 85 103 152 151 86 86 151 87 87 156 151 87 87 158 72 87 158 157 106 104 156 104 88 104 153 104 148 147 157 104 147 136 104 163 143 159 104 139 174 160 157 129 83 163 153 170 81 150 149 169 81 73 168 168 90 68 168 91 91 167 167 93 71 141 94 94 168 164 96 97 169 82 98 170 170 77 78 170 74 73 171 171 72 173 173 71 71 174 78 71 175 176 79 71 177 177 75 175 178 73 72 176 70 69 177 177 67 66 178 64 64 178 179 60 65 180 58 58 181 182 57 58 200 58 58 208 211 61 217 220 85 68 228 230 86 234 236 86 86 239 239 86 228 241 86 86 232 112 87 234 234 117 89 234 118 119 234 234 118 118 233 117 116 238 231 113 111 237 112 107 236 236 123
104 104 85 180 104 100 103 183 104 107 185 185 108 108 187 187 177 188 188 174 174 188 174 174 104 189 173 174 103 71 174 103 103 175 175 103 99 175 103 102 85 82 102 77 75 196 102 69 197 198 79 63 199 198 80 154 197 176 63 153 193 175 102 189 96 175 102 98 176 212 101 100 175 101 84 102 168 99 88 102 156 85 93 153 152 86 98 167 86 86 155 164 87 156 156 104 87 157 159 171 157 157 104 170 156 155 104 150 152 104 104 148 87 104 146 145 86 104 142 85 85 137 134 84 94 126 83 82 85 120 81 81 76 81 80 71 70 111 69 69 118 121 69 70 134 119 76 150 157 107 88 174 97 93 169 192 85 78 78 74 77 78 78 75 172 78 139 76 78 78 143 175 78 145 146 177 78 147 160 178 70 147 155 120 67 177 151 132 148 177 64 141 178 148 145 146 179 59 148 78 181 57 195 78 57 58 204 79 148 213 216 83 148 225 81 84 208 233 84 147 219 239 84 225 158 85 85 230 108 151 232 233 115 149 234 117 117 240 234 117 118 238 117 116 238 238 114 237 237 104 109 237 236 114 223 236
175 73 120 125 188 66 148 180 177 186 178 165 162 197 104 149 225 214 136 132 230 104 120 231 231 104 107 227 70 71 106 218 72 239 103 189 74 240 190 190 175 239 192 76 175 102 195 176 238 79 197 176 102 80 155 176 102 80 153 102 102 67 152 102 82 73 187 102 77 152 183 80 81 180 101 175 85 177 175 158 174 173 174 153 170 174 174 82 167 173 73 71 173 172 68 69 172 77 84 104 104 116 129 104 158 156 104 105 158 173 104 158 158 102 103 158 163 100 159 159 160 97 161 156 155 172 163 152 150 170 147 145 169 169 138 168 168 91 125 168 168 92 167 168 92 93 168 168 94 169 169 96 96 169 169 97 170 170 73 95 171 70 70 135 172 68 68 172 185 69 175 175 68 69 176 72 69 177 178 68 114 179 64 63 128 180 60 177 139 78 56 178 183 78 149 179 59 58 149 180 57 149 182 57 57 149 148 58 213 148 148 63 224 149 150 150 233 151 80 151 85 83 151 240 88 147 151 92 84 146 151 97 146 233 99 100 146 233 102 147 147 216 116 148 148 221 143 149 223 224 142 225 225 141 142 227
109 104 75 70 130 185 98 180 162 172 105 183 161 156 220 184 144 225 226 64 127 230 186 66 230 230 68 173 226 225 71 238 103 73 73 240 80 74 240 240 78 75 239 78 78 239 239 79 79 238 79 79 157 156 80 80 154 86 81 153 153 91 69 152 94 95 152 152 97 213 151 99 100 187 152 101 169 165 84 102 156 85 85 174 152 85 86 174 80 86 154 150 86 86 155 71 87 156 156 98 87 157 104 104 105 155 104 150 104 158 104 148 144 158 165 145 159 104 161 141 160 158 136 173 83 153 171 82 92 147 169 81 78 168 168 91 72 168 168 91 167 168 92 92 168 168 93 169 169 84 95 169 78 76 170 170 72 84 170 70 69 172 171 68 68 173 68 67 174 175 68 176 176 71 69 177 177 66 175 178 62 61 176 180 58 177 177 54 53 178 178 52 178 178 59 59 179 57 57 192 181 56 57 201 57 57 209 212 59 60 222 80 65 229 231 81 150 236 82 82 219 240 82 225 227 83 83 230 231 83 232 233 114 84 233 233 116 146 233 116 116 147 218 114 238 237 112 111 237 100 107 236 236 109 101 236
104 174 203 122 187 196 194 104 174 188 186 104 105 182 104 104 106 176 104 107 107 184 104 107 184 67 107 107 184 70 106 184 184 174 103 185 185 175 186 186 175 175 188 176 176 102 102 176 176 102 66 176 102 102 62 176 102 63 63 102 102 67 69 102 72 74 190 188 77 186 185 175 82 182 181 175 180 178 175 175 176 175 174 93 172 175 174 84 103 174 76 73 103 173 71 104 104 82 91 105 105 127 105 105 159 164 105 105 158 86 104 158 158 103 139 159 163 162 159 160 159 174 161 156 154 172 163 149 170 170 105 141 169 91 109 128 168 91 91 127 80 92 168 168 79 93 169 79 94 95 169 78 94 170 197 78 120 170 69 128 131 199 67 173 139 192 86 174 184 181 94 176 173 103 177 78 164 115 78 59 125 128 78 54 136 78 78 149 177 78 78 149 148 78 149 149 148 78 149 148 148 149 149 148 149 149 148 148 149 221 148 150 150 81 150 150 150 83 151 151 85 86 151 88 89 147 152 93 94 146 240 97 146 146 201 101 146 211 213 86 147 218 219 148 229 221 144 150 224 108 143 222 226 142 142 217
105 108 191 199 126 183 180 204 160 170 209 211 158 154 216 61 141 221 223 62 126 228 64 65 231 229 67 68 236 183 70 239 239 183 72 240 82 74 175 240 79 175 240 102 79 171 239 79 70 162 102 79 158 156 102 62 154 84 102 65 196 88 69 70 193 93 75 190 95 175 208 185 98 188 101 182 176 165 84 178 175 97 84 175 175 90 98 174 83 79 101 173 73 103 104 164 79 105 155 161 105 105 160 104 105 159 159 169 104 159 159 166 159 159 165 164 177 160 161 175 175 158 156 173 172 152 171 171 92 144 170 91 92 169 169 91 91 168 91 91 168 168 92 92 169 89 93 169 169 79 170 170 74 72 170 170 69 171 171 67 67 173 172 66 174 174 76 66 175 70 68 176 176 63 62 177 59 58 176 179 53 53 176 78 49 177 177 63 46 178 61 60 149 179 58 188 179 148 56 195 181 56 149 205 148 57 214 217 148 149 226 78 78 150 82 80 210 151 84 80 220 87 81 147 227 91 81 230 178 95 146 232 113 99 147 207 115 238 147 216 146 238 220 221 144 237 222 143 143 104 225 142 236 104 142 142
170 171 207 204 174 175 196 104 178 190 188 104 104 183 104 104 105 178 104 106 106 104 104 106 106 104 106 106 181 103 105 105 182 87 104 182 182 175 199 183 175 175 182 185 175 102 187 76 176 102 191 176 238 102 80 176 102 102 64 236 102 67 69 232 81 73 192 223 82 79 188 82 82 151 183 83 86 181 100 84 151 177 175 153 152 102 174 86 153 103 150 76 103 103 150 76 103 150 150 86 103 150 148 86 150 150 86 105 152 86 86 148 159 85 85 138 104 85 128 125 104 84 113 104 104 101 98 105 131 131 106 107 129 130 111 129 128 80 122 126 125 79 95 119 79 79 113 110 79 103 103 78 78 116 200 78 126 128 202 78 135 200 197 80 141 190 188 71 173 180 106 146 172 65 117 175 163 126 129 78 65 136 78 78 64 143 78 149 61 183 78 149 148 187 45 149 191 78 52 181 148 59 149 184 148 69 188 148 60 75 196 149 150 204 206 75 151 214 84 87 241 223 96 98 241 81 106 241 240 81 111 240 81 82 239 239 83 147 238 84 85 229 237 86 227 226 89 91 223 222 104 219 218 100 98 213
82 79 195 196 71 69 199 66 64 166 205 62 61 195 179 61 210 214 61 61 224 121 63 230 232 110 228 235 101 98 225 238 90 219 216 103 83 206 202 81 91 188 74 79 177 184 76 73 166 77 77 238 192 79 238 238 195 82 236 80 197 175 234 81 89 176 102 81 176 214 102 82 151 102 83 85 151 101 88 151 179 98 93 152 102 97 98 173 102 101 170 169 174 104 167 166 173 91 164 172 150 142 161 171 168 86 170 169 179 86 168 180 180 103 164 178 102 101 177 176 99 98 162 96 96 163 164 94 93 165 135 92 166 166 121 167 167 109 105 168 168 94 169 169 85 83 169 170 76 170 170 93 70 171 171 91 172 172 87 85 173 82 80 172 174 72 70 173 65 63 174 174 65 56 175 65 65 176 176 65 180 176 64 64 181 177 62 183 183 149 60 186 187 42 149 191 46 49 196 199 56 183 207 65 67 187 79 72 192 194 81 76 201 71 73 148 212 82 85 147 158 94 241 226 168 152 241 180 109 151 240 197 150 239 101 210 148 238 83 148 146 103 85 227 144 104 150 223 104 104 151 225 104 152 212 227
192 169 209 207 104 69 199 104 104 64 190 104 102 61 200 104 105 214 217 127 106 226 104 115 227 233 107 105 228 178 96 225 178 70 87 215 72 174 204 200 74 174 186 75 75 240 172 76 76 239 80 77 238 102 80 79 237 80 65 236 236 80 152 233 81 81 151 224 81 151 151 82 82 151 151 97 151 151 99 100 151 100 101 152 152 101 102 151 173 102 150 150 102 103 150 86 103 150 150 86 86 150 86 86 154 150 86 153 152 181 85 149 148 180 103 141 103 84 101 129 103 141 118 162 104 137 164 105 138 134 165 108 132 170 167 113 129 80 168 98 169 80 88 85 169 79 103 170 79 92 115 171 92 123 171 172 88 132 203 83 81 172 197 75 72 173 63 65 174 174 64 177 175 64 64 178 175 64 179 180 64 64 181 78 62 182 183 38 61 185 186 38 179 189 42 44 180 48 51 181 182 59 62 185 57 68 189 191 61 74 197 67 69 205 207 77 240 240 86 89 241 241 98 241 241 80 106 240 240 80 240 239 80 81 238 238 81 230 238 83 83 227 111 85 225 224 107 89 220 104 103 216 214 98 96 208
86 82 47 193 73 127 77 173 65 163 98 176 187 194 177 60 181 214 130 177 223 104 117 173 104 110 105 172 103 99 226 103 103 104 219 103 103 101 177 73 93 90 179 175 81 180 181 175 73 184 175 176 188 189 176 237 193 176 176 102 196 176 176 102 72 176 102 102 78 102 102 82 83 102 102 86 185 101 89 90 182 99 94 179 178 98 98 175 175 174 172 171 174 174 169 173 173 98 165 173 172 151 172 171 174 177 170 169 182 105 168 181 181 103 161 179 102 101 161 176 99 162 162 97 96 163 164 94 165 165 129 93 166 118 113 169 167 102 98 169 140 88 169 170 165 78 170 92 72 108 171 91 67 172 89 88 101 173 83 172 172 78 74 173 173 78 145 174 63 57 147 175 63 147 175 163 64 148 158 64 143 149 154 62 182 78 150 148 185 35 149 149 78 39 149 149 79 48 149 79 79 149 150 79 149 149 149 80 149 195 150 149 148 151 75 148 148 155 152 147 161 163 152 170 173 152 152 186 190 152 98 99 150 150 101 81 148 102 103 148 146 103 103 149 236 104 150 151 104 151 152 225 104 152 152 227
190 190 81 77 192 192 69 142 196 65 63 178 175 61 199 205 137 60 217 126 123 175 228 115 112 233 103 105 226 237 98 105 224 103 89 218 215 102 99 204 73 73 88 188 74 240 78 180 75 239 165 76 175 238 189 78 237 102 193 176 236 80 196 176 102 81 151 176 102 81 151 102 102 85 151 102 88 89 185 100 92 151 181 95 96 178 101 175 101 174 175 150 172 171 174 150 168 174 173 128 165 172 164 171 171 171 181 182 169 182 182 105 149 180 180 103 162 178 101 100 162 99 98 163 164 96 95 165 133 93 166 166 118 92 167 106 102 170 168 92 88 170 83 80 170 170 74 171 171 91 68 172 172 89 172 173 85 83 172 174 77 173 173 69 66 174 63 58 174 174 63 49 175 63 63 148 176 63 63 176 156 63 181 182 61 148 184 33 59 186 187 36 149 192 41 44 149 201 51 182 209 79 62 186 222 69 149 192 63 74 199 150 71 148 209 80 82 148 158 91 241 147 169 101 240 180 184 152 240 196 151 150 100 80 149 238 102 148 147 103 82 149 146 104 150 220 104 104 151 215 104 152 152 226 95 152
164 104 41 46 168 104 68 171 172 196 94 174 174 188 175 175 182 180 176 178 176 104 176 174 173 103 173 172 103 103 105 172 103 105 104 103 102 101 174 102 95 92 175 102 83 177 177 80 74 181 181 70 162 185 175 175 189 190 176 102 194 176 176 102 84 176 102 102 88 176 102 83 176 194 102 87 176 101 83 91 185 99 95 151 180 84 99 178 177 84 151 174 175 85 152 170 174 152 152 102 173 158 165 103 150 181 103 170 149 85 103 149 182 84 103 147 84 101 146 145 83 99 143 82 82 120 165 82 112 110 109 81 105 167 117 103 103 129 92 105 106 152 123 111 171 177 117 119 191 112 111 79 202 109 79 79 109 109 79 78 112 78 79 144 119 78 78 146 177 78 147 147 169 43 148 163 161 148 148 156 146 149 153 152 148 149 150 149 149 178 149 149 78 179 56 150 79 79 55 209 79 149 150 222 80 149 229 80 73 149 236 82 149 152 240 77 148 158 78 78 223 168 153 148 227 105 152 229 195 110 151 229 111 149 238 228 112 237 103 111 111 236 103 108 236 236 85 151 235 235 88 209 235 93 94 201
193 190 188 106 181 54 190 171 167 193 172 155 151 199 60 139 205 207 59 125 213 59 60 230 220 61 234 235 63 64 238 238 67 239 239 89 70 240 240 83 174 241 81 81 189 102 80 177 174 80 80 165 76 80 160 158 77 80 155 79 79 68 153 82 83 74 197 85 221 217 196 176 201 82 92 176 176 82 175 162 83 83 175 153 83 151 175 92 84 151 87 85 104 152 101 85 106 170 102 107 152 167 102 107 165 103 170 106 164 103 149 163 163 164 148 84 160 159 178 83 152 150 175 97 142 174 173 95 128 172 93 93 171 171 92 168 171 92 91 169 148 91 170 170 74 90 171 171 68 171 172 66 65 172 64 64 174 172 62 62 175 62 62 176 176 58 62 177 50 48 178 178 42 40 179 37 36 176 181 33 177 177 30 30 177 178 60 178 178 58 57 179 179 56 198 180 55 55 209 148 56 219 222 58 59 229 70 62 235 236 74 75 240 75 76 213 241 77 77 221 89 78 225 226 93 148 228 108 79 148 229 111 148 228 112 111 237 226 110 237 236 222 109 236 82 223 145 235 85 101 144 104 90 144 234 104
161 162 35 39 165 209 57 168 170 199 87 171 192 190 199 174 185 104 206 59 178 104 104 59 231 103 105 172 103 103 105 238 103 104 105 239 88 102 172 240 83 95 172 81 81 188 174 175 76 173 75 176 165 180 76 176 158 77 175 236 154 79 234 102 82 82 227 103 85 217 213 81 85 196 190 82 150 172 82 82 150 83 83 150 150 83 84 151 100 84 151 151 101 174 151 101 101 149 152 102 102 150 102 102 150 149 102 150 150 84 103 149 148 84 163 148 83 83 142 146 83 137 134 82 82 128 106 81 121 120 110 81 115 117 120 92 114 134 139 91 170 158 125 124 170 181 120 79 195 67 117 79 64 117 174 79 63 119 79 72 62 176 79 145 146 177 52 147 177 178 43 175 168 38 36 176 160 32 176 177 61 29 177 152 60 178 178 58 149 79 179 57 195 79 56 55 206 51 55 215 219 62 57 227 68 69 233 235 73 149 239 75 75 208 155 76 216 218 91 77 223 224 101 226 226 106 107 228 228 110 238 228 111 111 237 237 111 237 236 80 109 236 81 82 236 235 83 84 236 85 86 204 235 89 91 195
90 190 217 103 104 176 208 134 165 76 198 104 148 195 172 104 102 202 59 104 104 174 59 104 104 173 60 105 173 173 172 105 172 66 172 102 171 172 240 102 173 173 102 81 174 174 102 79 175 102 102 72 175 102 68 67 102 102 66 188 189 68 69 194 81 73 196 197 176 81 198 198 176 197 196 176 176 193 192 176 101 189 176 175 98 99 176 94 93 102 175 88 104 105 90 95 106 106 130 107 107 170 175 107 167 167 170 106 166 165 167 165 165 163 162 164 164 157 178 165 150 147 176 165 138 174 174 107 122 173 93 93 172 172 92 92 172 91 91 170 172 91 90 171 79 90 171 172 79 133 172 64 84 138 173 62 175 173 199 62 176 174 62 132 177 184 62 178 178 174 142 179 37 165 146 79 31 176 148 79 28 177 79 79 149 178 79 30 149 149 79 149 179 148 149 149 148 55 149 149 148 150 227 149 149 150 235 150 151 151 82 153 152 241 85 153 153 87 77 154 90 91 148 154 94 95 148 199 98 148 148 211 101 148 216 217 148 149 220 147 150 221 222 146 150 223 145 145 104 225 144 144 104 93 145 104
184 92 186 182 185 175 172 186 187 160 156 190 64 62 194 196 59 185 201 58 58 224 210 59 59 232 60 60 235 236 63 237 238 96 66 239 240 88 217 240 84 83 205 240 81 193 189 102 80 177 75 80 71 165 76 80 160 182 77 67 155 78 78 232 193 80 227 225 197 84 214 81 199 176 193 81 176 176 102 82 176 158 100 97 150 98 83 101 150 93 103 151 99 89 106 176 100 107 107 173 101 107 170 170 171 106 168 102 169 186 166 166 149 183 166 160 180 83 154 151 177 98 142 176 175 96 127 174 94 94 173 173 93 92 169 91 91 170 170 90 171 171 74 90 171 172 68 172 172 66 65 173 173 63 175 175 62 62 176 176 62 177 177 55 62 178 47 45 179 179 38 37 180 33 32 176 181 29 28 177 61 27 177 178 59 178 178 58 57 179 179 56 201 180 55 55 212 182 55 222 225 149 58 232 233 70 151 238 73 73 240 83 75 210 241 76 76 219 89 77 223 224 93 78 227 107 108 148 227 110 238 148 214 110 237 223 219 148 236 220 108 235 235 222 146 235 82 224 145 235 84 199 145 104 88 189
104 104 218 217 104 104 44 104 104 65 74 104 87 92 170 104 100 102 172 103 103 172 172 104 104 172 173 172 171 171 171 171 170 171 171 102 169 172 102 102 172 173 102 102 173 102 102 81 174 102 102 74 173 102 69 68 178 67 67 183 185 68 69 190 176 73 195 196 176 81 199 176 176 150 199 176 176 102 90 176 101 101 176 155 99 100 176 96 95 103 150 91 105 106 149 100 106 176 175 84 107 173 172 84 151 170 170 106 168 101 166 150 167 163 161 148 102 155 179 145 103 144 177 97 105 144 175 95 142 142 81 93 139 173 80 129 136 80 91 130 133 80 131 172 79 79 135 193 66 138 139 201 63 142 202 201 131 144 197 195 135 192 189 138 140 182 180 143 79 79 145 146 79 148 148 79 79 149 149 79 149 149 79 79 149 149 79 149 149 149 79 149 149 149 149 149 148 148 150 184 148 150 150 149 149 151 81 150 152 152 83 154 153 85 85 87 154 88 148 148 240 92 148 148 239 78 148 204 99 79 148 213 79 149 223 218 79 220 220 108 147 215 222 146 235 209 102 146 104 201 97 234 104 92 90 234
183 89 185 182 182 85 170 183 183 71 68 186 65 64 94 191 60 208 102 171 58 223 204 172 176 231 171 59 172 103 103 171 237 103 96 171 102 90 102 172 102 84 209 102 102 88 195 102 102 78 169 102 73 72 174 175 68 178 179 176 67 184 175 175 189 191 176 225 196 176 176 103 200 176 103 102 93 176 102 102 96 101 101 99 100 99 98 102 187 95 104 105 182 93 106 180 179 107 107 176 173 173 173 173 171 170 171 169 168 187 169 165 164 184 161 158 181 181 152 179 179 98 139 177 176 96 168 175 94 94 169 174 92 170 170 91 91 171 171 90 172 172 72 89 173 69 68 174 173 65 64 175 201 63 176 176 62 62 177 63 62 177 178 50 142 179 42 40 146 180 34 176 176 79 28 177 177 79 149 177 60 25 149 178 58 149 178 150 57 149 149 56 149 149 148 55 219 79 148 150 230 66 149 150 81 71 151 152 82 149 152 84 84 149 154 87 148 220 172 90 148 224 104 148 148 199 108 148 208 210 151 148 215 216 149 218 219 148 147 220 221 146 104 104 146 146 104 80 146 104 104 153 146 104 154 154
220 104 99 219 104 104 84 125 104 55 205 104 104 85 187 104 98 100 170 104 103 171 171 112 104 170 170 107 214 170 171 104 220 63 171 221 167 66 172 218 69 173 240 102 71 173 102 81 73 239 102 76 238 238 80 70 237 236 80 158 235 80 80 154 187 80 153 152 79 80 151 198 82 151 150 85 176 150 87 88 165 150 91 92 154 93 94 151 151 83 96 150 83 83 149 149 83 151 149 83 83 150 149 83 151 150 83 83 150 150 83 150 150 101 101 148 148 102 148 147 103 103 147 169 105 145 145 169 110 143 80 117 98 140 80 133 139 174 80 136 136 80 89 138 175 79 139 140 175 83 142 200 176 76 144 199 69 66 175 194 141 147 175 61 145 175 178 62 180 176 61 148 79 176 61 182 79 61 60 185 79 59 188 189 27 149 195 31 33 179 204 41 149 181 49 52 183 148 60 62 187 59 68 191 193 65 72 199 71 74 241 208 82 241 240 90 93 240 239 99 239 239 78 105 238 238 79 237 237 79 79 223 79 79 220 219 79 79 216 107 79 211 209 104 79 204 100 99 197 195 95 94 187 90 89 233
182 104 90 180 158 91 115 123 79 209 150 148 67 177 104 132 192 205 123 120 184 104 114 201 177 103 108 209 103 103 104 216 61 99 219 167 65 104 219 67 172 101 165 70 239 91 165 173 239 166 166 174 238 169 175 175 102 79 175 102 102 69 176 103 80 73 103 103 79 152 103 103 87 200 103 92 94 202 86 97 200 199 176 101 196 176 176 192 192 176 175 188 175 175 101 184 174 174 146 174 173 181 187 108 192 192 106 106 190 189 105 171 186 103 102 170 182 101 170 170 99 98 170 170 96 170 170 116 112 171 103 100 175 171 89 87 175 81 79 175 175 73 71 175 87 68 175 176 83 138 176 78 76 175 177 69 175 175 79 58 175 175 49 147 176 62 39 176 176 61 148 177 61 61 183 159 61 185 185 154 59 189 26 151 150 195 31 57 202 79 40 149 214 48 149 150 80 59 185 186 80 149 190 63 81 149 198 71 149 149 156 81 149 214 164 154 148 174 98 155 185 190 154 237 97 203 153 100 79 151 151 102 79 150 103 103 149 148 103 150 151 104 104 151 151 222 152 152 224 96 153 153 226 147 154 228
83 104 103 100 100 172 89 121 130 155 52 157 143 139 184 190 128 97 189 119 117 194 170 111 110 202 57 106 208 210 58 214 215 61 62 238 219 65 239 239 67 68 240 239 70 239 239 81 72 239 80 80 174 238 80 80 167 102 79 160 159 79 80 155 77 80 153 153 78 80 152 79 80 89 151 82 189 95 202 85 168 164 88 176 156 82 91 152 151 82 175 150 82 83 175 109 83 150 174 162 83 150 189 192 107 150 99 82 106 174 100 104 149 172 100 102 171 101 148 99 171 138 147 171 171 123 146 80 110 106 176 80 95 91 176 90 83 175 175 88 175 176 87 142 176 176 84 174 176 80 79 175 199 72 175 175 62 61 176 175 62 176 176 62 61 176 61 61 181 177 61 61 182 61 61 184 185 25 60 188 25 26 192 193 29 179 200 34 36 180 211 44 181 182 52 55 183 184 58 187 188 61 62 193 195 67 240 201 74 77 241 159 85 240 240 92 95 239 77 101 238 238 78 78 237 78 78 223 236 79 220 220 102 79 217 216 78 150 212 106 78 206 205 103 151 198 99 98 234 188 94 233 233 227 87 233
150 151 220 93 155 157 218 104 160 212 145 104 205 203 104 131 195 193 104 100 187 104 104 103 197 103 104 104 169 103 104 104 168 104 104 167 166 104 165 165 171 102 164 164 173 163 163 173 173 102 164 174 102 102 174 175 102 70 175 102 102 69 176 103 71 73 103 103 78 80 192 85 86 197 199 92 95 202 176 99 203 203 176 150 201 176 176 198 197 176 98 193 175 175 105 111 174 135 150 108 173 186 108 108 149 195 107 106 193 82 104 174 188 103 102 173 81 100 172 172 141 98 172 130 126 146 172 113 177 144 117 98 177 173 133 143 176 148 78 142 176 87 142 176 79 84 142 79 80 175 142 79 73 175 79 79 147 176 79 79 147 187 79 148 176 178 62 148 170 62 149 149 163 149 185 157 157 149 188 153 150 150 79 151 149 149 79 149 149 79 79 149 79 79 149 149 80 80 149 149 81 149 149 150 82 149 152 153 149 149 159 161 155 165 168 155 155 179 155 155 94 194 154 154 98 107 153 100 101 109 151 102 149 150 235 103 150 219 104 78 151 220 104 151 222 222 78 153 224 224 77 180 226 148 154 169
81 84 151 105 97 103 157 217 125 154 79 210 160 137 202 185 104 123 192 210 116 101 184 103 110 196 168 103 104 205 57 103 104 167 60 104 104 165 63 103 164 164 172 100 163 173 239 102 162 174 238 80 174 174 102 79 175 175 102 70 175 102 102 70 176 103 74 76 103 103 82 192 194 88 91 199 80 97 203 204 176 102 204 204 176 203 202 176 176 199 175 175 100 193 175 174 124 109 174 167 179 108 172 197 107 107 196 195 105 105 191 104 104 175 186 101 174 174 147 98 173 173 133 173 173 121 116 174 174 104 177 174 93 90 177 139 82 177 177 76 74 177 85 84 177 177 81 80 177 77 75 176 178 69 66 176 79 58 176 176 79 148 176 62 39 148 177 62 182 177 166 61 184 177 61 149 187 155 59 191 79 152 149 199 31 150 149 79 40 181 149 79 51 183 80 80 149 186 80 149 190 150 81 149 197 70 149 149 156 80 149 149 165 155 239 174 178 155 237 190 155 155 97 203 154 99 100 152 152 102 79 151 103 103 150 150 103 103 150 219 104 151 151 221 152 153 223 223 153 153 225 148 154 226 227 150
23 148 219 25 153 154 219 176 158 215 213 161 162 206 104 104 199 196 104 104 189 104 103 102 182 103 103 104 232 103 104 104 236 102 104 165 102 95 104 164 171 103 215 162 172 97 162 70 173 199 162 173 102 185 73 174 102 171 74 233 102 70 175 230 103 73 225 103 80 80 217 103 86 151 203 80 95 202 81 81 150 205 81 81 150 86 176 150 150 88 175 150 90 91 149 150 92 149 149 94 94 149 195 95 149 149 82 96 149 149 81 149 149 81 81 149 149 81 149 148 81 81 147 103 80 147 147 109 80 146 118 121 146 145 134 139 145 175 155 145 145 171 71 145 79 186 145 145 79 65 146 79 79 64 147 79 147 147 180 79 148 148 79 40 148 175 79 149 177 167 28 149 161 159 26 178 156 150 26 178 152 149 79 179 57 149 79 56 56 220 79 56 150 230 58 57 236 80 66 61 240 70 149 196 241 74 203 155 75 75 211 164 76 216 217 96 77 220 221 102 221 221 106 154 220 220 108 235 101 108 108 234 78 107 234 234 78 106 234 77 78 233 233 77 77 233 76 76 181 233 76 173 170 87 76 162
216 82 148 150 220 104 154 219 218 104 158 213 104 104 206 203 104 104 90 104 104 100 185 103 103 103 168 103 104 104 167 104 104 166 166 104 104 165 170 170 163 163 171 102 162 172 172 102 161 173 102 102 173 174 102 102 174 102 102 71 175 102 102 70 172 103 74 75 181 79 81 188 190 88 91 196 176 97 202 203 176 103 206 176 176 150 206 176 101 100 87 176 102 104 175 149 126 110 174 169 182 109 149 201 108 107 149 199 106 182 181 81 103 179 156 101 148 177 145 98 177 101 131 148 176 119 114 147 112 103 179 146 126 147 178 88 145 146 178 85 146 146 79 83 146 178 79 146 147 79 71 147 148 79 147 177 79 79 148 187 63 148 148 179 62 149 172 170 150 149 164 61 149 159 158 150 191 154 149 149 79 30 149 149 79 149 149 79 79 149 150 80 149 149 80 80 149 149 81 149 149 150 82 149 153 154 155 149 159 161 156 213 169 156 156 180 183 156 93 194 155 154 97 107 154 100 100 108 153 102 149 149 234 103 150 150 233 78 151 219 104 77 152 220 76 153 182 222 75 174 224 89 150 163 227 152
179 145 217 180 176 108 219 104 174 93 216 104 79 76 168 104 67 200 197 117 61 213 103 110 57 225 107 104 231 232 105 200 166 102 101 208 165 97 212 213 62 90 214 162 66 212 210 69 173 204 71 71 236 102 72 73 234 79 74 233 232 79 75 229 79 79 224 222 80 80 216 80 80 152 204 80 151 151 79 80 150 150 81 106 150 82 83 150 150 85 151 149 87 88 150 200 89 149 149 194 91 149 82 82 170 149 81 81 166 198 81 149 149 192 81 149 188 80 98 148 184 96 148 103 104 93 147 110 148 91 177 122 148 146 177 84 147 177 156 76 178 177 72 147 179 177 68 179 79 72 65 180 79 147 180 180 55 148 181 181 44 177 182 37 36 177 32 31 177 178 28 27 178 60 60 178 178 59 149 179 58 58 207 180 57 216 219 56 56 227 229 57 233 235 62 64 239 239 68 191 241 71 72 199 241 74 205 207 75 76 212 90 76 216 217 98 78 219 102 104 235 219 106 107 234 108 108 234 234 108 234 233 79 107 233 233 78 150 233 77 77 233 233 76 184 181 75 74 173 170 73 165 162 86 73 154
124 104 22 177 113 170 25 152 100 29 173 157 214 43 160 72 205 74 163 197 206 103 165 188 221 108 182 180 103 105 176 174 102 104 172 102 102 104 102 102 104 104 101 101 102 161 160 98 95 160 70 87 160 160 174 78 160 174 174 162 164 175 175 167 175 176 103 103 176 176 103 83 176 103 103 92 176 103 99 101 103 103 105 207 102 108 109 209 101 111 209 208 175 111 204 203 174 200 199 173 173 195 172 171 206 190 168 167 202 93 163 196 195 157 155 190 100 99 187 186 96 96 184 94 93 179 182 92 179 178 80 89 178 178 80 147 178 80 79 178 178 74 179 178 70 69 179 187 67 180 180 191 65 181 59 190 150 181 48 63 150 79 38 178 184 79 32 178 79 28 149 178 79 149 178 156 79 149 179 58 149 149 150 57 149 149 149 150 227 148 148 150 80 148 151 151 81 149 152 81 82 153 154 83 74 155 84 85 149 211 87 87 149 177 90 149 149 192 149 148 201 202 148 148 208 154 149 211 212 153 149 214 151 152 103 216 150 104 104 150 149 104 104 150 104 104 153 149 104 104 154 232 104 155 155 231
179 178 122 180 175 174 111 25 172 100 96 32 172 82 162 173 161 69 192 116 63 194 212 110 58 222 107 106 180 230 105 104 174 102 102 202 236 102 97 209 101 92 103 212 64 102 211 160 68 95 204 70 173 84 160 72 233 77 160 174 231 163 164 175 103 168 176 176 103 79 176 103 103 87 176 103 80 96 103 103 103 150 103 102 108 209 102 111 111 211 176 111 209 209 175 111 205 174 174 201 200 172 149 196 170 169 208 191 166 203 201 161 159 195 193 100 191 189 98 97 187 186 95 181 184 92 92 180 182 89 180 180 88 87 179 85 85 179 179 77 76 179 73 72 180 178 69 68 180 67 67 181 181 65 181 182 52 64 182 183 42 150 184 36 34 178 186 31 178 178 79 28 178 178 28 179 179 59 31 179 58 57 149 180 57 57 226 148 57 233 235 148 57 238 64 60 152 240 70 153 241 82 73 155 239 74 149 156 86 76 213 214 89 149 216 100 93 149 217 104 148 148 205 107 149 209 210 154 149 212 107 152 214 214 151 232 104 216 151 104 76 150 150 104 153 150 104 104 154 151 104 155 155 104 104 156
210 104 21 22 104 104 24 149 104 27 28 155 155 36 157 158 209 62 161 162 198 163 164 191 189 165 185 183 103 166 178 177 102 104 173 102 102 104 171 101 104 104 101 101 103 102 101 100 99 159 101 91 159 159 80 81 159 160 174 179 161 175 175 167 165 175 103 169 75 176 103 75 176 206 103 76 176 103 80 77 182 103 105 107 165 81 110 211 155 81 112 212 81 81 149 210 81 149 149 86 81 149 201 88 149 149 89 167 207 149 91 149 199 92 92 149 80 94 149 149 80 98 149 80 80 149 149 79 90 148 79 79 148 181 79 79 147 150 79 147 147 168 147 147 178 180 147 147 186 149 148 188 189 150 150 187 150 150 79 182 150 79 79 63 150 79 79 150 190 79 149 149 79 79 149 201 79 149 149 151 79 149 150 149 44 149 148 150 54 183 148 151 149 187 60 152 190 149 65 154 82 70 155 83 83 80 238 85 149 89 236 89 149 235 234 78 149 234 95 79 215 233 80 149 212 209 80 208 211 107 79 202 106 152 196 194 104 151 188 102 101 232 178 97 96 232 94 92 231 231 69 231 231 69 70 230
20 178 128 104 22 145 117 24 24 150 103 134 154 155 214 164 159 73 206 104 162 198 207 103 191 189 103 106 183 181 102 104 176 102 102 104 197 102 104 104 163 101 104 162 161 103 102 160 159 98 159 159 172 88 158 158 174 158 159 174 174 102 161 175 102 103 176 176 103 78 176 103 103 86 176 103 93 96 103 103 103 104 200 107 109 207 209 112 212 213 176 113 214 214 175 213 212 174 174 209 207 172 203 203 170 169 213 212 166 209 206 103 159 200 100 99 149 193 97 96 190 80 93 185 186 91 91 184 79 88 183 182 94 148 182 86 84 147 181 78 182 147 170 73 182 180 181 150 182 186 67 183 183 57 150 184 49 47 150 79 41 179 150 79 34 178 79 79 149 179 79 30 149 156 79 149 179 152 149 149 150 57 150 149 148 150 233 148 148 151 238 148 151 152 81 148 153 153 82 154 155 83 83 149 84 85 149 149 87 87 149 178 90 149 149 191 94 149 198 201 149 149 205 156 155 208 209 154 154 211 153 153 103 213 152 152 104 103 151 104 104 99 231 104 153 152 104 104 154 222 104 155 156 226 104 157
78 104 20 21 142 170 22 146 148 150 26 152 218 131 169 156 212 50 159 70 203 172 162 195 193 103 58 186 103 102 54 229 102 104 54 232 102 104 234 234 97 104 235 101 89 208 235 85 101 207 66 82 204 158 69 80 194 71 174 185 181 73 174 172 74 74 219 162 74 74 211 75 75 204 201 80 195 192 80 100 182 178 80 150 167 80 80 150 156 80 149 149 80 80 149 82 82 149 149 83 84 149 84 85 149 149 86 87 149 199 88 149 149 89 90 149 80 92 149 149 80 149 149 80 79 148 149 79 148 148 185 79 148 148 184 83 148 148 79 80 182 165 76 148 181 178 149 180 183 69 150 180 185 150 185 179 66 150 79 179 64 188 79 63 63 192 32 149 196 197 31 149 203 32 149 180 213 35 149 150 40 42 182 148 49 183 183 57 58 185 186 59 240 189 62 63 240 194 68 239 239 74 76 238 84 83 236 235 77 92 234 78 78 233 233 79 79 213 80 80 211 210 80 80 207 107 80 203 201 107 198 196 105 105 190 188 103 231 231 101 100 231 231 97 231 231 70 92 230 67 67 230 229 67 68 229
20 20 138 104 21 21 143 22 23 148 149 26 151 152 217 35 156 157 210 169 160 202 200 162 162 193 103 103 186 184 102 102 179 102 102 104 173 101 104 104 234 101 104 104 234 88 103 160 101 83 99 158 172 92 158 158 173 193 158 174 174 181 159 175 102 169 74 176 103 166 74 206 103 84 176 196 103 94 187 103 80 103 174 80 109 150 161 80 113 212 80 80 149 216 80 80 149 81 174 149 149 83 149 149 84 84 149 149 85 149 149 87 88 149 204 89 149 149 80 93 149 149 80 149 149 79 79 148 79 79 148 148 79 79 148 138 79 148 148 156 79 148 167 171 150 148 178 150 150 182 183 150 150 184 150 150 79 180 150 150 79 64 149 79 79 63 149 79 149 149 203 79 149 155 79 35 149 151 79 149 182 149 46 149 148 148 55 184 147 151 64 187 61 153 81 193 66 155 82 71 73 237 84 80 157 235 76 89 234 88 149 97 232 79 149 193 231 80 211 201 81 81 207 205 81 203 201 107 80 196 209 106 191 189 104 152 181 102 101 231 104 98 97 231 71 93 230 230 67 88 229 66 65 229 229 69
78 80 186 181 89 93 165 172 109 149 144 169 134 131 168 168 88 118 168 75 72 169 169 65 63 172 60 58 220 176 55 55 227 164 53 230 231 163 54 232 99 97 170 233 91 204 233 101 85 206 232 82 98 203 101 80 198 196 102 81 187 72 102 76 160 73 215 76 163 74 206 167 169 176 196 174 75 187 103 184 176 176 80 195 176 103 80 150 176 104 114 149 108 110 115 149 126 114 114 218 174 111 149 215 109 108 211 84 105 207 206 160 149 202 201 152 204 197 144 141 197 193 130 193 192 120 116 190 189 106 188 188 84 94 186 81 80 185 186 77 76 183 74 72 182 182 67 65 181 71 59 181 181 68 180 180 67 66 190 180 65 193 194 64 64 198 200 62 204 205 33 61 212 215 36 220 222 40 42 229 45 47 183 183 54 56 185 59 62 187 188 61 68 191 64 66 149 197 71 237 201 156 80 235 207 86 158 233 78 95 232 232 79 158 231 80 80 157 230 81 207 157 101 81 201 102 102 150 194 106 80 189 209 104 151 179 102 102 152 213 99 230 154 216 154 230 219 219 156 229 222 159 160 104 67 164
201 134 205 208 104 139 213 104 104 22 218 104 104 26 104 104 33 36 104 104 54 158 103 79 85 161 95 98 163 163 186 102 163 180 178 163 163 174 173 163 171 171 101 162 170 170 101 170 170 101 101 171 101 101 95 92 101 102 85 157 102 79 78 158 102 76 160 161 79 78 164 176 82 157 170 176 90 177 75 177 103 186 177 177 103 76 176 104 104 77 176 106 115 176 150 119 115 149 145 80 112 220 196 110 149 216 80 106 213 211 80 149 207 156 80 149 88 146 149 149 92 134 149 97 99 149 193 106 110 149 79 120 149 189 79 136 149 79 77 149 149 79 148 150 79 79 149 150 79 149 149 180 79 149 149 178 149 149 175 66 149 170 168 149 149 163 162 149 180 157 149 149 79 153 150 80 80 150 150 80 80 150 80 80 149 151 80 149 149 240 80 149 149 81 71 149 150 152 149 149 155 157 149 162 164 159 209 173 158 159 210 185 159 93 210 104 158 97 199 106 230 100 150 157 229 102 150 229 103 80 151 229 79 151 178 230 77 152 211 74 73 160 214 154 69 150 91 157 142 140 85 228 134 81 165 227
199 80 187 182 208 104 165 172 171 104 143 169 115 104 26 167 97 33 37 155 79 56 166 159 201 87 160 61 192 100 163 186 223 102 163 178 228 103 174 173 101 99 171 101 101 104 170 101 101 103 101 101 100 203 101 101 93 157 69 85 83 157 174 79 158 158 175 77 160 175 176 163 165 176 176 170 176 176 103 103 176 176 103 105 176 103 103 111 104 105 114 115 108 111 115 218 125 114 114 222 167 112 222 221 170 108 219 166 166 215 214 161 159 210 154 152 211 205 144 141 204 93 131 199 198 121 118 195 85 84 193 192 81 190 190 79 78 188 190 74 186 186 79 69 185 184 64 149 183 72 71 182 178 69 193 181 67 67 197 172 66 200 202 165 64 207 35 159 149 216 37 61 149 79 40 181 230 79 149 183 80 52 149 185 80 149 187 146 80 149 190 63 149 149 149 68 149 152 154 157 234 159 83 158 86 169 159 231 89 180 159 92 80 159 159 96 82 158 99 100 149 199 101 150 150 203 103 150 150 205 151 151 207 207 152 152 209 154 153 211 212 155 153 214 156 156 104 218 159 104 104 163 164 104 104 170
197 131 146 204 104 136 210 211 104 129 216 104 104 116 219 104 29 97 164 103 43 155 186 108 74 159 103 106 169 161 105 101 173 163 104 177 163 52 103 184 163 172 189 191 55 170 101 57 58 228 101 61 62 226 81 65 224 222 80 68 218 79 82 213 211 79 177 158 79 79 166 162 79 160 158 74 79 155 154 74 153 152 75 75 151 151 76 151 150 76 77 148 80 77 148 148 80 77 148 80 80 149 149 80 80 149 80 80 149 149 79 149 149 221 79 149 149 88 94 149 91 93 90 149 98 149 149 197 108 150 149 119 100 150 192 135 150 192 189 85 150 79 79 79 192 79 149 74 193 79 149 194 195 50 149 198 45 149 182 202 40 149 165 64 37 181 159 149 37 182 61 150 182 182 60 150 183 59 58 237 184 58 239 240 59 60 240 80 66 239 239 70 149 237 236 73 199 235 75 75 204 76 77 207 207 78 78 208 97 80 207 207 102 103 205 105 105 228 201 106 106 228 107 107 229 229 106 229 229 80 105 229 229 79 170 229 76 75 160 229 72 152 149 68 67 142 89 63 136 133 84 62 128 80 78 123
196 198 104 104 204 206 104 19 211 104 104 21 104 104 24 25 104 104 31 152 103 44 51 156 157 75 159 159 196 96 161 161 188 162 162 181 180 162 177 175 101 163 172 172 101 104 170 101 101 104 170 101 103 102 101 101 97 157 101 91 88 157 102 83 157 157 79 79 159 159 175 166 162 176 176 158 167 176 103 173 74 176 103 75 176 149 104 76 176 106 80 76 145 111 114 114 147 80 113 222 148 80 149 225 79 108 149 224 79 149 222 82 79 149 217 152 149 149 88 142 212 149 94 149 206 100 102 149 79 111 149 149 79 126 149 79 79 150 150 79 71 149 79 79 149 186 79 149 149 172 79 149 149 173 149 149 171 170 149 149 166 149 149 161 160 149 149 156 149 149 79 152 150 79 79 59 150 79 79 151 239 80 149 152 80 80 149 239 81 149 149 147 72 149 149 150 74 149 155 159 149 205 164 159 149 172 95 159 206 183 160 159 94 103 159 97 98 106 227 100 150 107 227 102 150 228 228 82 151 228 104 80 170 229 77 152 160 99 74 152 210 95 68 143 91 160 136 135 86 164 128 82 81 226 122 77
79 182 151 150 88 176 144 100 105 137 134 119 104 129 135 140 118 27 157 112 111 163 178 107 107 164 106 106 165 166 105 104 169 56 104 172 173 53 178 177 53 52 225 184 53 225 225 161 56 224 224 58 170 221 82 63 218 217 80 196 212 79 79 189 102 79 182 179 102 79 171 72 79 83 162 73 79 157 169 74 95 153 74 74 144 184 75 141 141 196 176 141 80 208 175 145 80 174 174 145 80 172 148 189 108 169 215 79 104 225 228 100 149 222 227 95 218 86 92 91 213 92 88 209 208 124 84 204 203 111 203 199 103 149 200 96 93 199 79 87 86 199 67 80 199 199 60 76 201 55 54 203 203 49 184 184 45 44 183 183 41 183 183 65 40 183 183 63 182 183 61 61 183 184 60 237 184 60 59 240 57 59 240 240 64 61 238 68 69 237 236 72 72 234 73 74 201 231 76 203 204 85 78 205 205 94 205 205 99 100 203 202 103 226 199 105 106 227 193 107 227 227 197 106 227 83 82 157 227 81 81 227 104 78 160 228 76 74 151 104 70 144 142 104 156 135 88 104 158 127 82 226 160 223 78 224
185 127 196 19 130 149 204 134 135 210 113 138 139 216 104 143 218 218 104 148 216 103 103 212 210 103 70 78 102 102 94 97 101 101 102 161 101 103 103 162 104 104 162 162 104 104 161 171 105 160 160 170 101 158 170 171 101 157 172 101 101 173 173 102 102 174 102 102 82 175 103 82 82 161 103 86 87 165 90 93 170 172 98 100 179 177 105 187 189 176 111 199 176 175 150 210 175 128 135 77 173 163 173 171 148 203 105 167 222 226 100 149 230 97 96 149 79 92 220 149 79 88 214 131 79 149 209 119 81 149 113 107 149 200 127 97 149 138 90 203 149 152 149 203 63 162 149 205 56 149 149 79 50 149 211 79 149 149 79 43 149 79 79 149 184 79 79 149 152 62 149 149 148 60 149 147 146 151 149 144 144 152 144 144 153 154 144 154 155 81 146 157 157 82 149 158 83 83 149 159 85 149 149 87 88 149 177 91 149 149 184 95 149 189 190 160 149 192 192 159 186 194 159 158 179 196 158 103 198 104 157 104 102 157 104 104 99 158 104 155 155 227 104 156 157 226 61 158 217 104 59 121 221 64 161 116
203 20 127 155 88 177 131 148 104 134 141 212 122 139 216 136 104 144 218 156 110 216 215 103 107 210 208 102 79 163 102 104 97 159 101 102 168 161 101 103 161 52 104 104 161 52 104 161 160 171 218 160 159 170 101 158 171 171 101 172 173 101 102 173 173 102 85 175 102 102 83 175 103 84 85 161 103 88 165 166 93 95 172 174 101 178 181 176 106 189 192 176 198 201 175 175 209 213 174 141 150 172 172 179 107 169 206 213 102 164 227 99 97 231 231 94 93 229 90 89 221 219 86 217 215 126 82 211 209 114 149 206 106 103 202 201 96 209 197 90 88 208 193 83 209 209 58 78 211 54 52 149 214 49 48 149 79 45 185 222 79 43 184 79 42 149 185 79 149 185 148 62 149 186 60 239 149 144 60 239 149 143 153 237 144 63 155 235 145 157 232 81 74 158 82 75 149 160 84 77 203 86 87 149 202 89 90 149 181 93 149 149 186 149 149 189 189 160 150 191 160 159 192 193 159 226 195 158 158 104 197 158 158 104 158 158 104 104 159 104 104 156 156 104 104 158 214 104 159 160 219 104 161 222 223 71
21 125 193 19 127 128 18 18 131 206 18 135 136 213 20 140 217 217 103 145 218 103 103 92 214 102 102 75 191 102 86 199 203 101 100 209 101 102 103 214 103 103 161 161 100 104 161 172 93 184 160 170 105 190 58 170 193 158 62 172 194 64 173 191 102 67 182 102 79 70 167 102 84 156 153 79 87 142 139 79 157 131 79 79 153 79 79 151 151 75 79 150 76 76 150 149 76 174 149 77 77 146 149 78 78 148 79 79 149 149 81 149 149 79 79 149 149 79 149 149 79 79 149 149 79 149 149 222 79 149 112 78 149 149 125 128 149 135 138 149 149 147 150 149 194 156 149 149 191 161 149 79 162 73 149 79 70 149 227 79 149 149 79 44 149 235 79 149 149 238 49 149 145 240 54 188 143 59 60 190 143 65 191 192 63 155 195 143 67 231 198 72 158 228 201 79 226 84 86 88 224 79 93 224 223 82 149 223 83 84 193 223 85 149 188 86 85 183 188 86 178 176 106 85 170 168 105 164 161 104 103 226 152 101 226 226 98 97 226 226 94 226 226 62 88 225 58 57 224 224 59 60 222 66 69 113
187 20 124 125 194 18 128 200 202 131 132 208 104 136 213 215 104 140 217 103 103 28 217 103 103 43 102 102 65 73 101 101 92 157 101 100 101 160 102 103 160 161 179 104 161 174 174 161 160 172 171 160 171 171 101 158 171 101 101 171 172 101 101 172 102 102 91 89 102 102 86 158 102 86 86 160 103 88 163 164 79 93 167 176 98 173 175 176 103 182 176 176 111 193 175 175 122 76 174 137 144 77 146 169 104 169 148 203 100 149 221 79 95 231 232 91 149 229 79 86 227 226 79 149 222 128 79 149 105 116 149 149 117 105 149 127 130 149 220 139 90 149 78 149 149 221 56 149 149 79 52 149 149 79 149 149 79 79 149 149 79 149 149 150 79 149 187 147 149 149 145 61 149 143 142 152 149 142 141 154 142 141 155 155 80 142 157 81 81 158 159 82 149 159 83 83 149 160 85 149 149 222 88 149 149 91 83 149 179 181 149 149 183 161 149 185 185 160 177 187 160 160 169 189 159 103 161 104 159 104 194 102 225 104 154 160 225 71 156 225 104 157 157 224 59 159 213 224 57 161 217 61 64 113 222 191
188 123 196 190 181 126 171 176 174 153 204 169 133 210 127 165 136 216 103 124 119 155 103 103 98 171 106 84 182 185 104 71 193 104 104 162 202 104 102 164 104 103 167 160 101 171 173 52 95 177 178 53 182 183 55 56 197 187 59 190 188 62 63 179 79 65 169 166 79 68 155 79 79 175 141 79 79 132 103 79 159 158 79 79 155 74 79 152 152 75 104 151 75 75 107 150 76 131 107 207 77 142 149 218 170 147 79 79 149 210 79 162 150 79 79 155 233 78 149 145 235 78 149 233 233 78 149 102 78 74 218 113 71 149 212 102 67 208 134 93 63 202 87 149 199 198 81 149 195 77 76 229 79 73 231 232 47 70 234 236 46 237 238 47 48 239 239 50 189 239 53 55 190 238 59 191 191 62 64 193 62 63 194 195 65 67 197 69 71 226 198 76 78 223 81 83 222 221 79 221 220 81 82 220 220 84 191 220 85 86 185 221 87 181 179 87 87 174 172 87 168 167 106 105 160 105 105 224 152 103 102 224 194 100 224 224 97 96 224 67 92 224 224 60 170 223 57 56 116 221 60 113 113 104 72 110
105 21 122 123 185 18 125 196 198 173 129 204 206 132 146 211 104 137 216 216 103 120 218 103 102 98 170 102 51 81 183 101 82 155 193 104 98 157 100 104 163 159 103 104 167 160 100 171 160 173 93 177 53 171 181 183 55 170 101 58 59 179 101 62 172 166 79 66 156 102 79 146 143 79 88 133 130 79 165 122 79 79 158 166 79 154 154 74 79 151 151 75 150 150 76 76 149 76 76 134 149 77 77 144 79 78 148 148 79 80 149 79 79 149 150 79 149 149 79 78 149 150 78 149 149 235 78 149 149 106 72 149 115 117 68 149 126 149 149 208 136 149 204 143 149 149 200 149 149 78 196 76 150 79 79 72 236 79 149 150 238 48 149 239 79 50 149 239 53 149 191 238 58 149 140 62 63 194 139 155 68 195 65 157 197 197 69 224 198 74 76 222 198 81 220 220 87 89 219 87 82 219 219 84 149 218 85 86 184 219 87 88 178 88 88 173 171 88 88 166 106 87 160 158 105 161 152 103 103 224 144 101 224 223 98 97 224 224 94 223 223 61 89 223 222 57 117 221 57 58 113 63 66 110 109 79
209 188 104 193 183 181 104 166 176 159 146 171 169 152 17 166 144 141 20 162 130 148 152 142 111 163 166 147 214 176 104 78 206 101 104 199 192 100 104 191 100 104 102 183 99 102 167 160 99 105 172 52 100 106 159 54 106 107 158 171 107 158 157 172 104 157 173 173 157 157 175 140 102 175 175 103 79 176 103 103 92 177 104 105 95 105 106 98 99 109 109 101 181 183 102 103 191 76 103 199 202 173 101 211 170 169 218 220 166 165 226 162 161 218 231 155 153 231 83 147 235 235 78 236 236 75 74 236 236 72 224 235 68 67 219 234 64 215 213 61 60 209 207 88 205 204 83 81 201 78 77 236 197 74 73 238 147 71 239 239 68 67 239 51 66 239 239 54 193 237 58 59 193 234 63 194 195 80 67 196 196 80 149 197 69 73 149 197 74 221 197 147 81 219 153 87 161 217 160 94 217 89 168 162 216 86 173 162 96 88 162 162 99 150 170 101 101 150 163 102 151 151 182 103 152 150 104 153 153 188 101 154 154 192 164 156 196 197 167 104 202 170 172 104 207 177 104 104 184 186 104 64 194 104 104 167
182 104 21 185 104 104 18 192 104 17 16 104 104 16 17 131 18 19 134 136 22 138 139 217 28 143 144 216 157 147 212 211 150 151 204 100 100 197 195 100 101 189 99 99 103 182 99 104 105 191 99 105 106 185 88 106 159 100 83 108 158 171 108 183 157 172 184 157 63 174 182 157 175 130 177 69 175 103 169 70 114 104 72 72 108 79 96 104 104 79 99 104 79 100 150 112 79 101 193 79 79 149 204 79 79 149 78 167 149 148 80 150 148 81 83 150 148 85 150 150 88 90 150 236 95 150 150 78 102 150 78 78 149 150 78 78 149 78 78 149 149 78 78 149 138 78 149 149 143 79 149 144 144 50 149 144 150 151 196 142 151 151 141 67 151 79 138 152 153 79 64 154 79 79 63 230 79 149 64 226 80 149 138 222 73 149 140 82 149 197 146 77 149 151 153 80 192 159 162 83 186 99 162 91 181 103 162 95 105 105 216 99 106 163 218 90 106 218 102 89 219 219 88 152 221 221 85 141 185 81 80 134 190 75 129 127 95 67 123 121 90 118 117 86 85 114 82 81 219 110 77 76 216 74 73 213
23 191 104 104 20 183 104 18 17 124 104 16 126 127 203 17 130 150 211 134 135 215 146 138 140 217 102 143 216 215 101 212 211 101 100 204 202 100 96 98 99 99 102 103 99 103 104 158 99 105 105 159 106 106 159 159 107 158 158 171 108 158 158 172 101 157 172 173 101 157 174 102 102 175 175 103 94 176 103 104 93 176 105 94 94 165 107 96 97 170 97 98 175 177 99 99 184 174 99 192 194 172 148 202 170 169 148 213 166 185 191 80 161 207 211 156 151 221 79 148 229 78 75 150 234 71 70 150 78 68 228 150 78 64 224 106 62 149 219 97 58 215 131 89 149 210 84 150 149 140 78 239 149 141 151 239 51 140 152 238 52 152 152 79 55 153 79 79 149 154 79 63 149 79 79 149 197 80 80 149 136 68 149 149 138 73 149 141 142 160 149 148 161 161 153 155 161 161 160 162 162 90 165 162 162 94 149 162 97 98 149 216 100 150 150 102 102 151 175 103 151 152 178 103 152 180 181 83 154 184 186 165 129 189 167 168 194 93 171 104 200 175 177 104 84 183 104 104 79 193 104 167 168 213 104 169
85 105 22 183 92 104 19 121 104 155 16 124 104 16 169 128 118 17 131 149 110 161 136 216 106 158 120 217 101 156 97 214 101 83 80 175 100 71 179 179 104 62 181 99 103 181 181 102 104 179 177 97 165 158 91 89 170 158 85 173 175 55 82 177 57 58 179 179 61 173 179 63 64 124 177 67 67 116 79 69 111 109 79 176 106 79 79 103 102 79 153 102 79 79 150 108 79 149 149 75 79 148 149 77 93 148 77 78 148 214 80 150 148 81 82 151 227 85 151 151 231 89 151 78 78 133 150 78 148 122 236 78 148 150 237 61 149 238 78 58 149 238 56 149 214 238 54 149 135 151 52 207 136 151 204 203 72 151 202 135 68 235 200 67 153 231 199 65 229 79 63 64 225 66 149 222 221 70 149 218 72 73 197 215 75 75 195 77 77 191 190 80 80 187 91 93 184 182 97 211 178 101 102 212 172 104 212 213 105 106 214 214 106 215 215 91 106 216 91 90 145 218 88 87 138 86 85 133 131 81 80 127 98 73 123 121 94 64 118 90 89 219 113 85 218 217 81 80 216 215 76 213 212 79 72 208
105 180 104 104 21 20 104 19 18 121 104 16 16 124 127 16 127 128 17 18 131 212 21 134 136 216 157 139 217 217 101 144 214 100 100 82 207 99 99 201 175 99 100 192 98 98 103 174 98 104 105 170 96 106 158 158 89 108 158 172 84 172 158 172 112 175 57 173 177 158 61 125 177 64 175 117 103 66 113 104 79 69 108 106 96 104 104 79 96 102 102 79 151 104 79 79 149 79 79 149 149 76 79 148 77 170 148 148 78 165 148 80 80 150 148 82 151 151 85 86 151 151 89 151 151 78 78 151 151 78 148 151 78 78 148 151 78 148 148 78 78 149 125 78 149 149 129 130 149 131 132 152 149 133 132 152 206 133 153 153 203 68 153 79 131 66 155 79 65 155 223 79 149 157 80 69 149 216 80 149 149 213 74 149 137 211 77 191 142 79 80 186 149 83 182 180 96 162 176 159 163 209 170 104 163 96 105 105 212 99 106 106 213 92 106 214 214 92 152 216 90 90 138 217 87 154 131 83 82 127 183 77 123 121 95 68 118 116 90 114 113 87 85 217 110 81 215 215 77 76 212 73 72 208 208 92
160 87 207 165 93 96 181 168 104 159 151 113 116 133 170 123 120 116 165 164 110 161 160 145 106 158 157 128 29 156 111 105 42 144 90 164 154 148 76 168 151 68 197 170 104 60 169 98 102 184 166 99 98 178 99 92 164 174 99 110 168 100 83 113 171 101 114 174 158 59 114 175 61 174 108 158 64 114 158 159 176 108 160 161 176 108 163 176 176 111 79 176 115 117 95 175 124 79 93 131 135 91 148 145 89 87 198 161 84 83 208 81 80 215 217 156 75 222 150 148 226 228 141 219 230 133 131 226 231 123 230 231 115 113 232 233 105 234 234 56 56 234 234 54 220 234 54 54 215 53 53 212 211 53 54 209 73 55 206 206 70 69 204 68 67 223 203 67 221 219 66 66 217 216 68 214 213 72 70 211 210 75 159 208 77 77 188 207 80 184 183 84 83 179 95 86 149 173 100 89 168 160 104 149 162 105 105 150 164 106 211 211 166 164 213 92 106 165 214 91 165 216 104 88 165 216 85 155 167 104 78 121 120 104 160 116 92 104 162 196 87 164 165 202 82 167 208 209 201 169 213 73 211 217 219 217
217 25 90 104 22 117 99 175 19 118 110 146 175 121 128 15 168 125 114 164 127 156 210 160 147 214 145 157 129 217 101 112 107 157 100 92 88 162 104 77 164 165 104 67 164 104 103 155 162 102 157 157 99 98 159 157 92 162 162 52 86 165 166 54 168 169 55 56 125 57 58 120 119 61 62 115 79 64 112 111 79 67 108 79 79 176 105 79 79 104 113 79 152 151 79 93 149 73 78 148 148 75 88 148 76 77 84 147 78 146 147 206 80 150 213 82 154 152 78 85 152 208 78 139 152 78 78 129 222 78 148 119 226 78 148 228 229 57 148 114 56 55 223 119 54 148 219 84 53 216 124 79 54 212 75 154 210 209 71 224 207 69 69 220 79 68 218 216 66 67 214 79 69 211 211 71 149 208 208 74 192 206 76 77 187 79 80 183 181 89 83 176 94 95 172 170 100 101 166 102 103 205 160 105 206 207 106 106 208 209 94 210 210 94 93 212 212 93 136 213 91 90 130 215 87 126 125 83 81 121 98 75 118 116 94 93 113 90 89 216 110 85 84 214 204 80 212 211 76 209 208 79 72 204 202 97
178 90 210 115 180 97 185 183 184 104 155 178 104 104 15 171 103 117 16 125 103 18 161 128 102 22 132 141 26 28 137 217 34 140 141 215 157 144 210 209 98 148 203 159 98 196 194 98 103 189 187 98 106 182 98 98 108 99 99 110 111 157 100 114 158 158 117 118 158 158 119 158 158 174 118 158 175 175 158 159 175 176 106 176 176 108 109 176 176 112 97 176 116 118 94 175 124 91 91 131 134 88 182 143 85 83 191 193 80 197 200 163 75 206 208 156 213 214 150 148 219 144 141 206 224 134 132 214 95 124 218 219 58 114 222 57 57 153 224 56 55 226 78 54 222 226 54 148 218 78 55 215 215 76 149 212 74 73 149 209 71 217 149 122 68 213 122 123 157 210 123 68 159 79 125 159 205 74 75 160 81 77 186 160 82 80 180 83 83 149 173 85 149 149 150 88 149 162 154 149 149 156 105 164 150 158 164 206 159 160 165 101 161 165 166 103 164 166 103 103 167 167 104 104 156 104 104 157 158 104 104 160 183 104 162 163 190 61 165 195 196 167 168 201 198 170 207 208 208 211 213 215 217 104 218 221
27 114 114 179 193 115 181 182 185 170 185 104 177 171 190 104 170 169 127 103 165 204 133 107 20 138 101 105 25 144 104 29 154 149 104 153 140 104 104 152 145 104 152 152 72 104 152 151 63 150 153 58 186 145 55 54 140 98 52 52 133 87 52 129 127 83 54 122 81 81 119 118 80 80 167 79 79 166 166 79 165 164 65 79 162 161 67 102 157 69 69 153 151 71 110 112 72 72 117 78 73 125 128 78 75 136 78 78 166 144 78 78 161 172 78 147 152 184 78 147 84 78 63 147 88 61 147 223 93 59 147 97 154 57 226 102 153 55 225 100 153 224 111 92 220 78 87 154 219 78 81 218 78 57 76 216 78 149 214 213 62 149 210 210 65 203 120 68 68 199 70 71 196 194 72 74 191 75 76 186 185 80 160 179 85 86 198 173 92 198 198 88 98 199 199 91 199 200 93 93 201 202 95 148 203 96 96 143 205 96 139 138 95 95 134 106 106 130 129 105 105 125 103 103 213 120 101 100 214 98 97 214 214 93 214 214 62 60 213 213 57 107 211 59 60 105 208 69 103 103 81 85 102 101 99 100
113 177 105 114 178 179 104 181 182 104 104 184 186 104 16 190 103 103 15 197 103 16 17 102 102 20 128 129 24 25 132 133 30 136 137 216 43 139 140 213 151 143 208 206 147 148 200 97 97 194 192 97 105 187 98 98 108 181 98 111 112 129 99 116 117 123 83 121 157 101 81 163 158 174 125 164 158 174 164 159 175 175 162 160 175 109 159 66 176 114 163 69 110 119 70 175 115 78 90 121 134 78 85 132 78 81 145 141 78 75 191 78 78 145 200 78 146 146 82 148 146 146 85 154 146 88 89 154 147 93 154 154 96 97 154 210 101 154 154 78 105 154 78 78 148 155 78 78 148 78 78 148 148 78 78 148 115 78 149 149 116 64 149 117 117 67 149 118 158 158 195 120 158 159 123 159 159 80 126 160 160 82 84 160 82 83 90 195 84 149 162 196 87 149 147 90 93 150 151 94 150 147 153 96 150 154 107 96 137 156 166 96 133 107 167 103 128 105 168 104 104 104 211 104 102 172 212 81 98 212 104 72 213 213 65 166 212 212 58 107 196 58 59 105 203 65 103 103 73 80 102 71 69 100 100 67
222 200 157 160 195 193 165 180 187 170 171 114 179 173 119 121 123 173 125 127 111 129 131 107 107 134 136 105 156 139 104 104 154 99 104 152 152 98 104 150 95 91 150 150 81 78 150 73 70 141 150 64 62 137 152 58 133 131 154 181 128 90 88 176 123 85 157 119 101 82 159 116 80 128 161 103 79 161 158 105 123 161 62 108 115 160 65 111 107 162 67 113 164 165 175 116 167 70 173 131 172 172 130 140 170 169 147 78 166 165 157 72 144 164 167 67 144 174 63 63 206 183 60 210 212 58 58 216 90 57 218 219 117 155 220 220 108 205 221 101 99 207 220 93 207 207 88 86 207 57 82 206 205 59 77 204 62 62 206 202 65 65 202 67 68 199 197 70 194 192 72 73 188 187 76 183 181 79 80 176 174 85 192 192 89 91 192 193 96 193 193 92 101 194 94 94 195 195 96 96 197 97 97 140 199 97 97 135 107 97 132 130 107 153 127 106 105 155 123 104 209 119 166 102 210 116 99 175 211 75 96 211 211 66 185 211 60 59 193 104 59 105 203 104 64 103 104 104 174 101 104 92 176 216 67 176
176 177 105 113 178 104 104 166 180 104 104 172 117 104 16 186 123 103 15 119 102 110 16 122 107 18 159 125 105 23 128 149 104 153 132 216 104 151 111 215 97 150 93 211 96 83 80 139 96 71 137 135 103 64 133 97 109 129 127 95 113 124 123 88 154 155 85 84 155 53 82 157 157 55 80 158 56 57 159 159 59 175 158 61 62 113 156 64 65 114 78 66 116 117 78 120 121 79 78 126 128 78 143 134 78 78 142 141 78 142 142 76 78 143 77 78 64 144 80 81 144 203 83 155 145 85 86 155 212 89 155 155 215 93 156 78 78 106 155 78 147 97 200 78 147 156 201 57 147 200 78 148 148 199 61 148 109 197 64 202 111 158 68 197 112 158 193 191 74 158 186 118 76 191 179 79 160 190 172 84 189 82 85 91 189 88 149 190 190 92 149 191 94 95 147 192 96 97 141 97 97 138 137 98 135 134 107 108 130 129 107 202 126 107 107 204 122 105 206 206 104 103 208 208 100 209 209 79 97 209 72 69 108 209 63 61 106 59 59 105 105 61 63 103 77 71 102 102 72 101 100 69 68 99 99 66
223 28 112 105 26 196 163 165 22 113 170 115 19 115 175 121 116 117 189 126 118 174 195 102 121 202 132 101 207 209 99 104 26 214 98 30 151 97 97 43 150 96 62 70 140 96 88 143 143 98 101 147 147 195 149 150 190 188 151 152 184 98 154 180 179 99 155 176 100 101 176 175 102 133 175 103 103 135 135 106 133 132 159 109 126 124 160 119 117 161 162 109 163 163 175 101 165 166 173 168 169 172 171 140 173 169 145 147 166 165 153 155 161 158 161 65 154 166 62 60 154 173 58 58 202 78 56 206 206 55 55 209 118 55 211 212 109 146 212 102 100 147 212 94 194 148 101 87 194 194 103 157 194 62 79 157 193 65 158 192 67 68 158 79 71 189 158 79 74 183 80 80 149 175 80 80 149 123 86 149 162 128 160 149 133 96 161 149 138 162 189 141 141 163 189 97 164 165 95 98 165 166 98 152 166 100 101 153 102 102 154 154 103 103 156 156 103 157 158 161 103 160 164 166 176 163 170 179 180 175 177 185 187 182 191 193 104 190 200 203 104 79 210 104 104 175 218 104 176 177 189 104 177 216 104 177
29 105 105 27 112 104 25 24 113 176 21 113 114 144 17 115 184 122 172 117 190 192 165 175 197 101 121 203 205 100 163 210 98 98 148 135 97 32 128 136 96 48 135 136 104 76 139 95 104 147 143 104 103 147 69 102 148 149 61 98 149 57 184 149 149 54 179 99 54 54 116 101 53 54 114 81 54 115 114 80 115 115 79 79 116 117 79 151 119 79 79 149 162 78 146 145 66 79 142 68 68 140 140 70 71 139 71 72 144 139 73 74 149 182 75 151 151 78 78 153 78 78 154 155 78 144 156 78 78 145 156 78 145 146 184 78 146 146 92 56 146 95 96 57 206 98 156 147 204 100 157 202 102 81 157 198 104 157 187 193 76 158 79 79 76 185 79 148 78 184 77 148 185 184 81 149 184 84 86 158 184 89 149 131 92 92 148 136 162 144 143 104 163 139 137 107 189 135 108 108 191 130 108 192 193 108 108 195 102 98 198 198 97 156 200 95 94 116 203 91 90 113 86 85 111 111 78 76 109 94 69 107 107 89 205 105 85 84 203 103 80 200 199 76 75 196 193 71 190 187 100 67 180 177 117 171
31 29 111 111 27 26 111 178 24 112 113 180 20 113 182 182 114 114 186 186 116 190 191 101 101 196 101 100 19 204 99 99 24 98 97 27 29 97 96 35 131 95 48 55 135 214 76 138 139 208 96 142 203 201 145 145 195 194 148 191 189 98 151 185 184 98 55 181 100 100 132 115 102 137 139 103 104 141 157 106 142 141 158 110 138 159 160 79 129 161 176 79 146 162 175 175 142 66 174 132 166 68 171 138 69 169 144 145 71 164 150 78 73 150 156 65 138 152 78 61 187 154 78 141 192 78 78 143 196 78 143 144 86 78 145 88 109 146 145 91 101 182 93 94 157 184 96 96 157 78 98 156 157 78 101 157 78 78 157 157 79 148 157 79 79 148 175 79 148 148 114 80 148 148 119 148 148 123 124 149 127 128 161 150 132 133 162 87 136 163 163 90 139 164 93 94 108 165 97 98 166 189 100 153 167 101 99 154 194 103 156 157 152 97 158 155 156 93 161 160 175 87 111 165 180 109 109 96 185 107 177 191 204 105 87 200 104 104 82 199 104 176 76 195 104 177 190 188 95 178 180 109 112 97 169 124
32 100 220 28 200 106 201 195 111 180 172 188 112 180 182 180 176 183 174 172 179 126 167 179 178 128 161 176 130 130 172 169 131 104 161 131 131 104 31 132 104 104 148 130 104 104 147 104 104 146 146 104 146 146 77 103 146 145 68 120 146 63 62 117 147 58 116 116 153 55 115 115 54 178 115 82 54 116 106 80 176 118 80 79 148 112 79 147 146 117 79 145 61 79 118 142 64 109 139 164 65 98 136 68 170 87 169 69 147 148 173 162 150 78 177 156 152 78 150 149 162 78 142 165 166 57 133 169 78 56 192 173 56 143 194 175 57 196 88 58 59 196 98 60 195 194 91 62 192 88 86 190 189 83 83 179 81 81 179 79 80 80 179 75 80 178 178 79 178 178 82 83 177 177 86 154 178 89 91 147 146 93 143 142 101 96 139 104 105 135 134 107 108 131 108 109 184 128 109 109 187 100 109 189 189 100 108 192 99 98 194 194 97 115 197 95 93 113 199 90 111 110 104 82 108 108 96 170 106 93 92 106 181 87 201 104 83 82 198 194 78 194 193 202 73 188 90 69 224 178 108 112 170 104 124 95
105 32 111 105 214 28 111 104 25 193 111 179 21 112 112 180 179 113 182 183 172 180 187 101 164 180 193 100 178 177 129 98 171 207 97 104 27 130 95 31 149 129 104 43 131 128 104 146 135 104 104 145 138 104 145 145 77 103 145 145 68 118 145 63 189 116 59 59 115 100 56 56 116 84 55 117 117 81 54 119 81 80 121 123 80 145 145 79 79 144 143 79 142 141 62 79 139 138 64 109 136 65 65 134 133 67 148 149 68 69 150 78 71 152 152 78 73 153 78 78 147 154 78 78 138 164 78 140 155 78 57 141 82 78 143 143 85 59 144 87 88 60 145 90 156 62 187 92 157 146 184 87 157 181 98 84 175 79 82 157 175 79 82 175 79 79 84 175 80 148 175 175 87 149 175 90 91 145 124 94 95 140 102 97 137 135 105 99 132 107 108 129 129 109 165 126 109 110 183 123 110 185 186 100 109 188 189 99 190 191 98 97 193 194 95 112 196 91 90 110 87 85 108 108 79 76 106 94 93 106 105 89 88 104 85 83 197 103 79 78 192 75 74 188 186 71 182 179 104 108 171 168 120 95 158 131
136 103 105 218 201 109 205 199 196 104 178 190 188 104 146 182 175 103 17 174 180 113 15 114 182 127 162 116 194 128 118 177 202 128 120 208 128 95 123 213 128 104 216 216 93 104 216 93 93 76 145 93 93 97 138 94 107 109 141 95 116 144 69 123 125 147 62 132 149 150 184 140 151 182 181 103 154 179 179 107 178 178 110 111 177 177 114 149 177 118 120 141 123 124 132 129 128 130 119 163 163 109 105 164 165 96 166 166 166 84 169 169 161 170 172 156 155 174 150 149 157 158 143 141 160 60 134 163 163 58 125 165 58 58 167 167 59 184 169 60 61 183 170 63 182 182 94 66 179 179 90 146 176 87 86 172 171 85 172 167 84 85 172 105 85 172 172 110 89 172 88 89 158 172 92 93 159 83 95 138 173 85 150 133 87 99 151 130 90 152 127 136 110 153 124 110 167 154 141 110 182 155 143 170 185 145 146 171 103 148 173 190 104 152 175 104 92 166 179 104 85 108 104 104 171 106 104 173 174 176 104 175 176 184 177 177 189 192 178 179 197 221 221 202 204 223 177 209 223 222 104 214 218 104 104 211
226 224 203 110 216 211 199 153 195 195 110 164 165 188 170 179 182 180 178 125 174 181 182 126 167 183 126 127 106 182 127 127 104 127 127 104 104 126 104 104 149 126 104 104 147 93 104 146 145 104 104 144 101 98 144 144 88 85 143 80 77 117 143 71 116 116 146 64 116 116 148 186 117 87 86 182 119 83 143 122 108 81 142 111 80 156 141 116 80 140 158 122 144 138 59 128 133 161 62 150 119 163 63 152 164 65 168 153 166 166 153 147 167 160 154 78 155 153 153 78 147 145 156 63 133 159 159 61 177 161 60 60 178 163 60 179 178 62 62 178 85 64 177 177 98 156 175 174 93 168 171 91 90 168 89 88 168 168 87 87 169 81 88 169 169 85 90 169 88 90 145 170 92 141 140 95 96 136 135 97 133 132 106 99 129 128 109 127 125 110 111 123 123 111 176 177 111 111 179 101 111 180 182 100 109 184 99 99 186 187 97 96 189 95 93 109 192 89 108 107 101 82 106 106 96 174 105 93 91 176 103 87 194 102 187 82 191 101 77 220 185 83 72 180 95 99 223 169 112 116 220 104 127 94 210 104
40 176 105 105 31 177 105 28 27 104 104 25 191 104 22 21 111 174 18 17 111 181 15 113 113 185 113 114 189 191 115 115 197 96 117 203 205 94 119 209 93 93 32 214 92 39 44 92 92 62 69 92 83 89 133 92 104 107 136 113 116 139 140 125 127 143 195 194 145 146 190 100 148 186 185 104 151 183 106 107 181 180 110 112 179 114 115 159 157 119 155 152 158 125 146 143 160 79 133 161 161 79 119 162 171 109 127 164 167 96 165 163 162 148 167 157 150 151 70 150 153 154 72 156 156 64 136 155 158 63 155 160 78 63 156 78 64 139 173 78 66 172 85 78 143 169 98 78 145 91 94 145 146 95 91 146 97 98 156 166 102 157 157 80 106 158 166 80 158 158 81 94 159 160 82 150 160 84 85 151 86 86 151 151 130 89 152 133 134 153 153 136 112 155 137 138 168 157 140 141 170 115 143 171 172 145 173 173 103 103 176 176 104 167 179 104 104 170 183 104 172 173 192 104 175 171 104 70 177 178 104 178 102 185 214 180 191 193 220 100 198 223 223 98 205 223 104 97 65 219 104 62 61 145 104 181
175 203 202 135 112 201 145 147 117 104 156 121 122 162 167 124 103 133 125 125 119 16 125 111 110 167 126 107 106 160 185 105 157 156 182 104 152 178 176 150 149 166 163 147 154 149 121 145 134 120 120 128 116 118 118 104 212 117 104 104 116 116 103 141 116 101 100 141 97 96 140 140 101 90 140 61 87 159 139 59 58 139 153 57 135 138 57 57 143 156 58 149 151 157 178 155 79 159 175 158 79 130 173 137 79 127 158 142 106 125 145 78 93 164 148 85 123 166 150 76 167 71 71 70 168 74 156 168 168 130 156 169 169 122 158 168 116 156 160 110 109 161 78 105 103 161 73 99 162 162 76 145 163 79 80 154 163 83 151 150 87 88 145 144 91 142 141 98 94 137 136 102 164 133 106 106 165 129 109 165 166 111 111 167 101 112 168 168 102 113 170 101 102 171 172 102 102 115 101 101 113 113 100 112 112 111 99 111 110 108 167 109 107 106 107 107 104 188 106 101 100 189 189 96 190 190 71 91 190 68 68 210 188 70 72 184 104 79 100 178 88 92 98 68 104 97 97 64 181 95 62 61 181 92 60 133
110 176 105 105 135 176 105 104 29 120 104 26 25 103 103 22 110 102 19 18 110 117 16 111 111 109 15 112 186 17 160 113 191 194 114 184 199 93 116 205 122 92 170 211 91 91 153 120 90 49 132 118 90 77 117 117 104 102 132 92 104 141 135 103 129 140 79 100 140 141 72 95 139 67 192 139 139 63 187 107 60 60 133 112 59 140 142 81 58 149 121 80 155 156 80 155 160 160 79 131 162 79 79 128 160 79 126 125 64 78 123 66 66 122 122 68 68 121 69 70 157 123 71 72 157 164 74 156 157 78 130 156 78 78 156 156 78 136 156 78 78 139 156 78 141 142 159 78 143 143 92 81 145 95 96 85 147 99 157 148 143 104 158 140 107 101 158 135 113 159 161 131 107 160 84 151 110 163 86 152 112 164 101 154 165 92 102 155 166 102 157 116 168 102 158 138 102 101 113 141 172 112 111 111 174 110 109 110 179 108 108 108 182 107 105 184 185 102 101 186 79 78 187 187 72 179 187 70 69 102 186 70 71 101 75 77 100 99 86 89 98 69 101 97 97 65 156 95 63 62 143 92 60 134 131 58
121 112 109 130 115 117 138 142 120 196 151 123 124 168 162 125 145 138 178 125 122 118 174 100 111 169 167 98 16 162 188 105 18 157 187 22 153 185 183 27 149 178 121 31 118 165 119 104 121 215 118 104 132 217 90 104 216 116 91 104 212 93 103 127 207 95 102 139 97 98 150 138 73 157 160 144 67 165 167 147 188 170 149 149 185 172 151 183 183 153 154 181 125 126 180 179 129 80 178 133 134 146 175 137 138 132 140 141 122 119 143 144 108 160 146 99 96 161 155 89 162 162 148 81 162 142 140 161 161 134 132 161 128 126 154 160 121 155 155 116 114 156 156 79 156 157 81 82 157 157 84 149 157 87 88 145 158 90 141 140 93 94 137 104 105 134 133 107 108 130 109 110 160 126 112 112 160 124 114 161 161 128 164 162 102 116 166 164 102 115 165 102 102 113 167 102 112 112 102 101 111 110 103 167 109 111 98 170 150 108 172 107 155 106 181 159 103 189 183 165 98 184 104 171 202 184 70 208 210 104 71 216 217 104 183 100 104 104 183 98 104 183 183 206 104 183 95 211 182 182 215 59 182 219 219 191
58 121 114 105 40 176 119 209 31 122 104 186 27 125 163 24 188 126 134 182 109 120 116 174 109 180 168 166 187 183 161 160 190 123 155 189 189 122 187 186 121 120 180 178 119 104 168 118 118 104 47 117 104 104 142 116 104 104 140 104 104 140 139 104 139 139 92 102 138 138 82 120 137 76 74 125 137 70 130 132 145 66 140 85 63 147 149 82 62 157 81 81 183 165 80 80 131 131 80 130 129 135 79 127 63 79 136 125 64 127 122 158 66 113 120 67 160 101 159 69 160 160 159 148 158 78 159 140 151 78 134 133 152 78 127 153 153 80 121 153 78 82 152 154 84 140 89 154 87 146 93 89 90 142 106 92 139 138 107 95 135 108 108 132 131 110 160 157 112 113 157 84 114 157 158 101 116 158 158 102 159 159 102 102 160 160 102 115 161 102 102 113 113 102 112 111 115 101 110 114 114 109 109 112 112 108 110 110 175 106 108 107 177 89 105 179 179 82 180 181 77 76 182 181 72 102 181 71 72 101 179 75 100 100 81 84 99 99 70 98 98 67 66 95 64 63 144 93 61 60 132 216 58 124 122 221
115 59 53 109 176 40 109 109 177 31 109 177 177 103 108 178 103 102 178 178 101 121 179 100 99 17 180 97 97 16 96 95 18 18 93 93 22 112 113 26 27 114 202 31 115 116 209 36 117 213 214 119 120 216 216 122 217 217 89 125 216 91 91 127 212 93 94 144 96 96 154 157 99 100 165 139 103 172 173 142 109 177 145 145 191 179 148 189 188 133 150 186 185 152 184 183 130 153 182 181 134 63 179 137 137 64 170 140 138 134 167 142 124 157 144 79 112 157 146 104 119 157 78 95 156 156 78 121 156 140 78 125 78 132 151 129 81 126 151 83 84 157 152 87 116 158 79 91 158 153 79 157 158 79 94 136 158 80 148 133 80 81 150 129 82 151 152 115 83 153 123 120 154 154 123 119 156 126 128 164 157 130 131 166 94 133 167 168 98 136 170 100 100 171 172 101 167 173 102 103 171 176 103 173 173 150 104 175 176 154 92 177 158 159 179 179 164 194 181 168 169 202 102 175 208 210 104 181 215 104 104 79 221 104 104 73 166 104 184 222 156 110 184 148 104 126 183 136 135 183 216 217 145 182 220 184
199 115 119 119 109 126 123 123 135 177 126 191 148 127 103 161 190 127 140 133 182 100 119 176 174 98 110 168 187 96 17 161 191 18 19 111 192 121 152 112 196 119 113 187 203 118 114 208 117 104 117 213 87 104 216 216 88 104 217 89 89 114 139 91 104 136 128 94 149 137 132 98 162 134 85 170 172 138 200 178 140 141 196 182 143 193 192 118 146 190 189 123 188 187 127 128 185 131 131 169 182 135 135 159 137 138 151 148 140 140 139 155 155 129 126 155 155 117 155 155 159 106 155 154 152 153 153 147 145 152 142 140 148 148 134 133 149 91 129 150 150 91 150 150 92 93 150 151 94 139 151 96 96 135 151 97 132 131 117 99 129 128 118 152 125 120 120 123 118 121 153 120 122 122 153 125 123 154 154 129 122 155 103 103 168 156 102 112 170 99 102 110 158 101 169 109 102 101 172 108 103 174 107 114 113 176 106 111 169 178 157 107 172 161 162 193 174 167 99 201 104 173 207 175 104 180 214 104 76 184 220 104 184 99 104 104 184 97 104 184 184 205 104 184 184 211 183 183 214 216 182 182 219 186 184 221
110 71 109 109 176 177 108 108 177 104 108 177 177 103 108 177 102 102 178 177 101 21 178 99 99 18 179 97 17 17 109 94 17 18 110 105 21 111 111 25 150 112 196 30 113 113 204 144 114 208 210 86 116 213 86 86 148 216 87 95 132 116 89 125 216 92 104 146 121 95 158 161 125 101 170 134 134 97 179 137 200 92 134 140 197 133 133 72 193 132 146 69 176 131 68 189 181 130 67 182 133 81 66 179 80 160 177 175 80 149 173 79 79 122 169 79 79 121 79 79 120 120 79 79 120 75 76 122 122 78 161 124 81 81 160 128 84 159 159 86 87 159 159 90 159 159 79 79 159 80 80 146 159 80 80 149 149 81 151 152 82 82 154 113 83 155 156 118 85 158 122 123 163 160 126 165 165 115 129 166 166 113 125 168 97 135 123 170 99 122 172 156 101 121 157 102 101 174 160 103 175 106 162 97 178 153 165 93 104 158 90 88 103 163 83 103 103 99 202 102 95 93 172 101 88 215 104 83 82 168 104 76 75 162 94 71 155 153 108 148 145 120 123 93 134 133 92 91 142 144 89 218 150 86 85 54
222 197 112 220 199 199 122 212 199 131 134 198 197 144 147 193 154 157 128 128 166 169 126 119 177 125 125 110 178 124 106 106 122 122 105 156 120 104 104 151 119 104 149 147 192 104 145 188 186 40 143 177 173 52 116 161 115 139 118 144 116 120 134 217 118 104 216 120 93 103 213 126 102 170 210 101 100 134 206 106 185 133 111 112 189 132 116 191 191 142 73 190 145 72 193 186 147 70 185 148 149 188 184 150 150 184 137 150 182 180 140 179 177 141 142 137 172 142 128 126 144 144 117 122 144 111 109 148 145 104 104 146 101 101 145 144 99 142 141 138 137 139 138 134 147 136 132 131 147 133 130 147 147 129 129 147 101 129 147 148 101 102 148 102 102 120 148 102 102 118 102 102 116 115 102 102 114 129 103 112 112 128 168 111 127 126 151 110 124 153 153 123 122 154 155 121 156 157 100 118 158 98 97 183 161 94 94 187 104 90 103 103 104 83 103 101 79 185 102 96 76 101 179 89 186 100 83 220 186 190 76 160 158 196 221 153 106 202 217 142 120 210 134 104 134 199 104 142 183 189 104 151 86 104 104 181
175 175 197 109 176 176 199 122 177 104 108 134 177 103 144 178 130 102 157 128 100 130 22 126 98 20 173 125 109 17 108 123 106 160 109 105 105 154 196 104 150 110 196 193 146 195 198 116 144 188 205 83 181 177 115 84 166 161 116 104 149 117 118 104 119 119 104 104 136 124 104 135 135 103 102 134 129 101 133 133 93 97 133 88 86 132 132 81 81 131 79 78 184 186 75 74 189 83 73 189 189 82 72 187 81 81 187 182 81 126 178 139 80 124 124 80 142 123 75 79 123 123 77 122 123 79 80 114 145 82 163 107 143 85 162 141 87 147 161 80 91 161 145 80 140 161 80 80 137 145 80 149 136 146 102 154 146 146 102 157 146 102 102 120 119 103 162 117 136 103 115 127 134 114 113 133 167 112 112 132 148 111 130 129 148 99 128 150 150 102 126 151 151 101 153 153 100 100 155 99 98 105 157 95 95 104 92 91 104 103 108 85 103 104 103 102 102 97 165 101 92 91 164 101 85 163 162 80 78 159 157 73 153 151 104 107 144 142 118 94 134 128 131 92 138 140 89 89 147 149 86 54 154 84 83 52
220 195 176 105 73 198 105 104 50 198 127 37 35 108 140 30 107 107 178 26 108 163 177 108 108 177 125 108 108 178 93 108 179 179 90 105 181 88 87 24 185 85 29 30 84 84 36 38 83 41 44 111 82 52 55 113 211 69 115 115 215 116 116 217 217 118 119 218 91 121 217 216 96 124 215 100 101 212 212 105 107 192 110 111 195 196 116 198 197 137 121 197 197 140 196 195 142 143 192 190 144 195 185 145 145 192 136 146 190 188 138 147 186 139 140 76 181 140 141 178 171 141 131 172 142 142 121 143 143 115 114 142 79 109 139 139 80 106 137 152 80 140 133 148 103 131 100 146 149 128 144 162 144 108 143 144 144 113 163 144 103 118 163 144 103 164 165 87 104 165 145 90 170 167 93 104 172 134 96 174 110 137 98 176 140 131 177 178 143 128 179 146 146 178 181 149 180 181 103 153 184 185 104 187 188 104 104 192 194 104 186 198 104 104 187 206 104 187 187 104 104 187 183 184 187 187 189 190 187 194 195 220 187 199 201 216 95 205 210 208 208 59 200 104 213 191 189 104 183 182 104 104 182 175 104 181
193 219 194 195 108 216 197 116 119 50 198 127 130 132 107 140 131 131 150 153 129 135 164 127 126 117 175 125 111 109 178 122 106 161 160 88 105 155 153 104 26 150 199 104 147 146 199 39 143 196 195 47 111 190 115 60 112 177 116 104 114 215 118 104 151 217 88 104 218 127 92 104 217 96 103 182 215 102 189 132 106 107 196 131 99 199 200 132 92 201 201 136 204 200 138 138 202 140 140 200 199 142 143 197 134 83 195 194 137 82 192 138 138 165 188 139 139 153 140 140 144 141 141 135 132 142 141 125 123 140 169 117 139 138 164 112 135 161 160 133 133 158 142 130 156 155 142 127 153 142 142 152 151 142 142 104 142 142 104 104 142 142 104 116 142 104 104 114 90 104 113 113 104 104 111 142 141 110 109 139 138 109 136 136 144 108 134 145 145 146 130 147 147 128 181 148 100 124 150 150 97 104 152 94 93 103 154 90 103 103 104 85 102 102 104 188 101 95 80 188 183 88 188 99 188 80 153 193 75 221 147 198 218 140 104 204 211 131 126 203 201 104 138 193 190 104 184 86 104 104 183 83 104 182 80 223
105 94 110 105 84 79 108 104 62 108 108 45 42 108 177 33 107 107 177 28 107 178 177 107 107 178 178 95 178 178 92 91 178 178 88 20 179 86 85 24 118 83 29 31 82 81 37 109 109 44 46 109 110 54 111 111 206 69 112 210 212 136 113 215 216 114 152 217 88 117 218 218 93 176 218 97 99 189 216 104 195 197 165 110 201 128 180 97 204 131 120 93 129 134 90 203 129 137 204 128 139 86 202 128 84 200 194 128 83 197 137 83 83 183 138 84 84 178 81 154 175 139 81 142 172 81 134 130 169 81 132 137 81 81 135 134 81 139 141 99 81 144 146 103 165 150 106 107 164 110 111 164 164 114 115 164 85 119 165 165 86 123 166 88 88 167 167 90 91 176 93 93 177 178 96 179 179 139 98 180 181 142 104 182 145 146 103 184 148 179 179 106 152 182 103 154 127 185 104 158 189 149 104 118 194 104 104 112 152 104 189 106 154 104 189 178 104 81 189 184 83 189 99 189 89 188 193 75 98 96 199 217 111 95 65 209 93 92 60 121 104 57 57 112 104 54 108 106 154 52 103 104 159 102 101 162
110 105 94 192 103 105 80 108 113 135 56 108 177 135 107 133 178 132 107 178 130 99 107 177 127 121 23 177 93 111 169 90 90 20 161 87 86 22 107 83 26 28 107 81 33 108 108 40 43 108 201 195 109 109 200 116 110 205 207 80 111 211 212 82 214 215 85 86 217 217 90 166 218 94 95 184 119 99 193 195 122 106 201 124 125 204 205 127 128 206 129 130 211 207 132 209 208 128 135 207 206 131 205 204 133 134 203 203 135 187 201 136 137 178 198 138 169 167 138 138 158 139 139 149 146 138 137 138 137 136 183 129 134 134 179 139 131 177 176 144 104 173 139 126 108 171 139 109 169 166 139 107 167 139 107 107 166 139 106 106 167 88 105 114 139 91 178 112 157 105 180 110 154 181 109 140 151 183 108 148 175 184 146 143 140 148 149 179 141 151 153 182 103 101 185 186 104 99 189 104 104 189 194 104 92 190 104 104 190 101 104 190 190 178 104 190 190 183 218 190 188 189 220 189 193 220 220 197 198 217 104 202 213 210 104 207 203 104 104 185 193 104 104 184 107 104 183 183 104 104 182 221 104 181 181 224
105 98 175 105 215 89 137 104 75 195 137 201 51 107 135 182 194 107 178 156 189 106 178 184 107 163 177 176 107 177 123 167 184 178 87 190 192 119 83 25 199 117 104 32 116 116 104 41 115 104 104 141 116 104 139 138 104 104 136 110 104 135 135 179 212 134 134 165 128 133 156 153 137 132 145 146 150 138 136 161 103 129 172 176 102 120 186 100 100 129 197 97 97 129 124 94 128 128 91 206 128 98 89 128 128 96 198 128 94 94 195 128 93 191 189 138 94 185 183 94 198 179 83 96 177 138 82 193 173 83 83 190 138 83 140 141 138 83 146 107 138 117 151 111 114 113 123 115 111 163 120 176 110 118 122 173 108 116 171 168 137 114 168 169 92 166 165 137 95 162 137 137 106 158 137 137 106 138 138 105 187 106 138 105 106 151 104 104 105 140 103 105 104 135 101 104 131 130 103 103 125 123 103 120 118 145 146 112 111 146 86 104 147 148 85 147 148 86 87 147 146 91 98 143 97 100 96 137 108 95 95 66 120 93 62 61 91 90 58 57 88 55 54 105 85 53 52 101 220 51 99 99 163 50 99 164
91 135 136 110 176 138 212 211 177 138 205 195 177 103 189 194 101 101 33 191 99 146 28 106 96 26 179 106 92 23 106 179 177 22 106 188 119 106 106 178 117 106 179 181 78 106 183 115 76 186 187 75 104 60 194 76 71 136 77 77 87 109 79 103 110 110 82 132 111 112 155 162 113 113 179 115 115 219 219 116 117 219 106 119 219 219 112 218 218 117 118 216 216 122 211 214 125 126 210 213 129 208 207 132 131 203 133 134 199 198 134 134 192 135 135 206 183 135 135 204 130 135 203 202 137 133 200 137 137 197 197 137 139 195 137 137 130 192 136 125 123 170 136 119 118 136 85 115 120 119 113 169 117 182 111 115 115 179 178 113 176 176 182 111 173 135 185 139 169 135 109 143 173 135 107 162 176 101 106 177 136 102 105 180 103 105 105 183 103 104 104 104 104 193 104 135 193 193 167 128 193 102 171 201 193 174 115 207 192 179 212 145 182 184 217 144 187 219 220 104 93 220 104 104 190 217 104 104 188 104 104 188 187 104 104 186 210 104 185 185 214 148 184 217 218 177 183 220 172 171 221 222 167 165 224 162
105 214 138 139 213 95 191 210 209 192 108 202 199 194 119 186 193 192 131 162 189 141 145 185 183 156 159 177 166 169 124 122 178 121 121 106 189 119 118 105 178 117 104 104 116 115 104 143 115 104 104 140 74 104 138 137 205 104 136 201 200 94 134 193 190 116 109 180 132 132 110 168 142 111 160 218 155 104 219 166 104 104 220 182 103 129 219 113 102 128 202 118 214 128 122 98 213 126 126 213 128 128 111 209 129 109 214 205 131 106 201 132 132 211 195 133 133 210 135 133 209 208 135 207 207 136 136 159 205 136 151 148 136 136 141 145 135 134 132 123 135 127 122 121 122 121 119 119 118 118 117 191 190 115 115 188 134 113 185 184 134 111 182 133 133 179 178 133 109 175 133 133 108 108 133 108 108 106 133 108 107 105 106 107 105 105 105 104 104 148 104 103 103 141 195 103 135 133 137 102 128 138 138 121 119 140 140 113 140 140 90 103 141 90 90 219 140 92 94 220 104 99 96 96 104 109 95 70 117 188 92 64 187 91 60 59 186 88 56 104 184 216 53 100 99 219 173 97 161 50 167 98 165 163 99 104
112 175 105 105 176 176 104 210 177 104 103 78 178 102 59 53 101 101 39 36 106 32 31 106 106 28 27 106 177 26 106 106 177 25 106 177 177 106 106 177 79 106 178 178 76 75 180 74 73 52 183 73 73 65 73 72 76 80 73 88 91 107 75 105 110 108 104 127 108 109 212 155 110 215 216 111 111 218 218 112 219 220 103 115 220 108 109 141 220 114 116 215 209 120 216 216 123 124 215 124 127 214 213 126 94 211 127 128 92 206 128 216 90 129 130 214 214 130 112 214 134 129 113 212 134 113 210 182 134 115 179 134 87 117 177 134 143 176 175 87 134 121 174 88 161 118 89 89 169 130 90 175 176 134 92 181 137 137 185 186 140 189 189 143 144 175 132 147 148 176 100 150 178 178 101 179 180 102 102 182 183 103 197 184 103 103 197 103 104 197 197 167 104 197 170 170 197 196 173 174 196 177 177 208 196 180 182 213 99 185 216 217 104 190 219 104 104 87 219 104 191 217 130 104 190 212 104 119 188 118 104 187 187 110 138 186 213 214 147 85 216 178 155 82 219 173 79 78 50 167 75 223 49 98 72 48
140 212 175 142 104 211 176 143 208 91 177 103 200 192 178 102 53 191 100 99 36 188 137 31 31 106 152 28 106 106 178 26 106 175 177 105 105 177 117 105 105 177 76 106 178 178 73 47 180 72 72 61 184 71 71 75 71 71 86 134 73 98 102 106 75 115 120 107 208 137 108 108 212 108 109 215 216 110 110 218 98 111 219 220 104 114 221 110 112 221 221 116 217 217 120 121 217 217 124 217 216 122 127 215 214 124 213 212 125 126 208 126 126 218 202 127 127 217 133 127 217 216 133 127 215 133 133 120 215 133 133 213 181 133 154 212 133 147 145 120 132 139 136 118 90 131 116 116 91 126 114 204 123 180 112 201 185 111 143 197 190 109 195 176 131 149 191 130 130 152 179 130 112 156 181 130 111 183 183 103 110 186 103 103 199 189 104 108 199 169 104 199 102 172 104 198 175 138 198 197 179 208 197 182 183 213 196 186 216 217 104 190 218 134 104 219 219 104 102 217 216 104 191 212 104 104 189 104 104 188 187 104 104 186 212 214 185 185 216 217 184 218 218 174 183 220 169 168 76 223 164 162 224 48 158 104
113 175 175 112 176 177 104 110 177 104 103 88 177 102 102 66 138 100 49 44 133 97 35 106 94 134 30 106 90 28 173 106 111 27 105 178 177 159 105 177 177 152 196 178 73 146 203 178 71 207 208 115 70 210 116 117 104 211 119 71 104 133 124 104 112 106 131 104 130 107 104 104 129 185 104 128 128 174 104 128 168 166 186 127 160 220 199 156 154 207 113 149 148 214 103 143 217 218 101 218 218 100 99 217 217 98 127 127 97 96 128 128 95 129 129 126 93 130 125 125 196 132 126 126 134 124 126 188 138 127 127 184 90 129 182 182 91 131 180 91 91 214 178 92 164 213 131 93 172 177 130 129 180 143 96 124 187 147 122 192 149 150 119 108 153 179 117 106 156 180 106 106 189 183 105 161 183 128 103 179 187 128 104 171 128 104 110 163 128 108 201 129 129 106 200 130 104 103 101 130 100 100 100 123 98 99 98 112 98 98 103 101 97 97 93 129 96 86 84 125 94 78 121 120 120 71 114 113 130 110 108 138 140 103 145 147 85 98 153 155 82 157 159 79 78 162 163 75 49 49 73 72 48 100 69 47
211 181 182 85 146 185 90 92 146 188 97 144 143 108 107 140 186 107 178 135 166 126 178 95 142 183 127 127 123 176 86 114 170 168 81 108 161 181 77 32 154 192 37 39 105 200 48 143 104 179 114 104 209 181 116 105 184 118 68 104 189 69 104 194 196 73 104 200 75 76 140 206 80 82 162 107 86 180 185 108 194 199 109 109 207 209 110 220 214 111 112 221 218 113 221 222 120 115 222 222 124 223 222 125 126 223 128 128 216 223 129 129 212 129 130 209 208 130 130 203 122 122 197 195 122 222 189 121 121 222 179 120 221 221 119 118 220 220 117 220 219 130 115 218 218 129 142 217 129 129 136 179 128 132 130 128 128 127 108 128 124 124 107 127 122 106 106 200 119 105 197 196 204 105 191 190 104 166 184 126 103 179 177 126 172 171 126 127 176 162 126 109 108 204 127 106 100 209 104 103 100 128 104 198 98 104 100 197 97 104 195 97 196 104 194 199 88 214 192 203 79 119 206 206 203 112 209 210 194 104 212 188 186 104 215 181 104 104 184 175 104 183 78 104 104 182 75 104 181 181 223 104 180 180 225 180
114 81 147 104 85 176 148 207 91 146 103 202 99 143 195 80 140 138 178 55 135 163 156 186 130 140 135 179 146 122 175 172 160 168 166 171 174 160 158 184 116 153 192 194 114 146 200 114 114 205 207 115 104 104 116 116 104 104 119 104 104 131 124 104 104 130 71 104 129 128 104 104 128 198 196 127 127 189 175 127 181 180 191 126 174 201 204 108 167 211 212 110 221 217 104 158 222 119 103 125 221 123 102 125 125 101 219 126 127 100 127 118 128 214 128 141 129 209 119 139 205 204 120 224 198 119 119 224 194 118 224 224 129 117 224 188 95 223 223 128 96 222 128 128 153 166 127 127 145 110 127 140 138 109 127 135 108 107 131 130 107 160 128 106 106 207 125 105 204 203 125 104 199 197 124 194 192 124 124 187 185 124 117 179 124 124 115 125 125 113 112 125 125 110 100 100 108 107 99 98 106 98 98 124 104 97 97 112 96 96 103 101 95 95 93 122 120 86 84 117 120 77 113 111 129 71 107 136 138 102 101 145 85 98 151 152 82 94 158 79 79 53 162 76 75 50 181 72 49 49 180 69 48 104 66 226
104 104 104 114 104 103 112 111 101 101 110 177 96 108 108 177 141 107 178 178 97 106 178 178 93 178 178 89 88 178 84 83 32 178 80 78 33 76 75 36 38 104 71 44 104 104 52 56 104 104 67 104 104 179 83 104 181 182 103 103 184 186 104 188 190 69 69 194 195 72 138 200 76 78 155 165 82 171 177 87 89 192 105 95 203 206 107 106 212 108 108 220 218 109 109 221 125 110 222 222 125 158 223 123 113 154 224 125 152 225 219 127 217 224 127 100 214 211 128 210 130 206 98 204 117 201 98 137 116 97 97 140 115 97 145 147 149 225 152 113 150 188 159 152 224 126 154 155 185 126 156 157 185 100 159 185 185 101 137 185 102 102 199 186 103 203 204 103 103 206 103 103 207 208 173 104 208 208 175 208 208 178 178 200 207 181 203 205 182 183 207 104 186 211 211 104 188 214 104 104 134 217 104 104 218 123 104 197 197 104 110 195 201 104 193 193 205 119 192 207 208 127 190 210 195 136 87 213 187 185 85 62 180 104 217 58 94 104 55 171 104 104 52 93 104 181 51 95 104 180 100 101 170 180 226 170
176 77 150 179 114 83 151 183 87 177 148 110 94 145 144 108 178 140 181 177 178 96 161 185 178 91 140 180 86 85 33 173 81 114 167 104 76 36 159 177 72 42 104 189 113 52 103 177 113 103 103 177 114 103 178 179 64 103 181 120 64 184 185 66 104 124 68 69 132 127 71 73 145 103 77 157 162 103 83 177 104 104 192 196 104 105 206 105 105 217 217 106 219 219 111 107 220 221 117 222 222 120 120 223 224 122 222 224 124 125 221 125 125 218 218 113 126 215 114 114 211 210 114 114 206 114 114 227 200 113 114 228 113 113 227 227 126 227 227 126 126 227 226 126 167 226 125 125 159 224 124 154 152 188 124 147 105 123 102 142 104 104 138 201 104 213 135 103 102 209 208 102 205 203 209 101 198 121 209 180 190 121 182 183 205 121 121 174 121 104 118 212 121 116 115 215 104 113 97 217 104 200 96 104 104 198 95 112 196 196 202 101 194 92 205 208 192 207 85 201 190 210 195 103 212 212 187 104 214 182 181 104 153 177 104 104 184 171 104 104 182 104 104 182 181 104 181 181 224 104 180 180 225 171 179 226
104 104 104 115 104 104 113 113 177 112 111 177 177 109 109 178 100 108 178 178 96 107 178 93 91 123 178 87 37 178 123 81 35 35 78 111 37 104 72 40 42 104 105 49 103 103 104 61 103 177 104 138 103 178 135 103 212 179 63 103 181 123 64 217 185 65 66 217 141 69 138 215 156 104 150 168 172 104 168 103 104 104 124 103 104 200 124 187 104 124 104 182 104 123 178 218 123 123 174 225 124 171 170 225 120 167 225 225 103 165 223 223 103 221 220 102 218 217 102 102 130 212 101 101 132 126 101 135 136 159 100 139 160 160 144 145 161 161 150 162 162 195 157 164 193 193 107 165 192 192 102 225 192 102 102 192 192 103 193 192 103 103 199 121 103 203 204 121 104 207 178 120 135 209 181 181 132 100 184 204 210 100 186 207 99 188 177 211 98 169 214 119 98 157 217 104 147 145 119 104 201 131 119 116 199 118 117 117 93 116 119 195 92 112 124 90 208 129 130 88 211 193 87 86 74 186 84 84 68 94 82 64 63 92 61 59 91 91 57 56 91 165 54 93 94 168 181 98 169 170 65 107 170 62 61 171
120 119 175 104 116 115 176 114 113 177 150 102 110 178 101 193 178 178 98 180 178 95 93 60 178 89 45 42 85 83 37 37 104 37 37 104 104 40 41 104 178 47 103 103 177 103 103 177 177 103 103 177 62 102 178 178 61 61 179 61 61 117 181 63 63 127 64 65 134 136 68 141 143 102 73 152 156 101 104 169 101 101 205 187 102 208 209 102 102 212 100 103 214 215 106 103 217 111 112 178 219 116 116 223 226 119 223 223 121 103 223 107 123 221 221 108 103 219 108 108 102 216 109 226 102 132 109 227 227 136 165 228 124 108 166 202 123 167 228 199 123 168 198 123 102 170 197 122 172 196 195 103 165 103 103 103 188 102 103 103 195 178 104 200 101 180 104 205 181 211 208 209 183 205 210 185 185 206 118 188 209 210 104 190 212 213 104 214 215 104 104 217 218 104 205 218 104 104 203 200 104 200 200 202 104 198 204 205 196 195 206 207 194 208 209 201 191 211 211 193 86 213 188 187 104 74 182 104 104 68 176 104 184 172 90 104 183 167 104 165 182 92 104 181 224 97 169 180 225 225 171 62 226 142 172 59
155 205 104 119 205 204 178 115 203 202 181 85 198 182 183 93 191 183 98 178 183 183 108 132 90 116 119 126 84 128 122 121 121 142 118 116 111 115 114 108 107 112 111 106 148 146 105 104 141 196 104 137 136 205 104 133 210 212 130 130 215 216 128 218 218 132 126 220 142 146 104 219 157 162 104 193 174 104 104 199 191 104 122 201 86 104 122 211 104 205 122 99 104 122 101 187 219 122 185 184 222 102 181 227 224 103 179 227 104 104 222 226 105 223 224 122 103 224 221 103 218 225 123 103 131 226 123 212 134 123 123 206 139 123 202 201 105 122 195 104 105 227 189 103 174 227 103 102 226 199 102 102 224 120 101 223 222 120 221 221 119 119 218 217 118 153 151 118 118 148 147 118 145 144 98 117 142 141 97 139 138 96 96 135 96 96 177 174 95 95 166 116 94 157 154 115 94 145 115 114 136 133 114 124 124 112 111 126 113 109 129 130 88 105 134 134 87 138 139 85 85 144 145 83 77 150 81 80 71 185 78 67 65 183 75 62 90 90 222 58 92 93 56 155 97 170 53 102 104 171 144 114 172 172 136 104
205 175 175 104 204 176 103 103 104 177 102 103 103 112 101 101 182 109 96 94 107 101 81 75 106 178 57 105 105 178 105 105 178 178 104 104 178 71 69 178 178 66 106 178 63 63 68 177 61 61 82 60 59 94 97 59 104 108 101 101 118 121 101 180 129 100 100 182 137 100 185 186 100 100 190 70 99 193 195 75 99 198 80 82 182 203 87 89 198 92 95 207 210 100 101 216 100 106 219 220 100 104 222 100 100 104 224 101 219 219 123 101 221 221 102 179 222 120 102 223 121 122 177 224 121 122 176 216 121 212 211 213 121 206 103 121 103 201 102 120 196 152 102 103 190 101 179 103 166 100 224 104 175 182 222 118 184 184 220 118 185 185 205 117 187 206 207 104 189 208 116 104 210 210 104 147 212 213 104 209 95 104 104 209 95 104 208 208 199 104 206 200 201 204 204 202 148 202 204 204 216 111 206 206 212 104 208 207 205 104 110 200 104 104 195 193 104 189 188 104 104 187 182 104 186 186 218 104 185 184 219 161 183 221 221 182 72 222 161 181 223 223 154 66 224 149 148 63 225 142 104 104 50 135 104 178
158 203 172 174 104 203 175 177 201 104 179 82 198 180 181 88 143 181 93 95 137 108 101 131 130 106 111 125 143 119 179 119 125 133 115 72 113 161 112 108 108 154 64 106 148 146 61 75 141 191 59 89 135 201 100 103 101 209 114 129 100 178 123 100 218 180 60 100 181 145 63 99 185 65 104 188 190 71 104 193 75 76 169 198 81 83 186 97 88 197 120 97 206 209 97 197 215 216 97 212 220 97 98 215 222 98 216 216 115 98 218 117 117 219 220 119 119 220 119 119 221 222 120 120 218 120 120 216 214 120 120 211 100 99 208 207 99 224 203 99 99 224 197 98 223 223 98 98 222 222 97 222 221 118 97 220 117 117 173 217 116 116 168 209 116 164 163 116 115 159 94 115 156 155 94 114 151 93 93 190 148 93 184 182 208 93 175 172 92 201 165 113 91 157 154 111 205 146 110 110 207 212 108 133 134 206 105 136 87 200 104 139 85 99 104 190 83 104 147 188 81 104 186 79 218 104 185 219 75 89 183 220 69 89 221 222 161 91 223 61 154 104 224 149 101 104 144 142 104 172 179 134 104 178 55 104
104 175 175 104 104 104 103 103 104 118 102 104 104 114 100 103 111 110 101 99 109 108 92 107 107 179 72 106 179 178 78 105 178 178 73 179 178 69 67 179 178 64 62 178 61 60 75 177 59 85 89 101 57 99 101 101 104 113 100 100 122 126 100 178 132 99 99 180 123 98 181 182 121 223 185 66 67 223 189 71 160 221 197 77 173 197 208 104 188 214 88 104 203 220 104 210 95 224 104 119 95 211 104 120 95 213 120 121 191 215 121 96 189 227 123 188 218 226 187 187 225 118 104 186 223 104 217 221 220 104 214 219 104 104 137 216 104 104 143 104 104 148 150 104 153 155 187 188 161 164 189 211 170 190 190 211 179 191 211 211 192 192 212 104 193 213 214 104 195 215 104 104 204 217 104 104 206 113 104 207 207 112 104 206 202 104 146 205 204 143 204 205 205 218 202 207 215 214 88 208 210 209 87 131 204 104 212 121 101 104 113 193 97 104 104 95 104 149 187 92 104 186 78 90 158 184 219 89 162 74 221 165 165 71 68 168 69 68 63 170 65 60 60 102 62 57 140 114 55 54 126 104 52 138 143 173
174 104 202 175 104 104 104 174 103 102 104 118 101 104 104 114 103 103 111 110 100 98 109 178 90 107 107 178 122 105 179 179 74 104 178 179 69 178 178 65 64 178 62 61 72 178 59 58 85 57 57 96 99 100 56 109 100 100 118 121 100 177 129 99 99 178 137 98 180 180 97 97 182 182 97 184 185 66 67 188 189 72 163 192 76 77 176 209 82 188 191 87 88 201 93 94 209 211 93 93 216 92 93 209 220 92 211 211 120 92 213 213 121 193 214 114 93 191 216 116 191 217 225 117 219 224 117 104 217 222 117 215 93 220 104 211 92 218 104 143 92 104 203 149 92 104 155 91 192 216 163 193 215 214 172 194 213 114 195 195 215 114 196 196 216 104 197 217 217 104 200 218 104 104 203 220 104 204 205 104 104 205 88 104 205 204 204 104 203 203 206 202 201 208 208 213 208 209 210 208 210 211 204 104 212 199 197 104 213 193 104 104 111 187 104 187 183 91 104 186 185 104 159 184 219 104 183 182 220 165 182 221 222 168 181 223 155 181 65 224 148 104 224 60 140 104 225 133 123 104 55 126 104 104 53 153
104 68 175 104 104 71 159 103 104 177 153 197 104 149 100 193 103 142 187 102 178 110 175 178 108 99 159 175 106 179 172 171 117 179 166 164 130 108 159 141 145 104 61 156 103 102 105 171 103 104 104 103 104 104 109 107 104 104 128 113 104 104 124 104 104 123 122 219 121 121 222 223 120 119 225 168 118 225 225 185 118 225 194 197 93 223 205 208 220 196 214 104 104 218 104 104 118 222 104 104 118 99 104 118 118 104 104 119 198 104 222 120 196 227 121 89 195 227 122 194 214 226 89 193 225 225 89 215 224 104 88 216 116 104 215 216 116 104 139 115 115 207 145 115 104 202 88 115 199 158 88 114 194 87 196 190 189 87 208 185 87 87 205 218 87 202 201 112 87 198 220 111 194 192 111 104 188 110 110 162 182 109 109 157 85 108 154 154 85 107 151 85 84 149 148 84 84 147 83 83 141 147 83 134 131 82 82 124 122 95 118 115 92 92 108 106 90 156 100 89 89 160 88 88 163 164 87 88 166 70 89 168 168 67 67 170 65 64 67 171 62 61 63 59 59 60 59 56 58 57 138 53 55 54 155 174
174 104 104 104 104 103 104 104 103 104 104 122 101 104 118 117 104 104 114 113 178 111 110 179 178 108 108 178 79 106 179 178 73 104 179 69 67 129 178 64 66 179 61 60 79 83 57 89 93 100 55 102 106 100 104 115 99 99 104 126 98 177 131 123 97 178 121 96 219 178 57 96 179 158 60 225 181 63 64 226 186 67 159 226 198 104 168 205 208 104 182 90 104 104 117 89 104 204 117 210 104 117 87 205 117 118 203 206 118 118 201 227 119 199 199 227 110 198 227 227 104 197 226 113 104 226 225 104 218 224 104 104 130 223 104 104 134 104 104 139 140 196 104 144 197 197 150 151 198 219 157 198 198 219 165 199 219 219 83 200 220 220 104 201 220 104 104 221 221 104 194 221 104 104 197 109 104 199 199 108 104 200 207 107 160 200 208 208 157 83 210 212 197 82 155 207 82 212 146 201 81 140 196 104 80 131 190 104 124 122 92 104 186 181 89 158 185 89 104 161 74 88 163 183 71 87 167 69 221 168 169 67 222 153 65 64 71 146 62 68 66 108 58 63 62 122 61 60 136 140 58 57 153 174 55 163
104 66 163 162 200 69 159 158 199 172 154 197 196 174 147 192 176 176 187 185 176 87 178 176 176 93 163 174 100 102 82 170 109 112 108 104 121 105 103 131 135 101 108 146 98 98 106 178 98 104 104 178 100 104 131 177 53 104 126 125 53 130 123 210 104 121 96 216 143 119 221 221 148 94 224 164 151 93 226 180 91 91 184 193 104 227 187 72 104 190 209 78 184 194 82 104 197 197 88 204 115 93 94 212 116 208 216 216 83 205 218 82 82 206 220 82 82 207 81 81 208 208 81 81 209 112 81 209 209 113 104 209 113 113 215 209 113 213 212 113 113 210 209 112 207 206 80 112 203 202 80 200 199 79 80 203 80 79 201 200 80 80 198 110 80 195 194 110 80 191 109 108 188 187 108 108 172 107 107 169 168 107 166 165 80 105 162 161 80 104 159 80 80 157 156 79 151 155 79 79 143 96 78 137 135 94 77 128 92 90 217 119 90 89 218 177 88 162 104 87 87 165 168 87 167 168 68 104 169 66 66 104 171 64 76 104 180 61 70 172 179 224 66 178 55 226 121 138 226 60 115 155 226 114 165 104
145 175 164 141 176 175 103 135 176 102 101 177 177 99 99 178 97 95 105 178 91 90 104 113 85 102 101 109 96 93 107 106 81 77 105 179 70 103 103 179 74 102 178 178 101 101 178 178 55 178 178 53 53 178 52 52 122 178 52 52 130 111 52 135 137 53 53 142 95 54 146 147 93 179 150 92 92 180 153 91 182 182 115 89 184 185 88 228 187 72 86 190 191 78 186 193 82 84 197 217 88 205 207 220 93 211 81 223 104 215 79 101 104 117 79 104 218 118 203 205 119 78 202 205 121 202 206 225 123 201 206 111 201 201 224 111 201 201 224 104 201 223 223 104 141 223 104 206 147 222 104 152 75 104 104 160 75 104 166 167 204 104 173 205 205 178 180 206 206 221 206 206 221 221 207 208 219 104 209 218 217 104 210 215 104 104 212 210 104 193 192 104 104 191 191 104 190 190 214 104 189 188 215 159 187 216 216 160 75 218 180 184 73 218 176 104 219 108 171 104 220 167 87 104 94 161 104 104 87 91 104 179 81 96 172 179 102 105 173 178 224 172 178 54 225 173 177 225 62 173 49 226 112 46 45 57
168 148 66 164 103 142 176 159 197 136 177 101 195 177 177 97 105 178 94 92 105 179 88 105 104 113 81 102 172 109 96 93 106 105 82 105 104 178 76 103 103 179 101 101 179 178 100 100 178 54 53 178 178 52 104 178 51 51 128 178 51 133 135 52 52 139 140 52 143 145 93 92 148 149 92 178 152 90 90 180 89 88 181 182 87 87 184 68 85 186 187 72 83 189 76 78 187 192 82 83 198 86 87 204 206 91 209 211 77 96 214 214 76 104 216 75 75 104 218 74 202 202 73 73 203 107 73 203 203 109 72 203 109 109 203 203 109 110 203 223 110 211 210 223 109 208 72 109 104 205 72 104 202 152 72 104 199 72 205 104 165 72 192 104 171 207 189 107 178 208 220 106 208 208 219 105 209 217 217 104 210 214 103 172 211 209 104 168 205 204 104 189 75 104 104 188 214 104 188 187 216 104 186 216 216 185 185 217 129 184 218 218 176 87 219 172 171 104 220 167 165 104 162 161 104 104 155 153 104 179 146 104 104 179 137 104 179 179 225 104 178 225 225 173 177 225 226 176 49 226 110 176 226 226 112 43
152 175 104 149 176 175 167 143 176 177 170 71 177 99 98 75 178 95 105 178 132 89 105 125 83 172 105 116 76 103 170 107 144 94 106 101 127 160 104 179 115 153 127 178 146 144 142 178 138 154 178 92 132 169 178 51 180 184 100 51 193 197 109 104 138 118 122 104 116 133 104 104 114 149 104 113 113 104 104 112 88 104 112 112 228 182 112 230 229 197 112 229 229 202 228 227 206 208 225 224 211 104 222 213 214 104 217 217 104 104 113 219 104 114 114 99 104 115 115 104 216 116 207 104 117 118 206 216 119 205 205 215 69 205 223 223 68 205 223 104 68 199 223 104 205 223 108 104 197 222 104 104 195 108 104 151 152 107 198 158 207 106 195 165 208 192 191 69 209 188 175 70 181 184 70 210 178 70 71 174 211 101 71 170 100 104 166 165 98 104 161 97 96 168 155 94 93 166 92 91 166 166 90 166 166 71 71 166 166 70 126 168 69 69 118 169 67 112 110 66 66 104 88 64 98 97 91 92 92 94 96 173 85 103 105 173 111 114 173 173 126 130 173 51 144 173 174 48 174 174 46 45 62 174 43 59
174 155 175 175 103 150 176 177 102 177 177 100 99 178 98 96 105 105 93 91 105 124 86 106 106 117 79 106 113 112 105 104 109 108 98 106 106 179 90 103 179 179 57 101 178 179 54 179 179 53 52 178 178 51 126 178 50 50 133 101 50 136 137 94 50 140 92 92 104 145 91 91 148 112 89 178 151 87 87 179 110 86 179 179 110 229 181 65 65 230 183 68 168 185 200 73 178 188 76 104 189 208 81 196 111 212 104 204 71 214 104 112 70 196 104 112 69 197 113 113 210 198 114 66 208 221 116 208 198 222 207 207 222 105 104 207 222 104 212 222 222 104 210 221 104 104 133 221 104 137 138 104 104 142 144 104 147 149 208 189 154 156 208 219 161 209 209 218 66 210 216 215 211 211 213 104 211 211 209 104 212 206 104 104 182 201 104 104 183 96 104 183 183 104 171 183 215 104 183 183 216 169 182 217 217 178 182 218 176 175 68 218 171 104 66 117 166 104 220 110 87 104 104 153 91 104 97 94 104 174 178 101 104 178 56 113 174 178 224 173 174 51 225 174 174 48 69 174 46 45 65 174 43 63 114 178
159 64 162 163 65 175 161 166 68 156 101 69 70 147 97 72 140 137 188 76 130 183 181 122 119 173 107 112 164 160 169 112 148 144 164 100 132 160 158 110 118 153 118 121 146 144 132 87 138 143 147 88 130 159 90 92 103 174 97 98 104 178 106 104 104 114 50 104 113 129 104 104 111 53 104 110 110 222 104 109 226 227 154 109 228 229 157 80 230 188 108 78 182 194 76 230 185 199 74 187 202 77 104 189 206 104 198 191 85 104 109 88 89 208 109 92 93 211 65 96 212 112 64 99 213 63 210 196 213 62 196 219 62 61 195 219 61 195 195 104 60 194 194 104 193 193 104 104 207 192 104 205 204 104 104 203 61 104 201 200 61 103 198 62 62 195 195 63 63 192 63 64 178 177 64 176 175 99 65 172 171 98 169 168 96 96 165 164 94 176 160 93 92 174 155 90 173 172 67 88 172 67 67 172 172 66 66 172 66 66 129 173 65 65 121 179 63 115 114 88 221 107 90 91 102 101 95 174 95 100 103 174 89 111 174 174 113 126 174 174 106 104 174 48 47 104 175 45 68 174 174 42 65 174 40 226
104 104 104 103 103 104 157 102 104 104 152 100 104 147 145 105 105 140 138 178 134 132 179 178 126 179 179 76 119 179 179 69 179 179 65 63 179 179 60 107 179 57 56 109 101 53 116 119 99 51 126 98 97 131 132 96 95 135 94 94 178 139 92 92 178 113 91 178 178 50 209 178 52 52 177 178 54 151 178 56 56 153 179 59 155 156 179 61 158 78 77 104 163 75 74 104 106 73 184 177 106 70 186 106 68 227 188 107 67 190 207 107 221 191 88 104 218 211 92 209 215 213 104 211 214 215 104 211 216 104 211 113 216 104 114 58 104 104 116 58 192 119 120 209 191 123 124 209 217 127 209 209 216 132 209 215 215 209 209 214 104 104 214 213 104 197 212 104 104 157 209 104 104 162 104 104 166 167 104 169 170 213 104 173 173 213 192 175 214 214 188 177 215 185 184 65 216 181 181 216 146 178 104 217 175 86 104 134 171 104 104 179 86 104 179 179 87 104 179 220 90 175 178 221 175 178 57 222 175 178 222 92 116 53 223 109 107 50 82 102 104 48 76 100 104 73 72 174 104 69 178 179 175 66 180 104
160 62 196 161 163 65 104 164 66 67 104 155 69 145 104 149 178 134 143 141 178 124 182 178 116 79 173 179 105 164 112 179 67 149 164 63 61 117 159 58 57 116 104 55 118 120 100 125 125 99 98 179 133 97 151 178 95 94 178 95 93 178 178 49 91 178 178 49 144 178 50 51 147 178 52 149 150 53 54 151 82 56 153 154 79 59 155 77 76 157 158 74 74 181 73 72 182 182 70 69 183 72 67 185 185 76 186 187 79 80 188 188 83 200 189 86 87 204 205 89 207 207 58 93 208 58 57 209 209 57 56 209 56 56 191 209 55 55 191 100 55 190 189 100 54 189 100 100 210 188 101 205 186 213 100 204 185 100 104 201 210 99 199 199 56 104 197 57 57 104 152 58 175 192 158 58 172 162 59 213 169 166 60 166 190 170 214 162 91 91 214 183 89 180 215 181 104 178 178 178 104 178 175 104 104 177 171 104 177 178 219 104 178 60 219 178 178 220 115 178 178 221 139 178 221 221 127 177 221 117 115 222 222 107 105 104 102 100 104 174 98 104 104 175 100 104 104 174 178 104 173 173 104 104 172 226
104 104 104 103 104 104 165 102 104 104 161 176 104 157 156 177 105 150 178 178 169 142 178 82 136 78 179 75 128 179 69 68 87 179 63 62 123 88 59 124 125 84 117 125 104 53 109 129 100 105 134 132 97 104 138 95 153 104 118 93 178 178 112 180 178 49 109 194 119 50 202 204 134 51 211 145 148 104 218 157 54 104 102 167 104 154 102 104 104 102 74 104 104 101 231 104 101 101 231 104 101 231 231 101 101 230 184 195 229 228 197 79 226 200 200 104 223 202 203 104 188 204 104 104 206 206 104 103 208 104 104 104 214 104 106 106 212 104 107 211 212 207 110 211 211 113 52 211 210 116 210 210 209 104 211 209 208 104 182 207 104 104 180 205 104 139 178 96 104 145 200 96 194 151 95 104 192 56 213 190 161 57 213 187 58 213 185 185 59 214 182 59 60 155 179 60 216 149 86 60 146 174 85 179 140 85 104 179 134 86 179 177 87 87 178 177 89 178 177 57 94 177 55 55 106 176 54 53 100 52 52 95 94 50 49 89 144 48 85 84 162 45 80 172 174 77 75 180 175 175 181 182 175 175 181 176
159 170 104 104 169 64 104 104 166 176 104 164 162 177 95 159 178 177 90 152 178 85 83 178 178 78 76 179 72 70 114 179 66 120 122 118 60 130 132 112 134 134 107 106 134 134 103 179 136 100 98 179 140 97 179 179 95 94 179 48 48 178 178 48 48 178 48 48 145 178 49 49 146 50 51 147 148 52 149 150 79 54 151 151 77 178 153 75 74 179 155 72 179 179 98 69 180 180 67 232 181 68 64 182 189 72 231 183 74 75 187 193 77 192 194 196 81 198 55 198 104 201 54 104 104 99 53 104 205 99 216 187 100 51 214 187 102 213 187 95 104 212 185 96 212 212 205 96 211 205 205 104 212 204 97 104 119 203 104 202 125 201 104 129 50 104 104 136 212 104 141 142 212 104 148 212 212 152 154 213 213 186 213 213 184 183 214 214 181 104 215 179 179 104 153 176 104 104 174 174 104 174 174 104 104 175 176 104 176 176 218 104 176 218 219 179 176 219 219 178 55 220 124 176 53 221 112 104 221 99 101 104 222 96 104 104 89 93 104 174 83 172 104 174 101 180 175 173 182 104 175 172 225 175 171 36
175 195 104 167 102 194 161 157 193 104 163 148 191 165 164 190 188 167 71 186 168 168 74 181 168 76 77 102 168 80 81 93 83 84 88 86 89 84 83 131 96 80 79 118 179 78 111 109 139 78 105 133 130 104 104 123 121 103 117 115 158 103 111 170 173 145 106 184 187 145 85 197 131 134 83 207 144 104 213 178 155 104 178 163 55 104 178 169 104 95 178 59 104 95 179 62 159 95 232 104 164 95 232 169 94 60 232 178 59 231 182 185 56 228 191 55 54 184 193 104 53 184 83 104 185 185 86 202 185 88 88 203 185 90 204 204 91 92 205 98 93 205 205 47 213 205 47 47 182 204 47 47 181 47 47 180 179 47 47 178 94 48 176 176 94 48 175 94 93 198 173 92 197 196 92 91 195 194 90 193 193 52 89 191 191 54 190 189 54 55 188 55 55 154 152 56 56 149 85 56 145 144 85 56 140 85 86 135 134 87 88 129 89 90 180 179 93 179 179 53 99 178 177 52 104 177 51 51 104 175 49 97 175 175 47 92 174 46 222 86 174 44 83 180 182 223 78 183 184 224 120 183 176 71 129 180
104 103 103 104 173 173 104 104 172 176 104 171 170 177 104 168 178 177 166 163 178 178 168 73 178 76 75 77 97 70 115 179 89 63 126 84 59 141 142 80 56 151 114 77 117 152 107 77 108 138 102 179 148 128 129 179 121 94 145 179 113 156 179 99 107 172 178 48 182 186 122 49 195 133 136 104 146 145 148 104 94 156 104 104 93 163 104 92 93 104 104 92 68 104 92 91 231 179 91 231 232 180 91 232 232 182 232 232 184 184 231 231 186 104 229 188 188 104 182 190 104 104 90 191 104 90 90 85 104 90 91 104 201 91 217 104 91 92 215 203 93 215 214 204 45 214 196 196 45 213 195 104 212 179 194 104 212 193 93 104 176 192 104 201 174 92 104 126 127 91 199 133 212 90 197 141 212 195 195 50 212 194 152 51 161 192 52 213 158 52 53 155 174 85 53 151 84 104 147 145 85 104 142 85 86 184 137 87 183 183 89 90 181 175 93 180 180 53 218 178 178 52 112 177 51 50 106 176 49 101 100 48 47 95 159 46 91 90 173 176 86 180 181 174 81 184 184 175 184 184 175 176 182 177 177 36
177 194 194 168 194 193 159 157 192 192 161 98 191 163 164 93 105 165 70 70 105 166 72 108 168 158 75 98 167 77 179 89 142 81 84 61 132 179 79 136 132 179 54 121 151 179 51 111 142 49 49 154 132 48 104 151 96 47 149 115 92 148 148 89 162 103 147 86 179 117 84 84 179 131 81 178 178 51 78 178 52 52 178 178 54 104 178 55 56 150 89 57 58 152 65 60 154 155 62 62 158 60 59 162 164 57 179 169 55 55 180 180 53 180 180 74 51 181 181 77 181 181 79 79 181 81 81 196 181 84 84 198 85 86 199 200 44 87 200 44 44 201 202 43 43 202 43 43 179 202 43 177 177 42 42 176 176 43 175 175 91 91 173 173 90 201 172 90 90 200 183 89 199 198 181 88 197 47 88 104 195 48 48 194 152 49 158 192 50 50 155 161 51 152 151 166 214 147 85 168 215 142 85 215 215 155 87 184 133 145 104 182 136 95 181 174 120 104 179 51 106 104 175 50 104 104 174 49 104 174 174 220 98 174 45 220 89 173 221 89 98 222 222 107 186 223 223 119 104 223 127 129 104 177 134 104
174 175 175 102 175 175 101 101 104 176 98 104 104 95 94 104 105 89 105 105 170 82 106 166 165 108 109 160 157 113 153 151 179 179 144 141 179 58 133 179 179 55 91 179 52 52 99 179 50 164 179 75 49 157 155 47 103 152 95 47 150 149 91 103 148 88 87 103 100 84 179 104 95 81 178 92 91 201 178 51 76 179 154 53 216 178 54 104 221 166 57 149 226 169 104 151 172 172 104 155 174 104 104 83 57 104 163 82 232 104 81 53 231 81 81 230 179 80 81 229 183 80 227 227 184 79 225 185 185 104 222 186 104 104 186 187 104 104 187 104 104 84 187 104 104 86 88 104 89 90 214 104 93 213 213 97 98 213 185 103 212 212 183 109 212 182 182 42 212 180 180 43 166 179 104 104 177 87 104 141 175 104 104 148 86 104 153 154 85 104 158 213 84 191 163 213 213 189 51 213 160 169 51 140 153 51 215 135 141 51 130 131 96 51 125 116 104 120 119 112 104 174 122 126 176 174 139 143 176 47 157 175 175 45 172 175 44 44 174 174 43 221 175 41 41 82 120 39 79 78 184 37 76 75 180 73
175 103 175 175 102 102 176 176 99 99 104 97 96 104 104 92 90 105 175 85 105 105 171 78 107 168 167 110 112 161 179 179 155 153 179 179 146 179 179 56 135 179 179 53 179 179 51 50 179 49 49 167 179 48 48 158 100 47 154 153 94 47 151 91 89 149 149 86 85 148 83 83 179 147 80 178 178 89 76 179 179 52 209 178 53 53 178 178 55 146 178 56 56 148 169 59 150 150 171 60 152 58 57 104 157 55 54 104 78 52 178 167 77 50 178 76 49 178 178 76 229 178 75 76 227 177 78 189 225 182 80 192 177 183 104 195 183 83 104 78 183 104 198 81 183 104 83 39 104 104 87 39 174 91 92 213 173 96 98 212 181 103 212 212 179 212 212 178 178 212 211 176 104 104 175 175 104 199 174 104 104 142 173 104 147 150 104 104 154 155 104 158 159 212 104 162 163 213 160 166 213 213 152 169 214 143 140 51 214 130 104 214 118 114 104 216 103 104 104 118 91 104 104 173 138 104 173 173 156 175 173 218 104 175 172 220 174 172 43 220 175 170 221 86 119 40 221 127 129 39 78 135 104 37 75 178
156 62 175 102 176 63 158 100 64 176 144 190 66 133 93 188 68 119 186 105 109 106 182 107 173 178 177 166 168 172 169 166 77 162 165 164 81 163 162 83 85 159 158 89 72 71 94 95 71 49 101 72 74 105 111 77 103 103 81 83 103 103 90 103 103 105 102 103 103 98 167 104 93 92 181 104 88 191 195 85 84 203 151 82 210 211 159 80 217 163 163 65 222 166 166 104 178 169 104 104 178 61 104 75 172 63 104 74 65 104 162 73 67 104 73 48 231 173 72 230 230 178 44 229 178 183 43 176 179 42 41 175 180 41 175 175 82 39 175 180 83 195 174 84 104 79 85 85 199 83 85 86 200 37 86 200 201 38 87 201 38 38 201 201 39 212 167 39 39 165 174 40 164 163 86 41 161 161 85 160 159 85 85 157 156 85 196 195 84 85 194 47 85 192 191 48 86 190 49 49 188 188 49 50 186 50 50 133 183 50 50 128 103 50 125 123 114 121 119 125 129 115 114 142 176 109 156 160 175 104 172 175 175 181 182 174 44 44 175 175 42 42 175 41 41 84 176 39 39 80 166 38 78 76 165 36
175 103 102 175 102 101 104 176 99 104 104 96 95 104 104 91 105 105 178 84 105 105 177 178 107 176 175 178 165 171 178 179 167 165 179 59 159 179 179 55 150 179 54 53 88 179 51 50 192 70 49 182 178 73 104 168 108 47 103 158 100 103 154 112 93 103 151 88 153 103 97 83 179 125 90 180 179 50 85 192 145 51 201 204 154 53 210 158 160 104 217 163 56 145 75 166 104 145 59 104 104 72 56 104 104 71 231 104 70 70 231 104 69 232 231 69 69 231 174 174 230 230 175 73 229 176 176 104 226 177 177 104 177 177 104 104 177 177 104 72 177 104 104 74 218 104 77 78 216 104 81 215 215 199 86 214 214 90 37 213 174 98 212 166 173 104 212 172 172 104 163 171 104 104 161 170 104 130 159 85 104 139 85 84 196 146 84 104 151 46 211 193 156 211 211 191 48 211 150 188 48 211 139 49 49 135 124 49 132 131 103 49 127 97 114 179 121 125 104 178 116 142 177 172 155 159 176 47 172 176 175 46 183 175 45 44 95 175 43 43 90 42 42 87 86 40 40 83 184 39 81 79 180 78 76 178
156 63 63 169 63 63 157 153 64 65 141 189 189 129 126 187 160 115 185 185 162 102 182 163 164 73 177 164 164 172 115 165 75 164 165 167 78 73 163 81 82 70 151 85 68 68 141 90 69 112 129 179 71 105 104 74 47 103 179 81 102 158 117 47 103 109 107 47 150 100 155 48 148 93 170 147 147 78 184 146 75 73 179 145 71 204 178 54 67 179 160 55 64 178 57 104 178 178 59 104 177 59 60 146 177 62 149 150 51 64 154 155 48 158 159 47 231 164 166 45 175 170 43 42 174 41 41 173 174 40 40 173 77 78 173 172 79 79 171 80 81 192 171 82 81 194 82 83 196 196 83 197 198 36 84 199 199 36 166 200 36 36 165 200 37 164 163 37 37 162 85 39 161 160 84 39 159 85 84 198 156 84 84 197 164 84 196 195 85 104 193 46 85 192 191 47 104 189 48 48 104 186 48 137 136 167 49 132 131 49 212 128 114 49 124 84 129 213 118 142 146 213 75 160 176 215 77 175 176 46 86 104 175 45 104 104 168 44 104 175 168 218 104 167 41 219 104 165 219 82 140 164 220 79 178 221
175 102 156 63 165 100 64 64 148 97 65 135 131 188 104 119 88 186 161 106 184 105 162 181 180 163 179 176 174 164 74 169 164 164 76 159 164 78 79 70 162 81 68 68 85 86 67 67 90 68 68 108 97 70 71 104 179 75 103 103 126 83 102 117 115 103 103 107 141 103 101 98 156 104 92 168 171 147 86 182 185 146 73 195 151 152 69 179 157 104 211 160 160 104 178 163 104 104 178 165 104 67 177 60 104 65 168 62 148 65 230 104 153 47 230 157 64 45 230 163 44 230 174 169 42 229 171 40 40 173 171 104 171 172 77 104 171 171 79 187 170 80 80 190 169 81 193 193 82 82 195 80 83 197 197 35 214 198 35 35 164 199 36 36 162 37 36 161 161 37 38 159 84 39 158 157 84 156 156 84 84 197 153 84 196 195 85 85 194 193 86 192 191 46 88 189 189 47 188 187 48 48 185 48 49 134 133 49 49 129 114 49 126 125 129 49 121 142 147 118 116 159 176 112 172 175 176 175 183 175 175 46 189 175 175 45 104 176 44 44 176 176 42 88 177 41 41 85 164 40 82 80 179 38 78 176
103 172 63 169 173 174 176 151 175 176 176 94 177 177 177 89 178 177 84 184 178 178 77 180 178 73 71 110 163 66 116 119 178 61 131 137 174 150 158 169 167 181 189 162 179 205 155 153 179 147 144 179 179 48 133 179 47 47 179 179 47 47 179 47 47 156 179 47 48 151 48 48 150 149 85 148 148 81 79 147 147 75 179 146 71 70 178 144 67 179 178 65 63 178 56 61 178 178 58 58 177 59 60 141 177 61 62 143 167 63 146 147 65 65 151 46 67 155 156 44 104 161 42 42 173 167 41 172 172 63 39 171 171 64 225 170 77 37 223 169 79 222 168 169 80 189 168 81 104 192 167 82 194 81 167 104 196 35 166 104 93 35 104 104 100 211 104 106 108 210 158 114 210 157 161 123 209 155 84 209 209 159 85 208 157 156 104 208 152 151 104 147 145 104 104 157 135 104 160 161 104 104 164 49 104 165 166 209 104 167 209 210 169 168 210 210 169 211 211 72 72 212 212 75 104 213 82 85 104 104 95 104 104 100 110 104 167 120 191 104 165 165 104 178 164 217 104 163 163 218 181 162 219 219 182 38
170 191 103 172 172 190 156 174 176 104 157 66 177 158 176 66 177 85 67 178 98 78 69 178 74 107 70 82 68 113 73 75 168 126 71 59 158 163 67 149 175 162 169 136 160 164 84 121 155 154 179 151 149 93 179 143 98 100 73 135 107 110 82 114 118 90 92 103 130 102 103 103 113 116 103 149 126 104 104 87 138 104 82 81 104 104 77 76 199 73 73 205 208 70 70 213 161 67 218 219 163 56 222 164 164 53 225 165 104 228 176 166 104 104 167 66 104 61 167 104 104 61 70 104 61 61 72 166 62 228 104 171 63 226 175 65 37 224 167 66 223 167 166 36 220 166 80 35 165 165 104 35 164 82 104 163 163 83 104 91 83 83 196 98 84 104 197 38 84 197 112 38 197 197 40 209 196 196 41 153 195 42 43 150 152 44 148 148 87 45 145 88 89 143 143 92 104 140 96 98 183 136 104 107 182 112 115 180 180 50 130 179 50 50 177 178 50 119 177 49 49 114 176 49 111 109 48 48 106 105 47 102 101 193 192 98 192 191 177 93 190 188 178 187 186 179 180 182 181 181 40 179 182 183 39 38
103 170 175 175 171 171 176 176 173 176 176 93 175 177 177 88 177 177 83 81 105 178 77 106 107 72 70 109 180 66 115 118 179 61 131 178 178 151 159 176 175 184 173 171 179 179 166 179 179 49 159 179 179 49 93 179 48 47 100 179 47 169 179 81 47 159 157 47 102 153 102 49 151 95 93 103 149 87 85 104 88 80 179 147 82 74 179 78 70 196 179 55 204 179 158 57 211 178 58 104 218 162 60 138 223 163 104 139 164 164 104 140 165 104 104 61 46 104 61 60 229 104 61 42 229 61 61 228 171 62 62 227 165 63 226 225 165 104 224 164 164 104 222 163 104 104 163 163 104 187 161 104 104 82 160 104 104 88 83 104 93 94 212 98 100 211 211 106 108 210 155 114 209 209 154 122 208 153 152 42 207 150 104 207 148 145 104 104 140 89 104 150 130 104 104 155 97 104 158 159 104 104 162 207 115 181 164 207 78 179 50 208 71 167 50 121 70 50 209 116 74 50 113 82 188 49 108 192 104 105 103 193 104 165 193 193 177 164 190 104 179 44 187 179 161 43 183 181 42 217 182 183 40 81 185 39
168 190 190 155 65 189 156 156 65 138 156 66 66 119 158 67 107 103 68 68 93 78 69 86 84 179 70 78 76 173 73 71 169 166 163 162 160 163 163 151 148 162 79 139 161 160 82 124 158 85 86 219 153 89 64 148 150 95 69 70 100 180 76 101 109 84 87 102 179 96 102 102 180 110 103 102 179 50 104 94 162 52 147 86 176 104 146 74 189 145 76 68 200 143 65 206 157 141 61 178 159 57 57 177 161 104 177 177 62 104 176 162 65 139 175 66 104 142 174 68 146 61 69 70 151 42 72 156 157 41 227 161 40 40 168 167 39 38 166 38 37 165 165 37 164 164 80 37 163 162 81 185 161 82 82 188 160 82 190 190 83 83 192 192 83 192 192 39 84 193 39 40 192 192 41 42 151 42 42 150 149 44 44 148 87 45 146 146 90 144 143 92 94 141 140 99 183 138 105 107 181 181 116 180 179 51 131 179 178 51 104 178 51 51 177 166 51 119 176 51 51 114 188 50 110 110 193 49 106 194 194 210 102 193 177 211 131 191 179 94 137 104 180 141 184 181 182 43 104 183 41 41 104 185 40 79
102 167 168 189 155 169 176 188 156 171 176 92 157 67 177 86 174 68 97 80 68 178 86 180 70 79 70 176 71 72 172 118 68 67 165 137 179 158 155 163 177 146 162 162 79 132 160 173 82 158 157 85 179 153 152 90 63 48 94 96 70 48 101 76 78 101 110 86 102 102 96 99 102 103 109 103 103 102 123 104 104 94 163 104 88 86 177 146 81 186 189 77 76 197 154 73 205 206 157 69 212 158 159 58 217 159 159 104 177 160 104 104 175 65 104 62 161 68 104 62 69 104 144 62 71 104 63 43 227 154 64 226 160 159 40 225 159 165 39 165 157 38 222 164 157 38 163 155 80 38 161 154 104 183 160 82 104 89 82 83 187 95 83 83 189 39 84 189 189 41 84 189 41 42 189 189 43 150 149 44 44 148 137 45 146 145 90 47 144 143 95 142 141 99 101 139 138 108 181 180 117 121 179 51 132 178 178 52 149 177 52 52 177 177 52 52 176 52 51 116 177 51 113 111 194 50 108 107 196 105 104 195 194 100 99 192 179 96 189 188 180 92 185 181 182 182 181 183 43 43 185 185 41 41 187 40
155 101 189 155 65 98 103 156 66 188 103 170 67 103 157 171 68 104 173 68 178 105 174 69 79 71 176 178 72 173 179 179 62 168 179 179 58 152 179 55 55 187 179 52 209 214 51 51 224 172 171 224 223 167 87 213 162 160 180 192 154 151 180 146 143 180 180 135 131 180 49 49 180 180 50 151 179 51 52 150 179 53 149 148 54 54 147 147 55 146 145 75 57 144 70 69 179 142 65 64 178 62 61 178 178 58 57 177 63 55 176 176 65 52 175 67 67 174 174 68 139 140 70 70 143 144 72 147 147 44 74 152 153 42 104 158 41 41 104 70 40 164 164 74 39 163 79 39 161 161 81 39 159 81 82 215 158 82 82 214 144 83 184 155 142 104 186 41 84 104 186 42 104 186 121 44 104 186 45 206 104 133 46 146 138 140 205 144 145 146 204 108 101 204 204 95 112 204 86 84 104 203 77 137 104 72 70 104 177 69 104 104 163 53 104 104 164 205 104 163 164 206 104 163 207 207 162 163 207 122 162 208 208 132 161 209 137 139 104 211 142 142 104 144 144 104 104 145 146 104 156 146 104 104 156 171
189 155 65 65 155 155 66 176 156 66 67 123 156 67 68 104 68 68 93 90 69 84 82 180 179 75 73 176 160 68 172 171 161 63 166 162 162 57 157 162 76 148 162 161 78 135 161 80 81 54 159 83 84 55 169 87 58 59 163 92 63 100 96 180 70 100 180 78 49 101 180 91 102 154 119 51 103 111 109 52 150 103 151 54 149 92 165 147 147 84 179 146 78 77 179 144 72 198 178 60 66 179 153 62 62 178 63 104 177 177 65 137 176 66 67 136 175 68 137 137 50 70 138 66 48 141 142 46 226 145 45 45 168 151 43 43 167 42 42 165 165 41 41 163 80 80 162 161 81 81 160 82 82 175 158 83 177 178 83 83 179 180 83 181 181 42 84 182 182 43 152 183 44 44 150 45 46 148 148 47 47 146 91 48 144 144 95 49 142 100 102 180 140 109 113 179 119 123 178 178 134 178 178 53 151 177 177 54 104 177 54 54 104 176 54 120 119 163 53 116 195 53 205 112 197 52 108 121 196 206 104 194 193 207 137 191 181 208 141 187 182 48 144 104 184 46 104 104 156 44 104 188 155 214 104 155
155 100 101 102 165 97 102 102 166 102 102 167 168 103 103 169 177 178 169 170 178 178 171 178 178 70 172 178 66 65 179 179 62 61 179 59 58 152 161 56 55 188 176 53 211 216 175 224 226 174 174 228 228 172 179 220 169 168 179 201 164 180 180 49 156 180 180 49 180 180 50 50 180 51 51 153 179 52 52 150 116 54 149 149 128 55 148 95 93 104 147 86 179 146 85 79 179 144 74 198 179 77 68 178 178 73 211 178 65 71 217 176 66 137 220 153 68 136 153 153 104 137 152 71 138 69 151 104 142 47 150 104 70 46 168 104 72 224 165 75 76 222 163 78 221 221 141 82 220 160 138 218 218 136 82 216 215 133 104 175 132 131 104 103 130 104 104 109 128 104 115 117 104 104 122 124 104 127 129 206 104 134 205 205 111 139 204 204 101 51 203 93 91 203 202 83 104 202 77 75 104 202 72 104 104 159 69 104 160 160 182 104 161 161 191 176 161 203 104 161 161 204 177 161 204 204 178 53 205 131 133 52 206 138 104 51 98 142 104 208 94 183 104 91 145 179 104 87 176 104 189 84 172 190 154 43
182 66 66 167 97 188 150 143 187 102 125 119 186 156 104 185 184 157 89 182 157 158 180 179 158 70 177 159 159 72 72 160 73 73 57 161 74 75 54 174 76 51 50 77 77 50 133 79 49 49 119 160 49 110 108 157 52 102 154 153 49 99 149 148 49 175 143 99 100 162 149 107 157 130 115 117 97 130 125 108 110 119 139 120 104 108 179 130 104 163 179 58 104 180 141 60 145 179 61 104 144 81 63 142 78 69 65 140 75 212 139 138 61 217 137 59 58 175 137 56 55 174 72 53 172 172 73 50 171 74 75 169 169 77 104 167 77 78 150 165 79 154 155 80 80 159 160 44 163 163 44 44 166 167 43 157 170 44 44 155 44 44 154 153 45 45 152 86 46 150 150 87 88 149 89 89 177 147 92 93 178 95 97 177 177 102 177 177 52 112 176 176 54 104 176 54 55 135 176 55 133 132 55 56 129 173 56 127 126 186 56 124 192 193 202 119 197 197 177 106 199 178 178 121 197 179 54 196 180 180 53 104 181 52 52 104 183 51 96 104 156 50 92 91 155 209 88 176 47 210 147 172 211 82 147 169
175 99 98 101 161 96 101 101 164 91 101 165 165 185 102 165 166 183 157 167 178 104 158 70 178 158 169 178 178 64 72 179 61 60 73 179 58 152 75 51 55 189 48 48 140 217 47 52 127 161 47 116 230 159 172 106 157 171 86 100 154 168 180 151 149 94 180 145 99 100 72 138 106 108 84 113 115 95 98 103 126 108 103 103 117 119 104 107 127 104 104 100 134 104 95 93 104 104 89 88 191 86 85 198 200 82 81 206 145 79 211 212 145 64 216 145 145 60 219 144 104 221 143 143 104 104 142 104 104 76 139 104 77 77 77 104 78 79 79 149 81 222 104 154 84 220 157 87 46 219 124 91 218 158 121 46 215 118 85 46 154 117 104 46 152 86 104 151 150 88 104 119 90 90 175 125 93 175 175 51 98 175 136 204 175 175 53 203 175 175 54 139 175 55 55 136 76 56 134 133 164 56 131 175 178 128 127 187 104 125 193 194 176 122 198 198 176 199 199 178 178 56 178 179 55 55 180 180 55 105 181 54 54 101 183 53 99 97 52 51 94 182 50 91 90 177 176 88 174 173 192 84 171 170 194 169
179 188 67 165 187 187 176 141 186 186 176 88 185 156 101 82 183 157 78 182 103 157 71 179 158 167 71 108 158 72 179 116 169 73 52 136 170 179 48 170 171 179 45 144 179 179 53 131 179 51 120 232 180 51 108 158 50 49 216 156 49 49 195 167 50 181 176 163 96 166 159 157 180 158 152 180 179 146 143 179 98 136 179 180 57 126 179 179 59 180 180 60 61 148 62 62 147 146 64 64 146 87 65 144 144 80 67 142 76 74 141 141 70 69 176 67 66 176 175 63 175 174 73 59 173 173 75 172 171 77 77 169 169 78 143 168 79 80 147 51 81 150 151 49 81 153 48 48 157 158 48 48 160 48 47 157 164 47 48 154 104 48 153 153 87 211 151 89 89 209 149 91 171 148 104 95 172 146 98 104 173 97 106 173 138 54 104 173 55 55 104 146 56 137 104 150 57 134 152 153 200 131 154 200 130 78 156 200 126 195 104 200 96 199 176 200 110 104 177 120 124 104 179 131 104 104 157 138 104 156 156 104 104 155 54 204 155 155 205 95 154 154 206 147 154 207 207 147 208 208 147 147 209 209 147 104
99 174 187 99 155 152 187 100 162 186 186 155 163 184 184 156 70 183 157 156 71 73 157 71 71 63 158 72 58 56 72 73 52 60 74 49 48 160 75 45 153 150 44 43 141 138 161 131 128 160 160 117 114 160 82 106 159 158 84 99 157 87 88 194 153 91 53 150 164 95 62 64 100 180 72 101 107 82 85 102 179 95 103 103 180 59 103 118 179 61 104 111 155 104 148 105 168 104 100 100 180 146 96 189 191 144 86 198 135 143 79 178 135 75 74 177 134 104 176 175 74 104 174 131 75 139 173 76 104 140 78 78 141 84 79 80 144 54 81 147 147 52 221 150 51 51 162 154 50 50 160 50 50 158 157 50 156 155 87 50 154 153 88 166 152 89 90 168 150 92 169 169 94 95 170 53 100 170 170 54 108 171 55 55 171 171 56 56 140 57 57 138 138 58 58 135 167 58 133 133 181 132 131 189 191 128 128 196 174 125 199 199 176 176 200 177 177 59 200 178 58 58 104 180 57 57 181 155 57 106 183 56 55 102 186 55 99 98 182 53 95 179 178 205 91 175 192 88 147 172 194 85 169 104 197 147
