P2
256 256
255
100 200 99 190 197 187 196 197 193 183 202 190 189 163 66 186 184 165 18 181 165 165 11 176 166 7 7 167 167 5 218 167 5 5 219 167 5 220 220 156 8 220 220 152 220 220 150 149 221 147 147 166 221 145 145 165 143 143 164 164 141 142 163 154 158 162 161 166 168 160 172 174 221 159 176 220 220 176 176 220 219 173 219 218 135 134 217 216 132 151 214 129 128 149 93 124 147 146 120 119 145 75 114 143 142 48 107 140 35 32 177 137 26 24 165 123 22 155 152 122 222 141 76 29 228 126 68 229 113 100 61 112 94 56 151 104 100 51 98 111 100 152 88 130 99 152 146 143 151 151 156 150 151 164 154 225 7 176 155 4 100 187 225 3 45 224 224 121 48 223 223 143 148 221 162 168 147 217 185 145 143 219 200 135 221 221 115 105 222 113 67 223 223 142 34 224 224 134 224 224 133 133 225 224 135 223 223 138 139 224 57 142 224 224 78 145 225 88 91 189 225 95 97 225 126 100 225 225 103 235 225 150 107 226 226 151 235 226 152 152 236 227 153 226 226 159 155 226 227 156 218 226 131 158 226 141
97 99 187 90 88 222 196 81 222 201 105 71 221 206 187 221 220 108 182 219 219 109 176 218 110 111 175 44 112 174 174 42 112 173 40 40 172 172 41 7 171 42 42 199 169 44 44 192 46 47 188 186 107 182 180 106 106 174 172 103 159 166 101 101 155 155 98 153 152 221 96 149 90 93 140 145 99 102 143 156 112 108 140 120 122 101 153 128 99 99 150 131 102 93 148 115 110 93 136 82 202 94 137 139 95 109 139 185 95 140 141 173 95 143 123 160 87 131 122 81 79 126 122 227 122 121 35 229 115 124 53 97 108 71 227 76 99 98 61 100 116 121 42 45 153 30 26 42 153 18 42 41 59 11 41 41 50 41 42 44 42 43 39 37 153 45 34 33 149 2 32 145 144 2 33 139 3 3 135 133 5 5 127 7 8 69 119 14 74 76 25 29 81 83 133 87 88 171 183 93 95 211 93 100 225 228 91 231 233 92 92 234 235 94 167 171 97 99 184 188 103 194 198 125 111 205 207 128 149 211 131 131 214 225 133 236 216 135 135 236 150 137 236 236 158 138 235 162 163 131 235 165 218 234 229 167
183 94 89 190 192 196 196 198 193 192 202 203 189 163 207 185 184 165 210 181 166 166 110 176 166 5 172 175 167 4 4 167 43 4 218 167 5 6 220 42 8 220 220 44 198 220 150 47 191 221 147 166 221 108 145 165 221 143 162 164 103 143 163 72 100 156 162 178 98 152 87 184 149 148 97 185 220 105 108 117 220 117 176 109 92 126 104 216 92 104 104 92 128 107 109 93 136 117 93 94 138 144 94 139 139 126 95 140 125 124 142 143 123 122 145 122 122 216 148 122 121 225 99 122 228 229 100 122 228 100 100 228 228 101 155 227 101 100 155 226 100 155 155 37 100 154 154 146 41 153 153 156 152 52 164 225 151 173 176 225 38 185 225 225 32 195 224 117 29 148 223 138 144 142 2 163 149 218 3 59 146 5 198 65 137 9 70 118 71 19 77 67 223 104 84 137 224 136 176 188 94 134 215 220 92 125 230 92 92 144 235 93 157 224 95 96 175 224 87 187 190 123 91 199 126 127 237 208 129 130 237 131 132 237 237 134 134 237 145 136 236 236 154 217 236 159 160 217 236 164 218 218 166 167 218 218
92 223 223 86 84 222 104 78 222 222 106 70 221 107 108 17 220 109 110 176 212 111 175 175 112 112 175 46 113 175 174 44 164 174 44 44 160 173 43 205 156 168 45 199 198 167 27 193 111 50 58 221 109 91 182 221 107 133 221 105 143 162 221 102 157 162 221 141 154 87 140 140 160 97 140 140 158 188 139 156 117 180 137 154 171 110 152 152 152 108 93 131 123 212 93 96 208 207 120 61 202 199 113 195 193 108 106 184 181 100 136 171 94 92 132 16 85 129 128 17 77 123 21 23 119 117 30 34 111 42 47 92 103 66 73 72 49 94 58 53 45 44 40 43 42 29 26 41 61 18 40 40 50 11 39 44 42 40 40 36 156 155 32 30 154 152 27 150 149 2 25 145 144 2 212 139 3 3 134 132 4 61 126 6 7 67 53 12 72 74 77 25 80 104 116 219 87 156 169 222 28 204 92 99 34 224 91 133 233 225 93 151 225 95 144 169 225 99 181 121 225 148 196 125 225 148 225 128 149 210 225 96 238 225 133 103 238 225 110 237 226 226 120 237 157 126 128 227 163 130 227 227 158 128 228 229
183 199 76 223 103 196 222 197 105 192 221 106 189 176 221 109 184 165 110 111 175 166 6 175 175 49 4 175 167 47 213 175 46 4 210 174 45 207 219 45 45 202 114 153 198 197 113 150 192 112 112 169 186 110 109 166 108 107 164 164 105 104 161 75 102 158 157 84 156 154 91 94 146 150 102 138 135 111 114 127 125 123 120 118 92 131 114 92 92 141 113 93 92 139 211 93 138 139 205 93 140 129 94 111 142 127 94 144 137 125 97 147 123 206 210 131 122 220 222 126 16 227 98 122 23 229 99 32 228 98 100 51 85 100 50 77 65 101 159 81 47 43 158 136 32 41 62 144 39 39 51 153 39 44 42 157 39 36 158 157 31 29 156 225 2 153 152 2 117 148 146 2 48 142 2 2 53 3 3 57 58 5 5 63 40 43 68 70 57 222 75 77 86 103 83 119 133 97 161 175 94 93 208 92 92 120 229 91 92 140 110 93 153 158 115 97 171 119 120 184 187 123 240 198 126 127 239 207 129 240 239 131 132 239 239 137 238 238 145 147 238 237 153 217 237 158 160 217 227 163 218 218 228 166 218 141
156 76 198 159 159 52 195 161 36 31 202 163 20 221 206 13 12 209 111 8 211 212 177 5 214 215 172 215 216 168 167 217 217 163 167 168 160 159 167 168 156 168 167 18 152 167 32 39 167 167 66 78 166 102 115 221 221 147 155 221 143 176 221 221 142 221 221 142 141 221 221 140 160 220 140 139 158 220 139 156 156 183 137 154 153 164 153 152 143 134 150 115 105 212 148 75 66 207 132 44 202 199 129 26 192 107 105 178 180 99 135 169 95 90 131 154 83 155 126 97 74 121 120 98 159 114 27 30 161 105 43 87 97 125 67 68 127 89 226 50 132 117 38 100 137 225 25 39 145 225 98 38 43 225 98 155 35 98 98 154 28 99 153 153 190 106 153 22 200 152 152 205 143 151 151 212 221 3 215 216 215 189 219 208 205 204 221 190 211 212 171 165 216 217 150 219 220 36 152 221 31 32 224 222 38 40 225 105 54 225 225 70 74 225 144 85 225 225 146 89 225 147 148 225 226 148 225 225 121 149 225 225 150 213 225 98 152 225 226 109 217 226 118 121 217 138 126 227 227 139 127 227 157 140 233 228
102 199 158 58 196 177 160 36 176 162 71 21 175 164 14 220 175 60 9 210 175 56 218 213 174 52 215 115 169 213 213 116 165 211 117 117 175 207 117 157 175 117 117 174 167 116 115 173 53 62 171 171 57 186 170 62 63 180 167 69 175 174 76 78 168 221 85 163 161 99 141 155 97 97 151 146 95 95 147 219 93 144 144 93 92 142 136 92 141 141 137 92 140 136 136 130 141 133 139 143 143 131 155 160 128 18 176 94 126 192 198 95 12 211 96 96 11 144 97 159 160 128 98 162 122 111 61 163 123 100 54 96 125 49 164 85 127 45 76 130 108 225 65 127 225 100 53 145 225 98 153 155 12 98 158 225 7 37 159 5 98 39 3 3 40 154 20 2 43 19 203 46 47 20 210 50 22 23 132 55 27 28 124 31 34 118 116 43 112 109 16 20 104 102 33 83 98 53 61 90 94 85 96 98 108 114 103 229 131 108 109 237 239 113 240 241 98 119 241 242 104 242 242 110 112 242 242 118 206 242 125 127 212 132 135 214 215 135 145 216 136 136 217 217 138 138 217 139 139 236 218 140 234 234 226 141
156 64 59 159 160 42 195 161 29 25 201 163 17 204 206 12 11 209 182 8 211 212 177 175 213 173 171 167 215 168 167 168 164 163 168 168 160 159 168 15 156 168 168 26 174 168 43 51 220 167 81 220 220 60 129 220 220 160 180 221 143 185 221 105 142 169 221 142 141 162 99 141 160 160 97 140 158 194 94 147 156 180 137 144 136 154 142 151 139 129 141 138 85 131 142 136 137 206 120 133 151 199 112 165 170 93 104 186 94 94 154 205 95 89 158 96 96 160 123 123 97 164 123 17 165 165 123 27 167 123 124 226 167 126 226 226 128 128 225 225 132 225 225 100 100 225 225 99 163 225 98 98 161 11 97 159 159 97 97 157 176 98 156 156 188 104 155 195 198 224 154 204 206 223 20 211 222 221 23 130 217 186 219 121 208 202 115 196 11 211 124 172 216 88 74 36 219 47 224 65 92 38 225 222 99 217 225 104 63 233 225 110 238 225 96 144 241 225 146 179 243 106 148 225 112 114 202 225 120 123 209 131 130 212 213 134 140 215 135 135 240 217 137 240 239 138 139 238 227 139 236 235 165 140 233 233
103 177 176 82 105 175 78 76 174 174 72 71 174 68 67 220 220 63 62 219 114 59 218 217 116 7 215 117 117 213 213 118 176 210 118 119 176 176 119 176 176 53 118 176 176 54 151 175 56 57 148 167 60 188 172 64 67 183 166 72 179 177 107 82 173 104 103 201 166 101 157 202 220 98 153 154 220 139 148 219 94 137 145 218 135 144 152 141 132 143 140 86 128 148 138 141 146 145 34 153 143 142 21 193 140 15 14 181 135 11 169 165 91 10 152 84 82 139 135 75 166 122 67 65 109 104 59 58 99 54 52 90 87 53 47 77 73 81 68 65 104 39 56 124 130 27 45 144 20 18 153 155 12 11 160 9 7 36 36 5 37 38 19 3 39 39 17 41 42 16 17 44 46 18 139 49 20 21 131 54 24 125 123 6 30 116 8 9 110 108 14 17 103 24 28 82 97 46 53 90 139 78 95 97 204 223 102 224 228 107 108 235 94 113 239 241 99 118 242 103 104 98 243 110 112 92 226 118 205 207 226 150 211 132 135 151 214 135 152 216 226 136 153 217 138 121 154 226 139 237 226 226 120 234 167 226
157 55 51 175 81 37 194 161 27 24 200 72 18 204 205 184 14 207 181 180 218 211 176 166 217 117 171 167 215 119 176 167 119 163 177 168 120 177 168 54 30 177 54 42 200 176 56 69 220 59 60 192 220 63 65 186 113 70 183 181 110 79 177 107 106 164 172 103 161 162 100 100 156 160 98 153 151 129 95 149 148 138 146 146 142 142 142 142 143 140 141 142 141 143 91 138 148 151 92 135 162 92 92 174 179 92 155 194 93 93 160 160 94 163 164 125 95 167 167 124 72 170 123 124 63 172 124 227 173 92 125 226 82 126 57 225 100 129 225 44 100 108 225 100 100 134 24 99 170 149 16 35 168 11 10 35 165 166 36 36 18 178 37 161 186 155 39 15 197 225 43 16 143 224 17 19 134 3 21 128 126 4 186 120 6 7 64 111 10 209 71 16 19 78 96 31 83 85 113 57 91 92 174 96 98 207 214 91 105 229 93 93 236 238 96 97 241 100 102 176 243 106 188 191 112 114 200 202 121 206 208 131 132 212 213 133 243 215 135 136 242 137 137 240 240 139 139 238 161 140 236 235 165 165 233 166
182 198 174 188 190 194 173 77 191 190 162 73 187 173 163 17 183 165 66 15 166 166 14 216 166 166 15 214 119 16 17 215 120 21 216 216 159 29 218 121 155 218 218 153 178 219 150 150 167 219 148 147 167 133 145 166 166 167 144 165 183 187 165 164 196 220 163 198 199 220 162 198 220 220 193 191 220 219 138 219 219 136 136 218 217 134 152 216 132 131 149 129 127 147 146 123 121 144 31 28 142 141 20 18 139 15 14 178 135 12 166 161 11 11 148 143 11 134 129 73 13 115 111 64 103 98 58 57 91 81 51 82 78 100 45 68 68 42 179 56 98 38 48 135 126 177 37 141 146 18 147 155 13 11 157 225 8 35 168 225 5 36 225 225 99 38 225 2 107 161 14 118 44 16 17 141 159 19 130 167 158 217 121 157 156 220 112 152 221 222 188 136 223 99 165 217 224 151 46 220 142 140 222 96 138 138 223 80 139 224 224 104 142 224 115 116 224 224 116 114 226 111 108 226 226 101 226 226 149 94 226 226 150 244 226 151 151 226 226 152 226 226 153 153 226 117 154 226 226 117 156 226 114 112 217 226
173 85 106 173 173 81 222 172 78 77 221 75 74 220 220 70 69 219 116 67 218 217 117 63 216 119 119 20 214 120 121 178 215 121 178 178 122 158 179 58 122 179 179 58 152 178 60 60 149 178 63 193 146 167 68 189 116 166 172 185 112 83 188 220 109 194 176 105 104 196 220 102 159 191 220 98 154 137 219 137 150 145 136 135 153 147 133 147 150 83 129 148 144 54 124 146 38 162 143 142 24 197 91 18 17 185 92 13 173 168 94 12 155 150 84 141 136 78 75 121 117 69 106 103 62 60 94 23 54 84 81 37 48 71 52 58 61 58 80 87 49 102 109 30 38 129 23 21 35 148 16 15 34 12 11 34 34 7 7 35 15 5 36 36 13 3 38 13 13 40 41 14 142 140 16 17 134 131 19 127 125 4 23 118 116 7 220 109 9 11 104 186 17 76 97 27 31 83 94 50 90 91 155 81 97 194 204 223 104 222 226 224 119 234 96 114 126 225 102 171 241 106 108 188 226 115 198 200 226 123 206 131 226 151 211 133 151 151 226 136 152 215 226 114 240 226 139 116 238 226 113 235 227 226 107 232
182 197 196 159 189 194 161 161 191 190 162 163 187 163 163 25 182 165 24 24 209 166 24 24 211 26 27 213 213 30 31 215 164 37 216 216 159 48 217 156 155 217 218 152 168 168 150 150 168 168 147 167 167 134 145 167 167 163 174 166 179 182 164 91 189 220 163 191 191 220 140 188 220 220 139 177 219 138 138 163 219 136 135 217 92 133 151 215 131 148 148 64 127 147 146 42 152 144 31 28 156 140 21 190 161 133 16 176 131 130 216 157 128 12 227 94 79 230 123 95 70 230 96 63 184 228 98 55 83 98 99 188 70 100 189 189 129 100 189 189 131 225 188 135 136 225 185 141 225 18 147 149 225 98 156 225 225 98 167 225 97 97 171 225 99 99 167 102 105 166 165 114 118 164 207 135 164 163 213 51 163 217 218 162 161 220 210 207 222 222 195 189 223 178 172 217 224 156 220 220 91 143 221 222 90 93 223 103 139 120 224 127 225 224 112 137 226 224 135 240 225 121 125 226 112 125 243 226 149 129 244 127 150 225 244 137 151 226 143 145 215 226 151 216 226 138 157 217 226 111 217 217 141 105 217 217
198 222 222 108 194 222 110 110 171 221 113 113 172 76 115 173 164 72 117 175 70 31 175 176 67 215 178 65 65 213 179 63 211 211 124 62 208 208 124 206 205 124 124 203 202 123 180 199 123 123 180 219 121 178 178 119 118 176 80 83 174 173 91 94 170 101 105 180 165 116 177 175 160 133 172 171 158 158 168 96 150 132 164 93 150 162 216 91 150 162 90 127 151 210 90 153 143 205 117 158 139 196 110 138 135 200 102 133 132 216 129 130 13 226 121 13 230 125 110 14 231 95 17 18 91 97 22 24 75 52 193 64 60 45 194 50 41 41 46 38 38 39 36 35 35 30 139 34 24 23 148 33 18 17 158 10 14 161 161 6 161 161 4 4 157 156 3 37 151 3 2 41 142 3 44 45 16 3 49 50 20 53 54 23 24 59 26 27 105 67 33 35 98 41 46 94 93 67 78 91 50 57 90 89 81 98 89 103 110 104 91 128 109 111 143 148 115 116 162 119 120 240 180 123 124 242 116 127 243 243 125 108 244 132 134 106 243 141 213 242 226 149 215 240 154 153 216 139 160 216 140 140 156 217 141 141
181 196 196 222 189 193 192 221 112 189 162 162 115 173 163 37 181 174 165 37 176 165 70 40 177 166 43 214 178 66 49 213 180 64 210 215 158 63 207 125 154 205 204 125 151 201 124 124 181 198 123 146 167 121 121 179 166 119 177 176 88 173 174 173 101 184 169 113 117 180 164 130 177 176 140 144 173 219 150 171 170 95 134 168 93 93 151 167 91 91 152 90 90 154 155 90 89 158 143 90 161 163 138 108 168 136 135 211 173 132 221 224 123 129 229 231 128 15 232 94 126 231 96 96 20 228 97 97 27 68 98 198 198 54 99 198 129 42 39 198 132 100 36 31 136 34 194 141 137 33 19 148 225 225 15 159 225 97 12 161 225 97 160 158 4 99 154 3 3 39 146 3 114 42 3 3 45 167 17 4 50 21 217 55 57 24 220 62 28 30 101 69 35 96 94 47 54 91 91 82 89 89 61 68 88 89 92 101 90 113 119 107 130 135 112 113 150 155 117 237 169 121 122 240 240 125 241 241 120 128 243 243 130 243 242 136 139 242 143 145 214 240 151 152 216 155 157 217 216 140 161 217 140 141 216 217
157 55 222 110 110 49 221 112 171 45 197 115 172 220 117 182 174 204 119 175 165 208 174 177 71 71 169 166 69 213 165 167 67 211 167 167 67 208 167 65 74 217 168 81 203 217 90 95 218 125 146 116 219 145 180 219 219 143 178 219 142 142 165 219 141 164 163 140 139 162 161 138 160 160 152 177 157 157 130 218 155 112 106 217 94 89 215 215 74 69 212 126 56 209 208 121 119 203 116 114 140 194 109 107 135 103 101 131 129 94 125 123 16 85 116 113 15 108 105 17 18 98 91 20 84 80 24 26 68 51 33 58 55 44 47 46 41 40 225 36 37 36 30 100 34 24 23 33 32 18 143 32 15 14 155 188 12 160 160 183 10 160 5 9 181 156 3 3 150 225 3 39 141 3 121 43 223 3 47 48 221 164 53 22 217 187 59 26 200 203 160 31 97 72 145 223 92 125 64 225 152 109 225 88 142 123 225 140 103 225 225 141 127 226 143 143 224 115 145 225 225 161 147 225 225 144 225 225 130 240 225 225 119 226 225 117 117 226 143 117 227 227 152 116 227 153 154 226 227 155 155 227 156 156 226 227
222 109 195 170 221 112 170 161 114 115 172 83 117 172 173 80 119 175 77 76 176 177 74 74 178 72 72 214 211 70 70 212 126 68 210 210 128 72 208 128 128 205 205 128 183 202 127 127 183 183 126 183 182 77 123 181 83 86 142 178 95 98 176 164 110 188 171 123 127 185 161 140 183 182 103 152 179 100 99 115 177 95 155 94 216 92 154 175 214 128 156 211 89 123 159 206 119 163 141 144 112 138 141 26 105 133 136 217 127 125 18 227 119 116 17 125 107 18 18 104 94 20 89 94 60 23 73 54 203 62 58 47 205 49 43 42 40 39 39 37 30 35 35 25 23 111 20 19 129 135 15 14 147 13 12 155 157 9 9 160 7 6 159 158 4 4 154 3 3 37 38 3 40 40 13 3 44 45 16 48 49 20 20 53 55 23 107 60 26 27 99 160 32 95 93 20 45 90 29 35 89 89 53 60 88 76 83 99 89 105 112 106 141 129 111 112 227 224 116 232 233 120 121 236 112 124 239 239 120 128 240 127 129 124 240 136 210 122 227 144 214 214 227 152 216 138 156 154 216 139 155 216 226 141 157 216
109 60 58 185 112 57 190 191 188 56 196 197 184 199 200 181 180 164 178 177 165 165 173 172 166 63 168 166 166 67 164 167 70 71 167 167 74 75 168 77 78 215 216 84 216 217 148 95 218 218 146 218 218 144 144 218 219 142 166 219 141 141 164 156 139 163 163 154 138 161 147 144 160 159 131 127 157 117 112 218 154 98 93 216 161 81 215 214 128 180 212 125 124 209 207 119 142 202 115 113 138 192 108 135 133 88 100 128 22 88 187 119 19 19 194 131 19 111 97 129 21 90 128 23 229 73 128 28 62 50 127 226 49 44 225 225 99 39 32 33 100 205 24 100 33 203 18 100 201 15 145 99 196 152 150 192 191 161 158 8 168 172 225 5 180 183 225 99 191 225 225 105 200 224 115 120 223 223 138 171 222 158 164 170 21 182 169 168 221 200 164 162 223 156 152 223 224 137 224 224 158 125 225 225 145 142 225 142 141 223 226 141 224 224 95 143 224 224 145 156 225 181 147 225 170 165 187 225 149 144 226 129 132 226 226 132 127 227 151 125 235 227 152 232 227 154 153 228 227 154 216 226 162 156 226 226
222 181 112 62 221 114 190 60 192 116 172 60 197 183 174 200 201 178 176 81 175 178 165 78 171 166 76 69 166 166 73 212 167 167 74 210 168 167 77 214 130 81 82 215 130 89 216 217 146 103 218 145 144 218 218 143 183 218 141 141 166 219 140 140 164 148 138 163 162 140 161 160 131 127 158 158 114 218 156 100 96 217 153 85 215 215 76 73 213 212 125 210 209 121 120 205 117 116 140 196 111 109 135 105 103 130 128 97 95 121 22 22 113 110 20 118 100 20 21 96 85 22 82 77 25 26 66 62 31 55 53 47 40 45 42 41 33 36 37 37 25 100 34 21 19 100 32 16 121 31 200 12 141 30 10 155 153 191 8 157 225 7 174 157 5 5 184 225 4 36 195 225 3 39 224 3 122 43 223 4 47 171 19 167 53 22 219 189 168 26 98 205 161 223 92 151 146 224 89 134 225 224 152 137 225 145 143 222 225 141 104 223 141 142 224 111 144 144 224 193 146 225 225 183 148 225 169 164 225 225 148 226 226 136 134 226 226 130 227 227 151 126 227 227 152 227 226 153 154 227 160 155 226 227 156 157
158 65 64 184 160 64 64 190 187 64 194 195 183 219 199 180 179 218 203 175 165 205 126 171 166 207 167 166 166 129 163 167 74 75 185 167 76 77 186 73 80 214 168 74 87 215 76 94 202 217 80 110 218 128 143 198 218 141 182 196 123 139 165 195 118 176 163 114 113 171 161 109 168 166 161 104 163 166 166 187 160 166 85 186 165 164 186 214 162 160 188 89 156 191 192 88 151 197 87 86 204 207 87 182 184 87 86 190 121 87 195 197 133 88 201 203 131 74 206 130 129 208 129 129 229 227 128 128 226 95 128 225 225 97 129 225 98 99 60 225 100 100 225 25 100 206 225 100 31 202 144 100 199 197 153 30 193 159 162 31 187 170 225 32 7 180 225 7 7 147 225 9 198 138 3 115 130 223 3 137 119 4 157 51 110 6 182 169 8 9 62 164 12 69 70 35 224 76 141 52 87 85 81 225 87 93 137 88 142 174 183 91 113 203 94 96 135 219 100 150 154 119 108 169 173 123 182 186 127 127 196 198 130 234 205 132 133 232 134 135 229 228 136 137 224 154 155 221 220 159 160 219 162 162 216 219
97 221 168 96 96 221 169 94 220 220 162 91 219 219 89 68 218 124 86 217 203 126 180 216 128 129 182 208 130 184 184 210 131 186 76 212 156 187 75 153 152 168 76 149 188 167 91 204 167 82 104 201 167 115 200 128 167 128 198 125 133 134 218 120 133 218 218 137 173 218 112 135 159 218 134 165 156 218 132 154 169 130 130 151 79 128 149 148 70 124 146 63 60 207 142 53 50 200 45 43 192 188 36 34 176 100 30 161 155 92 142 136 85 83 116 110 76 86 83 70 67 71 67 61 59 56 30 53 47 34 36 38 36 43 46 29 51 55 31 29 67 73 25 33 88 22 21 31 112 18 30 30 16 14 29 8 12 30 30 6 8 31 6 6 154 32 7 7 149 176 8 143 140 9 202 132 3 13 124 122 4 214 114 5 6 218 105 7 58 60 211 11 65 68 198 211 74 38 23 217 140 64 220 88 99 113 222 172 154 89 90 194 191 93 121 203 226 99 142 226 226 146 161 226 112 148 225 226 148 190 225 226 150 225 131 142 151 225 134 227 225 225 131 221 225 123 120 227 225 106 101 227 92 87 227 227
177 99 68 183 184 97 220 188 186 95 220 121 182 219 219 124 177 217 126 126 179 216 128 169 182 83 130 184 166 80 132 186 79 76 187 188 77 210 188 77 77 207 189 78 206 205 134 82 203 203 132 202 202 130 130 201 129 127 184 199 125 124 181 218 121 178 177 117 116 173 161 163 169 169 169 170 166 171 171 193 164 171 192 192 150 168 192 192 147 68 194 89 159 59 198 87 176 203 86 85 183 187 85 189 191 169 85 197 138 146 89 203 135 86 80 90 132 235 211 74 26 231 62 129 29 227 48 33 226 46 37 39 225 96 46 48 32 98 58 62 27 35 209 23 22 31 12 19 30 30 10 16 29 8 8 29 29 6 160 30 6 6 153 31 6 152 151 5 6 147 145 4 140 138 3 3 130 127 3 43 119 4 5 49 109 6 54 55 23 9 61 26 27 66 69 31 33 75 40 45 86 83 68 79 86 104 118 87 88 156 89 91 105 111 94 96 129 113 100 143 148 118 108 162 122 123 176 180 126 127 191 128 130 230 202 132 228 227 142 134 223 221 148 132 216 153 154 118 211 158 216 210 161 161 216 227
158 178 191 160 160 189 187 161 97 184 162 162 72 219 163 72 73 199 164 74 74 202 74 74 204 205 75 75 207 162 76 208 209 158 210 210 155 153 167 212 151 167 167 148 147 167 167 145 167 167 101 142 167 167 112 167 166 119 120 217 121 121 218 218 119 118 218 135 112 218 218 134 101 218 133 132 217 217 130 153 216 128 128 150 149 125 148 147 70 122 145 144 63 174 141 56 53 181 136 46 189 131 146 38 173 142 33 155 149 90 29 129 84 82 236 102 75 73 234 87 67 61 66 89 214 47 91 53 214 36 38 214 30 129 46 212 23 54 225 211 132 68 24 209 136 225 20 139 140 225 100 145 225 225 100 29 225 99 98 189 225 98 30 183 97 97 179 6 98 175 174 193 101 172 171 203 171 171 208 209 222 170 214 221 220 217 218 217 8 220 213 211 201 222 203 209 211 88 185 216 217 145 219 220 159 165 221 222 185 225 223 200 203 226 107 209 226 226 113 210 226 146 207 221 226 147 148 226 120 149 225 226 149 150 225 135 150 225 225 143 209 225 136 150 213 225 125 214 215 139 106 227 225 140 206 227
167 102 102 221 169 100 220 220 161 98 219 219 162 73 218 126 127 74 217 129 181 217 202 131 184 204 133 164 186 206 135 188 167 209 156 190 82 82 152 167 82 208 148 167 85 206 167 168 96 205 167 103 105 215 167 111 202 216 115 116 217 127 136 115 218 135 179 218 218 133 160 218 132 132 157 217 130 154 154 128 128 151 174 126 149 148 73 198 146 145 67 208 142 61 59 202 55 53 195 191 45 43 180 101 38 165 159 93 91 139 87 85 92 112 79 79 75 72 70 63 59 64 52 49 31 57 40 38 36 33 31 40 42 34 24 48 29 28 56 59 24 34 69 22 21 32 88 19 30 30 17 16 29 29 14 28 29 6 6 29 5 5 148 30 5 5 149 178 6 145 144 173 8 137 3 10 204 126 3 3 118 222 4 47 109 6 168 53 217 8 59 60 210 202 66 29 198 212 74 39 216 217 149 66 86 167 174 225 88 194 148 226 143 208 226 95 121 212 226 144 142 226 226 146 160 226 148 148 225 126 149 225 225 165 150 225 132 150 225 225 144 213 225 225 135 226 225 124 120 227 154 104 227 227 155 84
158 191 190 159 160 73 186 161 73 74 162 162 74 193 163 75 75 197 164 75 199 200 75 76 202 203 76 205 205 161 159 206 157 156 167 209 153 152 167 138 149 167 167 138 146 167 90 144 191 167 99 101 167 106 107 215 166 111 203 216 137 111 217 217 155 202 217 133 169 202 217 131 201 202 111 130 155 107 105 170 152 100 126 149 173 95 171 146 71 90 175 164 64 179 181 157 56 187 153 151 215 182 147 221 223 82 142 229 143 82 234 235 82 81 236 236 84 214 234 85 85 215 130 87 215 215 129 90 215 129 129 214 214 129 129 212 130 130 225 210 132 132 225 12 135 225 225 100 94 225 100 100 225 225 100 195 225 99 99 189 225 98 184 182 7 97 178 181 5 32 174 191 193 35 9 200 224 169 206 208 222 15 212 222 221 19 217 219 177 23 96 213 197 161 91 14 209 149 192 21 78 147 30 219 86 168 50 92 190 128 77 100 159 226 105 107 188 226 143 201 205 105 146 213 215 114 166 220 120 122 183 222 129 193 196 135 137 203 133 143 207 209 135 141 212 137 137 198 213 139 139 195 140 140 196 197
191 159 105 74 181 160 74 220 186 161 75 190 127 75 75 194 130 75 197 198 170 76 200 167 165 202 203 162 160 166 159 157 167 167 154 153 167 79 150 167 167 83 147 167 87 88 167 167 94 214 167 100 101 214 215 106 215 215 136 107 216 216 134 216 216 133 133 217 132 132 159 216 130 129 156 85 128 153 153 81 125 150 77 77 148 147 74 72 145 70 68 207 141 63 202 200 157 55 192 189 104 218 176 99 97 160 153 92 98 132 86 84 81 81 78 69 65 82 70 54 31 85 215 41 33 34 34 129 37 37 26 41 42 30 129 48 26 25 130 225 22 34 133 225 20 31 225 225 100 29 8 16 100 197 6 100 28 191 156 99 187 5 166 98 180 174 146 176 175 184 142 4 193 194 224 3 202 203 223 116 209 222 222 139 221 220 160 166 218 217 185 163 212 198 202 154 29 210 146 144 224 216 150 225 225 169 177 226 225 196 226 226 143 211 226 226 143 187 226 144 144 224 226 146 224 224 147 147 225 196 148 225 225 175 149 225 161 158 203 225 151 149 226 136 143 226 226 137 192 227 153 115 191 227 155 192
158 175 121 170 160 123 184 172 104 126 175 162 102 129 178 100 76 217 182 97 76 198 95 95 215 201 93 214 214 138 90 213 212 139 212 212 140 140 211 210 140 193 193 140 140 193 167 140 193 192 106 138 192 117 121 190 189 135 140 188 150 154 205 185 167 170 205 123 178 205 205 118 87 205 113 112 83 204 107 173 204 102 100 174 204 96 176 177 170 91 181 182 163 113 186 158 157 107 128 152 217 200 117 146 224 106 143 38 232 89 139 235 106 80 32 236 81 71 31 64 83 216 33 49 58 215 40 38 51 214 32 46 44 20 27 40 17 16 54 36 13 132 225 11 11 74 225 9 8 91 16 7 104 109 15 6 122 13 12 28 135 10 28 29 8 8 30 176 6 31 32 6 4 34 35 8 37 37 11 12 41 15 16 111 108 19 20 102 6 22 96 95 9 26 91 13 14 88 87 19 21 86 26 29 84 86 43 90 92 110 68 98 100 151 104 105 173 179 110 112 193 105 117 203 206 114 210 212 120 122 215 215 128 188 191 135 137 199 202 142 205 207 135 149 209 211 137 152 213 138 139 153 225 140 186 188
173 121 75 178 179 184 75 183 127 174 161 187 177 178 102 174 172 164 99 169 168 164 76 164 165 165 76 160 166 77 77 204 166 78 205 206 79 79 207 142 82 209 210 144 87 210 211 141 212 213 139 138 213 214 136 166 166 135 134 165 100 133 163 163 96 130 161 92 91 159 158 87 86 156 84 82 215 152 80 214 214 122 77 213 212 119 211 210 116 115 207 205 112 137 200 108 107 128 190 103 120 116 47 96 105 41 40 92 88 36 35 75 34 33 88 58 32 32 66 132 32 53 49 130 228 41 54 53 226 32 47 21 28 91 42 17 23 38 208 13 97 34 11 132 99 203 9 79 100 200 140 96 15 196 146 113 14 151 153 225 11 160 136 10 98 170 225 7 30 225 225 97 33 7 224 100 167 10 107 110 166 14 125 166 166 214 150 164 217 218 162 161 221 92 154 222 223 203 17 224 224 186 216 225 170 165 220 225 153 222 222 146 144 223 214 143 224 224 217 143 224 217 217 226 224 213 211 226 123 202 227 227 188 211 226 149 170 226 226 150 199 226 150 151 190 226 152 225 225 156 153 225 225 154 214 225
168 122 123 170 171 125 173 173 107 107 176 177 105 218 180 104 102 217 184 100 216 216 164 98 215 139 96 77 214 141 95 213 204 142 194 212 142 142 195 207 143 195 195 209 142 194 105 211 139 194 117 137 193 166 134 135 191 149 99 207 164 167 207 207 162 92 207 126 159 87 215 120 84 83 215 114 81 214 214 122 178 213 102 119 146 211 116 182 142 207 113 139 165 110 108 131 59 104 123 120 51 99 109 46 44 151 91 39 38 120 36 35 98 90 33 78 72 70 33 58 54 63 46 44 57 55 36 34 50 22 21 46 44 17 17 40 15 14 52 36 12 59 61 10 10 69 73 8 79 84 16 15 96 100 14 27 113 13 12 27 12 11 28 28 9 8 29 4 6 30 31 5 5 33 7 7 128 36 10 11 119 165 15 111 109 18 215 102 6 22 97 95 9 221 91 12 13 223 88 17 73 75 184 26 81 58 37 220 90 94 59 96 210 133 223 104 156 163 224 218 180 106 107 216 195 114 151 210 226 122 170 227 227 149 185 226 137 149 225 226 150 204 225 226 151 225 137 159 152 225 150 178 225 225 129 179
172 186 185 176 177 183 182 181 179 178 162 185 175 162 163 171 170 164 163 167 164 164 77 77 165 165 77 199 166 77 77 202 78 78 204 204 79 80 206 146 82 208 208 142 87 209 140 139 167 211 137 136 166 141 135 165 165 132 164 164 95 131 162 162 91 187 160 88 87 184 157 84 215 215 190 81 214 122 79 209 213 120 77 212 99 116 209 209 113 113 209 89 109 133 131 84 105 123 56 81 204 108 48 208 209 144 41 212 76 140 234 214 136 35 236 215 133 235 58 79 131 230 80 59 227 227 82 52 226 85 86 209 225 89 42 206 91 92 205 12 95 95 202 131 64 200 199 134 225 197 137 139 225 193 143 225 225 148 151 225 225 157 225 225 99 98 225 98 97 172 225 97 98 168 4 99 166 166 103 106 165 207 117 165 164 213 141 163 217 218 217 159 220 213 212 26 222 206 203 31 87 192 215 224 86 171 219 88 157 49 222 91 68 223 101 216 95 224 218 226 119 113 218 227 138 118 195 226 122 206 202 227 127 202 226 135 149 197 141 149 200 188 147 150 225 151 152 209 225 155 156 212 139 158 213 214
168 172 173 183 172 178 178 179 161 182 176 175 162 187 171 163 163 168 167 164 77 164 164 165 77 215 165 77 77 199 166 78 78 202 79 79 204 204 81 206 206 143 85 208 208 140 209 209 137 136 167 211 135 166 165 132 132 164 164 130 163 163 91 128 161 88 87 159 158 85 83 214 82 82 214 214 80 79 214 119 78 212 212 116 210 210 114 113 207 206 110 135 201 107 105 126 122 101 116 112 52 96 99 94 45 211 80 41 39 66 139 36 89 51 34 34 65 132 33 51 48 62 34 38 57 55 226 30 50 19 225 85 44 16 21 89 204 13 92 37 201 10 58 199 9 132 68 197 8 77 225 194 139 92 14 144 145 225 13 151 153 225 99 160 225 225 98 29 225 97 30 169 224 97 167 7 99 100 165 11 107 164 164 209 124 163 163 214 161 160 218 218 215 152 221 211 209 223 223 201 210 224 190 185 217 225 169 220 220 155 152 222 222 212 223 223 217 218 223 219 218 226 224 218 217 226 119 213 226 226 124 201 227 148 189 195 226 149 149 226 144 150 225 226 150 206 225 153 152 225 225 156 212 225 155 158
170 185 115 220 175 180 76 219 132 176 218 183 135 171 162 137 168 186 163 139 164 164 104 142 193 165 77 194 194 101 78 196 196 101 213 197 103 81 212 204 107 211 206 146 114 211 145 137 210 210 144 134 210 142 142 194 209 140 139 192 137 136 191 190 190 131 188 194 194 187 186 195 211 185 194 194 212 185 190 211 211 186 185 211 211 99 211 211 94 92 212 89 88 196 213 84 83 202 182 80 206 208 161 77 211 144 76 85 212 139 138 213 50 136 235 212 133 34 233 31 130 230 228 25 35 226 79 20 37 225 83 40 224 22 87 202 19 90 37 200 17 94 198 9 16 31 196 132 15 29 7 136 28 27 5 142 225 5 5 111 225 4 120 124 10 4 130 225 7 133 133 6 97 132 131 4 33 126 3 3 37 13 3 40 41 17 3 45 20 20 49 51 23 24 57 25 26 90 65 29 31 88 36 40 88 88 30 89 89 42 48 91 92 66 99 96 86 92 106 102 111 111 113 126 131 117 182 185 121 122 190 191 126 191 191 135 129 186 185 142 181 179 147 148 174 172 152 207 169 154 155 211 139 157 212 213
159 116 220 160 115 77 219 133 77 218 181 136 77 218 137 168 77 188 140 189 77 191 160 193 194 195 155 195 104 152 151 166 104 148 166 167 81 144 167 109 84 167 167 86 211 167 167 90 208 166 91 92 210 131 92 210 211 129 91 212 127 126 213 213 125 190 213 123 122 156 214 121 120 153 119 118 150 149 79 148 147 78 77 144 143 76 208 139 73 72 202 131 68 197 194 63 61 184 98 96 170 164 92 91 143 88 86 64 110 82 80 49 76 75 40 37 70 68 31 33 63 26 24 34 33 21 35 36 26 17 39 23 22 126 43 19 18 47 17 17 35 54 16 33 32 225 15 30 30 7 99 28 6 6 100 27 5 99 26 184 4 113 26 4 159 124 175 4 129 225 7 178 131 5 5 188 224 4 34 198 223 3 37 222 222 121 43 220 140 147 157 217 168 53 145 220 192 130 28 222 206 127 224 88 146 155 225 89 184 225 225 152 209 225 145 143 226 226 142 100 224 142 143 224 115 144 145 225 212 146 225 225 201 225 225 193 191 225 225 189 226 226 191 192 226 226 195 227 227 151 192 227 227 152 165 227
220 129 117 219 219 133 176 219 135 136 181 218 138 184 185 140 140 188 163 142 191 192 108 144 194 107 106 153 197 106 106 214 107 107 213 213 109 110 213 148 114 212 212 148 125 211 147 147 90 211 146 196 211 209 143 195 195 142 127 194 189 138 193 193 196 123 192 199 200 121 154 199 213 118 151 196 213 115 148 78 214 108 186 77 209 101 75 213 205 94 71 200 88 102 65 190 99 204 178 173 93 208 148 89 88 68 142 83 211 51 38 77 42 135 35 34 32 33 232 27 25 33 36 22 34 34 28 77 36 24 23 46 40 20 19 41 18 17 38 37 16 34 34 9 15 31 30 8 66 29 7 6 77 27 5 88 91 5 5 102 12 4 112 115 11 4 123 9 8 127 129 6 6 30 5 4 32 33 3 34 35 12 3 38 39 16 42 43 19 20 47 48 23 95 54 25 26 92 91 29 89 90 17 36 89 24 27 225 90 37 41 93 150 58 96 97 76 83 104 133 101 109 111 155 224 116 168 171 225 121 177 127 225 200 179 135 129 194 226 142 195 169 226 148 199 227 152 204 206 227 151 209 139 227 152 211
159 77 77 170 160 77 77 175 77 77 178 179 77 181 182 166 77 185 186 161 164 188 157 156 165 192 152 165 165 149 149 166 79 145 166 166 81 141 166 83 84 167 167 87 87 205 89 89 206 207 90 90 208 129 90 209 210 126 210 210 124 123 212 212 121 158 157 120 119 154 154 117 152 151 80 115 149 79 78 191 146 78 77 142 183 76 206 135 73 72 201 102 68 194 191 98 61 180 94 94 218 157 89 71 223 74 84 54 101 72 209 41 71 73 34 32 34 205 27 33 33 202 128 33 30 199 127 35 24 125 125 225 20 125 41 224 84 125 225 16 89 189 225 92 32 188 225 96 187 7 98 99 186 6 100 185 184 140 101 182 181 148 225 178 154 157 225 162 165 225 224 173 176 224 98 184 223 223 98 195 223 102 104 222 222 113 160 159 130 136 154 152 158 144 139 220 185 123 120 222 64 118 223 223 72 148 225 176 179 225 225 156 221 226 146 144 223 226 142 223 224 107 142 224 224 115 128 224 213 145 146 123 204 226 225 127 198 226 130 199 166 226 132 203 226 150 135 159 227 150 137 158 155 152 159 160
219 132 159 77 219 135 160 77 175 138 77 218 179 141 77 182 143 162 77 186 158 194 164 189 153 197 110 150 149 166 111 146 145 166 80 142 166 167 83 167 167 85 86 203 166 88 204 205 90 90 206 147 90 208 208 125 89 209 210 123 210 210 121 121 211 120 119 156 155 117 116 153 80 115 150 149 79 112 147 78 78 143 142 77 207 137 75 74 203 128 71 198 195 99 65 186 181 94 172 166 91 89 145 137 85 57 113 82 80 43 71 75 35 33 34 69 28 33 33 24 23 33 33 19 33 34 27 16 35 23 22 124 38 19 19 124 224 17 37 37 225 16 34 9 15 93 31 8 14 29 7 6 99 27 6 80 101 182 5 93 26 180 148 106 11 4 157 117 9 165 123 224 7 176 224 5 98 188 223 3 34 223 222 104 37 15 220 119 157 20 138 145 147 24 167 131 125 221 191 113 222 222 118 125 223 91 155 224 225 167 36 225 225 150 222 225 143 142 223 141 141 224 224 142 142 224 216 144 225 225 210 146 225 204 203 226 225 201 201 226 131 205 226 226 209 227 227 150 209 226 226 150 155 226 152 152
159 77 77 175 160 77 77 180 118 77 176 176 117 77 180 162 77 183 183 158 77 186 155 153 215 189 150 165 215 150 145 166 195 150 200 166 82 138 200 166 85 200 166 139 88 199 152 89 213 198 170 89 206 182 186 213 208 123 198 212 141 121 213 213 137 118 213 133 132 196 214 128 196 196 123 122 196 147 116 195 194 190 78 194 195 181 214 196 175 173 213 168 166 213 213 160 157 214 81 152 216 217 75 145 221 73 72 206 226 70 70 204 69 69 202 201 69 199 198 128 69 195 194 126 55 192 125 125 224 188 124 224 224 13 124 224 81 124 44 225 85 124 225 15 91 54 225 94 95 62 14 98 182 182 13 100 182 137 13 25 180 143 26 26 4 152 26 174 4 118 27 4 170 224 29 6 123 223 98 9 118 3 100 114 112 3 111 106 3 3 43 101 5 154 50 7 7 55 112 28 12 63 32 223 69 71 43 93 78 56 61 95 87 77 98 99 94 100 104 105 116 109 111 105 111 117 120 125 117 124 137 142 122 150 154 126 127 167 171 130 156 183 132 132 153 195 135 152 152 153 137 153 154 155 154 154
77 165 159 77 77 169 77 77 173 174 77 77 177 163 162 179 180 159 163 183 155 154 164 187 151 165 165 147 146 165 166 143 166 166 81 82 166 83 84 198 166 86 87 201 88 88 203 203 89 89 205 125 89 206 206 123 87 207 120 120 159 209 118 157 156 116 115 154 153 114 152 151 80 111 149 147 79 197 145 78 78 196 188 77 205 205 179 74 201 99 71 212 192 96 65 181 84 92 214 158 88 87 217 74 83 48 45 71 203 37 36 69 200 28 33 197 196 129 32 193 20 127 226 190 125 32 26 124 124 224 22 46 123 224 76 41 224 224 81 37 225 85 86 179 225 90 31 179 94 95 180 7 98 180 180 132 76 180 180 138 225 179 143 145 225 176 152 224 224 159 162 224 99 171 223 223 98 98 223 98 98 163 222 101 102 159 3 112 156 154 127 134 144 215 155 126 119 219 55 105 221 222 202 117 223 192 188 45 225 172 167 63 97 153 221 226 102 65 223 106 140 223 224 113 107 224 216 214 125 225 210 226 142 123 206 226 225 127 152 226 130 212 150 148 133 149 226 151 150 149 153 150 205 151 154 151
174 123 77 166 178 121 218 170 120 120 217 174 119 217 217 146 117 216 181 148 216 216 149 150 216 151 151 200 165 152 151 201 121 152 201 201 129 152 201 136 140 201 200 152 214 200 165 169 213 213 182 213 213 147 196 213 213 145 85 214 142 141 214 214 138 200 214 135 134 200 210 129 200 200 203 123 199 198 197 106 198 190 188 197 134 182 214 198 175 72 212 109 165 212 212 89 60 212 81 79 52 215 75 203 44 107 71 201 223 79 74 198 64 67 69 24 48 65 190 20 126 59 17 124 32 54 15 123 224 14 13 34 224 12 36 37 18 11 41 41 17 44 45 16 16 32 51 15 30 177 14 14 28 178 13 27 26 5 12 26 5 5 25 25 4 4 25 4 4 109 112 4 4 117 6 5 119 119 4 118 117 3 3 114 113 3 36 108 3 3 41 42 4 45 47 25 6 51 54 28 58 59 32 34 66 38 41 95 75 52 56 98 200 69 101 102 55 88 106 73 79 111 112 97 109 118 113 117 115 126 130 120 121 145 146 125 126 158 225 129 146 146 131 132 145 150 134 145 145 152 215 147 153 154 209 150
162 163 172 160 166 169 168 161 170 165 162 162 161 160 163 162 77 163 163 77 77 164 164 78 185 165 78 79 188 80 80 190 191 82 83 193 134 84 195 196 131 130 198 128 127 165 200 125 164 164 122 122 163 162 120 161 161 85 117 158 158 82 208 156 81 81 209 153 80 209 209 80 80 209 108 79 209 209 105 79 207 103 102 215 204 100 99 122 100 97 109 104 94 201 88 62 90 72 68 53 202 55 47 45 200 41 40 89 197 135 35 67 63 130 228 50 65 31 227 65 60 226 32 66 54 224 67 51 177 223 69 46 12 121 73 173 11 38 172 172 121 42 172 172 122 225 173 123 124 225 175 126 225 225 128 129 225 100 26 225 225 101 25 224 101 101 176 224 101 101 172 100 100 169 169 99 99 166 180 98 164 163 191 221 160 199 201 219 154 207 217 217 212 213 214 213 217 211 210 179 220 205 196 200 117 194 209 212 163 25 217 192 199 38 220 211 225 222 95 216 225 223 217 110 225 109 214 226 124 142 137 226 143 144 142 137 146 225 142 143 148 225 147 148 182 225 150 191 193 135 153 200 225 213 146 205
175 124 124 170 180 123 123 165 161 122 217 190 162 121 217 163 120 77 216 151 77 216 182 152 78 216 153 142 80 187 153 202 82 191 134 202 193 194 130 165 152 128 127 165 168 124 164 164 88 121 163 196 214 161 161 85 214 159 158 84 207 156 82 81 208 111 81 208 208 109 80 209 107 106 208 208 105 201 207 103 102 136 205 100 128 125 97 97 113 109 71 99 93 65 63 77 72 57 150 58 50 48 120 44 42 99 93 38 37 75 73 72 61 57 68 66 47 64 62 18 36 58 57 16 55 54 14 14 49 13 13 32 45 12 11 35 20 11 38 38 19 10 42 18 18 45 47 17 16 52 16 15 29 59 15 27 27 224 13 26 25 5 101 25 4 4 101 25 4 101 26 172 4 110 169 5 171 114 165 8 115 222 4 191 112 3 3 201 218 3 39 209 215 4 44 212 212 160 50 207 180 56 99 201 201 64 39 223 212 171 52 101 218 202 225 105 212 213 225 140 216 225 226 138 216 226 140 140 226 226 142 127 225 143 144 225 124 146 146 225 217 147 225 225 219 225 225 219 219 225 225 216 226 226 213 211
160 171 169 160 164 166 165 161 77 161 162 162 77 156 162 77 77 163 164 77 78 164 78 78 182 164 80 185 185 127 81 187 188 133 215 191 131 129 215 194 127 165 196 153 124 164 152 121 202 163 151 118 161 206 85 203 159 84 83 204 214 82 206 205 215 80 207 213 80 215 208 210 215 207 127 204 216 206 102 201 215 114 99 129 214 107 198 113 101 99 198 166 93 199 198 156 86 198 150 148 196 196 143 43 212 138 137 216 79 133 132 221 66 129 224 225 64 225 225 63 63 224 223 64 172 171 65 64 169 168 66 167 166 119 69 166 119 119 39 166 120 120 166 9 120 224 168 121 122 224 91 123 224 224 96 126 224 99 99 69 224 101 177 224 12 102 176 223 101 25 173 8 101 170 169 165 27 166 174 177 29 10 186 220 31 15 197 218 19 20 106 215 22 211 102 4 146 101 209 7 175 100 10 193 60 100 16 67 156 22 25 75 194 34 83 85 72 50 92 94 86 114 101 98 103 121 112 116 126 140 126 128 134 131 132 138 139 146 133 144 158 162 147 148 173 177 132 184 187 134 135 195 136 137 141 202
169 159 125 166 165 160 77 217 161 161 77 217 162 77 77 173 163 77 175 176 78 78 179 179 79 181 182 138 81 185 186 134 165 188 131 130 165 128 127 165 165 124 123 164 88 121 163 163 88 118 161 87 86 160 160 85 84 203 83 82 205 205 81 206 206 107 80 206 207 106 207 207 104 103 206 206 101 140 205 100 99 132 77 97 122 117 75 94 103 71 70 196 82 64 62 66 154 55 139 49 48 46 111 79 40 93 87 75 215 72 72 71 220 56 67 20 47 63 62 17 37 58 170 15 63 53 14 119 30 164 13 31 31 163 118 33 23 163 119 35 22 119 119 224 21 120 43 224 86 121 224 18 92 170 224 96 27 174 224 100 176 5 101 101 177 4 102 176 175 145 101 173 153 156 222 169 164 109 222 173 177 220 4 186 188 219 99 197 217 217 107 205 214 120 126 211 211 147 93 90 169 176 94 99 194 117 128 223 209 164 175 224 76 198 224 225 209 72 225 139 214 225 225 136 224 225 137 137 224 225 140 225 225 135 143 225 225 142 146 225 219 146 161 130 220 226 225 133 220 226 134 219 137 226 137 215
218 159 145 183 218 147 161 188 217 149 192 162 151 151 196 123 153 199 200 124 78 201 126 127 216 203 129 131 216 134 136 216 215 143 147 215 155 157 216 216 154 88 215 154 153 203 215 153 203 203 151 150 204 205 148 205 205 216 146 207 218 218 108 208 217 217 208 150 215 215 215 211 209 216 127 204 216 215 121 196 215 116 114 77 212 108 196 73 188 100 195 195 172 88 194 155 86 85 191 146 82 190 37 139 78 31 134 35 73 24 129 216 21 20 30 220 63 17 29 39 62 29 29 33 62 29 29 62 50 30 27 47 161 25 25 42 160 25 40 39 10 117 36 36 9 39 33 9 8 45 8 8 48 50 7 7 56 17 6 61 63 15 5 71 13 12 25 81 11 10 25 10 9 25 25 8 26 27 7 6 28 28 11 29 30 15 16 109 33 20 107 106 23 23 105 4 26 104 103 6 29 103 9 10 104 103 14 16 104 19 22 72 74 29 33 81 66 45 88 90 78 222 97 89 93 103 105 106 128 111 117 119 135 117 124 139 140 139 126 145 150 154 226 148 165 169 226 148 179 133 152 149 191 136 150 197
166 159 159 162 161 160 160 157 161 161 77 153 162 77 77 198 163 78 78 163 126 79 176 177 80 81 179 134 83 182 183 130 216 185 126 126 215 188 123 164 216 154 120 163 194 153 203 161 87 114 205 160 86 205 158 217 83 207 219 82 215 208 219 80 204 219 218 215 205 102 213 216 131 100 215 215 125 203 215 120 96 199 213 112 197 109 107 105 194 88 99 193 192 158 59 191 190 149 201 188 143 141 202 138 136 205 206 132 131 211 67 127 215 216 64 124 219 62 62 166 220 61 163 163 61 61 160 160 62 159 159 117 63 157 158 117 42 157 116 116 223 158 117 223 223 9 117 223 82 119 43 224 89 120 223 20 95 54 223 98 99 62 15 101 177 177 13 24 176 140 11 25 173 149 25 171 6 161 26 166 170 107 28 12 183 218 16 17 108 215 102 22 106 4 116 106 105 5 141 105 6 7 50 105 10 191 58 15 16 64 169 50 72 74 58 224 81 83 69 116 90 77 81 122 99 93 126 128 106 109 133 113 117 137 138 128 224 143 138 143 125 147 153 157 129 165 168 132 132 179 182 134 132 191 136 137
218 147 148 185 218 150 150 190 163 152 194 196 126 153 198 126 126 143 202 127 216 203 163 131 216 204 135 216 216 164 144 216 216 164 88 216 156 156 90 189 155 204 216 192 154 204 194 153 113 205 196 151 206 158 199 108 208 220 201 106 153 222 215 104 150 80 215 148 147 79 215 145 80 79 203 138 79 214 200 79 79 197 115 93 192 190 91 193 180 176 88 72 160 86 85 53 136 83 42 40 81 79 32 136 76 27 25 34 206 22 32 31 59 19 30 29 47 29 29 40 38 28 28 34 55 28 31 31 51 30 30 48 47 11 29 44 11 11 41 40 10 10 37 10 9 36 34 9 9 40 8 8 44 45 23 48 49 21 20 55 56 17 25 63 15 15 25 72 13 25 25 222 11 25 5 9 101 25 7 8 26 10 11 107 28 15 16 108 151 20 107 107 130 203 107 4 26 211 106 5 215 106 200 9 52 107 13 197 60 183 19 67 69 163 216 76 62 144 220 210 71 222 222 210 85 126 209 208 225 132 209 112 225 139 213 225 142 142 226 225 144 146 226 226 146 225 226 147 147 225 133 148 225 225 219 149
155 77 77 158 158 155 77 161 152 151 164 164 147 146 167 143 142 163 170 138 137 163 135 134 164 164 84 164 164 86 87 164 164 88 183 164 90 90 186 163 90 189 190 198 90 192 113 88 194 195 110 109 196 108 107 155 199 105 105 153 144 103 151 150 141 101 148 80 99 211 145 80 209 140 207 79 200 132 79 213 196 190 77 191 189 178 207 180 89 166 202 98 86 199 198 91 83 42 85 83 179 32 77 77 176 132 72 172 22 32 67 168 124 30 165 164 121 214 161 119 118 216 37 117 217 217 59 116 219 31 60 220 220 61 45 222 63 64 153 222 67 68 154 70 72 156 157 116 78 159 116 117 163 164 118 119 168 120 121 223 173 123 223 222 5 128 222 222 102 73 221 102 102 220 220 102 171 219 101 100 166 6 100 162 160 5 98 153 188 4 32 135 198 201 35 25 207 205 85 28 108 200 31 216 196 194 38 110 187 201 47 112 170 213 115 116 34 219 207 137 50 88 208 65 223 98 90 86 104 207 106 106 112 113 225 116 118 117 225 142 119 119 148 145 121 149 150 164 123 151 151 178 152 152 187 189
77 77 156 156 77 158 153 150 160 161 147 197 164 165 142 162 167 138 137 163 170 133 164 163 130 129 164 164 87 164 163 88 89 163 90 91 184 163 91 91 187 91 90 189 190 89 88 192 109 87 194 195 107 156 196 105 104 153 198 103 151 151 101 101 148 148 99 146 145 80 97 142 140 79 200 135 79 79 196 195 78 192 190 76 75 182 88 71 170 165 86 62 149 84 83 194 126 81 37 35 82 78 29 27 76 171 23 33 72 20 20 30 164 18 29 29 160 16 28 42 157 117 28 37 56 116 216 34 52 28 219 60 48 220 34 61 44 222 63 41 152 222 67 153 10 33 73 156 9 36 159 160 116 40 164 165 118 223 169 120 50 222 174 123 222 18 127 129 221 102 24 220 220 102 25 219 102 102 169 218 101 101 164 100 100 158 155 99 150 145 190 100 127 119 201 206 94 207 209 202 80 213 198 197 217 218 191 189 220 183 179 205 222 165 213 215 201 144 218 220 206 52 222 206 206 72 223 205 225 223 106 208 225 111 213 113 226 118 219 225 142 143 118 225 145 145 120 150 146 225 123 151 148 225 152 148
153 160 128 217 156 128 77 217 159 128 217 162 142 129 217 157 137 162 217 157 133 163 157 158 206 164 158 125 206 154 158 205 163 168 157 205 181 92 205 205 196 217 187 206 209 216 190 216 216 216 151 221 216 216 149 216 216 147 146 216 145 144 213 215 141 140 213 220 137 212 211 214 132 208 207 205 203 201 197 194 195 189 185 207 189 176 203 201 106 164 197 196 98 56 192 92 90 46 189 84 172 188 96 77 168 84 72 165 165 69 67 162 121 120 66 158 118 118 63 14 116 212 154 14 115 214 13 114 28 217 12 28 219 36 12 29 221 61 43 30 38 64 151 31 40 38 154 39 39 34 9 37 32 31 8 33 30 7 7 45 27 6 121 52 5 6 58 220 5 5 67 15 5 75 77 12 83 85 10 10 93 95 8 26 26 7 6 28 149 6 30 30 23 5 33 25 26 36 37 28 29 41 32 33 113 47 37 40 114 15 46 116 117 23 53 120 31 34 122 123 45 84 127 59 63 93 132 79 100 102 100 99 108 110 110 113 115 113 114 119 115 115 148 124 117 118 150 222 120 151 151 222 123 151 180 182
77 153 153 151 77 156 147 146 158 159 142 141 161 138 137 162 164 133 132 162 83 129 163 163 87 124 163 89 90 163 163 92 178 163 93 93 181 162 93 183 184 204 91 186 187 108 217 189 105 105 216 151 103 154 194 101 101 152 146 100 150 149 143 97 147 80 80 213 143 79 80 210 212 79 195 130 203 211 190 194 78 208 182 181 204 172 110 168 198 154 85 177 191 96 82 40 90 89 171 31 83 81 167 130 76 164 163 125 70 160 122 121 159 158 118 29 204 116 116 207 42 115 210 211 58 114 214 214 57 216 217 58 58 218 219 59 148 149 61 61 149 112 64 151 151 112 69 154 113 113 156 157 114 114 161 115 115 221 168 117 118 220 96 120 220 220 100 56 219 102 102 65 218 102 175 216 13 102 169 214 102 25 163 9 101 157 17 173 27 142 183 186 30 24 195 202 33 27 204 198 29 31 113 193 34 215 115 12 183 117 178 18 59 120 25 212 197 123 36 76 202 47 52 86 201 66 93 95 91 86 102 101 104 141 110 109 225 145 112 112 147 140 114 115 149 145 116 150 150 159 119 151 169 172 151 151
218 129 129 217 217 129 129 217 157 157 217 217 158 202 217 158 158 205 217 159 206 206 159 159 207 207 159 207 207 162 158 207 206 178 217 207 191 195 217 160 205 217 217 159 215 217 154 221 87 217 151 225 216 192 149 82 216 147 98 213 195 144 214 214 196 95 213 221 196 93 210 214 92 91 130 205 91 197 116 79 207 101 183 203 170 79 70 197 106 59 60 138 99 52 50 120 91 43 108 105 78 36 93 76 75 21 78 73 159 19 71 70 17 118 67 67 15 28 64 14 14 28 60 13 28 28 13 13 28 39 40 28 28 41 42 28 43 44 46 29 46 47 43 48 48 40 39 49 38 36 9 9 34 33 8 37 31 7 7 41 29 7 44 46 6 6 51 53 6 56 59 20 6 65 17 16 24 76 13 13 24 11 11 25 25 9 9 26 19 8 28 28 24 100 31 26 27 105 34 29 113 113 82 33 115 116 38 216 118 15 45 120 121 22 221 124 29 31 223 134 42 78 81 124 59 88 80 124 223 97 97 93 104 211 106 224 111 110 225 224 220 112 149 225 222 225 150 148 222 225 151 161 225 225 147 174
159 160 147 145 160 78 141 160 161 79 137 162 80 81 162 162 83 163 162 85 87 165 166 90 168 169 119 93 171 172 115 173 174 113 112 177 178 110 160 180 107 107 158 155 104 157 157 88 102 155 86 85 212 153 83 82 151 229 81 193 149 80 215 194 225 80 194 194 220 213 193 91 91 211 190 90 120 209 124 88 102 176 117 181 80 113 85 175 162 105 170 47 53 51 166 143 44 111 163 134 37 96 129 127 178 81 123 181 183 69 119 188 58 64 194 196 62 65 150 201 59 149 13 57 57 147 13 56 147 146 110 57 146 110 110 146 146 110 110 147 110 110 220 220 110 111 220 67 111 220 220 72 33 220 78 80 219 219 85 167 219 91 93 173 174 97 176 177 122 101 178 177 127 24 175 132 134 24 8 141 209 165 12 153 206 16 162 203 203 99 175 200 99 99 108 196 101 82 112 8 113 77 190 9 40 102 11 162 46 144 16 52 173 50 220 60 54 222 128 70 60 223 124 67 71 135 121 83 87 139 85 98 142 143 103 224 146 114 118 115 148 127 120 121 136 139 125 222 147 128 129 117 160 132 132 120
217 191 159 78 217 160 130 79 155 161 80 217 158 162 83 160 159 85 87 162 159 90 165 166 118 208 168 169 115 161 171 112 111 161 109 109 160 160 106 105 158 93 104 157 157 89 217 155 87 86 187 153 84 189 189 82 82 191 191 81 192 192 93 80 192 192 92 192 192 91 91 134 189 90 125 121 89 88 108 78 87 92 86 73 85 70 67 65 56 52 57 54 41 48 46 116 112 40 105 102 78 34 91 88 75 175 77 73 73 67 64 70 16 56 68 68 15 15 65 14 14 28 63 13 28 28 146 13 28 28 145 109 28 47 12 28 28 51 109 28 55 55 46 219 58 44 42 219 59 40 9 219 72 36 8 56 79 163 8 85 31 169 7 92 174 6 118 46 177 121 51 213 177 126 59 22 131 134 208 18 140 143 205 102 152 202 201 101 199 198 100 99 116 195 99 92 85 101 103 75 30 113 80 86 209 138 111 121 215 143 154 218 218 161 220 220 147 142 222 222 128 217 223 120 119 221 224 119 222 223 121 122 223 209 126 224 224 217 218 224 220 221 225 225 222 222 225 125 222 225 225 129 222 225 145 222
159 159 141 194 160 79 136 160 161 81 203 161 83 84 158 138 87 160 161 144 91 163 118 155 217 166 114 98 217 159 111 217 171 158 107 218 157 105 209 158 156 209 157 222 154 211 155 88 212 213 229 84 214 214 230 216 215 231 230 216 145 228 214 214 141 225 213 138 90 212 212 134 89 210 130 129 192 206 125 123 181 120 118 174 172 169 168 167 159 156 163 162 147 176 160 139 137 171 157 130 169 169 126 124 170 76 120 173 174 70 68 180 66 65 149 187 62 61 147 46 58 147 146 43 57 145 109 56 59 144 109 211 144 12 109 215 144 108 28 216 11 109 218 218 11 29 218 63 10 30 65 69 31 31 63 75 160 59 81 33 167 53 89 171 7 44 28 177 118 36 26 6 122 24 24 7 60 24 8 9 70 202 12 79 82 15 18 90 195 12 98 100 12 99 106 11 10 29 112 11 11 33 11 11 36 37 39 14 41 43 45 47 49 49 50 55 53 54 132 64 58 134 135 65 69 138 139 65 140 141 79 84 144 145 97 104 146 110 113 112 119 122 117 118 131 133 123 112 141 126 127 114 115 130 116 117
78 159 159 79 79 160 80 81 152 160 83 84 155 86 87 157 158 121 92 160 118 116 162 163 114 112 165 111 110 160 168 107 160 160 105 104 159 158 97 158 157 95 93 156 155 90 180 153 87 86 183 230 84 185 186 82 82 187 93 81 187 188 91 91 187 90 90 138 186 88 88 129 132 88 118 114 127 186 99 77 85 174 77 71 168 62 164 61 134 46 53 176 121 142 43 112 92 133 166 99 78 125 165 80 76 167 168 73 73 17 68 72 149 16 64 69 15 111 60 146 14 28 145 145 109 28 144 144 108 207 144 108 108 212 53 107 214 214 56 108 216 58 58 216 216 60 47 217 63 64 151 216 68 70 156 73 75 161 162 112 82 168 113 114 173 174 115 210 177 117 119 207 177 122 204 203 8 128 201 200 103 69 197 103 103 194 17 102 139 190 101 101 111 13 99 88 82 12 100 73 195 12 32 85 204 207 110 40 211 169 152 215 128 157 50 219 144 139 54 134 125 215 62 138 114 220 140 141 68 222 199 81 86 97 210 99 224 106 105 114 112 220 108 126 118 109 224 123 124 111 225 142 113 114 151 145
193 217 159 159 198 132 160 202 203 134 204 205 137 139 207 207 144 217 208 151 154 217 209 163 218 218 160 178 218 159 159 104 218 158 158 217 171 157 210 218 156 155 212 176 154 213 213 179 152 214 231 232 93 215 232 216 92 147 231 215 215 230 80 214 142 226 212 211 134 80 210 133 123 79 174 129 186 78 164 123 173 154 151 83 164 140 111 82 47 127 82 155 35 115 80 29 132 79 78 24 33 160 21 20 31 162 18 30 30 64 16 29 29 54 29 29 49 48 28 46 45 67 67 45 44 65 13 46 64 63 12 51 61 12 12 59 58 12 11 55 11 11 28 52 11 28 28 75 10 29 29 76 29 29 76 74 31 31 71 36 33 66 64 32 60 57 30 29 50 48 27 7 6 25 25 8 8 24 9 10 61 23 13 15 73 151 18 84 87 22 158 95 16 15 103 105 15 27 111 14 14 30 118 15 33 34 170 16 38 44 164 165 44 48 23 49 183 52 135 58 56 58 138 186 67 141 141 191 82 143 74 201 223 146 92 224 224 122 108 224 149 128 224 115 134 129 225 121 138 225 125 222 142 225 222 114
160 195 159 80 160 201 160 84 150 204 137 88 152 161 92 217 155 149 99 157 158 160 218 160 108 174 218 160 105 160 218 158 103 158 158 158 210 157 157 98 211 224 155 212 153 229 214 214 231 86 215 215 233 216 181 233 233 216 182 232 214 214 143 229 212 212 138 211 210 136 135 208 133 131 189 204 127 125 175 187 121 166 164 171 114 158 159 156 154 153 146 168 151 138 135 161 150 129 158 158 84 121 157 157 77 30 160 73 71 165 166 67 146 172 64 63 145 47 60 144 144 45 57 144 106 106 66 143 106 106 65 12 106 208 143 12 28 211 11 106 28 213 11 28 214 78 11 28 214 62 48 29 82 66 155 30 80 41 161 76 74 36 8 68 33 32 7 59 30 7 115 40 27 7 119 195 8 9 52 190 11 60 63 27 17 73 76 23 83 86 20 20 95 98 18 25 26 17 17 28 72 16 30 30 37 17 33 41 42 37 39 47 47 43 49 50 134 51 53 54 138 39 60 140 141 52 142 143 64 68 145 146 82 92 147 94 98 101 148 110 108 110 106 122 115 107 108 120 121 109 110 125 111 112 150 129
195 197 145 128 200 134 161 124 160 137 120 206 160 143 116 160 149 101 112 160 160 218 157 160 110 218 160 159 111 163 159 109 109 165 99 105 168 157 96 99 170 95 213 153 173 93 214 232 92 92 150 234 91 149 148 82 89 146 145 81 144 143 80 80 138 137 80 176 175 80 80 170 132 79 165 162 84 77 154 84 83 145 142 83 83 133 82 82 42 122 81 81 32 40 80 27 26 35 23 22 32 32 20 19 30 73 17 30 30 62 16 29 54 53 74 29 48 47 72 45 45 71 71 45 70 69 13 48 68 67 12 54 66 12 12 64 64 12 28 28 11 11 28 78 11 28 28 84 10 28 86 86 108 29 86 86 109 208 83 41 30 205 77 36 8 71 88 32 7 93 29 176 7 99 26 8 44 102 167 11 53 103 157 131 64 29 142 141 175 25 149 89 172 22 163 169 21 100 176 167 19 28 165 165 105 31 162 118 125 139 45 148 157 168 214 181 177 179 218 203 180 220 220 182 182 222 143 187 222 223 103 199 223 107 109 223 224 114 116 224 120 122 224 224 128 130 225 221 134 225 225 221 141 225 222 222
143 144 126 218 145 123 122 147 147 119 160 160 115 114 160 102 111 160 160 109 107 160 113 113 210 159 115 115 211 199 113 162 157 212 108 165 96 103 218 168 94 218 170 93 92 217 173 91 150 217 150 90 148 176 148 216 146 81 88 215 232 80 213 138 228 80 208 223 80 207 196 213 80 162 202 199 197 153 188 183 188 119 83 181 178 112 149 169 107 105 146 160 99 145 145 93 91 145 23 85 145 145 117 79 145 114 112 154 145 110 110 161 109 108 167 169 106 106 175 59 105 181 183 56 104 189 55 55 142 197 54 142 142 58 54 142 142 54 142 143 104 55 143 143 105 60 146 105 106 56 10 106 208 207 10 107 205 69 108 29 202 76 109 199 79 84 32 194 89 91 35 63 96 174 38 53 25 168 120 44 23 159 126 23 23 18 135 23 130 23 81 23 26 155 96 28 29 105 162 23 33 116 22 101 121 123 22 114 127 23 23 35 133 26 40 42 29 31 47 177 37 54 56 62 221 64 66 76 145 75 87 90 147 86 97 148 148 100 101 149 109 104 150 150 120 106 150 128 130 120 150 137 138 125 144 145
126 159 143 122 121 159 119 117 159 160 97 113 160 104 106 160 160 111 218 160 116 117 154 159 119 119 157 118 117 159 160 114 161 161 95 95 164 164 93 153 166 92 91 152 169 90 150 150 89 89 149 84 88 147 147 82 87 144 81 81 174 140 80 80 171 80 80 168 167 80 80 162 84 79 155 153 84 193 145 83 83 182 135 82 50 47 82 81 38 35 81 31 29 38 80 25 35 34 143 21 32 32 143 114 31 69 67 110 30 58 77 29 159 50 76 29 46 61 76 174 44 75 142 182 57 74 13 190 55 142 12 28 54 141 12 28 142 142 103 28 142 103 103 207 144 104 28 206 105 105 206 95 106 106 204 65 50 201 200 71 45 197 76 77 169 192 83 173 174 89 91 175 8 96 172 171 116 39 165 162 121 170 154 126 127 165 131 133 162 161 141 144 159 102 154 157 157 100 167 155 99 100 78 154 101 103 109 25 113 138 146 133 35 164 211 166 172 174 216 47 176 218 219 56 178 221 96 95 80 222 95 221 91 147 100 223 223 149 100 224 149 114 113 224 150 121 225 219 220 130 225 221 224 139 125 222
218 141 162 135 218 162 116 218 218 162 208 218 162 162 210 218 162 211 211 161 161 211 159 184 212 211 195 122 212 207 210 219 212 218 220 219 154 226 218 218 230 231 218 154 233 218 217 152 151 217 150 149 216 216 148 216 216 171 145 214 213 143 85 210 228 139 203 200 220 84 189 211 208 198 95 196 192 190 73 180 181 118 55 60 170 111 150 48 118 103 42 153 109 95 36 100 90 80 142 87 80 142 19 74 79 143 109 78 79 16 107 78 78 15 30 78 14 104 29 43 14 29 177 44 13 28 47 55 28 28 53 54 28 60 62 73 28 71 73 71 79 81 69 69 11 67 66 11 11 63 62 10 27 58 10 10 28 52 9 28 28 8 9 28 90 8 29 30 82 80 31 75 73 30 33 66 64 26 59 57 24 24 51 49 23 19 44 23 22 24 72 22 27 27 89 23 30 100 104 32 33 114 116 37 120 122 28 43 128 29 29 203 134 30 31 37 127 34 42 44 38 41 50 62 48 57 60 76 60 68 86 88 221 79 95 149 223 212 100 149 150 216 223 150 117 104 224 150 127 224 150 131 135 224 135 141
120 159 141 116 115 159 143 112 159 159 162 108 159 159 105 211 159 123 102 159 176 127 212 158 128 127 154 203 124 155 156 215 118 158 92 224 219 160 90 103 218 154 89 218 164 153 216 217 151 87 217 147 149 217 145 82 146 215 142 81 213 212 231 80 206 226 224 205 193 216 80 199 130 203 194 145 125 186 184 121 82 175 172 114 82 163 108 106 139 153 100 139 139 94 92 140 140 118 141 141 114 113 142 142 110 143 142 107 107 148 15 105 153 155 104 103 161 60 103 168 169 58 57 175 56 56 141 185 55 55 141 56 54 141 141 65 77 141 101 54 75 142 101 202 143 11 102 201 145 103 200 199 10 104 197 63 10 28 192 68 107 28 98 74 28 182 92 81 173 86 87 34 173 77 94 169 10 68 26 159 117 25 24 17 122 23 22 22 59 22 25 26 77 145 28 90 94 38 32 105 35 34 114 117 33 100 124 32 32 29 131 32 32 33 33 34 37 38 51 38 43 56 58 49 52 68 145 59 79 82 147 70 90 148 149 96 97 149 149 100 150 150 110 113 150 118 120 110 150 127 129 118 133 135 122 123
218 218 163 95 218 163 163 106 142 163 210 218 145 162 211 162 162 212 212 176 161 212 188 192 95 213 203 219 93 155 216 219 213 154 116 219 153 229 106 218 155 99 218 161 153 92 217 152 86 86 164 149 217 165 165 84 215 164 164 84 137 162 83 83 129 226 83 119 115 80 82 102 79 78 86 81 75 183 66 68 65 130 49 55 52 121 82 44 115 113 81 37 104 81 81 95 92 81 21 82 81 81 18 68 81 17 17 81 81 15 15 30 15 15 30 30 14 30 30 41 14 30 30 42 30 30 45 47 30 29 53 82 29 60 62 81 81 71 80 79 12 83 78 11 11 76 75 11 11 72 11 10 27 66 10 10 27 105 10 27 28 103 106 27 100 98 28 28 93 39 28 87 85 34 29 78 30 28 154 69 26 25 16 102 23 20 22 103 116 25 64 22 88 28 81 73 30 150 98 68 34 110 136 86 175 121 37 101 188 133 36 29 200 128 133 34 119 116 167 39 103 189 195 172 89 207 54 180 214 216 190 87 148 200 202 222 149 209 210 223 97 214 223 224 108 217 224 115 117 224 224 124 225 225 130 132
114 203 218 163 109 159 163 163 209 158 163 163 211 159 162 212 212 173 138 213 184 189 219 213 200 219 219 210 213 219 152 221 219 219 157 228 219 219 155 219 218 154 154 217 153 152 217 217 151 150 218 238 148 217 216 237 146 214 236 235 211 209 231 229 206 226 224 202 201 215 197 195 130 201 188 185 123 71 176 119 117 59 164 111 135 156 117 104 135 132 97 81 136 122 90 137 22 114 82 139 111 110 82 18 107 138 82 16 104 143 15 15 31 150 62 31 31 39 59 30 163 39 85 30 42 56 140 30 48 85 140 54 56 85 13 99 85 84 12 99 83 12 12 29 81 11 100 28 11 11 27 193 10 11 27 107 10 27 27 107 60 27 105 104 52 26 101 46 44 95 94 39 37 88 34 32 11 79 28 13 15 26 25 18 19 42 22 23 50 55 26 27 67 53 29 82 86 49 33 100 46 45 112 115 43 25 25 41 41 27 28 40 29 30 48 41 33 34 51 37 38 57 59 44 65 68 146 53 79 82 148 70 90 148 149 84 95 149 94 97 223 150 107 96 150 105 118 105 150 124 225 113 122 132 118 120
98 218 158 107 110 139 163 120 123 140 101 132 142 142 98 140 143 96 95 145 145 93 156 147 91 91 155 148 89 154 154 127 88 153 153 116 152 151 108 105 150 150 98 156 148 92 90 158 88 86 159 159 84 83 159 82 82 158 157 82 82 155 82 81 123 151 81 112 108 81 81 93 88 82 78 73 72 69 59 55 60 125 44 51 48 117 34 42 110 108 127 36 99 82 34 134 86 83 33 75 77 83 18 62 83 84 16 67 84 15 15 64 141 15 31 60 141 14 31 141 141 98 31 141 13 97 173 44 97 30 182 53 97 187 61 89 97 192 55 88 193 193 56 86 193 56 57 144 11 57 81 147 101 60 150 10 103 154 156 104 27 161 163 106 168 167 106 107 160 170 108 154 152 87 109 146 144 94 140 139 98 99 134 101 102 127 129 103 103 102 62 104 83 77 103 103 68 141 145 68 72 154 124 87 165 169 123 121 180 122 122 47 193 118 116 49 139 108 151 159 143 93 183 169 83 54 204 178 61 213 187 191 73 219 200 222 86 76 208 223 223 88 100 223 97 215 102 150 108 103 224 150 118 104 150 125
205 158 110 114 208 145 124 138 210 155 219 140 163 166 219 142 177 219 219 161 91 219 144 160 214 219 160 88 214 159 158 215 153 158 157 216 232 156 217 217 235 154 218 237 238 217 218 238 239 216 239 239 215 214 238 212 212 144 236 209 208 141 81 205 138 137 200 198 133 172 167 129 128 152 193 123 141 139 172 116 133 158 153 82 130 140 137 82 29 127 137 136 120 117 132 84 112 131 131 77 32 130 73 71 32 133 68 141 32 44 63 141 143 39 88 141 99 59 89 14 98 90 141 13 97 92 13 96 31 92 13 96 183 13 13 30 188 12 12 30 79 56 29 29 91 90 29 99 101 87 28 106 83 82 109 110 77 154 111 71 69 9 104 63 9 9 25 54 9 9 25 9 10 25 25 11 12 26 88 14 27 29 81 19 33 76 74 23 42 70 21 22 66 65 21 21 62 22 22 35 58 23 23 39 23 24 43 44 25 46 46 132 134 48 48 137 49 50 141 141 50 56 144 53 54 146 146 60 62 147 67 70 59 62 79 67 70 96 92 78 82 98 223 90 100 100 97 100 102 150 107 103 103 150 219 104
110 135 135 121 125 136 137 136 137 137 96 148 139 139 93 219 140 91 90 141 161 89 155 155 87 87 154 144 86 153 153 132 84 152 123 120 217 150 110 107 218 237 99 152 147 93 217 153 81 87 154 153 80 213 153 81 81 210 152 80 130 206 140 80 117 137 135 178 100 80 80 157 201 75 143 65 180 65 132 165 55 156 128 145 44 113 133 131 138 103 122 133 132 86 84 129 128 78 137 128 74 72 139 129 68 140 16 65 64 141 100 61 141 141 98 59 141 97 96 153 141 96 96 161 95 95 168 170 95 95 176 55 95 181 183 55 31 186 56 56 141 188 56 142 142 57 57 143 144 58 146 146 99 60 149 100 101 81 154 102 102 73 10 104 158 155 9 106 149 76 107 24 140 83 108 133 96 90 24 126 95 29 27 85 100 120 33 78 23 95 121 73 21 73 127 21 21 33 136 22 37 145 104 23 41 159 112 44 45 127 111 101 47 134 54 114 138 139 53 143 142 54 55 37 145 58 42 44 63 66 51 189 74 58 61 93 222 69 72 96 150 81 98 99 150 100 100 150 150 102 102 150 127 103 150 150
207 208 144 219 210 150 152 219 157 160 219 219 162 174 219 162 161 219 219 161 161 219 160 160 215 219 159 216 216 144 158 216 216 145 82 217 234 235 81 217 237 218 218 147 239 217 218 239 89 215 143 240 214 150 139 83 210 143 132 81 147 140 198 81 144 136 179 140 132 80 157 134 80 142 66 129 81 130 168 82 82 41 147 146 82 32 40 137 27 26 36 130 22 34 34 79 20 33 68 64 33 34 55 67 33 46 44 90 141 39 37 92 14 34 93 94 14 95 95 14 14 97 97 13 34 99 13 13 34 100 13 33 33 51 13 32 32 65 32 31 75 79 31 86 89 100 29 98 100 97 104 106 94 93 11 111 88 10 10 83 80 10 25 73 9 10 24 63 9 23 23 10 10 23 23 12 23 23 97 95 23 24 90 28 27 86 85 24 107 81 22 22 105 76 21 32 74 103 21 36 70 22 85 41 110 23 44 120 123 137 46 130 133 152 187 137 57 159 199 141 57 206 144 76 60 38 146 64 201 46 63 72 52 194 63 218 63 94 67 221 207 97 223 223 210 99 224 213 214 224 150 216 224 224 109 218
142 130 209 148 150 219 212 158 156 135 167 170 219 136 89 219 219 161 87 219 219 161 216 219 159 159 216 219 158 216 216 158 157 217 150 234 217 217 236 108 218 238 239 217 218 239 240 216 240 240 214 213 239 240 211 145 238 208 207 142 202 203 138 138 184 196 134 167 162 136 128 146 141 123 80 130 175 115 124 123 154 82 122 140 136 138 29 125 132 131 24 115 126 81 20 34 124 74 105 34 57 68 34 125 65 91 35 39 61 141 141 33 95 141 95 31 97 141 95 99 99 13 93 101 140 13 36 103 13 92 35 44 13 35 177 55 13 33 65 57 32 32 80 57 31 90 93 103 29 101 101 100 107 109 97 95 11 92 90 10 10 84 82 10 24 74 10 10 23 63 10 22 22 11 12 22 103 14 21 22 97 96 23 93 92 27 27 88 87 23 85 84 22 22 81 21 21 35 78 21 21 39 98 22 42 43 115 23 45 124 127 47 47 133 135 49 138 139 62 54 142 61 62 208 145 63 65 39 62 69 44 47 75 77 54 92 86 62 65 95 221 73 97 98 223 85 99 150 223 214 100 150 150 216 224 150
96 209 156 148 93 156 158 161 90 156 168 219 156 156 172 219 155 172 171 136 154 168 137 138 162 159 139 139 80 140 140 80 80 142 142 79 149 143 78 78 147 145 79 146 145 78 78 143 89 88 141 140 85 84 136 83 82 144 127 82 81 141 81 81 139 138 80 136 134 79 77 131 129 80 59 125 81 81 44 119 82 36 34 83 83 29 27 84 25 24 35 86 21 35 35 133 18 35 34 56 102 35 47 44 36 36 38 94 37 33 32 97 134 30 99 100 140 28 102 14 28 56 104 13 13 107 140 13 39 108 13 13 38 140 13 36 35 140 91 34 69 141 92 32 84 109 94 178 97 107 30 173 61 103 168 110 62 152 159 64 92 158 150 66 161 10 69 70 163 10 22 160 159 106 21 151 148 108 111 136 109 109 104 111 111 99 94 113 114 95 102 116 93 93 103 21 92 104 103 72 93 103 88 95 102 102 119 126 100 137 142 167 100 151 153 182 90 157 193 196 80 161 204 70 68 210 212 61 191 215 57 56 208 219 56 215 217 150 59 220 220 205 102 222 208 209 112 87 212 224 224 98 215 224 104 217
147 219 211 153 156 219 219 165 219 219 163 179 219 162 162 177 220 162 161 220 135 160 217 220 159 159 217 227 158 218 218 232 157 218 235 236 78 219 238 218 77 146 240 217 219 144 92 215 142 241 86 212 147 84 210 142 144 82 141 141 77 82 138 136 173 135 134 79 150 131 130 80 63 126 80 81 48 164 81 39 147 44 83 30 40 132 26 25 36 124 22 35 35 74 19 36 35 59 91 36 49 46 94 41 39 96 97 34 32 99 15 29 101 102 14 27 104 14 14 107 108 13 13 44 13 13 44 44 13 43 42 38 13 41 40 49 39 38 58 62 36 36 73 114 34 85 88 113 12 98 111 110 11 106 107 11 11 103 101 11 11 96 10 11 24 86 10 11 22 113 11 20 20 110 106 19 108 107 18 19 104 38 19 100 99 30 22 96 26 25 88 93 22 32 33 103 21 35 37 103 78 40 91 21 105 44 111 127 46 155 125 146 47 132 88 154 182 138 71 27 195 74 70 30 206 63 169 35 56 73 197 41 52 208 47 196 53 217 200 94 220 220 205 97 150 207 209 223 150 212 212 224 84 215 223 224
91 156 156 165 88 155 156 176 155 155 180 182 154 155 182 132 154 181 180 133 80 175 134 134 78 165 135 78 78 137 137 77 77 138 77 77 148 139 76 76 146 105 76 145 144 94 218 142 89 88 138 137 85 141 132 83 83 139 122 82 138 137 230 81 134 78 79 182 131 79 79 169 120 80 52 122 111 81 39 105 83 113 30 95 84 26 37 85 121 22 36 78 127 106 36 62 17 102 115 48 99 38 116 38 97 120 32 58 95 125 56 104 142 131 55 107 14 55 55 141 13 55 55 141 89 56 141 141 88 56 140 88 88 140 140 88 171 173 89 89 175 66 90 174 174 60 91 172 172 61 169 167 63 63 162 63 63 151 153 65 65 156 98 67 159 159 101 69 159 102 103 73 153 104 105 144 15 107 101 128 108 95 94 91 109 89 87 97 24 85 100 101 34 82 102 65 81 93 103 75 91 103 21 100 89 102 122 45 147 23 142 158 162 24 48 174 81 25 53 189 73 59 62 144 62 71 145 146 74 81 147 50 79 42 148 85 213 51 149 94 59 202 101 104 71 97 111 79 82 99 119 91 99 100 99 101
219 219 164 164 219 164 163 215 215 163 163 216 191 162 217 217 205 161 217 214 216 78 218 223 220 218 150 229 220 218 233 146 219 156 237 219 218 155 116 218 153 152 103 139 151 218 93 140 149 216 140 147 76 211 240 144 204 122 237 77 185 232 229 77 93 221 182 78 73 76 169 60 56 65 155 45 54 51 114 102 43 134 104 85 38 95 85 87 85 81 89 124 69 65 92 17 54 94 95 16 42 98 15 15 43 101 15 15 47 15 14 49 127 14 52 53 23 13 55 56 23 57 57 23 23 119 58 26 121 121 30 32 122 13 38 123 123 13 51 123 12 12 123 122 12 12 122 12 12 34 33 12 12 31 105 12 29 28 111 27 26 114 115 24 23 115 95 21 115 115 82 20 113 72 69 14 111 58 17 18 84 45 22 24 37 96 27 20 29 30 30 28 67 33 38 43 98 37 59 96 96 125 84 94 21 101 80 92 22 118 89 100 23 80 85 24 24 76 103 25 57 59 120 163 68 144 152 173 79 146 181 184 216 148 191 90 219 46 197 221 149 49 202 222 53 108 222 223 61 223 84 69 72 224 95 81
164 86 155 164 84 214 155 163 82 154 187 191 217 153 191 220 217 211 187 129 218 221 220 131 227 228 220 132 232 220 219 157 75 219 156 155 219 219 154 74 219 152 152 219 142 151 150 217 242 148 214 213 241 145 206 240 238 201 190 235 195 193 229 227 185 130 216 176 172 123 197 162 158 114 58 148 107 104 139 109 96 108 109 89 86 112 115 79 117 119 107 71 125 103 102 94 132 99 99 136 16 97 111 112 94 48 115 55 92 120 121 54 57 127 54 54 63 133 54 143 67 21 55 142 22 22 124 141 86 57 125 13 86 126 141 13 87 127 13 87 52 127 12 88 170 12 12 41 167 12 37 35 98 65 32 31 107 118 28 111 67 112 25 115 106 156 115 115 95 12 115 85 82 13 104 70 16 17 16 56 21 21 15 24 25 16 17 28 29 20 104 32 28 31 102 39 44 101 100 20 67 100 20 20 98 98 21 21 95 21 22 47 92 23 49 50 23 24 54 55 25 60 63 143 143 71 74 145 80 81 147 147 83 88 148 87 89 148 149 95 52 150 101 104 63 66 110 72 75 97 118 83 87 98 224 94
212 220 125 82 215 126 163 80 216 126 78 217 199 127 77 218 211 76 76 151 221 75 151 150 177 220 150 232 162 131 148 149 219 133 147 131 134 154 118 114 135 73 104 136 136 73 217 136 73 73 133 136 74 74 124 74 74 115 110 75 76 98 82 77 83 79 79 69 64 73 70 122 48 60 118 115 50 47 109 106 41 101 98 86 38 87 88 89 76 72 92 92 60 95 96 16 16 99 100 15 45 103 15 15 51 108 14 56 58 14 13 63 22 13 69 71 20 20 76 20 19 125 80 20 20 128 145 21 129 129 24 58 130 13 31 131 131 13 61 131 12 12 57 131 12 50 48 143 12 42 40 145 91 36 100 12 93 149 108 95 27 138 113 97 129 115 106 104 117 115 95 13 105 73 80 15 76 77 119 19 81 54 102 108 87 88 28 109 18 72 111 23 70 66 113 36 104 116 117 68 103 121 69 69 103 129 71 71 102 72 72 101 101 149 71 100 153 154 100 101 158 186 109 163 165 199 136 172 207 209 181 183 214 215 190 217 218 40 41 220 221 42 218 222 45 46 221 150 51 222 223 150 60 223 211 68
164 214 214 171 163 216 216 184 217 217 195 199 218 205 208 220 218 217 219 220 151 225 220 220 159 231 220 158 157 220 219 156 156 219 155 155 220 218 154 219 219 134 151 218 218 135 72 216 243 242 73 209 241 206 199 240 239 198 106 234 191 188 88 225 179 128 69 76 165 118 192 65 118 109 112 141 110 98 107 103 90 85 107 90 88 109 20 75 92 116 103 95 95 16 99 103 100 15 46 103 15 15 53 27 14 59 61 23 14 68 22 21 76 78 20 53 85 19 19 128 143 18 18 131 13 18 132 133 13 133 134 13 13 135 135 13 86 135 12 12 74 135 12 65 62 65 12 54 77 81 46 44 92 95 38 100 102 126 31 108 109 121 112 112 116 114 12 115 106 12 13 97 94 15 16 83 17 18 14 67 22 14 13 26 27 14 14 30 16 17 108 108 23 107 107 23 37 107 107 20 64 106 19 19 66 105 20 47 104 21 21 48 101 22 49 50 133 23 55 137 139 159 64 142 143 167 200 145 87 82 209 147 87 215 147 38 92 40 38 96 213 48 39 104 56 201 43 221 67 96 50 223 208 97 223 223
192 194 123 123 198 123 123 76 201 124 124 75 152 124 74 73 151 73 73 151 150 72 72 149 181 71 148 148 166 71 147 153 148 146 146 134 131 132 120 116 132 133 105 133 133 71 94 133 134 72 208 133 72 73 202 132 74 106 131 136 74 88 82 76 73 68 77 78 55 70 66 117 41 55 52 109 149 44 103 26 127 122 89 116 38 113 74 92 107 63 65 97 102 48 100 126 100 57 106 14 101 54 138 14 53 52 142 89 75 143 144 87 88 144 86 85 124 145 84 107 129 84 84 134 17 83 139 141 57 84 148 149 60 142 155 61 62 141 161 63 142 142 64 65 142 12 66 142 143 88 68 144 89 90 133 146 92 92 144 93 93 135 132 95 95 122 71 97 113 109 72 18 100 73 74 15 89 76 110 105 112 80 93 89 83 49 78 108 89 69 67 110 29 66 112 112 23 40 115 61 19 44 119 62 103 46 93 64 103 133 113 105 102 124 64 102 22 133 99 99 23 139 95 25 164 92 91 27 175 206 29 30 86 213 33 189 90 148 39 92 220 149 93 94 149 39 95 95 150 116 223 150 150 122 223 150
221 215 175 178 220 163 189 220 220 162 203 220 162 161 221 221 160 71 220 159 160 219 220 159 219 219 234 157 220 220 237 219 219 239 239 219 219 241 217 219 242 243 215 138 243 213 212 132 243 209 146 145 87 203 142 141 196 130 136 159 186 132 130 140 125 124 129 126 120 79 118 179 114 82 111 152 131 84 25 129 121 106 20 39 111 18 106 40 61 16 42 99 60 15 47 38 56 52 55 29 53 136 25 23 119 141 21 51 126 13 19 129 144 13 132 134 13 83 137 138 13 129 130 13 13 135 136 13 137 136 17 13 133 20 22 127 124 28 31 114 37 40 143 97 51 55 142 12 68 140 140 13 83 138 12 12 136 134 12 35 131 12 12 28 125 12 23 22 13 13 19 18 114 16 15 113 113 14 113 113 75 12 112 112 58 111 111 47 44 111 111 34 36 37 27 25 40 41 21 42 44 58 19 45 77 83 130 47 100 106 48 136 119 107 49 127 130 104 22 136 101 99 24 52 97 25 26 44 93 27 83 38 163 30 88 94 192 191 91 205 40 93 93 149 198 94 150 150 202 223 150 118 206 223 150 125
172 203 121 74 74 220 121 73 72 121 162 71 151 121 70 219 150 160 69 149 149 159 219 148 185 158 220 147 170 127 220 238 151 128 240 240 218 129 242 118 130 152 243 215 131 69 243 210 147 70 206 205 144 71 109 140 139 163 91 134 149 145 226 126 134 58 209 125 123 190 61 116 114 162 134 104 141 136 122 83 121 115 112 72 109 105 66 65 100 97 60 59 95 57 56 122 93 53 53 130 91 52 135 137 88 126 141 86 86 144 144 84 112 145 83 83 118 145 82 123 124 12 81 128 57 57 155 135 58 59 156 16 61 143 149 63 63 142 27 65 142 142 40 67 142 86 86 146 142 87 158 143 13 89 152 144 12 46 142 12 92 35 130 12 28 120 110 13 22 112 74 115 17 113 74 111 113 113 89 96 113 112 72 28 113 59 55 32 112 44 35 36 34 32 39 26 30 41 42 43 55 44 60 67 113 46 86 92 113 103 108 112 111 120 110 109 21 131 106 105 22 63 102 23 24 73 98 25 80 81 27 27 86 87 30 89 90 148 35 91 148 148 103 93 149 149 110 150 150 115 117 150 150 122 73 150
220 220 183 208 221 163 197 221 221 162 208 221 161 161 206 221 160 220 220 122 159 220 232 123 67 220 236 157 67 146 238 67 220 144 240 67 143 242 123 67 139 111 214 130 133 99 211 148 92 91 130 144 88 87 129 72 85 128 127 73 83 125 75 136 122 121 77 45 195 79 80 33 165 82 27 25 43 86 21 20 40 18 17 40 40 16 42 42 52 49 47 48 39 108 54 32 30 116 66 25 122 123 22 21 129 130 19 133 134 12 17 139 12 12 140 143 12 12 156 12 12 164 167 12 12 172 13 12 174 175 14 82 173 16 17 168 166 22 154 154 30 33 153 153 42 151 151 12 59 149 148 13 73 146 13 12 143 143 13 47 43 13 13 34 106 13 27 25 110 14 20 112 112 99 16 112 103 101 79 112 87 12 70 78 69 31 113 83 52 35 87 42 68 39 93 30 41 112 98 97 44 51 114 120 118 76 133 137 124 55 114 131 133 56 112 142 56 110 100 158 52 99 23 49 47 103 24 42 115 121 178 36 146 154 185 214 178 189 190 218 202 193 220 221 195 196 222 31 199 222 223 35 203 223 39 41
181 184 221 118 195 221 221 162 207 221 161 161 221 221 160 160 221 160 159 220 220 159 159 220 235 158 220 220 238 66 220 239 240 66 220 241 218 219 242 243 215 217 243 213 212 149 244 208 207 145 90 202 142 141 86 127 136 154 183 125 129 141 122 122 76 129 205 112 122 35 177 81 115 154 45 85 21 129 115 89 17 40 104 15 15 42 95 14 46 47 42 55 53 87 31 116 65 25 51 124 22 22 130 134 19 19 136 12 18 140 142 12 16 145 12 12 164 150 12 174 177 12 12 185 123 12 189 190 12 12 191 190 14 189 187 17 18 161 178 24 160 159 32 35 157 12 46 155 154 12 62 152 13 13 149 148 13 13 145 13 13 47 43 13 36 33 107 14 26 24 110 21 19 111 112 16 15 112 101 13 112 112 85 11 112 71 66 34 113 54 37 38 42 39 40 42 30 43 44 38 23 46 46 60 127 47 78 85 117 124 102 117 116 134 119 115 20 128 53 111 21 135 108 99 23 44 104 24 25 37 122 26 86 87 154 185 89 147 186 190 91 148 192 193 221 149 195 94 222 30 199 223 150 121 223 223
210 69 151 151 212 150 150 212 212 118 150 211 118 118 209 208 119 66 204 120 120 65 196 122 65 65 123 123 64 65 124 65 65 143 142 65 140 139 125 66 135 134 109 131 128 100 97 121 118 92 128 106 88 87 127 89 85 125 125 73 83 122 75 75 118 117 78 78 112 79 81 27 102 84 85 21 81 88 17 17 40 109 15 42 43 109 13 46 44 13 95 55 33 12 64 83 25 89 81 22 21 86 88 19 138 140 94 50 144 12 100 51 149 12 52 53 146 12 54 159 12 79 56 146 12 201 146 145 80 204 12 145 81 139 14 83 83 147 19 84 152 154 71 85 157 38 73 158 158 75 157 141 76 76 140 13 77 77 138 91 77 136 134 92 78 128 93 94 119 115 96 98 104 97 98 85 82 100 77 74 76 102 68 66 78 12 61 80 81 56 55 85 72 52 89 90 87 115 95 103 109 113 100 125 116 117 18 139 121 123 18 48 129 51 150 137 123 51 58 152 50 48 100 137 44 100 102 142 38 110 178 144 102 137 184 29 101 30 188 103 192 34 92 107 39 193 93 222 46 94 222 150 56 95 223 34
150 193 221 162 150 214 221 162 213 213 117 161 220 221 160 65 221 118 159 221 221 120 64 221 236 121 63 145 239 64 64 143 241 64 141 140 136 217 137 243 117 127 130 106 211 127 120 96 128 144 91 90 126 69 87 125 125 71 145 122 73 74 50 118 76 77 36 78 79 28 26 82 22 21 43 87 17 17 41 15 15 42 43 57 13 46 47 43 51 53 35 32 63 28 26 125 79 22 131 133 20 19 139 141 17 144 145 11 11 151 152 11 174 156 11 11 191 12 12 201 204 12 12 210 11 12 213 214 10 10 215 11 11 174 213 13 14 173 147 19 172 171 26 73 168 13 38 165 164 13 77 160 13 13 125 156 14 99 91 134 14 69 95 14 92 46 102 15 34 106 106 96 24 108 109 98 82 110 112 109 72 110 97 32 63 77 79 36 80 80 70 40 84 48 81 109 90 95 46 112 39 117 114 53 47 134 117 48 120 122 123 49 120 130 50 50 102 141 49 48 101 47 46 99 99 167 40 101 173 82 111 116 181 207 138 184 186 214 172 188 218 218 190 191 221 221 193 222 222 25 26 223 28 28 221 223
214 215 150 215 215 115 149 215 215 115 220 213 116 116 211 221 117 63 206 119 119 62 221 120 62 63 145 121 63 144 143 156 63 140 148 63 217 136 128 64 131 244 111 204 122 102 99 187 244 93 126 126 242 89 125 70 237 178 122 72 166 163 118 75 151 112 105 122 136 95 81 116 20 82 112 17 124 71 110 111 42 109 109 102 46 110 97 96 80 112 93 92 78 90 89 78 22 48 86 80 48 142 83 84 49 132 88 50 50 138 94 51 142 144 53 54 146 146 55 147 147 77 77 147 78 78 117 147 79 79 126 12 80 133 135 82 82 143 70 83 149 151 73 74 155 75 75 140 158 77 138 138 58 79 136 135 73 157 132 90 80 152 125 92 148 117 16 93 110 17 95 30 96 20 97 85 78 25 16 74 77 31 13 110 77 13 59 112 79 14 113 81 57 81 115 45 94 45 117 31 115 112 24 22 47 115 19 18 48 86 17 49 50 107 120 53 119 122 119 62 129 116 116 134 136 113 99 139 110 109 24 143 107 106 25 105 105 27 28 90 30 31 91 92 34 36 93 149 41 93 94 150 49 94 150 151
218 219 203 64 219 212 214 220 220 221 221 221 226 227 221 221 231 221 221 159 234 221 158 157 193 220 157 157 179 122 156 220 218 123 154 217 125 153 63 212 244 63 203 245 244 65 186 244 201 67 95 243 192 156 76 88 178 61 233 84 163 44 78 151 111 106 64 105 95 81 49 94 82 113 83 79 90 110 68 64 98 12 52 104 106 11 52 114 11 11 65 124 10 79 84 10 10 102 76 10 123 130 17 10 151 158 16 171 177 15 15 166 14 14 172 174 12 12 179 11 11 183 184 12 10 186 12 12 188 188 12 229 188 12 12 227 226 12 224 223 17 13 218 215 25 210 207 35 38 195 190 49 168 171 62 66 162 14 76 158 156 15 89 152 16 16 148 146 17 18 141 19 20 29 133 24 22 20 74 29 17 16 109 101 14 110 110 104 14 112 72 16 51 114 54 21 115 42 38 46 118 29 47 45 98 21 48 48 101 145 49 94 17 149 53 112 152 58 141 125 158 153 131 43 165 173 137 113 100 192 33 109 24 205 27 130 26 25 24 164 29 22 186 192 189 22 205 192 193 213 215 196 94 223 199 199
202 162 219 210 217 220 220 219 216 221 224 226 221 221 230 231 221 159 233 221 221 158 237 221 158 157 220 220 156 220 219 155 155 218 217 154 215 212 244 151 206 202 245 195 190 245 245 176 244 244 195 159 242 241 183 65 237 171 167 47 226 156 112 109 70 140 99 95 129 96 85 114 114 75 89 111 71 65 110 109 55 102 110 99 41 112 110 94 74 112 10 90 72 10 87 98 73 10 83 75 17 9 148 78 49 10 176 15 51 193 198 13 53 141 12 12 183 145 11 188 189 11 9 192 148 12 193 194 12 78 194 194 12 233 130 12 12 230 13 13 227 225 19 13 220 26 29 213 210 39 42 198 50 54 170 174 66 69 163 15 79 158 156 16 154 152 17 18 147 146 19 44 140 23 24 29 132 28 22 21 32 33 17 108 108 15 15 110 110 15 111 112 69 19 114 115 50 116 117 38 35 119 120 27 48 48 21 20 48 79 17 50 51 100 16 55 113 117 155 63 125 128 70 161 133 117 78 137 35 113 23 141 111 110 24 26 108 26 27 23 108 29 91 110 192 33 92 114 37 192 93 215 43 93 223 151
61 219 112 112 61 147 220 60 60 147 216 59 147 146 214 59 146 210 209 145 145 204 221 144 196 193 120 142 181 177 122 59 162 123 123 60 124 124 61 61 125 124 62 113 124 63 63 98 124 65 84 79 91 68 64 88 88 51 46 83 81 36 76 72 105 25 59 55 95 49 47 85 81 43 43 70 94 96 58 55 103 10 44 111 113 9 33 122 9 9 48 133 9 9 140 9 9 121 149 9 144 152 16 9 173 180 15 75 198 14 13 74 216 12 187 225 90 11 193 232 10 60 197 99 8 199 148 12 66 200 12 12 69 145 12 235 73 143 13 231 141 141 83 227 138 85 85 157 32 86 211 159 82 87 157 58 84 89 151 85 163 143 139 85 156 129 85 85 86 112 84 78 76 95 82 72 28 97 69 68 99 21 68 68 100 61 70 103 103 55 105 105 51 50 106 107 47 83 84 45 44 89 91 43 94 95 141 43 99 100 147 124 102 150 150 103 17 154 137 141 158 159 154 41 165 170 175 36 173 189 32 31 85 203 27 117 88 144 23 147 216 146 110 179 187 19 113 202 191 116 211 39 194 121 217 197
209 162 220 216 218 59 220 224 222 222 146 229 222 222 232 213 221 159 235 221 221 158 202 221 157 157 190 120 156 219 218 121 155 215 244 123 59 207 245 151 61 116 245 62 180 101 245 64 87 244 94 66 68 90 177 128 50 86 160 116 81 78 107 102 66 133 97 81 51 88 78 86 77 73 92 109 61 57 101 10 101 109 112 9 95 121 9 8 71 132 8 8 94 8 8 115 123 8 139 146 16 15 169 177 15 173 196 14 13 183 216 13 190 192 11 11 197 10 10 200 201 11 8 203 11 11 239 204 12 12 239 12 12 238 237 12 12 235 11 13 233 232 16 230 228 23 25 224 222 34 185 184 44 48 178 176 59 172 170 17 73 164 17 18 86 157 19 20 153 76 22 68 61 25 27 44 100 31 32 30 103 37 24 105 105 100 19 107 99 103 54 110 81 21 49 79 62 48 116 83 44 48 88 33 48 48 95 143 48 73 100 148 52 94 151 152 130 111 155 64 143 42 122 158 129 38 119 178 34 117 99 195 29 105 23 25 24 124 25 22 148 156 186 19 179 186 188 220 202 190 191 222 193 194 223 223
58 58 146 58 58 146 146 57 57 145 217 57 145 145 215 145 145 211 210 144 144 205 118 118 198 195 119 120 183 121 121 58 165 122 58 58 215 123 59 60 123 150 61 104 100 62 63 86 98 64 72 67 92 67 53 89 88 139 38 83 108 128 213 69 99 20 182 120 86 84 46 75 72 92 91 60 99 101 79 54 110 9 71 50 121 8 48 48 110 8 47 142 113 84 117 115 8 79 149 119 77 172 70 123 74 72 13 72 72 76 12 72 79 80 56 200 82 83 60 143 86 62 63 146 65 66 147 147 68 69 147 76 72 145 144 78 75 142 80 80 140 138 83 83 151 84 85 157 159 86 161 161 85 87 161 160 87 199 156 88 88 175 145 88 85 81 87 87 73 93 86 68 67 94 84 65 95 96 136 66 97 98 125 41 99 63 61 44 102 55 76 104 21 50 77 25 47 114 80 32 44 84 40 44 121 91 143 61 123 21 147 120 125 17 55 127 16 16 62 138 17 69 71 125 18 77 172 132 81 83 136 30 85 86 139 113 112 141 142 112 26 144 112 112 28 146 114 30 32 117 117 35 192 121 40 41
146 110 57 146 145 56 56 145 228 55 145 145 217 55 145 144 213 144 143 209 208 117 203 201 118 119 192 189 120 56 176 121 122 57 156 122 58 58 123 123 59 107 123 60 61 90 85 62 76 71 96 65 57 53 90 44 41 86 85 31 28 75 100 22 61 57 89 169 48 78 74 89 44 63 96 99 52 48 107 110 38 116 119 8 28 129 8 8 47 141 8 8 109 113 7 133 141 116 8 165 15 8 74 195 13 8 213 12 12 71 229 11 201 70 76 10 206 207 79 62 209 10 8 65 210 10 68 211 146 11 72 145 12 77 75 143 12 238 139 138 80 234 15 133 83 154 22 85 85 161 33 86 163 163 87 88 161 88 89 156 154 89 168 81 89 89 72 23 88 88 65 93 87 63 63 95 64 64 95 97 67 68 98 69 73 99 100 60 104 102 55 54 75 105 49 49 76 29 45 79 80 44 83 85 140 43 90 92 146 124 96 149 150 123 100 152 129 131 16 157 141 40 161 74 160 37 169 176 131 33 83 194 28 27 103 139 24 113 118 142 20 140 184 144 113 173 187 115 116 31 189 119 208 36 92 123
162 55 222 162 55 221 222 161 54 145 160 160 221 144 215 159 222 237 211 221 221 239 204 220 240 241 220 218 242 219 218 243 244 216 121 153 214 213 151 58 209 207 147 173 201 144 142 160 139 137 153 150 130 127 143 236 118 134 131 225 78 123 208 201 123 114 174 165 105 146 137 92 88 117 82 79 55 103 71 70 50 56 66 48 47 106 63 46 108 109 19 46 111 80 47 163 115 76 48 117 7 73 185 121 71 71 68 8 69 70 70 8 69 72 58 9 242 74 62 243 244 7 66 243 81 7 213 243 6 72 213 145 7 212 143 77 9 210 13 79 209 208 14 82 205 15 15 230 200 16 86 226 17 17 221 164 51 19 210 61 90 197 192 73 167 172 80 82 159 137 87 154 152 90 92 147 145 37 141 139 41 42 132 44 45 34 121 47 47 28 48 49 27 27 49 49 29 112 49 34 35 116 117 44 120 120 35 58 123 26 24 125 125 19 17 126 17 16 64 126 16 16 72 17 17 77 78 127 81 82 131 132 85 86 136 116 87 139 140 114 89 142 113 114 218 144 115 116 29 16 118 32 33 121 210 37
222 223 161 161 221 110 160 221 219 111 53 222 113 113 53 222 114 53 53 141 116 53 220 139 54 54 136 242 186 55 130 173 217 125 122 153 121 113 137 132 121 97 119 121 120 108 106 119 118 63 116 115 65 66 111 68 69 30 103 72 74 21 76 77 16 15 82 84 12 46 91 11 10 45 46 9 48 50 37 8 56 30 28 66 71 23 21 87 19 19 153 117 16 16 165 15 15 175 179 7 185 188 7 7 196 199 7 229 205 8 8 239 210 8 243 243 135 9 244 244 7 69 244 7 7 243 80 6 215 242 7 7 214 102 8 213 213 120 10 212 14 138 83 209 15 233 86 116 16 229 200 17 86 225 96 19 219 217 83 89 208 65 69 90 190 75 91 92 135 83 157 122 117 89 151 104 91 87 65 87 84 137 73 74 81 82 48 78 77 96 102 31 107 111 104 31 122 106 107 46 134 109 110 44 112 113 43 43 116 117 42 93 121 41 42 99 154 41 101 102 159 40 102 164 166 102 101 171 172 100 175 176 195 99 179 204 206 23 181 212 213 19 90 217 17 17 219 219 15 186 220 14 14 205 221 14
162 162 223 161 161 221 221 160 221 222 233 160 222 222 235 52 221 237 238 221 221 239 221 220 241 241 219 156 243 218 218 155 244 215 153 153 149 211 151 149 129 120 146 167 198 142 61 157 116 134 149 147 241 66 139 235 233 70 126 222 133 75 17 195 113 108 13 48 94 10 130 46 52 9 47 71 39 50 53 31 48 128 66 24 46 104 20 19 151 107 17 160 164 7 15 175 178 7 184 188 7 7 212 200 7 227 62 7 7 238 63 8 242 243 8 8 244 7 7 245 245 6 7 216 6 7 216 216 7 6 216 11 7 215 215 13 215 214 13 14 212 212 15 234 210 16 16 231 231 18 229 228 35 20 225 224 47 220 218 56 59 210 65 68 173 193 75 77 164 31 82 157 156 36 86 151 40 42 145 143 45 69 138 47 48 49 127 49 41 39 104 50 35 35 105 105 35 108 110 37 39 114 62 45 118 119 44 43 122 33 29 42 125 23 57 41 98 17 65 67 101 161 73 112 16 168 168 121 172 82 187 127 177 198 131 25 179 208 135 115 114 214 18 115 25 218 15 165 27 14 14 192 188 14 204 208
222 222 109 143 221 110 111 221 220 111 112 219 113 113 51 216 114 115 51 139 116 51 51 136 118 51 133 131 53 53 125 176 53 117 114 155 55 103 140 135 120 86 122 118 118 245 108 115 114 243 174 110 65 94 105 103 69 142 96 73 74 123 84 79 14 13 70 87 10 10 60 99 8 47 107 99 100 53 99 7 93 65 101 89 79 58 104 84 106 16 46 78 57 15 178 57 58 48 191 58 58 51 117 59 53 54 121 59 56 124 125 65 60 128 8 245 131 132 65 245 136 66 66 64 139 67 67 71 69 69 80 84 71 72 97 81 81 112 117 83 123 133 85 86 112 151 87 103 100 89 89 90 87 90 81 77 88 92 67 64 89 166 56 90 90 156 30 92 145 140 35 92 127 91 93 131 109 89 94 95 89 86 80 80 83 133 93 94 79 104 108 99 112 119 103 104 96 131 106 82 77 49 110 63 144 49 53 43 51 117 42 124 55 76 42 95 62 90 126 100 100 103 126 102 111 125 125 16 119 123 18 18 85 120 20 178 87 21 22 89 212 23 23 90 139 25 90 91 143 27 91 145 146 121 91 148
109 161 222 109 110 50 221 111 160 222 112 112 50 222 113 114 50 139 239 50 50 137 206 50 133 132 196 51 127 185 181 120 117 167 213 106 152 146 120 90 131 118 118 58 115 115 115 61 112 111 63 64 106 104 67 28 97 71 72 19 86 76 15 14 54 84 11 48 47 9 9 47 47 8 50 51 33 7 57 60 25 68 73 21 19 90 18 17 161 164 15 15 176 6 14 188 191 6 12 200 7 7 206 208 6 7 212 7 7 243 215 7 245 245 7 8 246 246 6 63 244 6 6 65 243 6 218 241 69 7 218 79 8 81 217 97 10 216 122 15 85 215 16 17 87 102 19 232 89 89 21 230 79 76 86 226 66 88 88 172 56 89 215 64 94 90 157 72 168 92 141 93 160 127 123 91 66 109 90 89 78 91 86 88 91 97 82 102 53 99 112 116 101 46 125 128 104 51 135 107 107 47 109 111 45 45 113 115 43 80 83 43 42 88 91 42 94 96 157 41 99 161 163 126 101 168 169 101 16 173 186 190 176 177 200 25 178 207 208 20 180 213 17 17 90 217 15 150 90 142 13 180 220 145 122 201
228 223 109 230 222 222 110 49 221 111 160 48 222 113 49 49 222 159 49 137 221 157 49 133 157 50 211 126 156 202 119 245 173 189 106 158 210 178 246 138 117 168 246 195 115 245 245 181 131 244 168 163 118 238 149 107 102 120 127 90 75 108 78 74 102 11 65 62 97 127 55 95 95 105 95 95 97 95 59 97 91 56 56 87 86 55 55 81 55 55 46 75 55 47 48 182 55 49 50 55 11 52 115 117 55 56 119 63 59 122 123 62 63 125 62 62 218 129 62 54 132 9 63 56 134 64 242 62 78 66 70 74 81 238 87 83 84 236 12 86 111 234 17 88 97 20 22 213 84 28 91 208 24 84 204 61 28 86 196 31 89 219 187 34 214 165 37 38 200 150 41 185 178 78 93 158 150 82 150 127 83 84 143 85 86 137 103 89 90 129 53 94 120 117 52 99 106 50 51 48 89 50 50 51 49 50 54 57 52 61 64 122 56 72 75 125 81 84 127 126 92 95 126 17 16 126 125 16 81 124 17 17 85 121 19 86 87 20 20 88 89 22 89 89 133 134 90 90 138 118 90 140 141 121 221 143
222 221 231 231 222 140 233 222 222 140 220 222 159 139 217 222 159 215 213 116 158 218 220 117 49 210 118 156 50 199 119 50 189 105 118 52 93 246 54 54 76 247 56 63 59 114 182 47 43 104 104 33 98 150 95 91 88 86 91 74 69 73 80 55 62 58 90 48 48 99 103 8 36 114 119 7 127 131 7 6 142 7 7 87 157 6 6 116 6 6 143 152 13 6 180 12 12 206 213 11 209 229 9 9 214 240 8 216 216 7 7 218 218 6 218 219 8 8 219 219 9 244 219 10 10 241 11 11 240 240 12 13 238 10 14 237 236 13 16 235 15 17 217 233 21 215 214 155 27 212 211 33 92 208 29 42 203 201 33 94 194 36 37 95 184 40 211 209 48 44 196 74 59 92 174 78 52 93 114 80 94 125 96 83 96 84 86 83 133 72 78 126 53 62 73 114 51 70 69 140 50 68 85 145 111 69 148 51 116 74 151 120 68 44 153 126 43 125 132 136 41 126 148 39 39 100 167 36 34 101 32 31 100 99 27 99 99 178 178 100 102 179 213 111 180 181 216 135 183 218 219 184 185 220 220 187
230 231 223 221 233 222 222 235 235 222 222 236 222 222 159 238 221 221 158 212 221 158 158 213 117 156 205 202 155 155 193 245 153 184 181 246 150 175 246 246 54 166 246 191 57 50 245 175 170 37 103 155 112 237 94 133 95 83 116 75 79 62 64 68 86 50 50 57 93 8 38 110 92 102 29 127 7 93 139 143 7 87 154 6 6 105 170 6 130 52 6 6 169 52 48 196 204 11 51 223 229 9 214 239 8 8 216 7 7 218 218 6 6 219 7 6 219 219 8 59 219 9 10 242 219 10 11 240 11 12 239 238 14 237 237 13 16 235 235 16 217 234 19 21 217 232 25 215 214 30 32 212 30 38 209 207 35 48 201 38 39 195 192 42 43 217 45 46 209 206 49 50 194 74 53 177 170 76 93 151 78 79 130 123 81 141 104 83 84 133 131 88 126 124 52 94 115 51 51 68 99 50 50 66 146 50 58 66 150 53 64 120 57 123 71 124 64 78 42 126 139 87 126 98 158 38 126 16 176 34 101 16 30 28 99 18 87 99 19 178 88 102 179 89 215 116 181 89 130 183 183 219 134 185 186 220
46 46 139 139 45 138 138 221 45 137 137 220 113 136 218 217 115 134 214 116 116 210 208 117 47 202 117 117 48 189 118 49 50 117 117 51 52 79 52 53 66 62 55 56 51 117 58 40 37 106 138 29 99 97 22 20 87 77 16 71 66 63 60 54 53 49 94 49 40 106 110 61 30 122 127 56 46 139 7 19 45 155 6 95 167 97 6 127 185 6 72 166 103 6 194 10 106 64 223 9 110 61 49 7 60 244 48 6 218 47 6 66 219 46 69 219 123 45 74 220 9 77 77 124 10 80 81 123 60 83 118 116 62 237 107 64 65 92 93 68 110 116 71 72 135 26 75 152 157 92 79 170 173 94 44 179 95 95 38 95 95 38 39 97 97 43 89 97 51 55 91 96 66 92 92 160 82 93 93 120 60 94 106 101 94 122 89 84 96 79 76 79 84 68 74 72 71 60 69 143 55 102 65 146 111 65 78 149 116 68 151 57 121 45 154 126 128 31 68 137 42 22 75 153 40 98 80 94 35 100 99 101 123 100 105 26 120 18 111 119 100 20 117 117 22 180 117 117 24 89 218 25 25 90 219 27
137 233 223 137 234 222 222 137 236 222 112 136 219 222 159 159 217 115 158 217 212 116 46 208 117 117 46 195 117 48 48 98 116 49 178 82 51 51 70 246 139 58 54 126 182 44 41 113 98 32 105 103 88 23 94 79 75 81 75 65 62 81 55 51 90 92 42 101 105 7 32 118 122 7 131 135 6 7 147 152 6 86 164 6 6 115 14 6 143 153 12 6 182 11 10 209 216 9 9 231 8 8 216 242 7 6 219 6 6 219 219 6 219 219 7 7 220 220 8 243 219 9 9 242 219 11 240 239 115 13 238 13 14 61 236 17 18 235 20 21 218 233 25 26 218 139 30 217 216 161 36 214 38 42 94 210 44 227 206 35 49 224 197 52 88 219 47 56 215 212 62 91 203 71 79 92 141 72 93 93 121 73 148 107 102 89 142 90 78 83 130 76 78 128 137 66 71 142 51 67 66 145 108 66 148 148 113 64 150 118 119 47 153 123 69 46 129 130 44 125 141 42 42 93 159 39 38 98 171 35 100 100 175 30 100 176 176 99 98 177 177 99 178 179 214 108 180 215 217 24 182 218 219 11 90 219
160 43 137 223 223 136 136 222 221 135 220 220 113 134 218 217 115 240 215 116 116 241 209 117 45 203 218 116 47 101 116 153 48 85 115 50 174 69 146 52 58 54 138 158 44 120 127 145 243 109 133 129 237 98 77 229 225 102 64 206 64 82 63 166 71 41 54 125 61 49 117 57 56 46 90 6 45 45 92 6 45 94 95 80 45 97 6 74 99 99 69 179 102 66 65 48 105 62 61 47 56 59 46 46 60 57 44 64 65 44 44 69 70 42 72 73 119 41 76 119 118 8 80 117 116 56 219 111 57 57 104 100 59 68 90 61 61 87 23 64 104 111 28 68 130 92 93 231 154 94 94 229 42 95 35 181 49 96 34 54 97 202 38 60 194 47 89 65 183 63 90 169 171 64 92 152 94 65 181 132 64 93 159 72 61 142 99 74 58 120 77 80 106 101 83 73 142 88 90 116 145 96 98 102 51 105 89 84 54 75 70 58 59 55 51 64 70 71 69 71 74 44 75 79 80 125 80 84 125 124 88 89 123 122 93 121 121 17 99 119 118 19 89 117 21 21 89 118 22 89 89 24 24 90 117 26
135 135 42 43 135 223 222 135 135 221 113 133 220 219 114 130 217 115 115 213 212 116 116 208 116 116 45 198 115 115 47 89 114 48 49 73 148 51 61 58 52 53 48 129 55 38 35 115 60 28 107 104 79 20 94 69 65 218 73 55 52 59 73 42 95 51 35 32 112 58 26 126 130 53 21 144 7 7 44 161 6 93 45 95 6 125 193 98 71 165 100 5 66 203 103 62 224 46 106 59 45 7 60 57 44 6 219 43 43 68 219 41 41 73 116 41 76 219 116 41 80 114 11 54 83 109 54 238 102 99 56 236 89 57 58 75 74 60 61 96 63 64 115 121 67 134 140 94 94 157 162 95 34 175 95 95 32 186 97 34 36 97 97 43 46 98 55 59 89 98 74 90 91 166 93 92 92 148 67 93 133 128 64 94 113 90 94 140 96 85 125 85 76 78 141 73 72 124 145 89 66 147 148 97 103 149 113 106 85 152 119 71 153 62 125 52 66 132 70 46 73 147 44 125 78 76 40 95 82 80 123 99 84 85 122 17 89 120 119 17 95 118 19 19 88 117 21 179 89 22 23 89 217 24 25 90
161 160 221 134 160 222 222 237 160 221 221 238 221 220 239 240 217 240 240 220 220 242 242 219 157 243 217 216 155 245 213 153 152 209 206 149 147 199 144 142 165 185 135 156 153 245 122 141 136 242 62 122 236 234 69 107 222 90 98 12 192 73 10 158 64 62 50 119 57 47 47 56 52 45 45 66 17 44 92 49 15 45 94 14 45 194 97 12 203 99 5 65 212 102 62 222 216 5 59 45 218 5 244 43 5 5 246 6 6 246 246 6 7 245 7 7 219 243 9 80 219 11 12 219 104 15 17 219 16 21 219 219 21 219 219 25 26 233 219 31 232 232 37 39 231 131 45 230 230 45 53 229 48 50 228 228 54 55 227 57 58 205 203 62 62 196 70 65 188 185 71 66 175 71 71 167 164 70 190 157 67 66 171 149 63 157 152 68 58 138 134 71 125 120 76 78 107 81 83 122 92 89 92 111 59 99 99 95 56 108 81 59 60 61 62 65 67 48 70 71 69 34 75 71 71 167 80 74 74 171 184 77 122 122 195 81 121 16 85 23 118 18 20 118 100 20 15 117 22 180 12 124 23 89 10 152
41 223 110 111 41 111 112 40 41 131 113 41 129 128 41 41 124 241 42 119 117 212 43 108 206 204 99 95 196 193 84 186 182 110 110 169 165 106 50 150 101 100 53 133 93 56 57 85 82 61 23 72 66 68 17 59 74 13 12 65 86 10 10 54 9 8 53 53 7 55 56 21 7 62 65 17 89 77 15 15 176 101 13 191 194 12 12 204 207 10 211 212 5 8 216 5 5 56 218 5 5 61 107 5 246 246 109 6 247 6 6 52 245 7 51 244 39 10 51 241 13 83 51 43 18 218 52 49 88 218 21 61 90 218 27 91 91 54 35 92 46 44 61 94 38 50 231 34 32 70 229 51 30 75 177 55 78 80 189 98 83 192 193 98 86 193 99 99 189 187 99 180 179 99 99 110 73 98 98 122 92 96 128 130 93 133 134 94 94 138 140 95 90 143 97 98 78 146 100 70 69 64 105 63 59 58 81 58 57 56 56 108 57 155 52 60 62 158 120 68 162 163 153 78 167 165 169 23 171 181 37 19 84 192 31 175 86 77 25 87 206 21 20 88 87 17 101 104 91 117 114 180 93 119 138 183
110 160 221 236 160 40 221 238 160 221 128 239 222 219 239 240 221 120 241 220 220 111 210 218 156 98 202 215 154 194 191 110 151 176 204 107 48 171 102 139 163 42 93 54 149 245 83 59 25 241 63 65 19 232 71 15 14 75 75 11 61 58 34 9 54 57 26 54 55 21 45 59 61 17 153 70 16 15 172 90 14 187 191 6 12 202 6 6 210 211 5 5 215 5 5 229 217 5 5 241 5 5 245 245 6 246 246 6 6 246 246 7 219 244 9 10 218 242 12 218 218 16 18 218 218 23 218 218 20 22 218 25 27 234 218 33 36 233 40 43 232 232 51 53 231 52 61 230 230 54 69 229 57 57 216 228 59 213 213 191 62 208 207 64 98 200 81 65 192 189 80 99 179 79 78 99 120 74 198 194 128 69 181 63 135 93 163 63 59 94 102 65 95 136 69 76 97 79 76 127 125 70 62 118 53 63 57 105 57 54 54 154 62 55 73 157 131 60 160 72 145 163 164 157 64 45 168 173 41 122 183 187 35 121 194 30 29 98 202 24 98 98 20 19 99 99 16 102 104 179 179 115 119 181 217 138
39 39 111 39 39 129 112 39 39 127 39 39 125 124 40 40 119 216 41 112 109 212 42 100 207 205 112 86 198 110 110 246 185 107 105 172 196 101 49 154 95 92 53 163 85 56 58 26 104 62 20 19 86 69 15 87 77 95 11 64 90 10 158 55 87 8 54 53 87 102 59 18 18 93 49 16 168 85 47 14 187 46 46 46 203 46 11 49 100 45 51 215 102 54 55 103 5 56 59 105 54 244 106 106 52 246 107 51 51 38 108 50 38 38 50 49 39 39 83 40 41 85 218 45 46 88 76 53 90 90 62 64 91 52 49 92 93 42 54 94 37 36 58 59 32 61 62 137 29 66 67 160 82 71 174 179 75 227 189 98 80 195 196 99 224 197 99 100 96 193 100 110 113 65 100 123 125 63 163 131 91 97 154 66 92 149 140 60 93 144 57 94 145 95 53 96 86 70 52 118 75 64 107 103 86 57 92 89 96 101 81 103 106 84 156 111 70 159 71 117 52 163 153 40 37 79 170 29 82 82 59 22 84 85 62 86 86 64 66 118 87 70 117 117 74 75 116 19 77 117 117 21 77 118 22 23
110 111 38 221 112 38 39 127 113 39 124 124 38 39 120 118 39 114 111 215 40 103 99 209 112 88 203 201 110 74 193 107 105 182 178 101 48 165 95 93 51 147 86 54 55 77 74 59 61 21 64 66 17 16 73 13 12 74 85 10 10 58 88 8 55 55 8 7 57 19 7 62 64 16 15 75 14 14 182 96 13 196 200 45 11 208 211 44 50 215 5 8 217 218 6 233 219 5 5 243 106 5 246 246 107 6 246 6 107 50 245 9 8 49 38 13 48 241 40 21 217 43 28 88 217 50 89 217 61 60 91 217 39 92 93 42 50 93 94 36 54 94 33 31 58 125 30 62 63 146 31 67 163 168 71 72 182 67 76 191 193 99 81 197 198 99 96 198 100 100 114 100 100 124 126 100 100 132 91 99 136 137 91 97 140 92 92 142 143 93 113 108 94 94 97 93 96 87 84 69 100 77 75 60 106 69 55 54 91 64 51 155 61 105 51 157 132 53 66 161 146 60 164 77 162 38 168 173 176 27 83 186 37 21 85 57 30 97 87 61 24 98 65 66 116 98 69 16 116 20 70 117 111 180 70 119
160 237 223 111 37 223 223 160 38 222 222 159 217 222 159 159 206 241 158 196 192 243 157 185 244 206 181 180 246 196 178 246 246 202 175 247 247 187 138 247 171 165 124 151 144 112 108 121 114 93 113 94 79 75 99 74 64 93 91 56 53 88 150 138 87 87 113 107 88 99 97 49 89 91 89 47 7 83 46 46 7 75 45 47 70 154 44 50 101 43 8 54 103 41 57 219 105 6 62 106 106 6 219 106 51 7 219 6 49 38 218 7 48 39 10 10 241 41 14 48 44 31 20 237 51 89 29 235 54 91 234 234 64 217 40 69 70 217 35 72 218 218 79 73 218 31 89 218 218 94 63 217 98 99 228 216 100 100 227 71 100 226 225 70 97 224 69 68 222 222 67 66 219 65 64 176 211 61 167 164 72 58 157 154 65 151 149 60 59 145 144 56 154 141 54 53 142 53 53 131 128 53 53 116 78 81 104 100 89 92 89 97 100 94 76 106 108 77 112 113 62 58 116 49 45 79 119 35 32 82 50 26 84 85 51 20 86 53 55 174 87 59 116 87 208 63 115 88 64 14 116 20 64 117 118 22
111 111 37 125 112 37 37 122 159 37 120 118 37 37 113 218 218 106 103 215 214 94 212 210 110 80 205 202 106 246 195 103 100 247 196 95 48 168 178 85 51 34 77 118 55 26 64 59 120 19 85 67 15 228 69 95 11 73 56 89 170 59 87 87 125 57 18 105 59 49 16 94 67 14 44 86 46 13 192 45 45 46 206 44 43 49 101 6 51 52 103 6 55 105 105 55 60 106 53 52 107 106 51 246 106 50 49 37 104 48 48 38 81 48 39 40 84 47 43 87 87 47 49 89 61 55 90 91 48 66 92 41 40 76 94 36 35 50 217 33 52 52 33 93 55 125 34 58 59 143 104 63 158 164 107 69 179 98 98 226 193 99 99 199 72 100 115 201 100 197 128 66 100 133 135 63 175 138 90 58 162 141 90 158 154 63 91 139 59 58 165 119 55 92 152 57 53 143 92 63 53 130 69 60 118 114 80 52 154 88 91 107 156 99 95 91 69 107 77 72 74 63 58 77 78 46 42 81 49 45 83 83 46 118 85 48 48 117 86 52 116 116 55 56 115 115 58 115 115 19 58 116 116 20 89 118
160 237 223 160 160 222 223 160 159 219 113 160 213 210 159 38 200 242 158 190 187 243 40 182 245 245 41 180 246 208 205 57 247 197 193 247 174 179 134 247 160 75 119 143 129 106 101 128 52 86 109 111 41 70 96 217 31 88 90 179 102 108 8 131 124 87 7 59 146 7 95 66 167 7 76 46 7 7 97 45 46 121 131 10 49 163 9 8 217 204 7 7 219 6 6 219 107 6 5 219 6 51 219 219 6 245 219 7 8 244 218 9 242 242 12 14 240 239 19 238 238 47 29 236 236 64 215 235 75 78 215 82 85 215 215 88 90 216 90 90 217 217 100 90 218 106 107 218 218 111 229 229 112 112 228 227 112 227 227 78 109 226 225 75 79 224 72 72 223 222 69 193 190 65 64 180 83 60 170 166 73 56 158 66 65 97 150 60 59 147 149 56 161 143 54 93 150 56 53 141 138 64 100 128 71 73 108 111 82 117 117 70 93 104 81 65 46 87 62 108 48 164 77 52 55 167 80 61 169 82 181 74 171 84 43 172 172 196 47 173 201 202 23 114 206 53 18 98 209 15 115 101 212 12 109 21
224 223 121 121 223 222 119 222 222 113 114 220 220 112 241 218 112 111 216 219 110 39 39 107 107 40 69 103 41 42 57 96 44 49 46 141 47 39 37 50 154 31 150 145 25 243 133 51 19 122 117 39 230 99 32 30 207 72 24 101 163 53 19 122 50 49 45 145 7 15 44 91 7 44 183 94 7 45 96 7 74 47 100 68 156 102 103 62 198 105 58 57 40 6 54 54 39 64 51 38 38 69 50 37 73 218 37 38 78 100 39 82 83 90 14 85 81 77 45 88 65 61 45 53 50 45 45 43 45 45 76 37 46 46 89 94 47 100 103 95 49 113 96 96 123 126 97 97 137 97 97 61 154 98 75 80 84 99 97 103 81 214 118 77 78 209 130 81 203 136 98 84 201 91 86 217 194 81 88 185 56 71 200 169 99 98 185 49 95 149 171 49 89 151 50 82 140 153 54 138 153 55 62 132 154 105 127 125 60 114 74 114 65 90 69 69 70 72 104 74 61 58 110 78 51 113 115 44 43 116 65 40 116 116 26 172 116 115 21 86 115 18 17 87 17 17 88 88 17 18 88 49 19 89 89 49
111 120 223 223 160 222 222 112 160 221 112 112 36 219 112 111 37 110 110 38 38 80 107 39 71 68 40 41 59 247 42 52 49 188 45 42 177 173 35 33 160 156 28 147 143 52 50 132 127 41 67 112 33 31 80 27 25 94 99 21 20 115 8 17 132 138 8 15 155 8 7 69 177 7 7 84 7 7 102 110 7 128 138 9 7 171 182 7 59 210 7 6 219 232 6 220 220 6 6 219 6 7 218 219 7 10 218 9 9 80 216 12 14 85 82 19 239 239 67 32 237 67 46 45 235 85 45 234 74 98 45 233 104 94 46 96 107 215 47 109 96 216 118 121 97 53 121 97 218 66 123 98 80 122 62 99 101 120 227 115 119 72 225 80 132 77 204 75 80 81 204 101 84 202 200 101 86 195 101 101 185 182 100 159 170 99 98 150 59 95 151 152 89 88 152 153 91 153 154 94 95 154 154 99 89 155 106 108 81 156 115 76 75 44 125 71 43 43 70 66 44 44 62 109 47 166 56 53 55 169 115 63 170 170 189 27 172 194 196 21 172 200 25 173 87 205 19 175 207 46 15 88 210 12 12 89
223 223 221 117 223 112 219 239 222 112 112 240 221 111 36 218 220 159 37 219 107 157 38 215 155 39 181 208 152 42 51 147 145 175 42 182 135 163 247 166 150 145 246 114 129 243 242 88 110 237 74 70 228 224 62 24 202 56 55 49 113 51 46 45 88 48 44 44 90 44 44 93 94 45 44 96 80 46 99 100 72 48 102 66 64 41 106 60 40 40 6 55 39 38 53 38 38 66 50 37 37 72 245 37 75 77 104 15 80 96 93 26 85 82 45 87 214 66 45 90 54 51 44 212 44 44 44 211 95 44 84 88 110 232 96 95 118 231 109 96 231 231 111 97 230 128 107 217 229 103 98 218 99 97 218 110 125 92 217 121 69 215 214 115 74 210 110 108 223 204 101 82 221 93 90 218 200 60 213 211 55 101 203 200 49 155 191 46 45 149 177 44 146 144 45 46 142 55 49 139 139 56 56 135 58 59 131 129 62 63 113 65 66 98 92 70 71 77 97 74 63 59 105 52 49 109 110 56 39 112 44 41 113 113 32 29 114 25 24 86 113 20 86 87 93 17 87 88 44 88 88 43 43 89 89 42
111 115 223 112 112 222 222 112 34 221 111 111 35 35 110 35 36 85 107 37 38 73 38 38 64 61 40 40 53 201 42 47 45 190 172 39 180 176 65 31 164 56 52 245 147 44 41 135 35 33 71 113 27 81 85 58 21 100 106 9 47 124 8 8 44 147 7 64 164 92 7 72 186 8 83 88 98 7 107 42 102 69 144 8 8 62 40 7 219 57 39 6 219 38 38 64 219 37 69 70 114 37 74 218 108 78 79 101 12 242 83 86 45 240 73 69 45 237 57 44 44 63 46 44 71 74 44 44 82 116 94 91 95 95 212 103 106 96 55 114 96 96 70 97 97 81 85 97 98 97 54 98 110 114 59 60 125 63 64 184 136 69 70 198 116 74 204 206 78 223 207 101 82 205 204 102 217 200 102 102 150 190 101 151 151 47 99 153 87 43 148 154 87 89 144 55 89 142 155 56 93 138 57 98 97 95 60 106 88 47 65 113 81 42 97 91 89 40 75 72 99 88 56 104 42 70 166 109 56 169 83 112 40 84 187 32 29 85 194 24 86 86 41 19 87 87 41 87 88 40 41 111 88 40 113 114
238 238 220 219 239 239 217 240 240 222 207 241 221 221 90 242 219 219 243 216 217 157 245 212 211 154 181 203 150 149 179 82 143 174 171 70 131 159 247 57 51 139 245 100 57 20 241 63 106 15 233 65 12 220 91 56 10 74 52 16 9 64 48 45 62 63 14 44 66 68 13 185 96 12 45 203 7 10 210 103 7 9 216 7 62 218 218 6 57 219 6 6 231 220 6 6 241 7 7 243 244 10 244 244 14 16 243 243 24 215 241 36 41 213 239 59 212 211 78 85 210 81 89 209 209 111 116 209 123 126 232 209 131 132 232 133 134 231 231 135 135 230 123 121 230 230 117 217 229 113 111 218 228 107 218 217 101 100 217 217 94 216 215 120 87 212 114 111 224 206 103 100 221 148 91 219 217 81 79 213 54 71 206 204 47 64 195 44 42 87 182 41 146 146 138 41 143 142 121 74 140 58 48 61 137 60 53 133 157 64 45 158 68 107 102 160 71 84 91 162 145 61 100 165 159 66 106 169 36 57 109 179 50 111 58 187 41 67 27 171 32 81 21 86 88 90 173 87 93 94 175 207 96 177 177 209
220 111 239 223 111 239 222 222 110 240 221 109 34 241 220 107 35 219 217 158 36 215 98 156 182 207 152 40 181 247 146 177 41 247 136 166 247 179 153 147 246 163 131 244 243 84 112 240 71 68 66 229 60 58 54 55 53 49 48 50 49 46 90 47 44 44 92 45 44 94 95 45 44 98 81 79 101 102 73 71 105 66 65 39 110 60 59 39 7 55 38 37 6 234 37 67 50 242 37 72 118 38 12 77 110 40 81 99 94 32 85 79 45 54 212 60 44 90 210 80 43 72 43 115 43 83 130 43 233 95 137 43 103 131 139 232 113 96 231 231 129 97 230 230 124 215 117 120 119 217 129 114 218 218 134 107 217 131 130 217 217 125 66 215 120 118 224 210 110 108 223 75 98 221 220 65 84 217 58 56 212 210 50 163 203 45 43 154 191 40 149 148 57 39 145 144 57 142 142 57 58 140 59 59 150 137 62 63 137 65 65 123 118 69 70 100 81 84 81 74 92 94 58 98 100 79 41 104 65 61 107 108 48 44 109 38 35 85 109 27 25 86 38 21 87 87 38 173 87 38 37 175 88 36 111 88
109 238 32 218 239 222 32 100 240 222 93 90 220 220 81 78 218 103 158 216 216 97 156 213 91 89 39 207 82 147 42 73 70 44 168 61 46 48 29 48 51 53 23 157 58 18 17 140 68 14 122 115 11 11 91 17 9 75 71 15 8 65 14 14 155 65 13 13 178 13 12 193 198 12 11 207 7 10 213 215 7 217 217 7 7 219 219 7 212 219 7 6 232 235 7 239 240 8 7 243 11 12 243 243 19 21 242 28 33 213 241 49 55 211 47 76 210 209 87 91 208 117 125 207 207 140 233 206 145 145 232 207 145 231 232 134 143 231 231 133 45 230 130 129 46 132 126 216 229 140 120 217 147 114 99 218 163 107 217 146 129 100 215 123 68 101 149 114 224 101 150 76 221 150 151 80 218 152 82 82 200 155 83 207 189 101 84 179 40 151 166 161 94 146 148 143 85 158 130 76 73 157 116 63 157 157 102 51 158 108 110 159 159 119 111 160 129 132 83 162 143 147 77 154 157 71 69 167 169 63 42 43 55 53 49 169 45 57 60 170 36 70 171 172 107 83 172 173 89 17 174 204 94 176 88 207
31 31 104 110 32 100 99 222 32 91 89 221 190 80 219 219 181 243 217 98 60 244 214 90 246 210 197 80 247 204 72 142 43 154 59 46 47 123 116 50 25 96 96 121 19 81 76 105 14 65 97 95 221 53 91 9 79 50 90 151 68 13 119 111 45 13 98 95 44 44 88 43 42 46 80 41 47 48 107 40 50 110 112 53 54 115 7 58 119 119 53 63 123 123 50 124 124 48 48 123 122 47 40 41 46 46 45 84 45 50 52 87 44 59 89 90 237 69 91 92 78 119 93 46 90 94 205 55 42 95 66 71 43 207 87 43 43 209 111 44 126 212 144 45 132 137 143 229 139 98 50 144 120 99 228 157 99 99 227 106 100 149 226 98 100 150 91 88 210 150 81 204 202 95 78 193 153 82 216 179 74 82 210 165 66 203 186 63 61 193 170 59 184 182 35 58 174 35 36 143 165 38 39 140 42 45 138 137 51 53 133 68 61 129 127 71 122 119 74 75 74 106 78 56 51 80 80 39 36 82 32 31 104 84 31 32 105 34 35 106 106 36 105 105 22 21 105 106 18 87 106 17 17 88 109 17
104 110 31 31 98 32 32 93 90 221 33 82 220 220 73 70 218 218 62 216 216 91 53 213 84 82 209 208 73 70 203 63 61 44 45 51 48 48 27 39 52 54 21 29 60 17 16 70 72 13 124 84 93 11 92 85 9 173 72 14 9 67 66 13 104 66 13 12 92 43 12 200 83 42 11 211 41 40 49 217 8 8 53 116 7 56 219 120 7 61 123 7 232 67 127 49 240 127 127 47 243 122 46 46 44 28 45 241 51 86 44 57 70 89 65 68 91 207 76 80 93 46 88 94 94 56 168 95 69 74 42 96 91 96 43 108 113 43 43 128 44 44 130 141 45 46 136 144 47 141 142 99 50 149 99 99 160 165 100 150 180 100 100 150 198 101 151 151 88 101 152 152 77 200 153 77 77 188 156 80 204 158 70 81 196 65 81 186 183 62 81 170 95 59 182 153 87 84 173 34 74 159 125 38 140 158 44 51 137 159 52 134 159 70 63 127 161 130 119 116 76 145 84 102 79 47 75 81 81 34 99 83 31 31 102 84 34 103 104 35 35 103 63 35 104 104 21 172 104 18 17 88 106 17 17 88
160 160 217 222 160 160 207 160 160 195 191 160 185 182 242 159 180 180 244 35 181 245 245 202 183 246 188 182 247 247 162 138 247 139 131 123 247 110 110 105 174 86 90 85 158 23 71 102 100 18 58 94 219 51 91 91 182 124 91 144 132 149 93 108 44 174 8 93 42 42 8 78 41 46 78 96 10 49 118 39 8 53 160 7 56 219 200 6 61 125 6 6 219 130 49 9 218 9 48 217 216 12 242 215 17 20 241 212 32 240 239 54 65 238 69 105 236 235 117 93 234 130 132 203 233 139 140 202 142 143 203 203 143 143 204 156 142 207 208 151 43 210 148 148 230 213 147 229 229 145 144 228 228 142 228 227 118 139 227 227 110 226 226 102 100 215 95 92 212 210 84 81 204 96 72 196 193 82 61 182 75 73 172 168 67 66 159 64 63 197 194 62 189 187 32 60 180 177 32 85 171 34 35 165 163 39 139 156 44 46 136 69 54 132 130 72 65 124 74 75 35 112 77 78 34 165 80 40 83 166 83 32 167 83 180 33 101 185 35 43 102 191 35 102 65 196 27 103 20 199 21 86 17 17 16 92
98 96 30 213 91 222 31 84 82 221 188 74 220 220 180 62 219 93 180 245 216 84 36 246 193 73 38 209 169 142 41 147 51 129 45 117 116 49 140 92 97 55 19 82 77 107 15 146 99 97 228 117 93 92 201 49 91 167 153 46 93 120 44 44 101 98 43 44 90 42 42 46 208 40 47 48 112 39 50 51 116 53 54 121 122 58 59 126 53 63 130 131 50 219 133 48 48 39 132 47 41 43 46 45 48 50 45 55 57 87 44 65 89 90 237 77 91 92 46 126 93 53 57 139 94 77 42 95 200 105 42 96 120 170 42 204 134 42 231 207 152 43 133 135 149 230 138 98 148 229 143 99 228 228 124 100 227 119 116 217 226 110 100 152 102 100 214 153 66 89 209 105 71 203 200 90 74 191 81 79 215 176 71 210 208 68 66 203 189 35 196 194 32 95 187 185 30 145 178 31 31 143 32 34 141 140 38 39 139 68 46 136 135 71 72 130 73 74 103 122 77 77 71 78 79 51 46 81 38 36 94 83 33 33 98 34 34 99 99 40 35 100 31 29 100 101 24 87 101 20 19 87 103 17 88 88
109 160 214 222 161 31 201 105 160 189 72 100 32 180 243 243 34 54 244 207 35 47 245 192 43 246 211 168 38 207 147 50 33 199 118 119 47 188 30 99 127 174 22 60 109 18 17 73 98 15 88 93 10 13 112 9 9 132 139 8 127 70 8 8 69 43 9 8 72 12 8 80 83 10 92 98 9 8 121 131 8 219 163 7 6 220 220 6 220 220 8 7 219 219 9 218 217 11 11 216 13 15 242 214 23 27 241 38 45 239 238 83 95 237 104 111 235 235 127 202 233 137 140 200 233 145 199 199 149 148 200 200 186 202 202 169 165 205 206 157 231 209 153 152 230 153 151 229 229 153 149 228 129 147 49 227 122 120 227 170 114 217 226 107 101 215 202 96 212 211 210 102 206 98 212 103 195 85 103 185 163 75 212 170 70 76 206 165 65 200 186 164 76 192 29 163 79 158 29 83 84 143 31 142 132 129 54 140 121 46 44 160 112 39 133 161 36 35 162 76 34 33 163 149 33 164 165 161 41 166 168 171 70 167 177 60 56 183 184 48 98 189 39 37 54 193 31 28 68 33 23 78 81 175 103 88
92 223 107 107 240 222 104 104 221 220 100 32 220 95 159 33 212 87 34 35 201 155 36 43 181 149 39 38 209 139 172 33 202 160 29 247 192 140 23 182 80 119 243 168 18 104 238 59 14 85 226 52 13 109 49 48 46 136 46 45 44 96 44 44 181 101 45 44 105 8 46 47 111 77 93 115 116 69 38 121 63 61 37 128 57 36 36 53 52 36 36 50 37 37 71 48 39 75 77 135 45 80 81 118 39 84 97 88 87 88 65 43 90 50 48 43 92 48 42 42 100 67 42 108 111 213 41 118 120 41 231 125 96 41 129 130 97 230 132 97 97 230 142 98 154 154 138 98 154 45 134 215 153 48 99 217 148 51 217 153 144 54 217 138 58 225 215 125 224 209 89 108 222 213 102 220 219 66 103 216 215 53 175 212 44 41 162 38 35 155 152 32 30 148 64 77 146 145 64 82 144 65 65 176 142 66 67 168 68 69 160 157 71 149 143 51 54 123 115 63 124 89 71 74 112 57 81 100 95 86 88 81 83 91 67 62 84 94 49 85 85 36 36 86 86 34 86 86 33 33 87 87 32 101 88 31
108 107 223 222 105 30 30 102 100 31 31 96 32 32 54 88 33 34 48 34 35 44 42 37 40 39 212 211 36 34 206 41 31 201 198 30 25 190 24 22 181 177 18 17 165 15 15 78 144 13 94 100 9 12 120 127 9 45 147 8 8 167 173 8 70 190 9 8 74 109 9 81 84 115 9 100 9 8 66 133 8 7 166 36 7 220 203 6 7 219 36 8 218 218 39 73 217 13 13 78 214 19 241 83 111 36 240 210 79 43 238 57 128 43 86 47 42 234 98 58 42 107 146 94 41 117 153 195 123 125 96 197 129 130 96 148 132 97 97 150 97 98 153 159 98 98 155 44 229 154 154 46 228 154 48 48 155 153 51 167 172 53 54 188 192 57 200 204 102 102 210 211 102 161 213 102 103 165 213 103 168 168 103 104 169 72 103 169 168 72 101 168 73 73 178 166 76 78 163 65 83 152 149 66 178 138 56 100 170 127 44 163 120 43 37 144 112 34 130 162 61 33 163 163 72 111 164 159 81 94 82 169 80 76 83 177 62 84 182 36 49 85 187 41 94 86 33 32 57 33 32 97 71 32 32 101
239 239 222 104 240 240 220 160 241 218 95 160 215 213 159 33 206 203 157 183 43 154 152 184 38 147 180 178 248 136 168 247 248 155 151 247 247 134 246 245 75 71 243 242 63 64 237 56 54 54 223 50 48 48 48 47 45 96 45 44 44 100 43 44 104 105 92 45 110 112 83 212 116 76 74 217 9 67 37 128 9 60 36 9 56 195 35 9 52 36 8 69 230 38 73 74 237 18 78 138 240 31 213 117 48 85 210 85 77 208 62 125 43 205 48 42 235 201 209 42 107 217 219 232 118 220 221 231 157 219 231 231 155 207 231 151 150 202 230 147 97 206 144 143 209 155 140 212 213 159 136 215 215 158 216 216 156 156 217 217 153 226 225 146 143 225 105 131 223 223 93 112 222 82 79 220 219 68 64 217 57 54 178 174 44 41 164 71 35 156 154 67 150 149 66 66 146 146 66 189 144 66 67 184 143 68 179 177 31 70 170 36 38 160 156 45 47 137 52 55 128 102 63 66 117 100 73 106 102 90 81 89 82 83 32 70 84 39 57 167 85 36 41 86 35 34 170 86 33 33 172 195 32 97 98 198
105 105 29 221 102 29 29 98 96 30 57 91 31 32 48 82 33 44 43 218 35 40 216 215 182 36 212 211 174 248 207 33 29 248 200 24 246 193 79 18 245 180 15 65 69 59 12 83 11 52 51 108 10 12 46 96 9 45 156 99 9 44 104 9 97 45 109 89 74 39 116 80 85 10 73 71 37 8 64 63 35 57 58 35 35 61 53 35 65 67 149 38 71 150 150 75 76 146 16 79 135 129 45 84 109 100 44 83 75 43 43 56 43 43 94 97 42 42 106 93 42 114 116 94 41 123 95 95 231 130 96 96 133 156 96 151 135 97 151 151 42 97 155 155 43 210 156 43 44 213 155 45 146 154 163 47 154 161 49 226 169 100 52 185 112 101 224 202 102 102 223 91 102 167 220 76 103 171 65 61 186 173 51 175 171 74 68 161 173 70 204 152 68 70 199 147 67 195 171 67 67 190 24 68 186 184 27 69 180 30 32 140 170 37 37 137 44 46 133 162 54 57 125 79 65 117 114 81 106 102 82 82 44 83 83 42 41 84 84 39 38 85 37 36 90 86 34 91 92 33 33 94 94 32 96 97
79 239 222 29 69 240 219 61 241 221 214 160 242 208 81 158 219 193 156 155 218 59 151 183 215 46 38 175 38 35 41 160 247 45 46 24 246 51 125 19 185 61 15 241 171 13 12 154 52 11 10 120 12 10 95 90 12 44 78 13 13 179 72 12 12 200 12 11 209 211 11 214 215 9 9 218 218 10 219 219 9 9 168 220 9 195 202 10 10 219 9 11 229 231 14 14 237 21 25 239 239 37 43 211 56 63 209 208 86 94 206 153 114 203 202 203 200 199 217 219 196 196 222 231 193 223 223 231 231 222 230 231 159 216 230 154 153 41 230 149 148 230 140 144 208 230 142 141 212 144 138 214 215 169 133 216 168 168 100 217 164 226 217 158 152 224 215 138 56 223 166 117 221 221 81 62 219 69 66 64 214 54 180 65 210 41 166 205 203 103 154 197 27 99 170 185 93 146 168 68 81 166 68 90 65 164 98 186 163 162 107 179 162 114 116 126 162 124 127 119 133 136 114 58 31 108 106 31 109 97 95 31 165 84 31 31 166 69 32 166 167 34 35 168 168 187 169 170 190 191 171 192 193 24 174 196
222 102 240 240 219 161 241 217 215 160 30 210 160 159 180 196 157 183 184 154 153 184 37 148 181 179 247 137 171 167 247 43 154 247 247 86 133 246 75 71 244 243 63 65 239 56 55 54 228 50 49 48 111 46 46 45 44 13 44 103 104 44 189 109 95 45 115 117 85 212 122 78 76 217 130 69 36 219 10 61 35 35 10 178 35 63 52 208 8 68 222 40 12 73 233 17 77 215 238 31 81 129 47 53 210 96 44 208 207 130 43 204 203 191 235 200 213 42 233 197 221 232 121 223 223 231 129 224 231 231 166 96 231 159 158 197 231 153 151 202 149 147 206 207 145 143 210 176 141 212 213 176 228 215 176 176 227 217 174 226 226 167 164 225 225 152 224 223 104 130 222 94 90 221 220 79 75 199 66 62 188 184 51 48 174 78 39 163 160 73 30 153 71 70 149 148 70 199 145 69 69 196 196 70 193 193 24 71 189 188 28 109 181 32 34 171 128 40 136 144 47 50 129 79 57 122 119 81 67 108 81 82 30 91 83 83 31 166 84 43 58 167 183 38 168 86 187 35 87 190 34 30 90 193 32 93
73 70 222 220 62 222 221 90 51 221 221 82 221 220 73 70 219 219 61 34 218 51 48 37 34 38 38 39 30 28 42 27 26 46 47 22 21 52 19 17 188 63 14 13 173 12 12 156 148 11 130 121 12 12 97 91 13 161 80 13 13 187 73 12 200 204 12 12 212 10 11 216 216 10 10 218 10 10 126 220 10 10 167 150 10 194 201 11 11 217 10 12 228 230 17 216 235 25 29 213 238 45 211 210 74 72 208 207 87 89 205 175 120 91 54 211 92 198 80 221 233 120 223 231 231 149 224 230 173 153 41 230 164 41 41 138 155 41 230 139 97 41 141 146 98 208 143 99 211 157 145 99 214 183 100 100 157 182 100 158 159 48 100 162 164 51 196 168 53 54 209 174 56 213 214 58 58 215 103 60 215 214 104 60 212 104 104 208 207 103 103 176 101 100 174 173 94 92 171 77 83 168 167 89 143 166 98 100 142 163 107 143 163 74 115 134 132 123 128 126 32 135 122 31 31 95 114 30 30 68 67 30 164 92 74 30 165 174 31 66 166 180 32 167 85 185 38 169 188 35 28 86 191 27 22 87
223 161 190 61 222 29 177 241 221 175 44 242 198 72 244 220 179 59 245 162 50 150 246 139 37 38 123 118 130 41 103 117 112 143 85 97 92 123 245 77 111 108 241 62 100 235 233 98 97 221 131 97 200 190 45 101 153 43 42 119 112 41 40 46 40 39 46 47 37 38 49 131 36 51 52 139 8 55 145 147 7 59 153 55 63 158 160 51 50 163 49 48 44 163 47 46 53 22 45 61 65 39 238 75 86 44 238 87 88 65 96 116 91 55 107 92 198 74 146 93 112 223 158 192 147 41 169 189 224 41 190 191 222 41 138 217 214 231 140 203 230 231 147 193 230 143 98 229 229 141 99 228 228 136 215 227 132 131 217 161 126 217 216 170 117 216 154 148 215 214 131 53 210 116 112 219 203 101 98 216 60 89 214 213 45 212 211 36 34 208 208 27 152 206 24 22 147 204 20 145 145 20 20 144 144 71 143 143 72 73 142 74 74 190 140 75 76 175 76 77 153 144 78 79 114 53 80 88 81 62 110 67 67 69 92 57 73 78 73 76 77 60 55 79 48 44 86 82 35 32 86 34 26 87 87 32
66 63 222 93 54 221 221 85 45 221 77 75 221 221 65 62 33 55 52 34 35 42 36 37 31 31 39 40 28 124 43 25 24 46 48 20 200 54 17 16 190 187 14 180 176 11 11 158 12 12 214 121 12 13 175 44 13 170 81 41 13 193 10 12 46 208 10 47 213 131 11 50 218 11 70 53 145 11 125 58 153 57 166 159 161 52 200 9 50 49 42 13 48 48 50 77 46 59 34 213 68 71 84 209 81 84 87 76 93 89 90 59 42 91 59 63 42 92 90 41 41 128 137 41 231 151 41 41 136 152 41 41 138 41 41 139 140 97 140 141 97 97 142 142 98 158 143 98 98 158 145 99 158 158 136 100 160 45 45 217 164 46 47 168 169 48 194 176 50 51 209 128 52 214 215 110 54 216 103 97 215 215 104 187 212 42 105 184 209 31 157 180 26 101 177 176 22 147 173 76 19 145 72 89 143 144 73 100 158 73 74 199 148 74 115 190 30 77 176 134 38 78 143 45 30 114 104 54 119 163 61 62 104 164 67 91 87 83 72 72 68 84 59 54 85 85 43 86 86 37 32 86 86 34 86 87
96 161 184 180 241 161 175 241 242 30 176 243 243 181 35 244 165 185 245 246 144 32 246 130 125 30 215 110 126 121 211 91 107 139 205 13 87 119 66 11 65 105 11 59 83 11 11 102 98 219 12 132 9 185 43 161 9 135 41 9 10 75 39 10 92 73 11 11 76 37 10 82 86 9 53 219 108 8 220 156 7 7 220 163 8 219 219 13 10 218 14 15 217 216 19 21 214 27 31 236 237 50 60 238 75 101 237 237 103 168 236 121 126 235 234 138 198 233 149 151 195 232 160 192 191 224 168 190 190 224 191 191 223 222 195 219 217 231 199 210 208 231 205 204 230 230 144 203 229 141 140 228 228 137 136 227 134 132 216 226 127 217 217 178 119 216 216 111 102 214 136 130 211 210 116 219 204 105 102 216 191 93 214 213 189 85 211 36 185 54 209 27 77 58 200 21 147 207 190 19 145 182 18 144 144 170 60 143 73 159 45 142 74 37 36 163 76 33 139 162 129 161 163 79 141 128 162 150 98 118 163 160 108 63 166 168 92 68 173 78 73 30 62 62 58 31 168 48 32 33 170 35 36 172 173 42
189 56 222 161 175 241 221 79 174 242 221 67 243 244 169 54 245 154 149 151 246 135 32 142 121 116 132 40 102 98 115 147 23 99 94 127 246 79 113 110 242 63 103 238 236 99 98 227 223 99 211 202 44 43 170 158 41 45 123 40 39 46 74 38 46 47 37 37 49 138 35 51 52 148 34 55 154 156 60 59 162 56 55 219 169 51 51 218 14 49 46 173 47 47 56 23 45 65 68 40 45 78 85 85 237 90 87 74 236 112 89 61 110 132 199 70 143 92 196 111 155 194 140 224 41 191 224 41 231 191 224 41 139 222 221 231 141 217 215 230 151 211 231 230 146 208 230 143 142 211 229 139 213 214 136 135 215 165 131 216 217 191 124 217 216 168 216 215 149 144 214 133 128 219 219 115 111 217 71 101 215 214 54 91 213 42 39 211 210 31 29 210 25 24 150 148 20 147 146 74 18 145 144 74 144 144 74 74 143 143 75 206 143 75 76 200 163 76 189 184 33 78 161 39 42 132 123 48 50 100 54 56 109 80 61 62 93 91 66 78 74 73 30 61 85 85 48 45 86 40 36 86 86 36 27 87
55 90 28 175 241 28 29 39 242 30 30 34 221 32 33 32 220 33 31 219 219 31 30 217 24 133 215 214 17 116 212 13 12 48 206 11 11 57 10 10 68 73 11 83 90 11 10 110 118 10 132 140 9 10 99 168 10 85 82 10 10 76 75 11 74 73 11 11 76 10 10 218 85 9 9 219 8 8 220 220 7 8 219 13 8 219 218 15 70 217 17 18 223 215 23 230 232 33 38 235 236 62 237 237 80 117 237 237 108 43 236 124 129 235 117 140 197 197 150 153 194 224 161 192 192 224 167 191 224 224 95 192 223 231 96 151 220 231 231 155 41 230 148 212 41 230 144 41 229 145 141 42 228 138 99 43 152 133 216 159 163 100 217 182 182 101 187 157 102 102 193 135 102 196 121 48 102 197 49 215 197 196 49 213 194 49 49 213 34 50 51 209 103 55 203 201 98 66 195 90 86 188 185 74 171 177 60 56 168 75 45 166 165 112 36 164 164 120 163 163 128 130 162 136 139 136 162 148 150 126 81 157 117 113 29 165 100 29 29 67 81 29 29 68 69 29 167 53 30 40 170 76 33 172 173 81
182 178 241 203 172 242 242 189 173 242 175 171 243 244 156 155 245 144 140 149 247 128 142 139 173 110 128 124 157 14 110 142 137 11 89 122 245 75 62 108 241 75 102 11 234 49 100 225 153 45 10 198 43 42 10 94 40 45 10 80 13 46 75 74 12 47 73 11 50 217 149 9 53 156 12 8 219 165 60 8 220 13 54 219 219 14 195 218 16 17 216 216 21 225 228 30 32 232 75 50 236 236 69 86 237 90 97 204 236 115 120 201 130 134 198 198 221 147 196 223 224 194 193 224 224 192 224 224 231 192 224 231 231 222 222 231 231 220 231 231 151 150 231 230 146 207 230 143 143 211 141 140 213 214 137 136 215 212 132 216 217 195 125 217 177 171 223 216 153 221 221 136 131 219 218 118 217 216 72 105 214 214 54 47 212 43 39 168 211 31 159 157 208 23 150 79 20 96 146 76 17 145 174 76 70 144 75 75 53 168 76 212 211 166 114 208 23 164 122 195 29 130 176 143 36 141 140 42 29 152 128 50 114 161 113 29 99 83 94 29 164 84 29 29 166 85 29 168 168 181 30 170 86 184 172 174
87 85 27 28 77 74 29 34 65 30 30 31 31 32 30 30 220 33 29 219 219 29 28 218 217 27 215 215 14 23 212 211 11 246 208 10 10 60 60 10 72 77 52 11 96 10 12 48 126 10 13 148 108 10 45 176 11 10 82 124 11 76 75 135 89 73 12 145 80 77 10 73 71 33 9 65 105 8 59 58 35 8 219 179 39 68 218 16 47 73 181 21 76 77 169 31 80 150 142 44 84 114 88 43 88 82 43 236 107 43 42 114 131 42 42 122 92 42 128 129 93 41 133 94 94 136 137 95 151 151 95 95 151 151 96 152 153 41 97 157 158 41 204 161 41 41 163 163 41 145 165 41 41 148 99 42 152 154 100 43 162 101 101 224 180 101 101 222 111 102 201 210 102 211 204 85 103 203 203 45 195 201 45 45 180 198 45 215 166 87 47 211 189 82 212 205 79 64 213 17 88 213 190 15 71 215 15 57 144 215 17 43 166 19 19 142 164 23 141 141 78 28 138 137 80 157 133 80 80 124 123 81 106 101 82 82 89 104 83 77 74 61 84 65 64 65 56 54 68 69 42 71 72 34 31 76
162 162 196 192 161 161 180 160 159 176 163 158 157 183 41 154 186 185 149 147 181 246 139 174 170 248 99 158 247 247 83 138 247 72 69 16 244 61 58 242 196 53 55 235 48 12 49 163 44 46 46 109 14 45 115 117 14 45 125 108 13 206 136 91 48 214 12 82 217 155 13 81 32 13 66 98 33 14 121 34 8 15 160 39 67 185 192 13 72 208 17 20 215 223 29 33 213 45 49 211 120 82 74 207 122 43 205 204 176 43 201 204 210 234 199 219 234 233 223 223 233 232 160 232 232 164 165 232 232 165 193 232 163 162 196 159 157 199 199 153 151 202 220 220 206 207 222 223 210 224 224 229 213 224 222 227 218 215 226 226 203 225 224 123 179 223 222 114 215 220 105 101 212 218 90 208 206 77 73 199 106 60 189 185 97 43 173 91 90 105 160 85 85 212 188 81 213 213 79 79 214 15 77 216 216 15 96 217 15 16 105 217 17 143 143 163 20 142 141 157 31 140 79 30 30 162 80 29 129 161 81 29 162 82 161 29 162 83 86 98 164 172 73 60 165 176 66 64 179 180 52 29 182 43 72 31
197 79 27 28 34 161 29 31 30 159 30 28 221 156 185 28 220 185 184 246 219 178 27 247 105 164 247 216 88 11 247 77 10 86 246 64 73 63 57 55 59 83 50 53 51 103 45 48 47 107 202 46 113 10 158 45 123 123 83 131 134 97 36 143 88 86 34 154 79 33 33 72 70 32 33 57 33 34 60 62 36 64 65 186 42 69 70 188 15 74 184 182 77 78 169 45 81 147 138 44 44 109 43 43 102 80 43 110 112 189 42 118 120 214 235 125 92 42 233 131 93 140 135 160 94 150 164 94 193 152 164 95 153 223 160 197 156 40 154 200 221 40 203 205 224 40 145 225 41 229 146 227 228 149 137 222 227 153 100 225 225 128 101 223 223 119 216 221 111 108 215 140 98 211 210 123 82 204 113 110 196 193 102 41 182 96 94 212 167 89 88 212 24 85 213 213 19 214 215 17 15 216 216 15 144 217 14 15 144 218 15 144 143 17 17 143 77 77 142 141 78 79 139 79 80 170 134 80 80 137 81 81 118 112 82 82 100 51 83 89 85 56 79 75 59 60 62 63 63 50 47 66 68 37 35 72
162 162 222 180 161 170 221 56 159 177 221 43 31 184 34 152 33 184 246 35 180 26 247 37 24 248 216 42 22 247 78 19 18 211 65 15 14 204 10 61 198 196 11 100 185 12 13 130 156 14 152 159 14 14 179 123 14 196 199 12 13 209 211 13 73 215 13 13 74 14 14 79 82 14 14 96 8 15 118 127 9 16 156 10 10 182 188 14 217 216 19 22 215 214 32 213 212 54 53 210 209 95 208 207 133 145 204 203 180 235 201 205 210 235 139 219 234 234 150 223 233 157 159 233 232 162 163 232 164 163 194 232 161 195 196 222 156 199 200 222 97 202 224 224 98 206 227 230 209 173 229 228 212 227 227 227 187 217 226 131 129 41 224 124 122 41 189 115 216 219 206 103 212 213 91 103 207 217 103 199 209 218 104 186 100 40 105 201 93 212 105 196 45 214 191 190 56 215 185 68 73 198 180 84 193 190 62 98 184 14 46 178 175 38 143 170 168 33 165 163 31 30 162 30 29 161 161 29 29 161 150 153 161 161 159 108 162 164 166 106 163 170 171 86 84 174 72 69 177 61 58 28 180 48 45 29
186 182 161 161 170 166 160 173 156 158 158 182 37 154 185 185 246 148 182 247 246 37 173 247 248 161 23 247 84 141 247 213 69 17 245 60 59 13 203 52 57 55 194 47 50 105 174 14 47 111 41 46 170 121 14 45 130 12 14 205 142 95 13 213 13 84 33 218 14 75 32 15 15 85 32 15 101 107 9 17 134 39 10 163 172 12 71 217 198 18 215 184 27 30 213 161 43 211 210 79 67 208 114 125 206 205 160 171 202 190 198 235 124 213 217 234 145 221 234 233 154 233 233 159 160 232 232 163 194 232 162 161 195 232 158 197 198 223 153 200 201 225 203 204 228 229 207 230 231 229 211 230 230 228 226 223 226 226 132 208 225 128 126 223 222 120 216 220 112 109 215 217 99 212 210 216 83 205 202 69 104 194 106 104 183 205 97 212 168 92 91 213 196 87 214 215 190 83 217 15 81 75 218 14 79 219 191 14 144 221 14 43 144 177 15 143 143 170 31 142 78 163 30 140 80 29 29 161 80 29 161 161 154 122 161 82 162 121 162 166 95 100 164 171 85 55 174 175 68 59 177 57 54 28 39 44
72 33 221 221 59 28 221 49 46 30 221 36 33 32 28 26 34 34 19 35 36 24 13 38 39 22 41 43 20 20 214 49 17 211 210 14 13 206 11 11 200 197 12 10 186 13 14 217 156 14 14 126 39 15 186 191 14 14 203 13 14 211 213 13 49 216 14 14 52 219 15 78 219 180 16 93 220 17 57 123 9 18 151 45 12 50 185 15 17 47 66 24 214 45 79 40 212 89 92 83 209 107 81 86 82 152 88 203 73 42 89 77 209 42 91 104 41 234 131 139 41 233 154 41 41 139 161 41 140 140 95 40 141 158 96 143 143 96 200 144 144 97 172 145 97 98 176 146 98 180 182 40 99 188 40 40 196 198 40 40 205 40 40 173 210 40 40 193 158 40 206 209 102 215 214 103 103 217 218 104 212 218 104 105 208 218 106 205 204 31 106 199 43 22 152 193 53 57 147 82 70 202 183 80 86 195 79 95 221 187 78 105 181 38 78 221 175 33 217 215 20 30 163 164 24 139 161 28 29 132 161 34 126 161 81 40 113 82 164 101 97 83 169 83 84 84 81 75 84 85 69 60 85 60 57 65
241 241 166 167 242 221 154 243 243 146 36 244 244 135 152 245 126 123 143 247 111 134 130 166 95 117 152 147 102 97 132 128 82 120 116 244 66 109 107 239 89 105 234 232 44 10 220 42 41 202 194 39 46 161 37 37 46 116 35 47 47 75 33 49 49 71 12 52 173 175 11 219 183 66 58 220 189 58 219 194 54 53 218 197 50 52 217 26 48 65 32 35 214 78 80 45 225 52 83 231 100 76 86 235 94 87 204 235 116 89 77 128 132 199 101 42 197 197 221 41 195 195 223 233 194 223 224 233 195 224 233 232 224 224 232 155 225 232 231 150 97 231 147 146 205 230 143 143 209 141 140 211 212 137 213 214 220 133 215 216 202 216 216 185 180 220 216 163 218 217 148 144 215 214 131 213 212 79 118 211 66 61 210 211 48 44 177 37 34 166 163 26 24 155 88 19 149 148 84 94 146 82 82 144 144 80 221 144 79 79 222 222 78 222 222 14 78 220 219 17 122 212 20 21 132 165 25 137 168 158 31 129 150 35 122 118 82 41 107 83 83 28 90 83 92 28 165 84 80 60 168 176 68 171 86 178
65 62 221 221 52 29 221 42 39 30 221 30 32 32 130 20 34 23 117 139 36 23 23 124 159 21 218 43 19 18 215 127 15 212 211 113 243 206 12 106 238 198 13 231 227 42 14 145 157 39 46 173 37 15 46 196 35 47 206 151 34 48 160 14 50 51 172 15 53 179 181 69 78 188 190 61 35 194 57 55 42 53 52 49 52 49 48 61 74 47 71 74 78 213 84 81 82 136 97 84 84 99 86 86 82 78 88 76 76 42 89 86 91 42 199 117 41 41 134 151 41 136 137 41 41 139 94 40 141 141 95 40 142 95 96 232 143 96 96 231 149 97 179 180 145 97 184 40 98 210 190 40 212 197 226 39 214 206 39 224 216 196 39 173 178 174 219 193 101 153 215 103 102 213 212 88 103 211 75 70 198 210 57 105 184 44 40 173 207 36 28 160 92 42 153 151 88 218 147 85 84 220 145 82 221 222 80 80 223 192 79 223 223 13 36 222 14 14 143 219 17 18 142 20 21 139 139 25 26 134 80 30 129 126 81 81 117 82 82 110 102 83 101 98 83 83 90 88 84 82 79 55 85 70 67 61
163 241 28 167 25 242 29 175 243 221 31 22 244 131 20 23 221 118 141 23 219 11 126 218 219 9 107 217 8 9 50 214 9 74 62 13 11 76 107 11 95 103 10 230 126 134 10 167 157 11 11 126 183 12 101 95 13 13 82 14 13 74 73 13 50 70 12 12 219 72 11 10 219 10 10 220 219 10 10 219 21 11 218 218 25 170 217 30 32 196 215 42 210 214 58 65 223 226 93 229 230 79 133 234 96 101 204 235 116 120 201 128 132 199 199 141 144 197 220 149 196 196 223 156 195 223 223 94 196 224 233 233 225 225 233 232 227 232 232 150 231 231 231 145 40 230 143 142 40 147 140 211 228 149 136 214 219 133 100 216 201 127 216 216 179 101 216 164 159 102 218 145 213 102 218 36 210 79 216 35 209 61 34 34 219 44 34 212 217 106 36 216 23 105 214 213 102 148 210 209 92 188 83 80 75 182 80 60 177 176 100 44 172 79 108 169 167 114 222 165 120 122 175 162 130 133 170 29 140 164 162 29 150 155 28 28 143 138 28 161 122 28 28 163 100 28 165 165 172 27 168 169 175 50 171 176
159 164 241 242 150 242 243 143 142 244 244 134 153 151 126 123 144 35 112 135 132 168 96 120 115 151 105 100 136 132 85 124 120 245 68 112 110 241 48 107 236 234 44 111 225 41 40 11 204 38 46 177 116 36 46 131 34 14 47 79 32 49 49 171 13 52 179 182 11 55 189 68 10 219 195 60 219 219 20 54 219 202 24 150 56 28 48 182 69 37 200 80 78 56 216 46 81 224 226 68 84 231 85 91 205 234 107 88 203 188 124 201 104 210 138 198 217 41 197 196 222 234 196 223 223 233 196 224 233 233 224 225 233 232 154 233 232 151 150 231 148 146 204 231 144 143 207 142 141 210 210 138 137 213 225 222 214 215 210 205 216 195 190 220 216 174 217 216 159 155 213 212 142 211 210 88 128 209 209 70 199 208 57 53 186 44 40 175 171 31 28 160 94 22 153 151 89 16 147 86 85 89 145 83 82 223 181 81 223 224 80 100 224 12 79 224 224 13 114 222 15 16 124 213 19 140 140 171 23 136 80 164 29 129 81 32 28 160 82 28 106 82 83 28 163 83 98 28 166 84 88 51 170 175 76 57
26 25 28 28 22 22 221 21 21 221 221 21 221 221 17 22 221 221 12 220 220 10 9 219 219 9 44 45 9 9 52 54 10 61 66 11 12 81 11 10 102 110 10 10 134 11 11 167 163 11 12 126 15 13 100 94 15 85 81 14 14 73 72 13 218 69 12 12 219 70 11 219 219 35 10 219 219 21 64 219 23 24 218 203 28 164 216 34 38 192 187 50 207 211 159 77 221 57 63 43 230 80 206 43 118 102 204 235 116 89 201 129 131 199 199 133 91 197 219 136 92 196 222 234 93 184 224 234 184 184 40 233 185 227 40 143 187 40 232 145 189 40 145 144 39 39 146 98 209 147 147 98 212 149 99 99 213 154 99 100 216 100 100 218 219 100 101 219 36 36 219 219 35 213 219 34 34 218 218 33 219 220 32 33 220 219 33 219 218 106 34 217 106 105 202 215 102 101 195 14 93 191 189 81 76 184 85 60 179 178 97 44 173 104 106 144 169 112 185 183 79 120 180 179 79 207 175 29 138 179 169 29 155 161 29 28 130 33 28 112 161 37 28 163 83 42 83 165 170 46 66 84 173 55 51 85
153 163 242 242 145 159 243 139 138 155 221 130 151 149 221 119 142 178 220 10 128 165 91 9 41 147 8 95 48 15 246 56 118 13 243 73 11 240 206 98 11 232 42 10 11 183 39 12 11 147 15 13 116 108 15 203 89 14 14 212 75 13 216 217 13 13 219 189 11 219 219 19 11 220 20 21 88 219 23 23 116 26 27 143 152 32 35 176 22 44 195 201 35 67 213 48 53 223 225 69 207 207 86 92 205 204 107 203 203 187 124 201 200 208 199 198 216 217 197 220 221 235 196 223 224 234 154 224 234 234 154 227 233 153 152 233 233 149 148 232 147 145 204 231 143 206 207 238 140 210 210 232 99 212 224 220 214 215 208 222 216 194 189 218 219 174 215 214 220 155 211 102 98 34 208 87 83 33 219 70 200 207 220 53 186 220 40 106 171 218 107 161 206 217 105 151 91 48 99 195 87 222 86 189 76 223 183 182 90 199 177 98 100 193 172 106 189 12 31 115 185 14 142 182 180 29 141 177 29 29 159 170 28 28 159 28 28 159 160 28 28 161 164 165 163 163 168 102 166 170 170 79 169 173 68 64
27 22 160 29 20 20 158 176 20 221 31 20 20 221 181 21 221 221 10 20 220 8 8 247 219 9 9 247 66 10 54 215 56 67 70 50 13 56 94 44 51 117 114 11 48 148 12 206 46 135 13 125 146 150 136 93 160 164 101 31 174 88 85 30 13 78 30 31 55 70 33 11 59 36 38 62 219 44 65 66 206 53 69 70 203 73 73 197 193 46 77 178 45 44 154 144 44 105 115 43 43 115 89 42 120 122 42 42 127 128 42 130 132 90 90 134 135 91 178 137 92 92 190 151 93 192 193 153 94 193 40 94 198 193 40 95 194 235 40 145 196 39 231 145 240 39 146 147 237 229 147 98 229 226 150 99 224 223 130 100 219 164 124 216 220 118 100 216 161 108 215 220 34 95 211 134 33 206 205 122 31 197 115 113 208 220 107 211 212 31 100 215 217 21 218 218 17 101 221 221 13 145 223 12 12 144 224 11 144 144 81 11 144 80 80 144 144 79 79 144 79 79 222 143 79 79 208 79 79 187 180 22 164 156 26 27 137 132 30 116 120 34 35 100 110 38 88 83 42 43 71 67 47 59 56 84
149 161 165 144 32 158 175 177 155 31 181 244 149 182 20 246 35 175 246 247 38 19 247 83 42 17 247 68 15 14 216 57 69 244 50 13 58 208 44 52 113 200 15 48 122 183 16 166 135 16 16 191 150 16 203 206 15 106 212 16 16 72 216 17 80 67 18 19 66 32 20 21 71 11 22 80 84 11 65 102 13 13 217 136 17 216 216 22 24 214 214 34 212 212 86 50 210 209 121 208 207 143 148 231 159 164 234 235 181 187 236 126 202 236 236 137 214 236 143 145 235 235 149 150 235 151 152 197 198 151 198 199 231 150 200 200 236 201 202 239 240 204 205 241 230 207 239 238 229 210 232 227 226 135 221 224 132 130 37 220 127 125 217 173 120 216 212 113 110 215 205 102 213 212 138 102 208 129 126 104 200 118 206 104 216 110 210 175 104 32 214 210 98 217 217 204 42 220 14 14 55 211 12 145 72 207 11 144 203 202 48 144 198 10 37 171 194 33 144 166 30 30 164 79 125 29 161 132 199 159 159 142 168 159 150 151 162 159 157 148 143 161 163 125 119 27 108 103 27 78 90 86 27 170 74 26
161 21 160 159 170 243 157 177 179 244 221 181 245 245 116 178 246 221 101 247 247 89 9 247 247 73 94 246 63 60 75 55 53 65 62 112 46 55 113 114 50 49 119 122 47 128 131 201 47 142 176 165 197 157 132 122 31 16 98 31 30 86 83 30 53 77 31 32 56 69 34 59 60 71 40 63 208 87 12 67 207 207 70 217 203 48 74 195 191 45 213 174 44 44 211 101 43 109 208 133 43 118 151 156 232 125 87 42 235 118 89 236 133 131 90 236 138 91 198 236 145 197 196 148 149 197 198 40 198 198 231 40 199 200 236 233 201 239 240 232 241 242 231 145 240 240 230 139 236 228 228 136 98 225 133 132 214 221 129 127 216 124 123 216 217 117 216 216 161 107 215 214 146 212 211 136 133 203 205 124 204 204 117 115 207 44 109 211 212 31 102 215 23 21 218 219 17 16 148 14 13 146 145 12 11 145 84 10 144 144 82 45 144 80 80 144 144 79 227 144 79 79 225 223 79 218 214 16 79 196 19 20 144 165 23 24 144 161 28 119 126 30 32 104 123 35 93 88 82 40 76 83 83 27 61 83
38 35 29 168 27 24 30 18 18 32 181 18 33 33 19 246 35 36 18 220 39 18 17 219 74 15 218 217 10 13 216 215 12 213 212 14 14 209 15 15 120 200 16 16 151 16 16 173 179 14 16 195 14 15 206 208 16 82 214 17 18 70 218 19 66 64 19 20 64 65 12 66 68 11 11 76 80 12 218 96 13 14 217 67 17 216 215 23 26 214 67 35 212 211 98 107 210 123 130 223 207 148 229 231 91 167 234 235 182 41 236 124 202 236 236 135 41 237 141 143 198 236 147 198 198 141 149 198 231 143 94 199 236 148 95 201 240 95 202 203 242 232 206 241 38 230 210 38 228 137 215 37 226 133 37 37 153 129 36 36 162 100 35 173 118 100 216 192 101 215 221 208 102 221 140 102 102 220 128 103 219 219 30 105 217 216 30 215 214 30 31 219 33 34 218 217 39 42 215 98 51 213 212 82 67 209 67 62 206 205 48 45 177 39 37 173 171 32 169 167 112 30 164 163 122 142 160 130 132 139 159 141 180 158 80 150 169 28 155 133 150 28 160 132 28 27 113 110 27 27 106 41 27 170 81 46
161 163 30 159 170 173 20 31 178 245 150 32 180 245 34 175 18 246 37 163 247 220 41 16 247 69 10 13 217 57 72 12 214 13 60 211 210 15 52 205 16 16 140 193 16 162 138 14 16 187 153 161 201 204 16 118 211 213 17 73 216 18 19 66 218 20 63 63 21 22 64 12 12 69 71 12 64 82 12 13 218 107 16 17 216 20 22 215 214 30 213 213 87 44 211 210 120 216 208 140 146 227 206 159 231 233 173 177 235 235 192 236 236 129 209 237 136 138 198 237 143 144 198 146 147 198 198 148 148 199 235 147 200 200 240 95 201 242 243 203 204 243 231 231 241 240 229 229 234 227 227 135 225 224 223 131 36 219 127 126 35 165 121 216 209 183 113 216 163 106 101 214 148 93 211 221 135 103 205 127 30 104 219 117 206 105 216 30 212 30 213 31 217 21 34 36 217 15 43 215 13 91 56 212 11 144 209 208 57 144 205 204 41 176 81 35 34 170 79 31 166 165 116 30 162 123 126 160 160 134 196 158 142 144 177 158 150 152 164 28 157 148 142 28 130 124 27 27 109 104 27 167 92 26 26 171
220 30 29 221 22 21 31 131 15 32 32 11 11 33 18 18 36 37 17 17 39 16 15 219 45 14 13 218 125 12 216 215 116 242 212 14 11 236 207 16 127 200 37 16 158 183 16 47 184 32 16 199 16 31 48 210 17 29 50 188 18 68 218 197 20 62 202 22 68 63 207 24 65 42 210 57 75 13 53 52 61 15 49 48 75 74 215 85 89 77 213 98 79 80 137 109 82 112 105 84 84 93 157 86 95 99 41 88 120 130 41 134 159 41 40 137 186 40 138 139 40 40 140 92 40 141 142 93 40 143 94 94 202 144 95 95 204 143 95 206 207 96 206 210 38 97 214 215 37 211 217 37 37 213 220 36 154 155 203 35 162 165 34 208 178 100 33 193 108 101 199 208 101 102 197 85 102 220 198 68 103 219 29 52 188 217 29 176 173 106 30 162 212 100 219 152 96 39 222 147 91 224 214 11 88 225 10 63 226 226 10 45 227 9 9 144 228 9 10 144 10 11 143 163 12 13 142 79 130 140 139 79 186 136 79 79 157 128 80 140 135 80 80 125 122 81 117 116 34 82 110 38 39 71 104 43
28 163 25 23 30 17 17 31 31 17 11 33 17 17 34 35 17 17 221 16 16 220 76 15 219 219 11 12 217 216 13 215 214 15 14 211 210 15 115 123 16 16 146 13 17 168 175 14 17 192 15 16 204 206 17 17 212 18 19 72 216 20 20 64 14 21 61 61 13 61 61 13 12 65 68 13 219 77 13 14 218 99 17 216 216 81 23 214 69 76 78 212 99 106 210 124 130 214 208 147 151 225 93 163 231 232 109 180 235 116 118 41 236 127 200 237 137 136 199 237 140 92 198 141 144 199 199 142 93 200 239 143 94 203 243 234 95 206 244 232 209 210 38 230 213 238 37 147 217 37 225 149 219 36 152 129 36 35 157 99 215 166 170 100 216 183 100 100 222 202 101 214 222 102 102 221 136 103 220 220 29 200 219 219 29 220 217 28 29 220 214 30 219 219 32 34 218 217 39 216 215 92 51 214 78 73 190 210 58 53 183 9 42 178 176 35 34 171 103 31 167 165 113 143 163 121 124 141 159 132 190 188 78 142 183 180 79 155 170 28 155 135 149 28 125 131 30 27 116 34 27 81 167 39 26 171
140 25 29 243 135 155 31 17 126 150 32 17 143 139 173 16 130 37 161 247 113 148 14 247 93 132 246 218 123 121 244 48 14 241 240 42 16 234 39 38 49 223 35 17 48 34 33 47 189 32 47 48 172 17 49 49 186 97 51 193 196 80 53 201 74 72 206 207 66 65 209 62 60 45 211 56 52 56 68 51 65 69 71 111 79 74 75 89 93 77 165 102 79 80 130 54 82 106 101 73 84 94 42 42 205 105 41 41 203 191 41 134 166 208 40 137 218 40 237 140 227 237 141 92 92 236 142 93 201 235 144 94 203 144 142 202 206 142 95 204 243 139 206 213 239 137 209 234 37 225 211 224 36 151 215 212 216 156 202 198 209 120 187 203 202 113 198 197 106 103 194 194 94 212 211 84 80 207 220 67 200 198 122 51 188 116 113 177 173 108 107 163 103 102 220 221 98 96 223 13 93 224 225 11 88 225 10 10 226 227 9 144 227 9 9 144 229 9 144 144 79 10 144 143 79 143 143 78 79 141 78 78 194 137 78 78 167 157 79 148 143 79 79 131 27 28 123 120 32 33 115 35 37 76 108 40
159 17 221 136 156 243 221 13 151 221 119 10 34 221 9 131 37 221 9 39 150 14 10 45 134 246 52 55 11 244 67 73 10 213 91 11 11 208 11 12 202 199 13 14 186 17 17 166 155 17 48 121 16 16 210 87 16 215 216 15 15 218 218 14 219 219 23 24 219 219 26 60 219 29 30 66 218 35 77 81 42 44 99 19 56 123 133 27 79 160 35 39 211 189 51 55 209 64 68 207 207 82 206 206 170 99 204 203 188 88 202 202 206 201 200 217 237 237 225 227 237 237 233 237 236 142 239 236 142 142 39 235 142 142 39 145 140 203 204 139 138 206 241 137 208 208 235 97 210 228 226 98 212 218 217 99 221 205 210 215 222 34 202 116 180 33 196 107 32 192 205 96 31 213 86 102 30 219 71 203 220 220 104 191 221 221 106 217 111 107 107 214 29 107 212 210 33 103 206 39 41 201 200 50 225 194 61 65 211 9 76 79 208 40 88 205 205 33 203 202 31 30 200 200 29 162 197 29 28 159 194 28 157 157 142 28 156 148 150 157 157 155 156 159 158 159 132 162 162 163 112 80 164 100 96 81
139 138 157 243 133 130 153 221 123 147 145 221 110 137 170 99 9 122 156 246 109 43 139 247 89 129 245 245 60 120 243 242 80 11 239 40 122 11 231 36 13 221 195 34 47 180 32 17 47 143 30 49 207 101 16 50 190 75 15 217 200 15 15 219 23 14 219 219 25 63 220 28 29 61 219 33 54 71 39 41 83 73 51 55 110 23 71 136 146 33 212 171 43 47 210 198 60 208 208 73 78 206 96 91 205 204 180 106 203 194 198 202 201 211 215 237 221 224 238 237 231 233 237 139 238 236 237 141 243 236 141 141 234 235 140 203 233 139 138 204 205 137 206 207 237 135 209 210 229 211 211 222 220 213 214 211 211 214 201 197 203 221 187 197 196 111 173 192 104 101 31 189 92 89 189 82 78 207 192 66 201 198 220 50 188 185 115 106 173 110 108 107 160 103 220 152 209 98 223 205 94 42 225 198 89 226 213 191 65 227 8 8 79 208 9 144 91 205 9 144 203 202 30 144 201 29 29 160 197 28 140 157 28 28 156 78 145 28 157 151 152 158 158 157 147 160 160 161 125 163 162 112 107 164 165 96
29 16 220 221 16 16 221 11 16 221 221 9 9 221 8 9 38 221 10 10 42 11 11 47 49 13 55 58 11 14 72 77 11 213 97 11 12 207 128 13 200 198 14 15 185 179 16 163 154 17 18 120 17 16 116 85 16 16 216 29 15 218 219 32 14 219 25 13 59 219 28 62 219 211 33 66 218 39 51 69 204 51 91 98 192 46 123 28 169 44 158 40 43 43 114 56 42 120 122 84 42 126 86 85 108 131 87 203 192 134 88 164 209 89 89 183 40 90 190 192 40 91 195 39 39 197 198 39 236 143 39 38 144 139 38 38 145 95 38 145 145 96 146 146 96 97 147 148 97 219 149 98 98 220 220 99 221 221 34 99 221 33 33 216 221 32 32 222 166 31 206 222 30 30 215 144 29 219 219 103 28 221 104 104 202 221 106 218 211 29 107 215 220 20 155 211 16 103 148 206 37 145 201 45 49 144 88 59 212 144 84 73 210 82 82 230 207 80 95 232 8 79 233 203 10 29 229 11 29 141 216 13 140 156 16 16 134 156 19 128 126 78 22 118 115 79 108 104 79 79 121 79 79 116 115 79
220 136 157 16 221 12 152 221 221 10 143 171 9 9 36 163 10 118 39 14 11 44 136 12 50 53 11 245 64 69 10 214 86 11 12 210 38 12 204 202 17 15 193 17 17 178 171 17 17 142 17 17 209 98 16 16 215 16 15 218 218 22 15 219 24 25 219 219 27 55 219 30 31 58 219 36 64 66 43 46 77 82 19 94 101 24 27 126 32 34 212 162 44 48 210 56 60 209 208 73 77 207 169 89 205 204 185 189 203 198 202 236 201 216 237 238 184 228 238 238 235 39 238 136 241 237 237 138 39 236 138 138 202 144 138 203 203 145 136 205 241 146 96 207 236 133 97 219 227 97 212 220 217 212 220 209 205 203 220 33 197 116 221 32 190 109 31 31 199 100 30 184 211 101 29 217 77 102 221 220 103 198 220 221 105 219 117 106 106 217 109 107 215 214 28 106 211 209 32 206 205 38 40 216 46 49 214 214 59 63 212 46 74 210 209 36 86 207 32 31 206 205 30 164 163 29 29 159 158 29 157 157 133 28 156 155 143 133 156 149 150 125 77 155 153 159 158 159 131 27 161 117 113 27 163 102
160 16 220 220 13 244 221 10 10 245 221 9 35 246 96 10 38 220 10 107 43 68 12 49 51 12 75 61 11 11 62 120 11 212 54 126 12 206 135 138 220 195 149 16 201 31 166 180 152 29 49 141 29 17 50 104 29 52 217 30 31 54 219 33 57 57 210 39 60 61 211 62 63 211 210 53 208 207 50 70 201 198 47 85 186 45 45 99 160 44 107 109 43 43 116 81 82 122 123 84 84 127 85 85 113 132 86 87 144 110 88 164 169 89 89 179 40 90 186 187 39 141 191 39 39 143 196 39 143 143 246 38 144 145 246 233 145 95 37 230 134 96 227 147 132 96 218 130 97 211 219 128 98 220 211 123 215 220 33 118 215 190 32 216 216 177 184 195 167 165 182 209 155 182 215 79 142 186 219 103 191 193 53 104 201 42 38 177 211 29 27 163 107 20 154 152 101 14 148 97 95 145 145 92 43 144 89 87 228 144 85 229 229 83 82 230 231 8 232 233 8 8 234 233 9 143 231 10 11 142 12 12 140 139 14 15 136 77 77 130 128 77 77 120 77 77 138 108 78 129 127 77 77 121 119 77
220 220 14 16 220 221 10 221 221 9 9 221 9 9 36 221 10 10 41 74 12 45 47 13 14 55 11 11 68 73 11 12 92 12 13 208 123 14 203 200 145 16 190 186 161 192 168 17 19 159 129 17 210 96 16 16 216 29 16 218 218 31 15 219 26 36 59 219 29 14 62 211 34 56 219 208 42 63 204 53 48 76 192 46 93 94 170 44 124 35 43 43 113 49 42 42 121 82 208 126 127 84 103 130 86 86 131 134 87 152 158 88 89 171 224 89 179 181 39 90 186 188 39 142 191 39 38 143 38 38 144 144 38 38 145 94 37 145 145 95 37 146 96 96 216 147 97 218 219 97 97 219 219 98 220 220 34 99 220 220 32 216 220 31 31 216 221 30 199 203 162 30 212 102 29 181 218 102 28 220 59 103 195 221 105 105 206 34 106 217 215 24 160 214 26 17 151 210 29 147 146 94 36 145 199 90 227 145 87 57 214 144 84 230 211 36 81 232 8 32 233 234 8 30 233 9 9 143 228 11 29 141 12 13 139 154 15 135 133 77 148 126 124 77 151 116 77 77 135 103 77 128 125 77 77 119
158 160 243 243 167 168 244 118 169 245 245 104 164 246 92 88 117 246 76 103 99 65 61 85 80 53 73 69 121 45 61 58 124 17 53 130 133 18 50 144 217 213 171 160 197 30 172 19 166 29 186 137 105 28 21 100 29 29 23 62 32 55 25 54 15 58 211 52 14 61 211 14 15 219 208 15 68 204 52 18 217 193 47 23 215 88 45 102 213 117 136 112 137 143 170 120 156 192 197 72 170 213 130 88 223 225 98 87 231 108 111 202 166 118 120 201 231 125 201 201 240 130 201 244 245 201 201 246 247 202 246 246 233 203 245 232 231 133 241 228 227 132 224 223 130 129 218 215 127 211 209 125 124 213 123 121 215 214 199 116 215 190 187 216 216 178 175 216 169 166 177 214 156 153 178 148 144 182 184 136 188 191 51 48 199 202 37 178 211 29 27 163 219 20 155 152 220 14 148 98 12 93 145 92 10 144 196 88 228 144 85 84 229 182 82 231 232 174 80 234 8 167 98 235 9 107 111 205 10 142 225 12 28 140 199 14 136 135 189 28 130 76 172 28 156 76 27 27 159 76 27 162 162 161 124 164
30 14 30 31 16 10 32 16 15 221 34 15 15 221 15 14 220 220 13 13 219 13 12 219 218 15 217 217 16 16 84 213 17 106 113 18 18 137 145 18 160 167 18 18 185 190 19 198 202 20 21 210 21 22 85 78 22 23 63 16 24 56 54 15 27 51 15 15 59 50 15 219 52 58 15 218 57 17 70 217 63 21 216 215 86 75 214 108 115 78 212 134 147 210 102 155 180 94 165 41 205 80 179 217 133 94 40 228 104 107 40 137 114 202 39 140 89 201 141 141 91 201 142 92 92 190 246 92 202 197 38 93 202 245 37 94 209 37 227 212 214 36 147 216 36 35 148 218 35 149 149 97 34 152 153 98 156 158 99 215 166 99 99 220 182 100 100 220 97 101 220 220 29 101 220 28 28 220 220 28 27 220 27 27 222 219 26 221 221 114 25 221 221 25 222 220 105 104 219 219 97 206 218 84 79 199 9 63 193 191 8 47 184 65 8 145 176 79 33 144 79 92 209 164 77 105 207 76 115 229 205 76 220 202 13 75 202 194 28 186 181 18 28 156 160 21 115 157 24 25 103 75 29 92 162 75
30 159 243 244 31 16 245 115 112 15 245 101 130 14 221 84 113 220 220 13 95 219 59 14 56 217 16 67 75 215 17 94 127 14 18 125 138 225 148 155 18 209 175 19 19 170 196 20 20 136 21 21 102 28 23 23 71 17 54 59 57 16 219 52 15 15 219 49 15 219 219 15 16 219 218 16 218 217 58 62 216 216 78 76 215 98 105 100 119 126 124 132 144 148 158 56 160 182 188 71 174 205 83 87 205 221 97 204 203 105 108 202 202 115 202 202 235 122 201 201 242 91 201 245 246 201 201 246 234 234 247 246 231 132 244 229 228 130 240 224 130 129 36 217 128 127 211 148 125 212 212 123 98 213 209 119 215 215 198 99 215 190 187 99 216 179 173 100 220 167 172 213 220 28 175 76 146 28 220 61 27 189 221 47 26 222 37 106 25 222 26 163 221 221 107 153 220 104 102 209 97 93 145 203 34 74 197 89 45 54 189 55 230 183 180 69 232 174 80 83 211 7 93 209 209 29 106 207 207 29 206 205 29 28 202 200 28 153 194 28 28 154 18 28 155 156 154 27 158 156 157 159 160 158 159 162
30 12 153 31 17 10 32 33 15 138 35 15 14 125 38 13 220 107 137 12 220 14 126 245 218 16 12 242 43 17 239 212 37 18 232 34 18 50 220 32 18 172 30 30 49 194 20 49 49 189 22 50 51 198 102 52 203 204 77 55 208 67 52 209 210 60 42 15 56 55 52 15 53 61 64 68 49 75 78 71 85 88 73 74 98 101 76 142 109 78 79 113 42 80 98 96 41 82 96 41 40 107 113 40 40 131 40 40 136 152 40 138 138 229 39 140 140 90 236 141 90 91 236 143 92 187 143 129 93 196 144 93 204 204 130 94 208 240 129 206 214 36 35 208 230 35 148 211 221 34 150 215 213 189 154 206 182 159 113 196 176 171 99 216 172 101 100 219 170 92 214 220 83 80 211 220 71 207 205 139 57 198 131 128 188 185 121 25 211 115 113 218 221 108 107 223 15 102 225 226 12 226 227 10 10 228 228 9 144 229 8 8 144 144 8 144 144 80 7 144 144 77 144 144 76 76 143 75 75 231 142 75 74 221 12 74 210 205 14 74 191 16 17 175 170 20 118 156 23 24 106 141 27 96 92 31
30 30 16 16 32 32 16 220 34 15 15 220 15 14 220 220 13 13 220 13 12 219 219 15 16 217 16 17 79 213 17 18 107 18 18 131 139 18 154 161 19 18 180 186 21 165 199 21 21 133 210 22 100 90 24 24 68 17 26 57 54 16 28 50 16 16 57 47 15 16 219 57 16 218 218 70 17 217 64 19 72 216 87 74 215 152 114 77 213 133 42 79 105 154 145 153 95 41 177 71 105 40 132 85 40 214 135 98 40 137 106 88 39 139 115 202 168 141 90 201 244 142 91 181 246 92 92 190 37 93 197 200 37 94 205 37 36 210 211 36 217 147 35 35 147 125 34 148 149 97 34 151 152 98 154 155 98 98 162 164 99 218 175 99 99 219 219 100 219 219 29 100 220 28 28 209 220 28 27 220 137 27 221 220 26 26 222 120 25 222 222 107 220 221 107 106 224 220 101 210 220 11 88 204 219 74 145 196 8 54 189 188 52 144 181 63 66 144 79 77 212 144 77 92 210 76 75 234 209 74 116 228 11 74 220 203 13 137 205 15 28 131 185 18 124 153 21 22 114 156 25 104 101 72 29 91
154 128 151 150 158 117 144 159 157 135 132 152 14 246 144 140 246 220 132 246 246 57 124 244 244 47 243 241 41 40 238 236 36 53 229 33 33 50 157 31 49 49 169 29 49 180 183 18 50 192 194 51 213 200 98 53 204 205 74 33 207 64 62 39 31 58 45 47 37 53 56 65 51 48 68 68 48 78 19 71 59 91 73 74 155 29 76 133 126 38 212 107 42 50 210 96 41 209 208 178 40 207 118 194 206 205 207 40 220 102 223 226 139 111 235 231 117 89 232 232 122 90 232 125 125 202 231 126 127 203 245 127 204 203 242 205 206 239 36 207 207 233 208 209 227 226 198 211 220 190 188 213 211 181 116 115 175 174 110 109 170 106 105 216 167 98 96 215 92 90 214 213 81 78 211 152 69 207 205 140 183 198 132 130 197 185 123 207 211 117 115 218 220 110 223 224 15 103 226 12 12 25 227 10 10 144 8 8 144 144 8 8 144 83 7 144 144 80 7 144 78 77 30 144 76 235 235 157 74 233 231 74 121 225 12 73 216 212 13 140 200 16 16 147 173 19 120 152 150 23 109 71 132 27 96 70
129 11 31 219 10 145 33 10 11 35 152 11 12 38 14 13 42 43 13 14 49 12 13 58 63 13 215 214 15 16 210 209 17 205 203 18 19 195 192 18 184 180 18 18 166 160 18 204 139 18 18 212 24 17 216 216 26 17 218 28 28 219 219 30 32 219 35 36 45 219 42 46 46 17 54 49 50 19 53 55 21 23 63 66 27 214 79 33 36 212 103 44 211 210 123 56 209 173 177 83 207 188 192 206 132 205 210 204 218 222 221 156 231 226 227 163 38 229 118 170 38 230 122 202 37 143 125 203 226 144 93 204 145 126 94 205 145 94 206 235 147 95 214 229 198 96 216 221 188 216 216 33 179 216 206 32 158 216 31 169 169 30 30 181 99 29 29 199 100 214 209 211 100 212 217 101 102 220 220 102 103 220 104 104 220 219 105 219 219 23 107 218 217 22 221 215 22 22 220 210 23 220 219 26 27 219 69 33 217 217 50 43 216 42 39 179 215 35 34 170 7 31 164 163 8 29 158 102 29 143 154 116 141 151 126 129 139 150 137 197 194 71 144 180 175 70 176 158 27 153 158 25 27 147 127 29
243 219 10 149 153 114 10 139 152 11 129 37 143 12 39 135 14 14 46 126 245 53 56 13 243 69 75 15 212 38 17 234 206 18 19 199 32 18 21 186 18 49 172 168 18 49 151 18 18 210 195 17 17 215 25 17 218 218 27 219 219 30 31 219 219 34 44 219 39 41 44 219 49 46 46 18 65 50 20 21 56 58 25 26 68 29 31 213 86 39 41 211 46 50 210 209 59 63 208 183 187 207 206 200 195 205 213 217 211 204 227 219 220 236 238 225 225 242 226 227 119 120 226 121 122 202 225 124 123 203 144 124 204 205 124 124 206 237 124 207 207 231 122 209 226 224 188 211 218 181 179 216 210 174 172 216 31 168 108 195 30 165 101 30 164 191 94 29 203 87 100 213 214 76 211 153 219 101 204 142 221 103 220 131 104 184 219 122 106 218 116 23 221 216 22 224 221 213 22 227 12 23 24 219 10 27 29 218 58 35 217 217 44 216 216 38 36 174 215 33 168 166 31 30 161 74 29 156 155 107 29 152 151 121 150 150 129 133 149 137 140 192 187 145 146 171 27 150 155 149 27 154 136 27 26 144
217 10 244 219 10 11 220 220 11 35 220 12 13 39 220 14 43 44 13 15 51 13 14 73 66 15 16 62 126 17 208 112 136 19 200 147 21 190 187 163 201 174 18 18 177 154 18 206 145 28 18 213 96 29 53 217 31 17 56 219 37 58 219 206 34 61 205 39 51 64 201 49 44 195 192 47 48 182 177 45 93 160 44 43 105 43 43 112 114 78 41 120 80 80 125 126 82 209 130 83 84 122 134 85 85 139 86 86 148 151 87 154 156 38 38 161 163 38 141 168 38 37 143 177 37 143 143 245 37 144 92 36 145 145 93 94 145 94 94 211 147 95 95 213 120 96 214 215 117 97 215 32 97 214 215 31 215 216 197 30 170 216 30 162 187 181 29 200 203 170 163 212 101 160 166 69 101 171 174 55 102 183 46 43 188 219 34 105 173 118 25 162 217 110 17 152 105 21 147 147 99 227 145 95 94 229 219 90 229 230 8 85 231 217 7 232 232 6 34 234 7 7 144 235 7 7 144 7 8 143 143 71 10 142 71 70 140 138 70 69 135 69 69 199 128 68 185 181 67 67 167 163 66 155 152 28
31 218 11 11 33 219 11 34 35 12 13 37 15 14 41 42 14 15 48 13 14 217 60 15 16 214 17 17 210 209 19 19 203 18 21 195 191 19 184 180 18 18 189 162 18 201 204 18 18 211 212 18 215 216 26 18 218 28 29 219 219 32 32 219 35 37 43 42 43 45 42 17 54 44 44 19 72 47 21 22 44 55 25 215 63 30 32 213 80 39 211 211 162 50 210 209 177 82 208 189 193 84 129 206 182 205 143 222 200 151 232 38 210 106 240 215 141 112 38 218 116 117 37 143 119 203 37 144 92 204 145 145 93 205 145 93 94 208 234 94 208 212 34 95 213 222 179 214 214 32 172 214 214 31 156 214 31 30 164 215 30 174 178 99 29 192 91 100 204 207 100 213 214 101 101 218 219 101 102 219 102 103 219 220 24 105 219 23 23 219 218 22 222 217 21 21 221 213 21 220 220 98 22 220 220 24 229 219 59 55 218 217 44 183 217 38 37 174 6 33 167 165 6 31 159 86 8 144 154 102 29 142 70 117 209 148 69 222 203 68 137 195 190 67 198 175 27 66 181 153 27 168 164 26 26 151
124 11 244 244 113 11 245 102 98 128 37 85 14 40 128 69 99 46 14 85 81 119 16 70 68 121 240 60 127 129 232 54 139 226 222 32 153 211 181 30 197 191 29 18 171 28 28 51 139 28 29 52 29 30 54 54 203 34 56 204 204 58 59 204 52 61 202 201 49 64 196 47 46 218 186 45 45 173 86 44 96 99 43 43 107 76 42 114 116 78 88 121 80 80 113 127 82 111 139 68 84 127 134 81 205 141 39 86 149 230 38 204 155 38 38 203 243 37 142 203 246 37 143 245 245 211 143 91 36 206 119 92 202 145 120 206 195 119 94 208 187 118 209 212 117 116 211 213 114 212 213 210 31 214 205 203 164 215 197 195 161 191 188 160 160 182 180 160 85 172 161 161 74 161 164 66 63 206 172 54 200 197 44 41 187 184 33 176 173 119 24 162 159 111 154 152 106 105 227 102 100 228 228 96 94 229 8 90 230 230 8 85 231 7 7 232 232 6 6 233 7 7 144 144 7 143 143 71 8 143 143 70 29 142 69 68 140 139 67 219 136 66 66 206 147 65 194 190 20 64 176 23 24 153 160 27
20 217 11 11 245 219 12 35 36 92 13 38 39 14 106 43 15 16 49 52 16 76 63 17 18 64 123 19 208 56 133 22 199 19 147 217 185 19 24 199 29 19 182 154 28 18 153 28 18 212 119 29 53 216 31 32 55 218 30 57 58 203 34 60 219 201 49 63 197 49 46 191 188 45 42 177 173 44 91 158 43 43 103 28 42 110 113 77 41 118 120 79 124 125 81 81 129 82 82 121 133 84 84 136 39 85 145 147 38 86 152 38 38 156 158 38 141 162 37 37 142 171 37 143 143 244 36 144 144 92 199 145 93 93 193 145 93 207 146 117 94 210 116 95 212 212 114 96 212 32 111 213 213 31 31 215 201 30 165 213 193 160 180 187 29 159 198 177 159 208 78 167 161 216 100 209 166 59 102 219 177 47 194 219 38 36 180 124 28 169 166 116 20 157 110 108 150 148 103 20 228 99 97 229 220 93 229 230 8 88 230 230 7 231 232 7 7 233 233 6 144 234 6 6 143 157 7 143 143 70 8 143 68 68 141 141 67 66 138 66 65 216 133 65 64 202 18 63 190 185 22 177 172 25 26 160
244 120 21 244 110 106 19 245 95 125 245 82 78 109 218 67 95 91 217 54 79 117 117 18 66 121 123 18 101 130 230 53 131 23 219 154 156 24 202 179 24 186 155 198 25 158 28 18 26 119 29 53 27 84 18 55 60 55 17 219 45 17 18 219 40 17 219 219 17 18 219 187 62 218 218 77 43 217 95 101 49 215 121 127 59 138 144 69 73 158 162 88 47 50 106 112 58 82 131 67 70 207 154 79 206 205 87 89 204 204 96 204 204 241 103 203 203 244 199 203 245 245 200 244 244 199 198 243 242 195 116 240 190 189 117 235 185 117 116 180 178 115 114 210 114 113 211 211 111 212 213 209 107 214 215 202 97 215 197 195 215 216 189 159 216 182 180 158 81 173 159 160 72 162 163 63 60 26 170 52 49 25 222 40 187 198 222 30 173 120 24 107 159 112 106 152 215 105 101 146 100 19 87 206 94 229 68 198 24 230 191 188 31 218 7 39 43 217 6 53 217 217 31 69 216 7 143 215 215 29 143 214 213 28 146 211 28 28 144 131 28 144 144 139 27 144 144 146 146 146 149 181 147 151 152 135
32 22 217 33 20 20 218 35 19 219 219 17 17 218 218 16 217 217 17 17 215 18 18 72 212 18 18 96 35 19 119 127 19 19 149 24 24 170 176 25 161 191 25 26 143 206 26 129 124 194 27 101 93 198 84 66 18 31 63 47 17 219 41 47 17 219 55 18 64 219 67 18 218 177 80 70 217 92 94 72 143 118 74 75 124 41 63 112 110 40 81 107 40 97 127 113 39 121 64 39 39 134 75 39 38 137 85 205 138 139 87 153 140 88 88 159 141 89 164 165 89 90 173 244 91 180 183 36 91 191 35 35 145 199 34 34 146 34 34 147 147 33 33 148 95 32 149 150 96 31 152 96 97 162 157 97 211 211 98 98 212 212 98 216 213 28 99 214 215 28 214 216 27 27 210 157 26 220 204 146 25 222 103 135 193 222 105 22 222 25 106 220 222 106 106 226 15 102 213 227 11 145 208 19 9 144 200 21 144 144 86 27 144 183 81 231 144 77 47 233 75 74 233 216 72 71 234 7 29 234 234 8 28 232 9 10 140 228 11 12 137 13 14 133 131 16 127 125 59 20 118 115 57 176 108 55
215 117 23 22 217 103 20 218 218 14 18 218 15 16 44 217 17 88 52 18 18 64 115 18 18 86 22 19 107 114 24 130 137 25 25 158 165 25 166 162 26 26 148 144 26 135 131 18 27 116 109 18 92 83 18 18 59 18 18 219 43 17 18 219 41 18 219 219 52 18 218 63 68 218 217 84 41 216 102 109 46 215 127 53 55 31 150 66 69 40 78 84 47 49 100 106 58 209 124 66 69 207 135 77 206 206 137 88 205 237 238 87 204 242 243 203 160 244 187 203 244 36 188 175 243 188 187 185 35 184 114 195 35 180 113 207 177 146 113 208 172 112 95 210 148 110 211 209 151 96 213 208 154 97 210 202 160 97 210 195 158 211 211 29 157 212 28 28 206 215 27 159 216 27 27 219 58 25 26 221 102 196 222 222 104 183 222 105 105 219 222 106 218 217 106 105 215 214 100 212 211 18 86 206 204 19 220 198 21 22 219 85 27 219 219 34 37 218 35 48 217 217 32 64 216 30 30 234 216 29 29 146 9 28 144 143 28 140 141 127 28 141 142 137 131 142 142 144 123 144 147 151 148 54 150 137
127 25 216 34 125 22 217 14 20 245 218 15 19 217 66 17 244 216 18 78 242 45 18 75 239 38 59 102 24 34 54 133 25 52 51 153 26 51 165 168 184 51 178 27 157 185 187 134 119 192 193 102 31 18 81 75 35 18 61 41 42 60 50 49 62 63 58 60 65 219 70 67 67 168 83 70 70 151 41 73 137 133 40 214 120 40 40 112 111 40 123 111 39 39 128 118 39 131 133 83 38 135 136 84 152 137 85 86 138 91 86 153 140 87 88 158 103 88 164 166 107 89 172 36 36 204 183 35 144 205 238 34 145 198 233 175 146 229 33 171 147 224 168 148 109 217 165 150 96 208 163 103 97 208 100 99 215 209 95 98 215 191 88 216 212 183 81 215 176 27 158 213 166 160 218 158 155 165 221 147 174 178 41 136 193 198 31 207 212 25 23 220 223 18 153 152 14 13 147 103 11 145 145 96 9 144 91 90 144 144 85 84 144 81 80 231 144 77 232 232 6 73 233 233 7 233 233 7 7 234 233 8 142 232 9 10 141 229 11 138 138 59 14 134 57 57 128 126 55 55 120 53 53 184 110 51
27 33 25 25 216 216 22 217 217 15 20 217 217 16 245 216 17 18 215 214 18 67 211 19 19 90 37 19 112 120 25 19 142 26 26 51 170 26 26 187 171 27 140 202 27 27 125 188 28 112 107 193 93 83 18 18 68 52 18 219 53 45 18 219 37 56 63 219 65 19 66 172 78 69 217 156 97 71 143 116 40 74 127 140 53 117 115 40 66 112 113 39 126 117 39 39 131 39 38 134 134 84 38 136 85 206 138 138 86 204 140 87 87 156 141 88 160 162 88 89 168 170 90 175 178 35 35 185 187 35 145 194 34 34 146 200 34 147 147 33 33 148 94 32 148 149 95 95 151 96 96 207 155 97 97 208 96 97 208 209 90 216 210 28 98 215 212 28 214 214 172 27 216 216 26 161 220 153 25 221 222 142 182 222 103 131 203 28 105 215 218 21 106 224 16 15 150 214 12 96 211 99 10 144 204 17 144 144 88 20 144 144 83 231 144 79 78 232 218 74 232 232 6 70 233 217 6 233 233 7 29 233 9 9 142 231 10 10 140 12 12 137 136 56 15 131 55 54 125 123 52 195 116 50 50 179
145 118 244 138 116 115 245 126 112 245 245 108 107 245 63 105 244 243 50 48 242 44 41 64 236 37 36 57 197 33 54 53 182 19 52 152 29 19 51 167 19 51 200 179 151 52 185 28 121 214 190 98 91 217 32 72 37 219 35 44 44 39 48 37 54 48 36 63 19 66 36 76 68 218 37 21 71 144 24 25 215 129 28 29 214 153 34 212 212 171 39 211 184 188 94 209 201 38 117 214 218 134 136 228 147 151 82 236 160 163 90 167 169 95 97 204 174 101 204 204 104 105 204 242 107 204 205 239 108 205 236 235 206 207 231 230 208 227 226 168 168 222 220 166 106 216 164 163 103 162 162 100 99 160 160 95 215 158 91 90 216 216 85 216 216 184 77 215 177 175 213 213 167 164 209 159 156 165 203 148 145 177 219 136 192 198 30 126 212 23 22 19 223 17 154 226 222 13 147 228 11 89 144 221 9 144 143 220 59 144 85 84 46 181 80 231 144 170 74 232 162 71 51 233 153 68 233 217 146 83 233 8 8 101 214 10 141 116 210 28 138 203 200 28 133 187 27 27 140 165 27 119 142 27 27 143
244 213 113 27 215 15 110 245 216 16 105 245 69 17 245 215 55 18 243 47 18 69 77 39 62 96 119 34 55 125 26 53 52 144 27 51 51 159 187 51 169 172 162 52 179 141 134 29 185 111 31 32 89 82 35 18 66 40 41 59 52 48 50 62 55 58 64 65 173 66 67 164 160 69 70 149 39 71 137 134 39 74 124 39 39 213 116 39 39 116 178 38 127 128 38 98 131 82 38 134 135 83 136 137 84 85 152 138 86 152 140 91 87 156 96 88 204 162 36 89 168 242 35 204 178 35 35 205 237 34 145 206 233 34 146 229 228 169 147 93 167 166 105 94 164 149 102 212 163 100 96 214 160 96 215 206 92 91 216 195 86 216 216 188 28 215 182 179 156 214 173 27 158 165 162 161 220 154 151 169 43 142 181 187 34 197 203 27 25 168 219 20 158 156 16 15 150 148 12 146 145 99 10 144 94 93 144 144 88 86 230 83 82 230 230 78 77 231 6 73 232 232 6 68 232 7 6 233 232 7 143 232 8 9 142 141 10 140 140 56 12 137 136 53 28 132 51 50 127 49 48 201 118 47 47 185
33 109 245 15 35 105 245 38 38 24 245 71 23 23 215 56 23 243 212 18 24 209 40 19 26 200 19 56 191 188 19 143 174 19 19 169 155 19 187 191 28 19 202 175 28 209 211 29 116 215 215 31 92 218 33 34 59 36 37 44 41 19 44 36 19 19 34 34 19 19 34 20 20 217 36 22 216 216 24 25 215 215 143 214 213 159 164 213 212 177 70 211 190 195 91 209 208 108 114 220 223 130 71 231 143 147 80 82 157 86 88 205 165 93 94 205 97 98 204 204 101 204 204 241 104 205 205 237 91 206 234 233 171 207 229 169 168 199 224 167 167 220 31 165 102 215 163 151 99 30 161 96 95 215 159 91 215 216 171 86 216 191 186 98 215 184 99 99 212 175 99 212 214 26 100 216 157 164 166 218 23 176 38 218 22 198 29 20 20 223 21 19 222 222 104 17 222 13 98 222 222 89 144 205 221 71 199 89 59 55 188 19 47 179 177 25 39 168 32 35 160 157 46 50 218 59 64 218 218 77 83 217 29 96 215 215 28 230 211 28 28 205 202 28 136 189 28 28 138 139 27 140 141 146 27 142
210 14 15 35 97 15 37 38 81 113 41 24 65 96 49 24 84 80 97 25 70 75 106 235 201 114 27 227 188 128 217 175 30 143 201 29 19 186 181 28 19 162 28 28 53 135 29 18 54 181 32 55 217 184 57 57 183 37 59 60 180 47 62 176 174 41 64 167 39 39 159 156 38 38 90 37 37 98 101 37 107 109 75 37 116 117 77 56 123 78 79 127 128 80 129 130 81 82 137 37 83 142 143 37 84 147 37 37 205 152 36 36 205 242 36 142 161 242 35 143 89 35 172 143 90 171 144 103 91 171 145 91 193 169 104 92 198 167 104 210 200 102 94 211 215 30 212 202 210 30 214 207 30 160 215 201 29 167 197 195 157 183 190 188 156 74 99 156 156 66 213 157 60 58 209 160 51 204 202 44 41 194 218 34 185 181 129 26 170 122 119 222 158 114 111 227 107 106 227 228 101 99 228 9 94 229 229 8 87 229 7 7 229 230 7 144 144 6 6 144 144 6 143 144 65 7 144 143 61 143 143 58 57 142 55 55 231 230 53 52 228 12 50 225 223 15 47 217 18 19 209 205 22 23 194 25
14 34 35 15 36 37 29 38 39 27 26 43 46 25 213 52 25 26 209 67 26 205 203 27 27 196 19 19 185 180 19 19 165 19 19 174 145 19 19 193 28 19 203 206 19 19 212 30 31 215 216 32 93 218 34 35 61 219 39 44 41 175 47 35 34 168 40 33 20 73 38 81 21 217 35 94 23 216 102 26 215 214 112 30 213 164 120 77 212 183 42 79 127 201 81 209 134 37 110 140 227 37 132 145 37 145 138 150 36 157 85 36 36 141 92 36 142 142 88 205 143 143 89 176 144 90 90 184 145 91 189 191 91 92 194 226 92 197 198 31 93 199 31 31 149 200 30 30 152 30 30 155 157 29 29 163 96 29 172 176 97 157 188 97 98 156 204 98 210 211 63 99 214 215 100 216 216 24 100 217 218 22 192 218 22 21 177 126 19 223 218 118 18 222 103 17 227 222 97 16 222 10 83 229 222 70 144 229 8 56 187 229 7 144 174 22 6 144 162 31 144 144 66 45 144 145 62 231 143 58 78 231 55 55 231 215 53 52 229 11 28 227 226 13 28 222 16 17 128 213 20 123 120 22 24 114
244 106 135 132 94 90 122 39 78 110 106 84 63 93 85 86 242 78 90 92 238 98 100 233 231 111 114 224 32 125 213 209 29 28 196 29 29 29 175 28 52 52 28 28 53 54 29 54 54 176 32 56 56 177 18 58 176 175 19 219 173 46 44 219 166 40 66 160 71 38 79 150 37 34 92 111 36 101 24 136 39 110 75 157 46 33 77 123 57 40 79 127 47 48 210 133 55 82 208 226 65 207 145 235 206 206 239 36 206 205 242 160 141 242 242 166 142 241 168 169 97 239 170 99 99 170 170 101 90 170 101 101 207 193 101 101 209 223 100 210 210 218 98 212 214 213 212 213 209 161 214 206 204 160 215 201 159 158 82 195 157 157 76 157 156 71 69 156 65 63 213 157 57 55 209 51 49 204 201 42 40 194 140 138 184 181 129 127 170 122 120 222 157 114 226 226 107 106 228 228 101 228 228 9 94 229 229 8 144 229 7 7 144 220 7 144 144 220 6 144 68 6 33 144 63 7 143 139 58 231 143 55 54 231 131 52 230 230 130 114 228 12 131 127 224 15 133 135 176 18 140 209 157 27 116 146
34 35 40 16 37 35 33 117 41 30 29 100 80 28 210 55 83 27 206 19 28 236 198 19 230 189 34 19 218 171 19 53 203 30 19 177 183 28 52 196 29 28 53 208 30 53 54 171 31 55 172 173 81 57 173 37 63 172 171 50 41 168 166 42 61 19 38 38 74 67 37 83 87 70 36 96 71 72 104 107 74 214 113 75 76 124 121 77 78 127 36 79 131 132 36 135 137 36 36 141 143 36 137 146 36 36 139 151 36 140 140 86 35 141 87 87 167 142 88 88 143 96 89 176 144 90 90 183 99 90 188 190 99 91 192 32 32 209 196 31 148 211 216 30 150 197 211 162 152 208 29 156 157 203 159 164 96 198 158 79 97 204 157 73 98 207 68 66 214 210 60 99 211 165 52 207 216 155 43 199 146 22 180 187 134 197 223 127 124 216 223 118 223 225 15 109 227 228 12 228 228 10 10 229 9 8 144 143 8 8 144 81 7 144 144 74 6 144 69 68 144 144 64 62 144 60 58 231 143 55 230 230 8 51 230 230 9 229 229 11 11 227 226 13 135 223 16 17 129 19 20 124 121 23 24 115
244 206 16 41 209 87 119 115 210 18 103 74 210 18 86 77 19 19 68 85 19 64 90 28 19 111 110 29 134 141 29 204 151 168 29 135 28 29 29 120 28 30 113 112 19 31 107 19 19 104 101 19 19 218 19 19 219 219 19 19 219 49 19 219 219 62 20 219 76 82 218 218 99 33 217 118 124 35 36 142 37 39 30 163 44 46 35 52 55 40 42 67 46 48 210 89 54 57 208 61 63 207 207 236 71 206 239 240 206 206 241 241 205 241 240 165 205 239 167 168 171 237 169 170 96 33 170 97 98 169 169 98 208 169 98 98 209 147 97 210 211 148 95 212 214 150 94 213 209 208 95 197 204 160 215 199 199 158 201 195 157 157 204 27 156 68 208 27 156 61 26 25 218 52 208 159 221 100 201 222 38 101 218 222 102 180 218 223 103 218 120 104 104 217 111 227 214 214 15 228 209 208 13 222 201 13 13 221 13 13 221 221 14 16 220 42 20 220 220 36 143 220 33 33 141 220 31 135 133 30 30 129 129 29 127 127 99 28 127 127 115 138 129 124 127 194 132 133 179 173 39 140 159 27 143 148
203 49 47 206 17 40 208 209 18 244 209 18 19 243 207 19 60 239 43 19 80 86 37 60 107 29 19 129 136 29 53 156 29 29 52 141 29 123 52 152 30 112 158 159 127 107 19 32 101 33 19 83 94 37 58 63 43 19 61 49 52 62 219 61 63 65 219 74 67 68 146 96 69 70 139 34 72 133 133 34 130 129 35 35 128 128 35 123 129 35 35 128 46 35 131 133 81 36 135 82 82 137 137 84 84 138 84 85 153 140 85 86 158 85 87 162 164 34 88 169 34 34 175 176 33 144 182 33 33 145 187 32 146 146 224 31 147 147 92 166 148 93 93 165 92 94 195 152 89 95 196 85 95 215 197 81 96 199 196 75 216 202 27 27 215 184 27 209 214 176 156 217 168 165 157 221 157 161 164 39 146 174 223 102 191 197 26 103 218 21 20 160 217 16 15 151 107 12 147 146 99 10 144 94 93 143 144 87 13 228 81 80 228 221 74 229 229 6 67 229 229 6 229 229 6 7 229 229 7 143 229 7 7 142 47 8 141 141 44 11 139 42 41 137 135 39 39 131 38 38 214 125 38 38 202 38
200 202 17 17 205 206 18 41 207 18 18 47 206 19 55 58 19 19 71 77 19 88 96 29 29 117 29 29 162 145 29 29 141 29 29 126 122 30 30 113 19 30 108 107 19 212 105 19 19 216 100 19 218 218 19 19 219 219 20 219 219 52 20 219 219 67 66 218 82 87 31 143 105 32 32 124 130 34 26 148 36 37 30 170 43 34 35 35 53 40 211 35 130 48 210 209 133 81 208 232 62 83 207 237 84 206 151 239 85 206 240 34 86 160 239 164 142 167 34 168 91 174 33 144 93 33 33 145 95 32 145 145 91 31 146 92 209 147 147 93 211 215 93 93 193 211 94 94 194 29 95 195 195 28 95 197 28 28 199 200 27 188 203 27 27 203 62 26 212 214 98 25 219 219 99 221 222 100 99 222 100 100 218 223 101 102 218 19 103 218 217 17 103 216 16 15 148 212 14 14 208 97 13 222 200 12 228 222 84 12 221 221 48 228 221 42 41 229 220 37 147 229 6 33 136 7 6 143 129 7 30 125 47 8 142 123 95 100 140 42 112 209 138 39 124 195 38 37 219 175 37 213 209 22 38 199
198 63 245 203 86 60 244 74 18 244 243 59 19 53 51 48 75 68 42 40 65 81 36 59 58 98 32 55 112 116 53 53 127 186 52 137 140 165 112 147 146 141 29 154 122 115 31 103 97 34 34 79 37 39 59 60 44 46 61 157 54 63 63 153 65 65 149 148 21 68 144 143 70 217 138 33 72 134 145 33 215 131 34 34 120 184 34 124 126 203 34 129 79 34 79 132 81 96 135 60 82 120 137 83 207 140 73 85 154 155 79 206 159 34 84 206 165 34 206 206 235 33 206 233 232 169 207 229 32 169 93 225 169 146 94 221 167 93 92 167 166 90 212 165 89 88 213 163 85 214 214 82 81 215 215 199 216 216 195 28 216 216 189 157 215 184 182 156 177 175 156 156 168 165 157 45 157 161 163 37 36 174 31 30 182 197 25 172 169 20 19 159 156 15 152 150 107 13 146 146 99 228 144 93 91 228 143 85 228 228 80 78 228 7 72 228 228 6 64 229 6 6 30 229 6 7 143 220 7 143 142 7 29 142 44 8 141 141 41 28 140 39 38 28 136 37 222 132 129 36 215 213 37 140 204 24
65 198 18 55 245 202 18 43 203 65 19 49 203 19 19 61 45 19 75 80 38 62 100 30 33 56 129 30 55 53 118 29 53 174 29 172 115 140 30 108 28 148 131 104 19 153 106 32 19 88 83 37 19 68 41 43 60 53 50 20 62 153 61 64 219 149 66 67 145 93 68 69 141 33 71 137 136 33 73 133 33 33 132 132 33 121 123 33 34 127 128 34 130 131 80 34 134 134 82 107 137 83 83 138 138 84 152 153 85 85 157 34 86 161 163 34 87 167 33 33 206 174 33 33 207 230 32 145 183 32 169 146 91 31 147 147 92 167 148 92 93 166 149 93 190 164 85 94 191 155 81 214 193 78 95 216 198 28 216 198 192 27 216 187 27 156 214 180 25 215 172 170 156 220 162 158 159 40 99 166 169 33 189 185 28 26 175 208 21 165 162 17 16 153 215 13 148 147 102 11 144 97 95 228 144 88 87 228 83 80 228 228 74 72 228 7 66 228 228 6 228 229 6 6 228 228 6 143 143 7 7 142 142 8 142 141 40 10 140 140 38 139 138 37 36 135 36 35 219 218 35 36 211 22 36 201
133 54 63 244 83 51 244 244 68 40 243 57 54 34 240 46 74 31 190 39 64 228 176 19 58 93 31 19 145 112 19 53 170 127 19 186 136 30 19 202 143 134 209 211 32 110 214 33 34 100 35 36 38 92 20 42 73 65 20 51 45 20 64 35 34 21 66 31 21 22 218 30 23 217 217 133 25 216 215 158 214 214 175 180 214 213 196 47 212 209 213 61 219 222 76 82 229 231 100 58 61 118 124 66 67 138 71 72 207 152 77 78 206 81 82 206 206 85 206 206 233 232 207 207 230 169 207 227 226 169 208 223 169 168 220 219 168 89 216 167 167 87 213 165 85 84 213 163 82 80 215 158 77 215 215 74 72 216 194 68 216 216 189 97 215 183 182 97 213 175 156 156 212 165 157 158 214 22 163 36 145 20 223 28 19 197 223 22 18 223 18 102 156 223 15 150 213 222 93 145 98 222 80 199 90 69 65 186 11 57 175 75 11 47 159 13 228 221 144 19 228 6 26 30 221 7 40 221 220 30 59 220 219 29 218 218 29 29 216 214 28 119 120 28 28 123 35 27 126 127 134 27 128 139 139 128
244 244 89 18 244 244 74 106 243 62 19 91 241 50 79 64 43 42 67 63 37 61 60 79 33 56 94 99 201 54 114 118 181 125 127 166 160 135 149 143 28 143 125 119 30 33 102 33 33 85 80 38 58 59 43 44 61 61 52 62 63 149 62 65 148 146 21 67 144 143 22 217 140 33 32 216 137 33 109 135 168 33 117 184 33 41 124 203 33 128 42 218 65 132 80 228 87 54 81 146 111 62 83 150 67 84 207 154 73 207 158 237 78 206 164 33 206 206 234 32 207 207 230 169 144 228 227 169 89 224 169 169 89 220 169 88 88 167 167 86 92 166 85 84 213 188 82 81 214 205 78 215 215 201 215 216 197 196 216 216 192 157 216 187 185 156 214 179 155 155 50 170 156 45 44 157 159 38 36 165 33 31 188 184 26 25 174 22 20 164 161 17 16 153 110 107 148 147 102 227 145 95 93 227 143 87 227 227 80 78 227 228 72 228 228 7 63 228 6 6 143 228 6 6 143 221 6 143 142 220 7 142 41 8 29 141 38 10 140 115 36 225 138 34 224 223 122 34 219 218 125 135 211 22 126 140
186 37 72 68 194 41 56 196 196 45 42 195 52 36 192 190 20 70 182 179 19 100 167 19 19 128 19 19 149 156 19 19 174 31 19 189 193 31 19 203 32 32 100 211 33 100 100 35 35 99 99 38 96 93 20 44 77 69 20 54 48 20 20 36 34 21 218 218 21 22 218 115 23 217 216 140 25 215 159 165 214 215 182 187 213 197 201 45 48 213 55 59 45 224 74 80 52 33 98 57 59 33 122 64 207 137 140 70 207 151 75 206 206 235 80 206 234 233 87 207 231 230 88 176 228 169 207 180 224 169 182 221 30 169 184 30 168 147 85 30 166 84 92 29 150 81 214 29 154 94 215 159 161 95 215 169 95 95 195 193 96 198 199 26 96 203 181 25 207 208 24 156 211 212 23 221 214 21 21 223 20 20 223 223 101 18 223 101 102 223 223 101 155 223 99 98 211 223 92 88 204 10 78 196 193 69 185 182 10 10 169 165 11 222 153 12 13 221 138 17 221 221 51 26 221 32 37 227 221 30 55 220 7 29 110 219 29 29 111 10 28 114 115 13 28 118 123 16 132 122 132 128 126 35 138 153
37 91 86 120 41 74 108 104 41 47 92 43 43 238 78 47 34 232 53 57 225 166 69 215 211 31 89 198 194 30 53 179 28 28 53 159 28 54 54 29 29 54 55 31 55 56 145 34 57 147 147 20 59 149 149 55 219 149 47 45 148 147 39 67 146 37 36 80 99 34 89 92 125 33 101 72 32 31 111 74 74 117 31 76 137 123 77 77 139 40 79 141 142 47 210 144 33 54 209 148 33 137 207 235 33 139 154 236 148 141 236 33 158 77 234 163 143 81 231 166 83 88 168 169 84 89 179 85 86 208 182 86 86 209 218 85 210 184 214 211 212 212 29 212 213 208 164 213 205 204 162 159 201 161 160 69 196 159 65 63 158 157 59 58 157 55 54 214 156 49 48 211 166 42 207 205 155 36 199 146 143 190 187 135 190 177 127 124 213 163 117 222 223 110 108 226 226 12 226 226 10 10 227 9 9 143 227 8 8 144 222 7 143 144 7 7 143 57 6 144 143 51 49 143 46 45 227 143 42 227 227 108 38 227 227 36 84 227 10 34 226 225 12 138 224 14 15 133 185 18 129 128 165 22 123 35
18 38 81 77 115 42 63 58 190 39 46 188 187 39 37 181 20 34 173 169 19 220 156 19 19 204 135 19 153 121 29 19 177 182 19 54 195 31 20 205 136 33 55 212 34 34 56 144 36 98 58 147 41 94 147 147 52 73 20 58 43 62 21 38 34 75 67 34 84 22 69 33 96 71 216 104 106 73 215 172 74 75 138 194 76 139 139 32 78 140 219 32 143 144 32 77 146 146 32 137 149 32 32 138 64 32 140 140 84 32 141 85 85 142 142 86 87 143 87 87 173 144 88 88 177 84 89 179 180 30 209 182 30 30 182 182 30 148 183 29 29 149 184 29 151 152 207 28 155 156 94 162 161 94 94 160 65 95 194 185 60 95 198 56 96 214 204 50 96 207 171 44 209 211 22 222 203 151 20 223 193 140 177 223 131 18 203 223 121 217 223 16 112 225 223 96 226 226 11 87 201 10 9 143 188 8 8 143 77 8 144 143 67 7 144 60 58 144 143 52 227 227 47 46 227 222 42 227 227 7 38 227 227 8 227 227 9 10 226 226 11 139 225 13 14 136 33 16 132 131 33 20 127 33 33 122
127 40 19 117 37 37 105 101 38 241 89 39 40 237 76 43 231 229 87 52 221 217 33 32 205 31 31 31 121 29 54 172 106 28 53 100 28 54 54 97 29 55 137 97 20 56 142 87 19 218 145 68 59 218 45 54 219 147 56 44 219 67 39 37 219 87 35 82 105 112 29 94 70 29 29 25 72 30 31 28 214 34 31 32 213 39 35 212 212 40 41 211 224 226 210 210 230 32 209 232 233 114 208 234 234 135 234 234 147 150 233 233 158 75 231 162 164 79 206 167 81 81 207 168 82 207 208 83 83 208 209 82 209 209 216 81 210 214 213 211 212 210 210 166 208 207 164 163 204 203 163 70 200 161 161 65 196 159 61 60 157 157 56 215 215 52 51 213 213 46 211 210 165 40 206 205 154 98 198 145 142 99 217 133 189 176 216 123 213 18 116 221 223 14 107 225 12 11 13 227 10 10 11 222 9 143 226 222 60 144 222 7 50 144 60 44 143 130 52 38 143 47 20 34 110 41 227 104 103 45 227 100 100 64 220 8 80 85 217 10 99 213 211 28 114 200 16 27 186 181 27 128 165 27 26 113
170 123 38 85 179 43 36 242 182 37 51 239 179 39 234 172 40 45 224 36 19 215 211 32 19 138 30 30 54 163 29 28 53 115 28 54 54 126 54 54 132 135 56 55 139 94 57 142 142 75 97 144 62 59 46 146 50 48 56 43 41 65 67 38 74 76 67 35 86 89 69 143 98 71 71 141 108 73 140 140 29 75 140 31 76 141 141 31 78 143 31 31 211 145 31 31 135 230 32 137 137 232 32 138 83 32 139 140 84 150 141 72 85 159 142 86 207 165 78 87 173 174 80 207 176 30 81 208 220 30 209 209 217 30 210 214 214 168 211 212 29 167 76 208 165 152 93 204 163 70 93 162 161 66 216 160 62 61 216 158 57 216 215 53 52 214 203 176 213 212 169 23 209 162 158 156 203 150 147 163 141 138 177 183 130 127 202 20 120 216 219 15 15 224 13 12 147 226 11 144 144 10 9 143 143 8 143 143 73 8 143 143 63 227 144 56 54 227 50 48 227 227 43 42 227 7 39 227 227 7 35 226 7 8 226 226 9 10 140 10 11 139 138 13 137 136 31 16 133 131 32 27 127 32 32 26
125 169 171 19 42 176 19 20 49 177 20 57 61 43 20 74 37 36 92 98 33 211 119 32 32 124 146 32 32 109 32 32 101 99 32 32 96 20 20 95 95 20 212 95 20 20 215 96 20 218 218 20 20 219 219 20 219 219 60 21 219 72 77 40 219 93 99 30 112 119 29 29 139 145 29 25 165 30 30 28 187 33 31 32 213 38 36 212 212 129 41 211 211 46 210 210 229 52 209 209 232 82 208 232 232 83 158 232 146 150 162 230 157 73 229 31 164 76 227 166 143 78 30 168 79 80 30 145 80 209 30 146 90 210 214 147 91 211 212 91 91 180 209 92 214 181 28 93 183 202 28 185 185 27 160 62 190 27 184 57 26 25 200 52 25 210 212 96 24 217 42 96 220 221 97 204 222 97 98 215 140 98 99 216 18 99 216 215 16 99 214 15 14 211 209 14 223 203 12 12 223 191 11 222 222 68 9 222 222 57 226 222 51 49 222 222 43 121 222 38 37 108 6 34 100 99 29 32 95 41 46 142 92 61 67 141 32 82 217 98 31 225 211 31 112 222 197 31 220 182 27 27 213 163 26 108
87 120 37 36 19 105 36 35 93 53 36 237 79 37 41 229 39 43 220 216 34 33 204 32 31 32 186 30 55 32 103 28 54 97 96 20 55 123 29 20 208 132 20 56 214 138 20 216 141 71 20 218 46 57 219 219 55 47 219 66 70 52 69 85 36 34 22 109 30 90 23 136 29 24 71 29 29 27 215 31 29 30 213 34 33 213 213 215 38 212 211 223 211 210 227 228 209 229 230 99 208 231 231 123 231 231 138 142 231 230 152 70 71 158 160 74 74 164 76 76 207 167 77 208 208 78 78 209 209 79 209 209 216 214 210 210 212 168 211 210 209 166 207 207 165 165 204 203 163 67 201 162 161 63 196 160 59 58 215 158 54 53 215 205 49 214 214 45 96 212 167 40 208 207 157 96 201 148 145 98 191 136 176 182 215 125 201 19 215 16 219 15 109 14 223 12 13 225 223 10 11 223 9 143 143 222 8 143 69 222 55 143 59 49 47 124 49 42 143 109 14 37 100 39 22 33 93 32 226 221 89 50 221 8 64 70 219 10 86 217 215 28 104 208 205 27 198 193 27 27 177 172 27 106 106 26
19 159 19 19 43 45 20 20 51 64 20 60 64 46 20 78 39 38 96 102 35 133 123 34 33 116 150 32 105 103 19 33 97 95 20 136 93 20 20 93 30 20 212 94 20 20 216 36 20 218 218 45 20 219 52 55 62 219 64 69 64 146 83 42 219 100 34 31 145 126 29 29 144 31 28 26 26 30 30 29 215 30 121 32 213 125 126 77 212 130 41 79 147 133 80 210 149 136 81 152 229 31 82 156 31 133 159 160 31 149 163 30 30 142 167 30 30 143 30 30 143 144 30 30 145 88 88 145 145 89 176 146 89 90 176 147 90 177 177 91 91 177 178 92 179 179 28 28 181 27 27 162 184 27 27 174 193 26 186 190 25 25 202 95 24 211 213 95 23 218 96 96 209 221 96 212 212 31 97 214 215 26 185 215 17 98 171 214 16 161 212 110 14 151 103 13 225 223 94 12 223 9 84 225 222 67 73 226 8 58 226 226 7 49 226 6 6 143 108 6 143 143 39 7 142 90 27 142 142 33 43 142 141 31 226 141 30 30 225 31 30 224 224 13 30 222 16 16 220 218 19 27 213 22 23 123
243 80 114 242 68 65 99 240 55 88 84 47 45 74 72 39 67 65 45 48 60 59 60 192 56 75 79 172 164 94 157 153 106 110 138 28 120 123 118 30 129 103 31 32 57 84 35 58 59 95 41 60 60 95 20 62 145 56 20 64 146 21 66 219 146 35 218 146 123 33 217 145 31 28 216 169 31 112 215 189 30 120 201 205 35 126 213 40 42 39 78 52 43 79 210 72 49 81 152 53 55 208 155 59 60 208 229 64 208 208 227 208 208 226 225 161 207 223 165 165 221 221 167 144 219 169 168 76 216 169 169 75 169 168 74 74 168 74 73 212 212 71 70 213 204 68 214 214 202 64 215 199 197 216 216 194 159 215 190 188 157 156 183 156 155 45 175 155 154 40 153 153 36 35 154 155 31 199 159 27 26 188 223 23 177 174 120 18 164 113 111 155 153 104 102 148 97 95 225 145 88 225 225 171 76 225 226 150 8 226 8 7 8 226 7 143 226 222 6 143 226 6 36 142 222 7 142 83 222 31 141 31 31 30 85 30 225 28 91 30 224 95 30 105 223 101 116 221 189 104 126 215 21 132 134 157
39 41 75 20 45 47 60 94 53 70 20 79 66 50 71 82 42 41 63 49 37 198 119 65 35 108 30 84 163 97 19 102 144 29 20 129 124 29 55 110 30 20 56 214 33 57 216 139 38 59 218 49 61 61 145 59 63 63 146 41 65 146 146 37 147 147 34 34 90 146 32 98 101 31 31 108 27 31 115 116 75 30 121 76 76 126 127 77 78 130 78 79 149 150 79 80 152 30 81 154 155 30 82 158 30 30 208 161 30 141 164 225 30 142 142 30 162 143 86 30 144 144 87 168 145 88 88 169 75 88 173 168 74 89 174 73 90 211 175 28 91 175 206 28 214 177 28 27 215 200 27 163 215 196 160 176 192 190 158 192 185 156 156 46 95 154 214 41 212 154 38 96 208 34 33 203 211 29 28 193 135 24 184 180 124 17 170 116 114 215 158 107 105 222 100 98 224 224 91 225 225 9 80 225 225 8 226 226 8 8 143 225 7 143 143 6 6 143 40 6 143 143 35 7 142 33 33 142 142 31 31 141 31 30 226 225 30 30 225 10 29 224 224 13 223 222 16 16 219 218 20 129 213 22 23 124
243 77 42 105 150 62 90 84 153 50 82 150 148 20 70 140 20 20 102 126 19 59 129 19 19 149 80 19 19 173 35 20 187 192 35 126 202 36 37 90 210 38 92 92 40 41 93 94 45 95 94 20 53 94 93 21 219 85 21 21 218 21 21 219 218 22 22 218 131 23 217 217 157 25 216 174 179 215 215 192 197 31 203 206 34 35 213 39 42 39 220 51 55 44 65 70 49 50 89 96 53 208 115 58 59 208 226 63 208 208 224 67 208 223 222 85 208 221 220 208 171 219 167 208 216 216 168 73 214 168 169 73 29 168 72 71 28 168 70 212 28 150 67 214 165 65 92 215 157 61 215 181 196 93 216 192 191 93 189 186 156 94 195 179 155 199 200 22 153 204 162 21 221 209 20 154 222 96 19 223 25 97 17 223 97 173 224 224 97 160 224 96 95 203 223 91 194 190 12 82 177 171 10 161 155 9 8 139 134 8 222 119 7 8 222 102 8 222 222 11 11 222 36 35 222 222 33 32 222 31 30 79 221 30 29 84 9 29 89 91 28 139 96 103 28 100 102 117 190 103 125 127 170 103 133 158
80 242 72 69 103 239 58 91 88 147 47 78 75 40 20 67 44 47 63 61 56 189 58 68 73 169 55 87 154 150 180 103 136 29 29 37 117 30 30 103 90 31 57 86 34 35 58 93 39 60 60 94 20 61 145 91 21 64 147 40 21 219 148 36 67 218 121 33 218 148 147 32 217 165 31 28 215 185 29 118 197 201 31 124 76 35 37 36 78 44 47 41 211 59 45 47 209 49 51 209 209 54 56 208 224 30 208 208 224 30 208 222 222 157 208 221 220 163 219 219 166 166 216 167 168 72 214 168 169 72 210 168 71 71 211 168 70 212 212 68 67 213 204 65 214 214 201 62 215 198 197 215 215 194 192 159 189 188 157 157 183 181 155 43 175 154 153 39 22 152 35 35 152 152 31 202 200 28 26 192 189 23 183 179 121 19 169 114 111 96 157 105 102 150 197 95 223 145 88 85 225 9 76 225 225 8 63 225 8 8 7 225 7 143 7 222 6 143 225 222 38 143 222 7 34 142 31 32 141 76 30 30 79 29 57 29 86 29 225 92 94 93 224 99 100 109 200 16 119 122 180 20 128 165 23 26
119 134 20 109 140 141 20 90 142 20 20 139 137 20 82 129 20 20 107 116 19 127 134 19 19 153 159 37 170 175 37 37 189 194 37 89 203 38 39 89 129 41 90 91 43 45 92 20 20 93 93 20 20 93 21 21 219 87 21 218 219 71 21 219 218 22 68 218 137 24 217 217 162 27 216 178 182 28 215 195 29 30 149 207 33 35 150 29 41 39 218 29 133 44 29 70 136 49 209 137 53 81 208 139 82 208 162 141 83 208 221 84 84 167 219 85 85 169 29 165 170 216 29 167 170 29 168 145 170 29 146 70 28 28 147 69 28 148 149 90 28 150 151 91 173 154 91 92 176 92 92 179 180 93 93 183 25 93 188 189 24 94 193 23 23 197 199 22 21 219 21 20 221 222 19 222 222 95 18 223 223 96 174 223 96 96 200 224 96 205 203 14 94 196 13 89 146 181 11 81 166 76 10 143 143 8 8 143 54 7 222 143 44 7 222 46 8 225 222 40 226 222 6 35 226 222 33 142 226 7 31 77 225 8 140 85 9 10 139 29 87 139 138 29 105 136 29 29 219 133 28 125 213 27 26 204
20 118 132 66 101 97 137 20 86 43 135 20 73 45 20 66 96 52 19 115 62 42 19 142 78 160 95 166 39 141 29 39 39 89 29 39 39 88 20 41 89 89 20 44 91 20 20 91 92 20 61 218 20 20 219 147 21 219 219 88 21 219 219 110 218 218 129 134 217 217 153 28 216 169 174 27 27 187 28 28 30 201 31 32 34 34 36 36 38 43 40 41 211 58 45 210 210 221 50 209 209 222 208 208 221 222 208 208 221 147 208 219 219 157 208 218 161 162 216 216 165 69 69 167 167 70 70 168 69 69 210 168 69 68 211 148 66 212 212 150 90 213 202 62 91 214 198 163 215 176 195 161 216 191 159 158 184 185 157 156 190 24 154 41 172 22 215 37 212 151 220 32 207 222 29 95 199 223 25 191 209 223 95 178 118 95 96 206 109 95 94 198 13 221 189 185 12 223 171 11 10 223 148 9 225 223 8 8 222 8 7 222 222 50 7 222 222 43 79 222 39 38 73 222 35 72 73 32 32 75 35 30 80 82 55 29 89 71 76 218 97 91 96 211 29 108 200 196 117 120 181 27 127 166 162 26
121 125 45 112 238 131 46 94 132 47 46 222 127 20 49 206 36 19 111 186 33 19 137 30 19 56 162 29 20 178 103 29 55 196 40 56 56 124 42 88 57 132 82 89 138 139 68 91 142 59 56 46 146 49 53 55 43 42 64 21 38 73 75 67 218 85 88 69 151 96 70 71 151 106 72 151 152 73 74 152 29 75 152 152 29 77 153 29 29 131 154 29 29 134 218 29 136 137 29 94 138 81 29 139 140 82 135 141 83 83 166 142 84 167 167 65 85 168 168 86 209 168 29 86 168 211 28 209 168 28 28 210 208 28 147 148 205 28 149 90 202 165 151 91 164 164 58 91 162 161 54 215 160 51 92 216 158 46 216 187 179 42 215 193 22 214 213 163 21 210 155 152 150 205 143 141 152 135 132 159 223 21 121 179 19 95 199 205 15 158 216 13 13 150 221 11 146 145 10 10 143 143 9 143 142 57 54 143 143 46 225 143 40 39 225 35 34 225 225 32 31 226 7 31 225 225 7 30 225 7 7 141 225 8 140 140 9 10 139 139 11 138 138 29 14 136 135 28 27 132 27 26 213 128 24 203
113 55 53 20 49 50 234 231 60 49 223 42 76 66 207 36 56 53 108 33 47 170 98 19 44 93 29 20 42 89 20 56 192 87 20 56 123 20 20 210 132 20 214 215 49 20 216 142 56 218 218 63 50 91 219 77 89 62 90 94 77 22 110 59 52 22 134 36 23 24 29 28 25 25 26 27 27 215 214 29 30 214 203 32 213 213 210 212 212 214 215 211 211 217 63 210 218 218 87 209 219 107 114 55 219 130 57 59 143 146 61 62 155 63 63 208 161 65 66 209 144 67 209 209 210 67 209 209 208 210 210 207 167 211 205 205 167 212 202 166 166 168 199 165 164 197 27 162 55 54 161 167 50 216 159 47 46 216 193 43 215 215 207 38 214 166 216 94 211 156 31 94 203 144 150 201 206 18 155 206 125 17 172 205 16 192 16 200 14 213 14 13 13 223 12 147 223 223 81 144 223 9 73 128 223 67 142 108 223 59 95 40 53 51 82 34 45 75 74 9 225 71 12 13 222 73 20 23 222 29 33 222 221 47 53 220 29 69 219 218 28 224 214 28 28 110 201 27 112 112 27 27 112 113 26 112
123 239 56 55 235 123 53 229 227 46 20 216 211 39 67 197 35 34 61 175 32 58 58 30 30 56 56 29 56 56 108 111 56 117 120 103 56 127 129 88 212 134 77 74 139 141 64 40 144 56 53 47 69 47 54 57 64 41 65 65 66 73 77 67 68 48 23 69 153 97 24 71 154 25 72 215 154 29 214 154 29 29 214 155 29 127 213 210 28 131 157 214 53 134 216 28 75 47 217 94 138 52 81 119 55 82 209 139 59 83 165 61 61 208 166 64 64 209 212 65 209 209 210 209 210 209 208 167 210 207 167 168 205 205 167 148 203 166 166 61 200 165 58 58 164 163 55 54 162 52 51 215 216 48 47 216 182 44 216 215 175 40 215 169 167 213 213 159 150 210 151 148 149 149 139 150 151 24 128 157 161 20 172 178 18 17 199 15 15 158 215 13 12 149 223 11 146 145 75 10 143 64 61 143 142 51 48 143 43 42 224 143 36 225 225 76 32 225 225 71 9 225 7 7 15 225 7 141 225 222 8 141 222 8 140 140 220 10 139 28 217 28 138 28 27 28 113 27 219 133 115 25 212 115 23 131
20 45 118 114 50 53 103 227 62 90 85 116 80 72 111 108 62 59 102 100 19 96 94 19 20 90 89 20 177 87 20 20 194 86 20 203 205 20 20 211 50 20 214 215 55 56 217 60 62 89 218 69 72 90 79 83 89 87 96 83 79 22 117 63 57 23 33 39 24 24 217 28 25 216 216 27 27 215 215 29 214 214 201 32 213 206 207 77 212 211 212 48 160 214 63 68 215 215 87 49 216 107 113 53 28 130 56 57 28 146 59 208 28 143 62 209 209 143 85 209 210 65 86 210 208 86 209 164 206 87 164 205 28 88 164 202 167 164 164 27 165 58 166 27 154 55 26 26 160 91 25 168 171 92 25 182 92 92 194 199 93 215 208 93 93 192 159 93 93 197 20 93 200 201 18 201 202 17 17 202 202 16 223 199 15 15 224 15 14 224 224 91 13 223 87 85 223 223 80 78 223 74 72 114 223 67 65 96 8 59 86 83 6 51 76 6 7 143 72 8 222 72 29 13 222 77 18 225 222 28 32 222 222 28 225 221 29 29 224 11 28 112 223 13 28 116 16 17 133 118 20 26 129 23 24 126
66 237 47 62 111 230 57 60 221 115 72 82 202 38 93 67 103 33 59 57 96 31 58 91 90 20 56 88 20 20 187 86 20 56 201 20 20 208 132 20 20 214 55 20 216 216 60 88 218 67 70 89 219 79 89 88 90 95 85 70 109 76 71 22 130 53 46 23 217 33 24 25 216 25 26 215 216 28 28 215 195 31 214 213 203 34 213 207 208 212 211 211 52 57 212 213 74 81 214 94 101 51 213 120 125 55 135 139 57 58 149 59 60 209 158 62 62 209 209 63 209 209 207 64 210 206 206 87 210 204 204 211 162 202 167 212 200 166 166 58 198 165 164 56 26 162 53 51 25 160 49 215 158 176 44 216 187 41 92 215 203 37 215 188 162 93 213 154 151 93 196 143 148 93 199 131 150 200 199 17 160 198 16 15 224 192 14 204 224 91 13 224 12 88 12 223 83 144 223 223 76 117 223 71 69 99 223 63 88 85 6 55 78 33 6 74 73 7 225 73 73 10 223 77 14 16 223 21 24 222 222 35 40 222 30 30 221 220 29 29 217 28 28 117 209 28 120 120 18 27 121 121 26 128 123 130
20 46 48 20 52 55 104 20 65 92 88 109 83 76 73 103 76 64 98 96 88 56 91 20 53 131 87 20 51 85 29 20 104 85 20 57 207 31 20 211 212 33 58 215 60 38 60 218 68 61 61 150 79 63 152 154 41 65 155 107 37 76 156 35 61 23 159 33 96 24 31 31 106 72 30 113 115 73 29 120 75 75 161 125 76 213 162 77 77 162 209 78 78 163 28 79 164 164 28 165 165 28 28 165 166 28 141 141 28 28 141 142 28 143 143 84 28 143 85 85 165 144 86 86 145 62 87 161 146 87 87 161 27 88 161 160 27 88 161 27 27 214 163 26 155 215 191 25 161 168 186 159 173 91 24 156 188 91 154 200 92 92 151 34 92 189 149 31 92 194 28 27 205 196 24 93 197 123 17 188 195 112 15 175 106 15 198 162 96 211 224 88 85 219 223 75 221 221 10 61 223 223 9 143 223 8 8 143 8 8 143 143 7 7 143 30 7 143 143 29 7 142 29 29 225 141 28 28 225 28 28 225 225 28 224 224 9 28 224 224 11 223 223 13 15 222 221 17 133 132 20 21 130 21 24 126
236 65 61 97 69 52 86 83 69 43 74 72 74 20 65 80 169 19 123 90 149 58 148 57 131 29 110 118 115 29 53 104 29 29 54 90 30 57 56 84 33 58 85 85 21 60 86 42 21 218 151 21 63 219 154 21 218 156 104 22 219 118 35 218 218 137 33 217 152 156 32 216 168 172 25 27 182 24 24 29 25 26 32 32 29 31 35 212 38 38 38 211 52 42 210 210 209 46 209 210 210 209 209 210 209 209 210 209 143 209 209 208 154 208 207 159 161 207 206 163 61 61 165 166 61 210 166 61 61 211 167 60 211 211 59 58 212 213 56 213 214 194 54 214 215 190 162 216 186 185 159 169 181 157 157 176 175 155 38 168 153 152 34 159 150 31 30 211 147 28 208 206 222 24 201 199 22 92 191 115 19 181 178 105 92 168 99 96 90 157 88 216 218 148 75 220 10 125 10 222 9 51 8 223 8 8 224 223 8 6 223 7 54 6 223 48 142 77 223 41 142 29 38 36 88 28 34 33 99 26 32 106 109 43 30 115 58 64 219 121 80 216 13 94 98 206 17 110 193 188 27 121 173 168 27 161
20 103 75 114 92 57 73 213 79 75 91 191 69 81 174 98 87 90 152 92 98 138 134 30 109 122 118 29 56 107 29 29 57 29 30 57 57 31 32 58 140 34 59 59 146 39 60 149 150 61 62 154 45 44 156 157 40 39 159 37 36 78 161 34 34 89 143 32 98 100 31 31 108 72 72 114 116 73 165 120 75 75 166 126 76 166 166 36 77 166 166 40 211 166 27 79 210 208 27 138 166 208 27 140 208 27 135 141 207 28 142 57 207 156 143 84 205 161 60 85 164 165 60 210 160 60 60 211 158 60 211 211 198 58 212 158 27 213 213 193 26 214 191 190 163 156 187 186 160 46 182 158 158 42 175 155 39 38 153 152 35 92 151 32 32 213 148 29 210 209 136 25 204 203 125 199 196 117 115 188 184 108 169 174 101 98 197 93 91 211 214 82 79 218 10 10 220 221 10 9 222 9 9 143 223 8 8 143 8 8 143 143 7 143 143 29 29 143 142 29 225 142 28 28 225 141 28 225 225 28 28 225 9 28 225 224 10 28 224 11 12 137 223 14 15 135 202 17 133 133 183 21 129 20 24 26
122 103 103 20 112 105 20 20 104 104 20 83 100 20 19 107 92 19 126 132 66 20 151 157 61 168 173 59 59 187 59 59 84 201 59 60 83 61 62 83 83 20 66 84 21 21 84 84 21 21 85 21 21 218 85 21 218 218 22 22 219 219 23 218 218 138 143 217 217 155 34 216 167 171 24 167 180 23 23 187 189 24 31 195 28 30 35 36 37 38 38 211 52 42 42 210 137 45 209 210 138 81 209 206 51 81 209 206 82 209 165 204 154 209 204 27 160 161 202 163 144 159 27 165 59 158 27 146 59 27 27 147 57 27 148 148 88 213 150 54 89 157 153 89 215 186 89 90 162 181 90 90 166 23 91 169 171 21 153 174 21 21 211 179 20 217 218 19 18 221 25 18 222 222 91 17 223 223 91 223 223 91 91 175 224 90 165 161 89 88 147 12 86 131 126 11 80 111 10 9 142 96 8 8 88 36 7 223 223 6 225 223 54 6 223 223 47 225 223 42 40 225 223 36 101 225 7 33 111 113 8 140 119 41 30 139 28 62 138 127 78 83 137 26 97 206 135 24 112 189 22 21 209 169 27 197
64 101 81 55 20 86 82 45 78 74 86 20 68 91 93 19 115 100 140 136 141 67 123 30 164 63 109 29 62 62 83 29 62 87 30 20 63 83 32 58 66 83 20 60 149 83 21 218 154 21 21 219 158 21 218 218 102 22 219 164 117 219 218 130 33 63 143 147 46 101 159 162 29 26 172 24 23 28 183 23 30 31 25 26 33 34 31 36 37 212 212 39 211 211 203 43 210 210 204 210 210 204 204 209 209 204 136 209 203 203 149 203 203 156 158 57 201 162 58 58 164 164 58 58 166 58 58 211 166 57 57 211 56 56 212 213 192 213 213 190 189 214 214 186 162 215 183 181 159 215 177 157 157 164 170 155 37 163 21 152 33 32 150 214 29 213 146 27 26 208 221 24 204 202 222 21 195 112 223 90 183 102 90 90 165 93 197 160 85 13 213 134 71 218 219 114 10 221 9 99 9 223 9 8 7 223 8 142 223 223 58 143 223 7 50 88 223 45 142 96 223 40 103 28 36 35 112 18 33 119 121 32 225 125 46 51 221 129 67 72 218 83 87 212 209 101 202 198 27 115 183 178 27 205 165 26
121 100 100 20 101 101 20 20 72 20 20 87 92 19 19 111 78 19 130 136 71 20 154 68 67 57 175 65 83 189 131 64 82 82 65 79 82 20 67 82 82 20 61 82 21 21 52 83 21 218 46 52 21 218 59 21 65 219 111 22 218 168 126 68 218 138 142 70 172 154 38 71 172 29 25 173 173 28 22 29 27 27 125 32 26 29 130 77 26 132 38 78 26 135 79 210 137 137 80 169 138 80 81 167 202 81 166 166 27 82 164 163 27 162 162 27 160 160 27 27 144 157 27 27 145 197 27 146 146 86 26 147 87 87 148 148 87 88 150 88 88 153 154 88 154 155 46 89 157 158 23 216 161 22 21 164 165 21 201 168 20 20 212 145 19 217 218 135 18 221 91 124 144 222 91 91 146 19 90 170 223 16 90 161 15 89 163 146 12 155 131 71 11 148 112 10 144 144 46 9 223 142 37 223 223 33 32 224 8 30 224 223 7 29 225 7 47 225 225 7 41 108 7 7 141 116 8 8 140 28 9 139 139 28 138 138 27 27 138 138 27 223 137 25 25 221 202 23 217 216 20 19 208 24 25 194
20 20 52 100 20 20 64 20 20 78 95 91 20 100 84 142 119 125 76 125 144 72 71 85 166 68 83 83 67 67 82 82 20 82 82 20 20 81 82 20 214 82 20 21 216 21 21 218 218 21 21 219 93 21 218 218 105 108 219 115 119 78 218 130 134 66 141 145 51 45 156 36 32 26 169 24 22 28 27 22 30 30 214 25 33 213 213 35 36 212 196 39 211 211 198 42 210 199 199 80 210 200 200 122 167 199 137 140 200 26 150 54 199 156 158 56 26 161 56 56 26 164 57 210 26 145 56 211 211 147 86 212 191 54 87 150 188 87 213 150 184 88 151 181 24 88 153 175 159 155 156 22 156 38 21 21 193 34 20 20 208 90 19 214 27 90 18 219 91 208 222 222 90 201 223 90 90 167 104 90 162 160 14 88 150 146 13 137 133 12 12 119 115 11 224 104 10 10 223 75 9 223 223 70 7 223 66 64 223 223 59 57 223 53 51 101 223 45 44 109 7 40 117 118 12 141 124 17 20 139 129 31 222 132 27 49 221 134 66 223 218 26 87 213 28 23 220 199 27 27 213 22 27 157 198 26
92 214 98 20 199 193 46 20 174 169 38 69 150 35 34 63 131 32 60 139 31 30 58 125 71 57 57 132 69 57 136 138 81 57 142 144 71 146 148 64 61 152 153 55 39 41 50 48 47 62 44 53 56 64 40 64 65 66 72 75 67 67 84 68 69 176 95 70 177 177 30 71 178 179 28 216 178 27 27 214 178 27 125 177 187 26 130 177 25 39 133 194 25 135 41 79 78 137 80 80 106 47 80 168 129 50 81 166 52 52 209 162 53 209 160 196 26 210 156 26 164 210 194 26 145 211 192 165 147 190 189 165 148 188 165 164 51 185 163 49 48 214 162 46 88 215 44 43 215 152 40 39 216 162 36 216 216 153 215 215 145 143 214 213 135 146 145 127 125 144 143 117 143 143 20 108 145 147 18 153 157 16 15 176 14 14 162 159 12 12 152 62 10 147 145 48 10 143 40 38 143 142 34 223 142 31 30 224 142 29 224 224 7 29 225 225 7 225 225 7 7 225 225 7 140 225 8 8 140 222 9 139 139 222 10 138 27 27 29 137 26 25 136 142 24 221 134 22 110 214 156 18 206 202 165 127
212 52 54 112 191 63 105 102 96 80 95 93 93 19 86 90 33 20 87 86 20 58 84 84 19 174 82 19 19 191 20 20 201 204 20 20 210 73 74 213 214 77 56 216 81 82 81 218 87 89 81 93 95 81 81 104 81 80 22 22 79 77 23 218 71 23 24 217 56 25 216 216 26 26 216 168 28 215 215 177 30 214 182 183 25 213 187 189 35 190 191 48 54 193 193 72 42 195 93 100 46 25 119 48 49 26 138 50 210 209 142 53 209 209 54 83 210 193 54 210 192 192 84 211 191 190 85 148 189 165 165 147 186 165 51 184 25 164 49 180 162 153 46 23 160 44 88 22 166 40 216 21 179 89 216 153 195 90 215 144 89 90 159 134 90 160 161 17 90 161 116 16 160 159 16 143 156 154 15 223 16 14 14 224 14 13 224 224 85 12 224 83 82 224 224 79 144 223 75 75 95 33 72 70 96 7 66 100 102 6 142 107 5 6 113 115 6 223 121 6 7 223 127 10 223 223 35 17 223 222 32 225 222 31 30 221 10 29 140 219 28 28 143 15 27 148 150 18 27 158 116 119 130 169 125 162
97 201 53 51 109 177 44 42 158 94 38 68 136 34 34 62 119 32 59 59 127 19 58 132 133 19 57 138 85 57 196 144 76 58 148 74 67 33 153 60 58 36 80 53 40 42 85 80 47 63 92 80 57 64 80 80 22 66 79 76 22 218 180 23 69 218 138 24 217 183 151 26 216 160 28 216 215 170 27 214 176 177 22 214 182 184 29 35 187 39 133 38 55 60 41 79 80 87 44 210 108 46 47 210 130 49 209 209 193 51 210 193 193 210 210 192 192 210 191 190 163 210 189 189 164 188 188 165 165 186 185 165 51 51 164 164 49 213 163 47 46 215 161 44 215 216 42 41 215 215 38 216 216 154 34 215 147 145 150 215 137 135 147 154 128 145 144 120 117 143 21 110 142 142 19 102 145 17 16 184 157 15 174 170 224 13 161 158 12 84 151 54 10 146 145 42 77 143 36 34 73 99 31 223 223 103 29 224 8 110 6 224 7 28 5 223 7 5 225 223 7 8 223 7 36 12 223 34 139 28 222 31 138 27 30 30 140 26 29 137 144 81 28 148 22 99 155 158 110 213 184 169 121 170 25 127
116 54 56 110 95 95 104 102 94 20 95 91 91 19 88 88 20 20 85 85 19 19 83 19 19 176 82 19 189 193 75 20 202 204 75 208 210 77 77 213 214 80 80 216 84 85 80 218 89 80 80 22 97 80 21 22 37 79 22 23 78 83 23 218 72 23 24 217 101 25 216 216 111 72 216 163 165 73 215 171 21 75 185 178 25 213 183 25 36 181 186 24 56 179 24 75 42 175 24 138 45 210 24 140 48 209 141 141 82 210 142 51 82 159 143 83 210 154 83 84 151 187 25 84 147 25 164 145 144 24 165 142 24 24 148 140 23 23 151 23 23 154 155 22 158 159 88 88 167 170 88 143 181 88 88 145 197 89 147 147 89 89 149 18 89 149 149 16 89 149 16 16 222 146 15 15 223 94 14 223 223 83 13 224 85 13 196 224 84 210 224 82 81 102 224 78 100 100 8 74 103 103 8 142 108 6 66 142 29 5 142 121 28 5 142 28 5 225 223 28 7 223 7 28 224 223 35 28 224 8 32 224 224 9 137 224 11 11 137 223 13 136 135 22 15 134 161 20 132 132 17 118 129 14 13 184
52 113 178 60 108 106 94 41 99 97 91 19 92 89 88 20 87 85 20 19 84 83 19 167 82 19 19 186 145 20 197 200 77 20 207 208 78 211 212 80 81 215 83 84 79 217 88 89 79 92 94 79 79 22 102 79 22 22 78 78 23 218 75 23 23 218 68 24 217 217 25 25 216 216 27 215 215 165 167 214 214 172 22 214 177 179 30 184 181 40 46 184 185 63 40 186 83 90 43 44 110 45 46 210 131 48 209 209 141 50 210 210 143 82 210 187 52 83 210 186 84 211 147 184 164 144 182 24 164 141 180 164 49 139 24 163 47 137 23 152 45 22 161 156 41 21 162 39 88 216 174 88 216 140 190 88 216 137 89 89 143 127 88 88 144 17 88 143 143 16 222 141 15 15 223 136 14 223 223 14 14 224 13 13 224 224 84 12 224 224 81 224 224 79 78 103 76 75 105 106 73 72 111 7 69 116 118 6 63 123 6 5 142 129 5 223 133 28 6 223 223 7 224 223 36 12 223 223 33 224 222 31 31 224 222 30 144 220 12 29 150 80 28 135 159 98 27 169 18 113 131 179 120 123 127 13
114 93 58 109 94 81 111 101 92 87 118 121 89 125 89 107 86 132 99 84 30 19 90 29 19 58 81 29 19 195 30 30 58 205 31 32 59 160 34 60 60 165 84 61 169 171 45 62 175 42 41 178 180 38 78 183 36 36 75 187 34 33 87 32 31 95 97 70 102 105 71 71 111 114 73 192 119 73 74 190 124 75 189 189 32 76 187 186 77 212 184 23 23 181 23 23 137 178 23 23 139 186 23 140 140 186 24 141 81 23 151 142 82 157 143 51 83 152 144 83 211 147 51 84 143 142 51 211 139 24 49 213 175 23 213 213 171 22 151 167 166 161 156 161 21 159 39 154 157 171 35 146 154 32 88 152 151 29 215 148 26 25 213 137 23 211 210 109 21 206 136 101 201 199 94 14 191 87 84 152 178 75 72 176 12 62 196 202 11 48 212 10 10 218 219 9 9 220 8 9 142 222 8 142 142 8 8 142 142 28 142 142 28 28 142 142 28 225 141 28 28 224 28 28 224 224 28 28 224 8 27 224 224 9 10 224 11 12 136 223 13 14 135 15 16 134 133 19 132 131 16 22 129 128 13 179
54 112 94 94 106 105 93 92 99 91 90 19 92 87 20 20 85 84 19 19 154 19 19 169 175 19 19 188 79 20 198 201 79 20 208 80 80 59 213 82 78 215 85 86 78 78 89 78 78 21 95 78 78 22 37 78 22 22 35 79 23 218 75 90 24 218 98 25 71 217 142 25 216 194 152 73 215 159 161 74 192 167 24 75 190 23 31 188 187 23 48 38 23 23 136 40 23 93 138 79 23 140 45 80 140 141 81 209 141 142 81 159 143 82 82 153 182 83 149 148 24 83 144 178 23 141 139 23 164 136 23 23 148 134 22 22 150 21 21 152 153 86 21 157 87 87 163 166 87 129 176 87 87 131 191 87 131 131 27 88 132 132 17 212 132 16 16 131 131 16 222 129 15 14 223 88 14 223 223 77 13 224 84 64 184 224 82 82 206 11 80 107 224 9 144 112 9 75 143 118 8 142 123 7 8 142 129 6 142 142 28 5 223 137 28 225 223 28 6 224 7 28 224 223 7 28 224 8 33 224 224 9 31 145 10 10 137 151 12 136 135 22 14 134 134 19 133 132 17 16 130 130 13 190 127 12
112 92 109 111 138 79 116 118 120 37 125 109 106 34 132 98 32 31 92 90 30 58 83 29 29 58 76 30 58 58 79 30 59 59 161 20 59 166 167 60 60 171 49 61 175 176 44 218 180 41 40 218 186 38 65 219 106 35 77 79 114 76 88 69 31 96 24 70 67 105 71 71 54 26 73 196 38 29 74 195 30 31 214 192 23 76 213 172 22 212 187 176 62 211 178 22 88 211 179 108 139 180 180 130 140 80 141 144 48 81 151 49 49 210 158 49 49 210 50 50 211 211 49 49 211 174 49 212 212 171 22 213 168 167 163 213 163 162 161 159 158 160 160 152 159 158 37 145 156 156 34 154 153 31 30 215 29 27 215 214 25 24 213 110 22 210 209 102 19 206 96 94 200 198 87 84 144 79 75 152 157 66 169 176 12 52 197 202 11 11 213 10 10 217 219 9 143 221 8 9 142 29 8 142 142 29 8 142 28 28 60 142 28 28 52 141 28 224 141 28 28 224 143 28 224 224 8 15 224 9 9 28 224 10 137 47 222 12 136 223 218 28 134 213 16 28 180 17 27 131 188 14 27 191 12 126
20 58 111 20 68 72 102 20 86 97 96 103 109 91 90 128 88 87 83 151 84 84 81 19 82 80 79 19 79 79 20 20 78 78 20 210 78 20 20 214 78 21 216 216 21 21 218 218 93 218 218 96 98 218 101 103 77 218 109 111 76 196 118 74 74 125 127 70 25 135 64 60 26 216 50 28 28 215 35 30 215 214 127 32 213 213 34 76 212 171 37 212 211 174 77 211 176 176 104 178 177 121 126 171 178 138 46 165 22 150 48 177 22 143 48 22 160 144 83 211 145 49 83 211 146 84 212 134 147 84 213 166 85 85 127 161 86 86 124 20 86 123 123 19 160 121 19 156 170 121 18 181 32 18 18 197 27 17 208 210 87 16 216 87 87 219 220 86 86 120 86 86 119 118 85 85 116 13 84 114 113 13 83 112 12 12 112 112 11 224 224 11 10 224 224 9 224 224 74 8 223 223 71 223 223 68 67 224 8 62 140 223 7 54 142 5 48 141 143 6 42 144 28 9 140 145 13 15 138 27 24 223 138 25 224 222 24 24 223 219 29 221 215 15 28 217 203 27 132 207 22 27 192 25 26 126
110 20 86 115 105 20 78 124 108 19 99 94 97 117 123 89 84 141 86 86 81 163 84 80 80 19 82 79 30 20 78 78 20 59 78 20 20 212 77 21 21 216 21 21 217 217 21 21 218 94 95 218 218 99 37 219 104 106 76 219 112 75 75 119 121 74 72 128 69 68 26 26 60 57 27 215 46 28 29 214 30 31 214 214 32 33 213 166 35 212 212 170 38 211 172 172 93 211 174 174 118 175 175 132 135 175 142 145 46 175 151 153 47 21 157 48 48 21 160 48 211 211 48 48 211 167 47 212 212 164 46 213 161 160 85 214 155 154 86 121 149 160 159 118 142 157 36 136 18 155 32 17 153 190 29 17 150 26 87 16 213 23 212 15 219 86 209 95 222 86 116 86 85 85 115 76 84 114 114 13 83 113 54 177 114 114 12 202 117 118 11 224 9 10 10 224 75 9 223 223 73 8 223 70 69 223 223 65 142 223 60 58 143 28 53 144 144 5 45 144 144 7 145 145 10 11 145 146 18 223 148 27 32 222 154 46 222 221 29 68 218 28 28 220 210 28 28 199 20 27 192 179 27 26 194 27
20 59 93 20 70 74 41 20 90 95 36 66 112 91 90 62 136 88 82 153 153 85 80 157 84 70 79 162 83 79 30 166 59 78 20 171 53 34 20 214 49 39 62 216 44 45 63 218 52 64 218 192 61 65 218 102 66 67 198 109 68 68 200 31 74 201 202 28 104 202 26 26 113 202 25 118 120 23 23 124 30 22 127 128 75 213 131 76 77 192 134 77 77 188 78 78 184 182 79 79 177 20 80 173 171 20 80 165 20 20 142 158 20 143 143 170 21 144 144 20 161 145 83 20 146 146 84 163 147 84 84 163 44 84 121 120 42 85 118 19 39 215 115 18 86 113 133 17 216 112 17 17 216 119 16 199 203 111 148 211 86 103 145 218 86 143 142 18 85 141 222 16 198 141 15 83 188 13 13 178 114 52 12 165 44 12 157 155 36 11 148 33 32 217 144 30 30 221 29 29 222 222 28 223 223 8 8 224 224 7 142 224 7 8 141 224 7 141 141 8 8 140 28 8 139 139 27 27 138 26 26 224 137 24 25 224 23 23 223 223 20 20 220 16 18 216 214 19 208 204 22 24 128 178 27 126
57 20 64 67 103 20 81 86 97 96 102 94 92 120 91 89 83 82 87 86 81 19 85 80 79 19 83 78 20 20 78 77 20 20 77 20 20 213 77 21 215 216 88 21 217 217 90 218 218 94 95 218 218 98 76 219 103 104 76 201 110 75 75 24 117 74 24 25 27 70 26 26 65 115 27 215 55 28 29 214 125 30 214 214 130 76 213 159 160 77 212 164 73 211 187 166 99 211 168 19 121 176 169 134 141 169 20 146 45 161 20 143 46 210 20 143 47 211 144 145 82 211 145 46 83 131 147 84 213 125 84 84 121 151 18 85 116 18 160 114 113 18 158 111 18 17 166 109 17 176 180 17 17 192 196 16 203 207 86 214 214 216 86 109 219 85 85 110 17 84 112 112 84 83 114 13 83 115 116 13 81 118 12 12 224 122 11 11 224 33 10 224 224 9 219 224 75 8 224 223 73 222 223 71 69 143 223 66 144 144 7 59 145 5 8 141 145 5 45 141 28 7 140 146 27 11 139 27 18 224 223 25 32 222 11 23 223 221 29 222 221 14 28 219 217 18 132 210 20 22 130 190 25 127 195 10
20 87 46 45 79 77 129 38 70 136 94 65 64 146 90 61 152 154 76 59 158 71 70 162 164 65 78 167 61 60 31 20 56 54 32 60 51 35 36 61 47 39 62 62 44 46 63 191 52 64 64 196 62 66 198 199 34 67 201 202 32 218 203 30 29 205 119 28 105 205 26 25 114 133 24 119 120 73 22 124 74 75 47 128 75 76 51 34 77 195 134 36 212 189 38 78 211 183 40 210 179 165 19 211 171 19 144 210 166 18 142 165 165 156 143 164 163 159 46 161 160 145 45 158 162 45 83 213 162 44 213 119 43 42 214 114 41 214 215 137 38 215 215 130 216 215 124 122 155 216 116 153 152 111 109 150 25 103 148 147 22 96 145 20 19 143 142 17 17 141 16 15 198 195 14 190 187 56 13 177 174 45 168 164 39 37 156 154 33 211 148 31 30 218 144 29 221 221 8 29 222 8 8 223 223 8 8 224 8 7 142 224 8 8 141 223 7 141 141 28 42 140 27 27 139 139 27 224 137 25 25 224 136 24 224 224 172 22 223 222 184 79 220 16 17 98 203 20 131 199 185 24 128 170 27 26
108 92 92 103 102 90 20 98 88 88 20 93 85 20 20 83 82 19 19 157 19 19 172 177 19 186 189 84 20 199 201 84 206 208 85 85 212 213 86 76 215 87 88 76 21 90 76 76 21 93 76 22 22 76 76 22 22 76 23 23 218 76 23 24 218 98 24 217 217 123 72 216 129 131 216 215 137 61 215 141 143 54 214 147 54 55 199 153 63 35 36 19 83 38 38 18 138 40 211 120 139 42 211 140 43 80 210 141 44 210 159 143 81 210 160 18 81 144 159 160 82 135 18 161 129 127 17 162 122 18 162 148 116 17 150 40 17 17 152 38 215 156 158 85 216 164 168 85 101 178 85 85 101 193 85 101 101 85 85 103 15 15 104 105 15 143 108 14 14 222 113 14 14 223 13 13 223 223 12 224 224 79 12 224 224 77 134 224 76 76 138 224 75 141 142 8 74 143 144 73 142 145 6 71 146 28 6 141 146 5 5 223 28 5 223 223 28 5 224 44 28 224 224 38 224 224 9 34 224 223 32 136 164 11 30 173 176 12 134 184 74 15 133 192 94 132 132 14 109 130 12 11 175 127 10 126
50 86 101 44 20 75 90 38 69 68 86 20 64 151 83 19 142 158 19 19 163 164 65 178 168 85 60 193 173 57 77 204 85 52 33 85 85 76 37 86 87 76 21 88 76 76 21 64 76 22 22 218 76 22 66 218 22 22 219 204 23 218 218 110 24 217 217 117 74 216 122 124 72 216 130 69 67 135 137 64 30 142 61 61 32 147 65 34 34 74 79 36 37 211 38 38 211 211 40 41 210 159 42 211 211 160 211 210 159 159 210 210 158 155 211 157 156 159 159 154 160 160 44 151 161 43 43 162 161 42 42 161 41 41 214 160 39 39 215 128 37 215 216 121 34 215 115 114 85 216 108 153 216 98 101 150 215 96 15 147 102 89 145 144 18 14 142 16 16 13 222 15 197 142 223 13 186 223 12 79 173 224 11 163 136 224 76 153 31 31 75 142 29 218 75 144 8 221 145 145 7 223 146 6 6 223 147 6 224 223 60 5 223 8 53 223 224 47 140 224 224 41 149 224 38 36 153 223 34 159 161 32 31 171 174 46 180 183 63 221 189 79 84 213 194 98 102 199 12 112 185 179 120 122 167 26
106 93 92 102 92 91 20 97 88 87 20 114 85 20 19 138 82 19 154 160 30 19 174 85 19 59 191 85 20 200 85 85 60 208 85 85 76 184 86 76 76 189 43 76 21 89 40 76 21 37 76 61 22 35 76 23 67 32 80 23 218 218 91 69 218 112 102 71 208 118 72 72 208 125 73 207 207 21 74 206 137 20 128 203 19 72 131 18 18 134 35 18 18 136 77 17 138 138 78 17 140 79 79 140 141 79 211 166 80 80 159 155 80 151 149 16 81 141 139 16 211 132 16 16 125 123 16 147 117 16 16 148 83 16 150 150 84 15 153 84 84 158 159 84 84 165 32 84 96 179 84 84 96 15 85 98 98 14 214 101 14 14 211 106 14 221 207 70 13 222 118 60 142 223 51 13 145 12 79 155 224 11 77 178 10 76 141 203 9 75 143 9 9 144 145 8 74 142 28 8 142 147 28 223 141 28 6 224 141 28 224 223 28 28 224 224 28 224 224 8 27 224 8 8 139 224 9 9 137 10 10 136 135 11 11 135 20 13 134 134 18 15 133 15 15 131 131 13 198 191 11 10 167 157 9 137
48 20 93 92 20 74 90 89 20 104 86 20 20 128 90 19 144 150 88 19 166 86 86 180 184 85 85 195 85 85 77 205 85 76 76 20 85 76 76 21 76 76 21 21 76 76 21 218 76 22 22 218 76 22 218 218 23 23 219 101 103 218 218 107 109 217 112 113 76 216 118 119 76 122 124 76 76 129 76 75 30 135 77 78 32 213 82 33 34 212 95 35 212 211 137 38 211 211 40 78 211 152 41 211 173 152 80 211 152 152 152 156 151 155 156 146 149 158 44 135 15 160 43 15 15 146 42 15 160 147 83 213 149 39 83 214 151 84 215 119 156 84 216 112 84 84 94 106 84 94 94 14 84 96 94 15 207 99 14 147 216 104 14 219 17 14 14 222 82 13 222 223 81 13 223 79 79 223 224 77 77 140 76 76 143 143 75 75 145 10 74 145 146 9 143 146 8 8 147 147 7 224 223 6 6 223 223 6 223 223 61 5 223 55 53 224 224 48 46 224 8 41 151 224 9 36 158 15 34 136 169 27 32 179 41 47 134 189 64 219 133 16 85 212 196 14 206 199 12 112 180 180 26 152 167 29
124 93 94 131 100 85 38 143 79 87 34 154 72 32 19 68 67 30 60 63 30 30 59 58 30 59 59 177 30 59 60 180 60 60 184 185 61 187 188 43 62 191 192 40 217 196 38 38 55 200 36 62 65 34 34 73 76 32 82 85 68 29 93 69 70 76 102 71 71 77 25 72 210 209 27 73 208 20 74 215 206 19 214 204 136 18 213 201 17 134 212 144 16 136 211 147 123 138 78 16 135 140 79 142 141 41 79 148 43 80 211 153 43 81 148 44 43 211 137 15 43 212 139 15 213 213 134 160 213 130 129 160 214 124 160 159 120 118 159 155 113 157 157 33 84 155 31 30 216 153 27 26 215 25 24 214 215 21 21 213 79 18 211 210 69 16 207 62 59 142 200 51 142 142 44 42 146 149 37 155 160 11 33 179 186 9 199 204 9 8 214 9 8 144 143 8 8 142 28 8 141 141 28 8 141 28 28 141 141 28 28 141 28 28 224 224 28 224 224 8 27 224 224 9 9 224 9 9 17 224 10 135 224 222 11 134 222 13 30 133 17 16 132 15 14 28 130 12 11 27 197 10 157 127 195 9
96 102 101 94 20 20 91 90 20 107 87 20 20 131 83 19 147 152 30 19 167 173 29 59 185 85 85 60 179 85 77 206 183 85 76 186 85 45 76 190 86 76 21 195 39 76 21 199 37 58 22 218 76 68 66 218 77 23 68 218 87 69 218 210 98 70 217 109 71 71 210 115 72 210 210 20 84 209 208 19 126 206 18 18 130 204 17 132 133 16 16 135 36 15 137 137 78 211 138 78 78 181 140 79 79 171 79 79 164 161 80 80 153 14 81 145 142 14 212 134 14 14 146 123 14 147 147 129 14 148 148 14 159 149 83 14 152 153 83 158 156 83 83 156 31 83 92 93 29 83 94 14 83 215 98 14 83 102 79 13 212 111 13 145 209 62 13 222 222 52 142 223 79 43 144 223 77 149 152 11 76 166 224 9 158 193 9 74 149 8 9 145 147 28 8 142 28 8 141 141 28 7 141 28 28 223 142 28 224 224 28 28 224 224 28 224 224 8 46 224 224 8 139 224 9 9 137 224 10 136 136 11 11 135 20 12 134 133 18 17 132 15 15 213 131 12 12 195 11 10 171 162 9 142 132 29
128 87 85 136 81 79 37 147 73 72 34 91 67 32 31 89 81 31 61 60 79 30 60 176 30 19 59 179 31 60 204 183 20 61 186 85 21 214 190 42 41 216 87 40 48 217 88 37 56 90 91 76 66 93 32 76 23 96 76 85 23 77 77 24 70 211 78 25 217 211 26 26 216 210 27 215 216 121 29 215 125 126 214 214 130 16 213 133 135 121 135 137 138 130 36 140 135 137 38 142 141 39 40 145 146 40 211 149 42 42 211 211 42 211 211 137 42 212 212 134 212 212 130 129 213 127 126 159 213 122 120 159 117 116 159 158 36 110 158 34 34 157 156 32 31 155 29 29 216 153 26 215 215 24 23 214 214 20 213 213 69 67 210 210 60 144 206 53 50 142 138 44 143 143 144 37 147 11 34 12 161 10 10 179 224 9 153 204 9 8 146 224 8 143 143 224 73 141 28 224 73 141 28 71 71 148 28 224 141 148 5 224 148 28 224 224 149 5 224 8 153 7 224 9 9 11 223 9 17 223 223 32 135 222 12 30 192 221 30 132 196 29 29 197 13 28 28 197 110 27 196 195 121 137 194 128
20 70 74 99 83 88 96 95 90 110 92 86 85 90 90 82 82 88 80 80 19 86 78 19 19 77 77 20 20 77 20 20 208 210 20 21 213 85 21 215 216 86 63 217 87 88 64 218 89 76 218 204 91 76 77 94 31 77 23 97 77 77 24 26 79 24 25 24 108 26 216 21 115 27 215 120 121 73 215 121 29 214 207 126 75 213 129 15 76 201 133 136 77 196 14 140 191 189 14 144 183 13 13 141 40 13 149 141 79 12 143 42 80 143 143 80 212 144 145 81 128 145 81 81 117 122 82 111 109 13 82 103 13 13 98 97 13 13 94 13 14 159 92 14 14 169 92 14 180 184 83 14 196 83 83 206 209 82 112 215 82 82 123 220 81 131 134 14 80 141 143 12 193 147 12 12 149 34 11 224 149 11 11 224 30 11 224 224 29 9 224 73 28 219 224 74 74 222 8 74 148 224 8 141 148 8 68 141 148 8 141 148 28 8 140 150 5 140 140 26 6 224 25 25 224 224 24 23 224 10 22 224 223 12 19 222 13 13 220 218 16 29 213 18 18 130 197 22 129 128 10 26 127 126 9 125
67 101 20 79 97 97 95 100 94 93 89 91 91 85 83 89 88 81 19 87 79 79 19 86 78 19 19 77 77 20 205 207 20 20 211 212 21 214 215 85 21 216 216 86 217 217 88 88 218 89 89 76 218 91 92 76 23 94 77 77 23 97 78 24 24 80 81 25 25 84 26 26 216 91 27 215 216 123 29 215 215 121 75 214 124 125 213 213 128 143 212 130 131 147 195 133 148 148 188 135 149 39 39 13 151 40 40 12 142 41 211 154 143 41 212 144 41 212 212 145 81 212 122 146 81 213 117 159 82 105 112 158 214 99 13 158 95 103 13 156 93 14 156 164 93 13 173 28 14 14 189 25 215 200 204 82 214 212 214 81 123 218 81 80 135 80 80 142 144 78 78 148 12 12 150 151 11 150 151 11 11 224 150 11 224 224 10 10 224 224 9 224 224 73 8 224 224 74 148 224 74 73 148 224 70 148 148 8 65 148 5 60 149 149 5 51 151 5 5 139 158 7 8 224 25 11 223 223 22 224 223 32 33 223 222 30 221 221 14 29 216 217 29 131 197 20 28 197 196 24 128 195 122 28 125 8
45 81 76 98 20 72 150 94 67 113 161 62 63 166 89 58 61 173 55 80 176 177 52 78 19 50 49 31 20 47 47 32 61 45 34 35 61 38 39 62 62 43 45 63 198 199 64 65 202 88 66 204 205 32 67 207 30 29 209 209 28 27 210 25 25 102 211 23 22 111 72 20 116 118 73 19 122 73 74 125 127 74 208 130 75 75 205 133 76 202 201 34 77 196 195 13 211 190 12 13 211 131 12 141 174 131 12 142 130 12 154 143 127 12 143 41 80 156 145 80 80 157 40 81 116 158 39 213 107 38 37 214 100 36 214 215 100 34 215 94 94 156 216 90 13 171 85 83 153 185 78 76 151 22 69 149 148 19 61 147 17 16 145 145 14 79 205 13 13 199 150 12 192 190 34 11 180 177 31 170 167 30 29 159 156 29 199 204 28 28 214 8 28 218 220 8 28 221 8 8 223 223 8 8 223 8 8 141 224 8 8 141 27 8 140 140 27 140 139 26 25 139 138 25 224 137 23 22 224 135 20 223 223 19 18 221 14 14 218 217 16 17 210 18 19 130 188 22 23 128 184 27 126 126 166 30
70 100 99 82 96 95 99 103 92 92 91 90 90 86 85 88 83 82 19 87 80 79 19 185 78 19 20 198 31 20 206 207 20 20 211 84 21 214 215 85 21 216 85 85 64 217 87 87 77 203 88 76 77 206 31 78 23 92 28 79 23 26 81 97 24 24 85 25 71 21 113 26 216 211 119 73 215 111 124 74 209 115 75 75 207 120 75 204 203 14 76 199 125 164 137 194 12 162 37 12 12 140 39 11 12 141 79 11 142 142 79 11 143 79 80 144 144 80 132 129 80 80 120 113 81 112 110 12 81 104 102 13 99 98 13 13 96 95 13 157 95 13 13 165 82 13 175 179 81 13 190 81 82 150 205 81 81 213 18 80 136 219 80 209 146 12 78 150 152 12 197 153 12 12 186 153 11 224 173 30 11 224 29 29 186 224 29 10 224 8 72 216 224 73 73 220 8 74 149 222 8 74 148 8 8 141 148 8 141 141 27 8 141 151 27 224 140 26 5 224 139 25 224 224 24 23 224 10 21 224 224 12 19 222 13 13 132 219 15 15 131 17 18 130 130 20 21 128 10 25 127 126 9 125 125 8
44 80 77 146 74 72 154 156 67 66 163 58 57 169 170 54 31 175 52 51 30 179 49 30 30 85 47 31 31 45 77 32 61 43 35 21 62 192 39 62 63 196 21 64 199 199 21 65 202 34 22 218 205 31 67 207 91 28 218 210 26 81 95 96 23 102 105 99 92 111 72 103 104 118 73 115 119 28 74 134 30 30 214 152 31 75 213 118 33 212 201 121 35 212 123 12 211 211 124 12 211 124 124 161 211 124 158 157 40 122 156 156 40 156 156 40 80 156 156 39 213 157 39 38 213 38 38 213 214 37 36 214 98 97 214 215 93 91 215 89 87 155 216 82 81 154 77 75 152 152 69 151 151 22 61 149 149 18 213 147 16 15 209 145 14 206 204 13 12 198 34 11 191 188 31 10 179 30 30 157 166 29 29 179 150 29 199 204 28 9 214 8 28 218 220 8 8 221 8 8 7 223 8 141 141 224 8 141 141 8 61 141 27 8 140 155 26 48 139 25 25 42 173 24 224 37 184 21 223 11 192 29 222 12 44 50 221 15 68 215 218 29 89 212 20 28 106 198 27 127 194 179 27 126 9 26
71 98 41 75 150 94 69 68 160 91 65 167 168 54 87 173 87 51 30 177 49 80 30 48 47 30 20 45 45 32 61 43 34 34 61 41 37 62 62 194 43 63 197 198 64 64 201 201 65 203 204 32 66 206 207 29 219 208 27 27 91 210 24 98 101 22 22 107 71 20 113 115 72 18 120 73 73 132 125 74 74 152 30 75 207 206 32 213 203 13 76 200 198 12 212 194 11 11 212 186 11 140 211 120 11 141 168 120 160 143 79 11 157 39 80 157 144 39 80 157 38 80 213 157 38 81 109 37 37 214 102 12 214 214 92 12 215 215 86 155 216 81 80 155 216 74 153 153 69 66 152 196 61 150 150 19 80 148 17 16 211 146 14 14 207 13 12 202 200 12 11 193 32 10 184 182 30 175 172 29 29 166 160 29 186 193 28 28 208 211 28 216 217 8 28 220 221 8 222 222 8 8 223 8 8 141 141 8 8 141 27 8 140 140 26 8 139 25 26 139 138 24 224 137 23 22 223 223 20 223 223 12 18 222 221 13 56 218 16 16 211 207 18 129 191 21 22 128 193 25 126 126 9 29 124 8
126 20 76 149 20 20 102 160 20 20 124 89 19 141 146 87 19 161 86 49 175 179 85 47 191 84 84 78 31 84 77 77 20 83 77 77 21 77 77 21 21 77 77 21 217 77 21 22 218 22 22 218 218 88 23 219 89 90 218 218 91 92 218 94 94 93 217 96 97 105 99 100 117 121 27 131 136 28 29 151 156 30 214 169 31 31 213 181 33 213 212 34 34 212 116 35 211 211 117 117 212 117 117 170 211 117 117 164 162 115 161 160 113 112 158 39 109 157 157 38 11 157 38 37 213 157 37 214 214 148 35 214 214 151 81 215 86 32 81 102 79 81 216 108 72 154 114 66 12 152 125 58 151 204 137 12 149 17 146 12 218 15 12 12 221 77 11 222 223 75 195 223 73 187 154 223 71 174 29 71 70 150 29 70 150 149 10 70 149 149 9 149 149 9 8 224 149 8 224 224 7 7 224 8 6 224 224 67 5 224 61 60 224 224 54 52 224 48 46 171 174 42 40 183 10 37 189 191 19 134 193 30 35 132 196 51 221 197 14 75 218 216 90 194 210 28 107 198 193 27 130 179 27 27 100 32
20 67 127 20 20 60 35 20 114 104 32 64 136 31 19 62 157 86 61 171 180 85 60 188 85 79 61 185 84 78 61 187 42 77 190 83 40 39 193 38 77 45 21 36 51 21 65 34 60 22 218 68 70 67 218 78 68 68 209 89 69 69 210 70 70 211 211 20 71 211 18 17 211 211 16 140 211 15 15 126 209 14 130 130 13 13 132 133 75 135 135 76 76 137 137 77 192 138 77 77 184 37 78 176 173 38 78 165 10 79 212 152 10 10 142 107 11 145 129 11 11 146 100 11 147 147 96 157 148 80 12 156 150 80 156 153 32 80 105 158 80 216 111 28 80 118 64 25 216 129 12 22 215 50 12 214 213 44 12 217 40 38 147 221 35 12 144 11 32 144 223 10 144 145 10 71 148 150 9 167 161 8 8 156 149 8 150 147 28 8 144 28 28 142 142 28 8 141 28 28 223 141 28 28 223 28 27 224 224 8 27 224 8 8 224 224 9 139 224 9 9 137 224 10 136 136 11 11 134 134 12 133 132 16 16 131 15 14 213 130 12 12 197 11 11 173 164 10 9 134 26 8 109 102 31 32
141 20 83 88 20 20 104 110 20 121 126 89 19 142 148 87 158 163 86 86 83 181 85 81 80 84 84 79 20 84 78 78 20 83 78 21 21 78 78 21 21 78 21 21 217 217 22 218 218 85 22 218 218 86 67 219 87 88 69 218 90 93 218 210 91 104 108 93 18 120 26 96 134 27 27 16 154 28 29 14 127 30 214 183 131 31 213 133 32 76 212 110 76 212 195 111 77 211 111 10 77 181 111 181 78 170 9 172 161 157 10 165 148 10 10 144 38 11 145 145 79 11 146 37 80 147 147 80 214 148 149 80 106 151 80 80 107 13 80 111 112 12 80 118 12 12 126 129 12 152 138 12 12 205 148 12 12 215 40 12 219 220 77 221 222 75 75 222 223 74 156 223 72 72 154 223 70 152 151 8 69 150 10 68 153 149 10 10 149 28 9 224 149 9 8 224 28 8 224 224 28 7 224 73 27 223 224 67 152 224 8 60 158 224 8 139 169 9 46 138 181 9 137 187 21 11 135 20 19 133 133 17 36 222 16 15 216 221 13 77 204 18 11 186 209 21 10 148 25 27 120 111 29 124 95 33
20 62 61 38 72 56 35 34 66 168 33 64 63 174 31 62 177 177 61 61 180 85 61 182 183 43 61 185 185 42 187 188 40 40 36 39 39 40 41 37 36 46 64 35 51 54 65 33 61 66 66 82 71 67 206 79 23 68 207 208 69 218 209 21 70 210 210 19 216 211 17 16 216 211 15 121 215 99 14 127 74 102 186 130 75 12 196 32 75 200 135 33 76 202 35 77 191 198 36 212 183 37 37 212 172 9 212 212 105 10 212 150 102 165 212 100 10 161 213 96 159 146 93 92 158 36 88 157 157 35 80 157 33 33 215 156 31 31 216 30 30 216 216 28 216 216 55 24 216 215 48 151 214 44 43 149 213 39 148 148 36 35 146 146 33 145 145 11 31 145 10 9 145 145 9 9 176 8 8 166 163 8 8 155 28 8 148 147 28 145 144 28 28 141 141 28 220 141 28 28 222 222 28 223 223 8 27 224 223 8 5 223 8 8 224 224 9 139 224 9 9 137 22 10 136 135 20 11 134 18 17 32 132 16 218 31 196 13 210 130 196 88 189 196 10 163 153 24 117 123 28 28 129 96 32 123
160 20 20 57 37 20 107 52 34 19 129 88 32 63 150 87 19 61 179 85 61 182 182 44 61 184 83 42 61 187 41 80 188 189 39 79 21 38 37 43 21 35 48 50 64 33 56 22 66 63 66 66 218 74 77 68 206 86 69 69 208 88 70 209 209 19 71 210 17 17 210 210 16 16 210 14 14 124 209 13 13 128 74 12 131 132 75 202 134 75 76 136 137 76 194 138 77 77 186 140 77 180 177 37 77 168 165 9 212 156 9 10 212 99 10 144 133 95 11 145 91 11 159 146 87 11 147 34 79 157 149 79 111 156 32 80 115 155 30 216 123 29 79 216 133 25 216 140 48 22 215 149 12 150 214 39 11 216 36 35 147 220 33 32 146 11 31 145 145 10 30 144 9 9 146 147 8 171 168 8 8 160 149 8 152 150 28 7 146 144 28 143 142 28 28 141 141 28 221 222 28 28 222 8 27 223 223 8 26 223 8 8 223 223 8 8 223 9 9 138 223 9 136 136 21 11 134 134 18 133 132 16 16 131 131 14 214 130 12 12 198 129 11 176 167 10 9 137 26 26 111 104 30 31 91 33
41 94 57 37 71 92 143 34 66 49 122 19 63 108 31 19 61 95 19 61 179 87 19 61 183 83 20 201 186 41 207 209 82 39 212 214 82 80 215 82 82 80 217 83 82 82 83 83 85 22 22 87 89 22 68 94 23 23 218 104 24 24 218 24 25 217 217 25 25 216 91 92 216 216 94 175 215 96 96 189 215 98 197 199 99 100 204 205 101 207 208 33 102 208 34 34 212 206 36 36 212 36 36 212 212 36 36 212 99 37 212 212 96 37 212 94 92 213 213 89 162 161 85 85 159 158 80 157 157 34 75 156 156 32 12 156 31 30 13 160 29 216 216 170 26 216 48 24 215 215 42 20 214 39 38 77 213 35 34 76 160 33 147 206 159 11 145 10 30 11 145 9 11 145 223 8 11 150 8 67 11 224 8 154 224 224 68 146 224 224 71 149 28 73 74 149 28 75 149 149 7 74 150 27 6 152 153 6 223 159 5 5 224 8 5 5 224 48 6 224 224 42 8 224 38 37 223 223 34 195 223 32 32 196 222 31 196 196 74 29 196 196 96 195 194 109 113 192 192 123 182 189 132 135 165 8
59 40 74 72 36 36 68 115 33 65 64 173 32 62 62 177 61 61 180 180 61 182 182 42 42 184 184 41 32 186 40 39 35 188 38 38 39 82 36 43 64 34 49 51 65 32 57 66 66 201 67 67 67 203 23 68 205 206 24 69 207 21 70 217 208 18 217 209 89 16 216 209 15 175 121 93 13 125 126 95 197 129 74 97 205 31 75 208 209 33 75 211 33 34 212 211 34 77 212 100 36 212 174 99 36 212 97 9 212 212 95 181 212 92 91 172 213 88 166 164 35 83 161 147 35 159 158 34 79 157 33 33 215 156 32 31 215 30 29 216 216 28 27 216 48 46 216 216 42 41 215 39 38 150 213 35 149 148 33 33 147 147 31 146 146 11 30 145 145 10 191 145 9 9 180 8 8 170 167 8 8 158 28 7 151 149 28 7 144 28 28 215 141 28 28 219 28 28 221 222 27 222 222 8 27 223 223 8 6 223 8 8 6 223 8 138 138 224 9 137 22 10 40 136 20 11 134 195 17 34 132 16 15 32 196 13 210 30 196 12 191 19 195 102 156 23 114 118 192 28 128 98 173 27 138 162
41 94 180 176 20 90 161 155 19 143 137 19 19 120 115 19 163 168 19 19 180 185 19 191 194 83 20 203 82 82 208 210 82 82 213 81 81 83 83 81 81 84 21 81 86 87 22 89 90 22 22 96 97 23 219 106 23 23 218 120 24 218 218 86 25 217 217 87 216 216 89 89 216 90 91 189 215 92 93 200 206 94 206 206 203 96 210 32 32 10 212 33 212 213 138 34 212 212 35 77 212 140 36 212 212 141 77 212 92 143 78 212 89 180 78 133 85 171 126 124 10 164 120 77 161 147 118 11 158 33 119 12 151 31 215 12 155 79 216 161 163 78 216 172 78 78 152 187 77 215 157 77 77 160 34 76 76 161 11 148 160 160 11 222 158 11 11 223 155 11 223 223 11 10 223 224 11 224 224 66 10 224 66 67 149 224 68 69 149 7 71 149 149 74 74 149 8 75 149 150 7 74 152 7 7 224 157 6 224 224 26 5 224 224 24 223 224 48 6 224 224 42 223 224 38 37 222 12 35 195 195 13 32 196 52 15 129 196 77 29 128 10 99 127 194 9 116 126 9 126 100 124 9 88 165 34
152 76 74 160 91 49 167 168 47 151 173 174 45 31 177 44 44 30 180 43 30 30 42 41 31 62 40 32 32 62 62 34 62 62 189 38 63 63 192 21 64 193 194 65 65 197 30 66 199 199 27 70 201 25 24 81 203 22 89 91 83 20 99 101 85 157 108 71 15 175 26 72 186 120 73 73 207 28 73 205 205 29 74 203 10 31 213 200 10 75 213 95 9 213 189 95 214 212 95 8 212 140 93 208 141 35 91 200 143 78 193 191 36 78 182 36 36 213 172 35 35 213 74 35 214 214 69 33 214 64 62 215 215 58 12 215 52 51 155 216 47 154 154 43 42 152 152 23 152 151 21 20 151 150 17 213 149 15 14 210 13 12 206 204 11 10 199 29 9 192 190 29 29 181 28 28 148 168 28 28 157 28 28 172 178 28 191 198 7 28 211 213 7 9 218 8 8 140 221 8 140 140 8 8 140 26 8 140 140 26 8 139 24 24 54 139 23 22 223 191 21 223 223 194 19 222 12 17 221 220 13 36 216 15 15 60 206 17 128 85 217 20 127 127 208 28 126 9 27 27 188 9 27 123 183 9
82 92 92 191 163 90 178 172 19 87 154 19 19 44 130 19 19 43 30 19 181 100 31 61 195 31 20 203 205 82 62 210 81 81 62 214 81 88 64 192 80 90 193 194 31 95 196 80 28 66 199 26 111 77 23 23 84 23 69 20 94 24 218 102 104 71 217 110 71 72 206 117 72 72 206 73 73 205 205 11 74 203 11 10 201 200 9 134 197 9 9 136 191 9 138 138 8 9 140 140 77 140 141 77 77 141 142 77 150 143 77 78 138 36 78 131 129 35 78 124 10 78 122 122 11 11 122 12 12 149 127 12 151 152 52 12 156 158 46 154 164 78 12 153 177 77 152 189 22 77 160 204 76 214 161 16 75 161 31 13 208 159 11 11 203 29 11 197 195 29 11 223 28 28 145 224 28 148 150 7 28 160 224 66 177 184 7 69 202 207 7 141 215 7 7 140 150 8 140 140 27 8 140 26 26 140 140 26 6 140 25 24 223 139 23 23 223 22 22 223 223 11 222 222 11 12 221 221 13 132 218 14 15 130 211 16 129 128 18 19 127 10 21 126 126 9 9 125 9 9 95 124 9 9 84 9
155 52 73 162 48 47 114 169 45 45 136 86 44 31 178 85 42 30 84 41 109 30 61 40 31 20 62 94 33 62 208 91 21 62 188 90 21 215 190 21 21 217 193 30 217 217 80 28 218 80 26 116 218 80 23 82 81 81 145 93 82 82 164 24 83 177 180 25 71 190 26 26 216 201 27 216 215 28 28 215 202 30 214 214 89 31 213 213 90 213 213 90 90 218 90 90 217 217 89 88 215 34 87 213 212 35 85 207 35 35 201 198 35 35 213 35 35 213 213 34 214 214 67 34 214 214 60 214 214 56 54 215 215 50 157 215 46 45 155 28 41 154 154 25 37 152 23 22 152 151 20 19 150 17 16 212 149 14 14 209 220 12 206 204 29 70 199 29 29 68 188 28 145 180 150 28 146 167 28 10 155 149 28 169 224 7 10 195 7 7 10 224 7 140 9 224 8 140 224 224 76 139 224 73 140 162 224 67 140 25 6 60 182 23 223 52 189 6 223 192 193 8 222 194 12 14 223 195 23 223 223 38 44 222 16 31 221 220 30 127 217 216 28 193 208 28 28 190 27 27 187 185 27 26 181 149
211 158 49 204 36 167 46 188 19 44 44 32 19 43 42 30 62 41 30 30 61 182 31 62 62 183 32 62 185 185 62 63 186 80 63 188 189 34 64 190 32 31 192 193 30 29 59 28 27 67 69 24 24 77 68 21 85 87 69 19 95 70 70 177 105 71 204 111 25 72 204 204 72 216 203 12 73 203 202 11 215 200 10 9 214 88 9 134 213 88 9 136 75 8 218 138 76 8 140 34 76 216 141 77 77 213 35 77 145 206 35 213 134 35 35 213 127 10 213 214 65 11 214 125 60 167 214 55 11 161 51 49 158 153 45 44 156 28 41 154 154 26 77 153 24 24 215 152 21 20 214 19 18 213 213 16 212 211 30 12 208 207 29 146 202 29 29 145 193 28 144 144 28 28 145 7 28 147 149 7 28 158 7 7 174 181 7 7 143 7 7 141 141 7 7 140 27 8 140 140 26 139 139 26 26 140 140 25 222 139 24 24 223 223 22 223 223 9 21 222 11 11 9 222 12 12 220 223 13 130 216 15 15 128 12 16 127 127 10 19 126 10 10 28 125 9 111 124 188 9 91 123 9 146 82 179
