P2
256 256
255
13 189 0 248 191 95 249 249 192 92 250 193 193 243 240 193 194 241 0 194 240 240 0 194 240 1 1 239 239 3 253 239 4 5 253 238 9 253 253 191 18 253 252 189 252 252 187 187 251 186 185 237 250 183 182 237 180 180 237 237 146 177 237 184 194 237 237 211 214 237 218 219 219 236 221 213 212 222 222 207 206 221 204 203 164 163 202 201 161 237 201 158 156 239 143 150 239 240 143 141 241 209 132 242 243 204 120 244 200 198 226 246 193 191 233 227 183 238 240 227 127 244 83 137 135 248 77 141 249 172 73 251 251 70 94 251 180 68 251 36 184 109 251 33 188 116 226 31 120 121 226 30 124 226 30 160 253 226 30 253 198 226 158 253 54 157 156 201 52 155 155 202 146 154 203 203 148 153 205 149 149 222 206 150 220 220 150 150 218 30 150 215 214 151 150 210 209 152 205 204 152 152 197 196 152 220 221 153 153 223 151 154 225 225 151 154 227 151 152 250 229 152 151 231 28 151 135 132 150 231 126 159 149 119 117 161 230 111 162 163 229 103 164 236 97 46 167 236 88 168 235 236 136 171 236 27
236 0 247 237 237 22 249 238 24 250 14 239 28 251 193 31 33 17 193 36 37 19 101 42 20 21 105 242 23 107 108 242 27 109 242 242 111 111 242 16 112 241 241 71 112 241 240 75 240 239 78 79 64 80 81 72 75 81 82 84 107 82 92 95 103 83 103 99 98 225 113 94 229 228 169 88 227 227 84 236 227 82 77 227 226 83 237 227 84 84 238 226 85 143 239 215 88 145 48 211 209 148 43 95 150 122 39 221 152 38 38 228 102 40 227 235 93 248 227 87 85 249 227 133 249 250 104 140 250 226 68 251 251 51 151 252 251 39 253 184 35 34 253 64 114 253 253 61 120 253 60 59 250 253 58 58 250 57 56 250 250 55 250 251 30 53 251 250 30 253 250 30 29 253 251 29 253 253 29 29 253 253 30 253 253 43 30 253 42 41 253 253 40 39 250 38 38 249 248 37 36 247 30 35 244 244 30 242 242 30 30 239 239 30 251 250 30 30 250 250 30 249 249 28 31 248 248 27 158 247 27 27 246 235 27 230 243 26 26 229 37 26 228 228 43 26 228 51 54 137 227 65 233 227 75 84
246 0 0 248 248 191 249 249 192 192 250 250 192 242 251 193 193 241 252 194 240 240 19 194 240 1 193 106 239 2 3 238 242 6 253 238 10 12 253 241 19 253 252 241 72 252 187 240 76 251 184 237 249 67 182 237 246 179 108 237 87 176 237 233 99 102 236 213 109 97 229 220 93 91 228 222 211 227 227 81 206 227 221 81 136 226 81 201 139 83 83 142 156 85 86 144 51 88 146 146 45 241 149 41 41 227 151 39 227 227 39 39 227 227 41 227 227 120 47 227 227 128 166 227 134 136 171 226 142 174 175 147 148 178 94 152 182 183 104 156 186 110 111 253 189 116 117 226 61 121 226 226 124 250 226 159 128 226 226 158 250 226 157 157 250 226 156 202 250 30 154 203 204 30 253 205 148 152 253 46 149 253 208 44 150 253 43 150 251 253 40 150 216 30 39 249 211 152 248 247 30 152 245 245 30 252 242 30 30 251 240 30 251 226 30 30 250 229 151 250 249 28 151 249 28 28 232 247 27 27 231 27 27 230 230 26 26 229 36 26 228 228 40 239 228 45 47 236 227 57 234 233 69 73 230 229
236 19 20 236 237 22 14 237 24 25 15 239 29 16 16 0 33 17 18 99 252 19 102 103 21 22 105 242 24 107 108 242 192 110 242 242 191 112 241 65 190 238 241 71 71 237 42 75 54 239 59 250 65 76 79 247 76 116 244 84 177 172 238 96 103 237 230 173 98 229 171 170 236 228 169 168 236 222 167 236 227 222 165 237 221 80 237 237 220 82 141 218 218 203 143 216 205 206 142 212 210 211 130 214 216 120 117 222 223 108 245 229 100 98 247 187 91 248 248 168 84 249 145 135 249 249 102 91 250 73 66 251 250 50 46 252 67 39 253 253 65 253 253 63 63 253 253 61 250 253 59 59 250 253 57 250 250 56 56 250 30 30 250 250 30 30 250 30 30 253 250 30 30 253 224 30 253 253 30 30 253 45 30 253 253 43 251 253 42 41 250 253 40 250 249 215 38 248 247 218 150 246 30 35 151 197 30 252 241 187 30 251 180 30 154 250 169 30 250 29 158 155 249 29 147 156 233 27 158 247 234 149 230 235 27 146 229 236 144 228 108 237 142 228 43 139 138 93 53 136 86 83 170 133 76 72
246 189 0 21 14 190 23 249 15 192 27 16 192 92 31 17 193 241 18 18 100 240 1 103 104 241 1 107 239 241 52 109 241 6 58 111 241 63 253 241 241 68 42 189 72 73 50 186 75 57 60 111 78 67 70 110 77 79 108 107 88 91 105 232 99 102 100 230 79 97 229 228 79 91 227 79 78 227 227 79 79 226 79 79 136 226 80 139 139 219 81 142 142 56 204 144 51 49 208 147 45 227 149 126 41 227 152 39 244 227 104 40 227 111 113 248 227 119 121 249 161 127 168 227 123 135 172 91 141 250 177 59 251 180 68 43 252 184 105 250 253 63 112 226 253 61 250 226 60 60 250 226 58 250 250 30 57 250 30 30 250 250 30 156 253 30 30 253 203 30 30 253 49 30 253 253 47 253 253 46 45 253 253 44 251 251 42 42 251 219 40 250 250 30 38 249 248 30 247 246 30 30 245 30 30 252 241 30 30 251 32 30 251 251 30 30 250 30 30 249 249 28 232 248 28 28 231 247 27 230 230 27 27 230 230 33 229 229 36 36 228 228 40 238 228 45 47 236 92 55 233 232 81 72 229 28
248 0 190 246 246 0 191 244 0 0 250 243 0 29 251 0 0 252 18 0 252 252 193 1 253 253 193 253 253 193 192 253 253 192 238 238 191 191 238 238 190 238 238 32 188 237 44 48 237 237 62 67 237 80 88 247 246 124 139 242 177 180 237 235 174 231 229 173 172 223 221 170 236 215 169 169 236 209 168 236 236 222 166 237 237 221 237 237 220 220 238 219 218 203 238 216 216 207 227 213 211 212 227 209 217 118 115 99 224 106 246 230 158 96 247 237 89 46 248 165 82 249 249 170 65 249 100 90 77 250 65 251 250 226 46 252 226 39 154 253 226 34 253 191 226 158 253 61 226 158 196 59 250 159 198 127 250 200 200 132 250 201 135 137 226 202 141 250 226 144 145 225 30 147 148 224 152 253 224 224 151 209 223 151 151 210 221 151 212 213 151 151 214 215 151 216 217 150 247 219 151 151 206 222 151 151 198 33 151 191 189 152 151 182 153 152 174 171 154 151 162 155 156 233 152 156 234 235 31 158 235 235 160 244 236 145 161 237 236 142 240 237 141 140 237 26 137 95 92 27 134 85 170 28 226 74
14 189 247 0 190 91 245 0 90 243 238 0 92 242 0 32 96 240 0 252 100 240 41 253 193 241 47 24 193 51 52 28 192 57 31 32 112 63 36 190 113 41 43 113 237 49 51 113 238 58 112 112 236 77 111 235 235 78 108 233 78 78 232 231 78 231 230 78 78 113 171 77 119 121 89 77 126 128 83 206 132 78 76 136 136 71 226 139 65 63 226 142 58 226 226 83 50 227 86 87 241 227 90 91 227 208 96 153 227 102 103 157 197 110 160 161 184 240 165 51 54 245 169 62 227 248 73 75 226 178 70 250 226 68 96 250 226 65 250 226 35 156 250 33 157 193 250 32 158 196 31 31 253 198 31 158 253 55 30 253 201 54 253 253 52 139 250 253 51 250 225 49 49 250 225 47 251 250 30 45 251 251 30 251 250 30 30 250 30 30 253 253 30 30 252 38 30 252 252 36 30 252 35 35 252 252 33 240 251 32 31 237 236 31 235 235 30 30 233 233 30 232 232 31 31 231 231 31 246 230 31 32 244 33 33 243 243 26 35 241 26 26 239 238 26 26 236 26 27 227 233 27 227 226 237 28
247 0 0 246 246 0 249 244 0 0 250 243 0 251 252 0 0 252 193 0 252 253 193 193 253 193 193 239 253 192 192 238 192 192 238 238 191 190 238 19 190 238 237 33 113 237 46 50 251 237 64 249 249 236 94 246 245 133 77 241 176 186 236 98 174 77 229 173 172 76 116 170 236 236 123 169 236 222 129 81 236 222 165 74 226 221 69 237 226 78 61 226 219 81 54 227 83 207 139 227 87 213 126 91 92 153 113 97 155 156 39 104 159 94 42 162 162 48 248 227 168 56 227 130 66 69 226 88 79 226 226 145 91 226 149 151 226 226 153 154 226 155 156 192 193 157 157 195 119 158 197 198 123 253 199 127 127 201 201 131 226 202 136 137 226 204 141 226 226 153 145 225 225 152 250 224 152 151 250 30 151 210 223 30 150 211 30 151 253 214 151 151 216 151 151 252 218 151 213 252 36 151 208 222 34 241 201 33 152 238 193 31 236 186 30 154 234 176 154 249 232 30 155 234 31 31 247 235 31 31 245 27 32 244 243 27 34 242 26 26 228 239 26 228 228 26 26 227 95 27 227 227 65 27 226 226
14 93 92 235 15 90 236 237 89 90 237 238 92 238 239 32 33 239 240 37 20 240 41 43 22 1 47 25 25 51 53 28 111 57 31 32 112 113 37 113 114 240 44 113 113 238 186 114 238 237 183 237 236 76 111 234 234 77 237 232 76 76 96 231 76 104 106 218 75 113 95 221 216 122 89 74 209 168 83 206 132 166 76 203 164 70 237 226 160 63 226 219 154 238 226 81 239 239 215 85 241 241 212 216 242 209 208 223 245 204 229 231 96 195 236 89 87 240 242 82 54 245 77 76 249 248 73 72 250 70 69 250 250 49 66 250 41 39 250 250 36 253 250 34 33 253 250 32 253 253 31 31 253 253 31 253 253 56 55 253 54 54 250 253 52 52 250 51 50 250 250 49 48 250 30 47 250 250 30 45 251 30 30 253 250 30 253 253 30 30 253 253 30 253 252 38 30 252 252 36 151 252 35 34 241 225 33 239 238 32 31 236 30 31 234 234 30 30 233 30 30 151 231 31 31 150 153 31 246 246 143 158 244 27 33 160 242 26 162 240 238 26 164 237 26 136 166 238 27 227 238 237 130 226 73 237
247 0 0 90 235 0 249 244 0 0 250 237 0 251 252 192 0 252 193 193 38 253 193 239 44 23 193 239 253 27 110 238 29 191 112 238 34 113 238 240 24 114 239 35 70 114 238 52 250 237 237 74 248 235 235 76 79 233 76 76 91 231 75 99 102 102 74 109 98 236 116 118 92 236 124 87 86 226 130 81 79 226 75 73 226 226 75 226 226 76 76 226 226 78 145 227 81 82 148 227 85 150 151 89 91 153 39 96 156 157 40 40 160 42 43 227 165 48 50 227 79 58 227 227 74 70 226 138 80 250 226 145 250 226 46 150 187 226 153 253 191 35 156 194 195 33 253 196 119 31 253 57 123 253 253 56 127 226 55 54 250 226 53 137 226 30 51 250 226 152 49 250 30 151 250 250 30 253 250 30 30 253 211 30 253 253 42 30 253 215 40 253 253 38 151 252 37 36 245 252 35 35 242 34 34 240 239 30 32 237 30 30 235 235 30 30 233 30 30 249 232 30 248 248 31 31 247 246 31 245 245 27 27 243 243 27 229 241 26 26 228 26 26 227 227 26 26 227 51 27 227 226 64 68 226 77
247 189 90 248 249 190 88 236 191 191 243 237 191 93 242 0 192 241 239 0 240 240 1 42 239 239 2 253 26 3 4 253 30 7 253 253 190 15 253 40 189 252 252 187 114 251 186 185 237 250 183 182 237 92 180 237 237 146 177 237 185 195 236 236 212 229 236 219 220 221 236 222 215 213 223 223 209 208 167 205 205 166 166 203 202 163 237 202 160 158 237 155 153 238 238 145 143 239 216 216 240 241 213 213 242 210 209 224 244 205 230 231 199 196 237 238 185 241 242 80 159 245 246 75 249 248 71 71 250 250 68 250 250 186 65 250 41 64 105 250 35 62 250 226 34 115 250 32 32 253 226 31 253 253 226 156 253 55 226 155 253 53 154 153 205 51 152 253 207 145 250 207 48 250 250 209 150 250 30 210 150 224 30 151 151 223 30 151 222 221 150 151 220 30 150 219 218 151 252 222 151 151 223 34 151 151 226 152 152 228 229 152 153 230 152 152 232 232 152 152 174 151 151 166 164 150 158 155 157 147 147 144 159 229 135 160 161 128 125 162 238 238 164 164 238 135 166 238 238 132 168 238 129 128 227 237
91 234 15 88 88 235 22 89 236 237 26 237 237 30 31 238 238 34 20 239 38 40 22 240 44 24 25 2 50 27 29 111 253 32 112 113 35 190 114 239 41 114 114 239 186 114 237 237 184 113 236 73 181 237 234 74 80 237 165 73 92 230 204 233 102 216 73 110 112 221 218 119 92 223 211 126 85 226 206 168 79 226 165 165 236 226 162 66 237 221 156 237 226 219 147 238 218 81 240 240 215 214 151 213 212 221 155 209 226 228 98 202 233 235 88 238 240 83 81 243 244 77 249 247 73 72 249 85 69 250 250 57 66 250 46 44 250 250 38 37 250 35 35 253 250 33 253 253 59 31 253 253 57 253 253 56 55 253 253 54 250 253 52 52 249 253 51 250 250 49 49 250 30 30 250 250 30 30 250 30 30 253 250 30 30 253 223 30 253 253 30 150 253 38 30 252 252 36 244 252 35 35 241 252 34 239 238 227 32 236 236 230 152 234 30 30 152 185 30 249 231 30 31 247 166 31 246 246 155 31 244 27 143 159 243 27 161 161 238 26 163 238 238 136 227 238 27 133 227 238 130 226 88 238 126 226
247 189 189 246 249 190 244 244 191 191 243 242 192 242 241 0 192 241 0 0 253 240 1 1 253 2 2 253 253 3 4 253 191 8 253 253 190 16 253 189 189 252 252 187 237 237 185 185 237 237 183 237 237 98 180 237 237 154 109 237 192 200 236 229 214 228 236 220 221 220 171 222 214 213 169 223 208 168 168 71 204 166 165 203 137 163 236 202 159 62 237 220 152 238 238 219 49 239 217 216 43 241 215 218 40 227 210 225 227 227 100 232 227 197 108 166 84 115 243 171 78 124 174 74 68 133 179 70 249 183 184 89 250 187 97 99 226 191 105 106 226 154 111 226 226 156 116 226 156 253 226 226 155 202 226 155 155 204 226 154 205 205 136 153 206 206 142 207 208 145 146 208 209 148 225 210 150 150 225 45 151 225 225 151 151 223 150 150 223 222 150 150 221 150 150 220 219 151 222 222 30 151 224 225 30 251 227 152 152 251 229 152 198 231 30 152 189 233 151 231 179 29 150 171 31 28 230 160 157 27 229 32 159 237 229 33 161 238 35 36 238 238 39 236 239 26 46 233 239 131 230 229 27 127 226 225
188 18 19 16 189 22 16 16 89 25 17 18 93 237 19 96 241 238 21 101 239 1 105 106 239 46 108 240 240 51 111 240 56 57 33 239 61 62 39 64 66 44 46 68 69 52 114 70 60 62 113 248 70 112 111 79 81 109 231 231 107 106 229 229 103 228 228 71 98 227 70 70 236 226 70 69 236 223 70 132 226 222 70 137 72 71 202 140 64 72 143 154 56 205 146 51 227 209 134 45 227 215 120 242 227 90 107 244 227 97 245 227 201 105 247 191 112 241 248 166 121 174 137 126 248 179 94 84 250 68 87 251 251 65 97 252 63 63 250 253 61 249 249 60 60 249 226 59 249 249 32 57 249 249 31 253 249 31 31 253 31 31 253 253 30 30 253 50 30 253 253 48 30 253 47 47 250 253 45 45 250 44 43 250 250 42 249 249 30 40 248 248 30 247 246 30 30 244 243 30 252 252 30 30 251 33 30 251 251 32 30 251 31 31 249 249 30 30 249 29 29 230 247 28 28 230 31 27 229 229 31 145 229 33 33 141 228 35 239 228 125 38 237 227 42 166 233 27 50 231 27 28 170 227 28 28
247 189 189 20 249 190 190 23 17 190 242 242 18 94 241 0 192 100 240 0 103 240 239 1 107 239 2 49 111 240 4 253 112 240 59 253 189 239 63 42 188 66 67 49 186 69 55 58 114 71 65 182 237 74 76 111 237 85 109 108 230 204 105 104 228 70 101 227 227 69 95 227 69 68 226 226 68 207 226 68 69 135 166 69 138 139 67 71 141 142 60 144 145 54 52 147 148 47 227 150 43 42 227 116 40 227 227 92 39 227 98 100 246 227 106 109 227 180 116 172 227 123 247 177 114 132 181 182 75 251 186 90 92 251 190 99 226 252 62 106 226 196 60 249 226 59 115 226 33 57 249 226 154 154 249 31 154 204 249 31 153 207 31 31 253 207 30 253 253 49 30 253 210 47 253 253 46 150 250 253 44 250 225 43 42 250 224 41 249 248 30 39 247 30 30 245 244 30 30 242 30 30 252 251 30 30 251 33 30 251 251 32 250 250 30 30 249 249 29 231 248 29 29 230 229 28 229 229 31 28 229 229 32 229 229 33 34 228 35 36 238 227 39 41 235 43 45 232 231 27 55 228 27 28 225 224
247 0 19 16 17 0 23 17 88 0 251 18 93 30 19 192 99 252 21 102 240 253 192 106 239 240 192 239 240 52 191 238 240 57 238 238 14 62 237 239 27 252 237 39 68 251 53 58 250 63 182 85 247 180 111 244 243 177 109 238 176 175 236 231 173 236 236 172 172 236 236 171 236 236 223 67 236 236 223 205 236 222 223 203 222 222 203 203 221 221 204 153 221 206 207 142 139 210 132 129 240 216 118 115 242 109 105 244 244 97 245 246 202 88 247 247 186 248 248 165 156 246 249 124 248 249 92 83 250 67 62 251 251 64 46 252 62 62 150 253 61 60 253 198 59 249 249 58 57 249 32 56 249 249 31 126 249 31 31 133 249 31 253 249 226 31 253 253 30 151 253 48 30 253 211 46 150 253 45 44 149 214 43 250 150 216 41 249 217 218 152 247 30 38 152 221 30 152 242 218 151 152 216 30 151 152 211 151 251 207 206 153 250 200 153 153 234 30 154 235 236 150 155 236 236 148 237 237 146 229 238 238 143 149 239 140 140 137 35 137 129 126 164 134 117 166 166 108 105 168 168 96 170 170 238 83
17 16 188 85 21 17 87 243 18 18 90 236 19 95 96 237 20 100 238 238 104 105 239 239 108 239 239 49 253 239 239 54 33 239 58 59 38 17 63 42 44 66 66 50 115 68 56 58 114 114 66 113 113 233 77 111 232 231 177 108 229 229 105 236 228 68 100 227 227 67 236 226 67 67 125 226 66 130 131 223 67 135 75 223 203 139 67 69 203 157 60 204 145 147 52 208 138 47 239 227 124 241 227 216 110 243 227 91 244 245 207 99 246 246 196 239 247 180 174 244 248 146 247 179 70 102 249 68 82 251 251 65 93 251 64 63 249 252 62 61 249 60 60 249 249 34 249 249 33 32 249 249 32 253 249 31 31 253 249 31 253 253 31 31 253 253 31 253 253 48 48 253 47 47 250 253 45 45 250 44 43 250 250 42 42 249 30 40 248 248 30 152 246 30 30 252 243 30 252 252 30 30 252 251 30 251 251 33 30 250 250 32 153 249 30 30 231 235 29 230 230 29 29 229 31 28 229 229 32 28 229 32 32 142 228 33 240 138 136 36 237 236 124 164 234 27 45 167 231 27 168 228 238 28 171 224
16 0 0 249 17 0 250 250 190 0 251 251 191 252 252 191 191 240 192 191 240 239 191 191 239 1 191 239 238 4 191 238 7 9 238 238 15 18 237 25 28 252 252 40 251 251 184 60 250 249 182 248 247 180 180 244 242 178 236 238 176 175 236 216 173 236 236 221 172 236 222 223 236 236 223 223 236 223 223 205 236 223 223 203 226 222 203 203 159 69 204 152 149 206 207 140 238 211 130 127 240 216 116 242 242 157 103 244 211 162 40 245 203 200 45 227 187 242 248 227 155 246 227 123 128 249 227 82 250 66 226 141 251 64 146 147 195 62 249 253 198 109 249 200 58 114 249 202 117 249 226 204 122 226 32 126 128 226 31 253 226 226 151 253 226 226 150 210 226 150 150 211 226 150 212 213 150 150 213 152 149 215 215 152 249 217 152 152 224 219 152 152 223 152 152 221 221 152 220 219 151 152 217 216 151 236 214 151 152 231 208 153 233 233 30 153 235 235 154 248 236 150 155 237 148 148 246 238 145 144 162 27 142 153 150 27 138 142 162 136 227 130 164 227 121 43 166 226 108 168 229 226 59 170 238 238
17 248 17 0 20 17 189 0 250 18 91 0 252 191 97 252 252 192 102 238 192 106 239 239 192 239 239 2 191 238 239 54 238 238 10 59 237 237 22 253 45 33 37 252 53 50 251 250 183 74 249 181 181 246 245 179 111 240 177 176 236 233 174 174 236 220 173 236 236 222 236 236 223 223 236 236 223 206 236 223 223 203 236 223 203 203 222 222 203 204 154 205 206 146 143 209 136 133 239 214 123 119 241 111 109 243 243 99 97 245 208 206 246 246 197 240 247 180 173 244 248 145 247 247 111 100 249 250 74 251 251 64 53 251 252 62 249 252 61 60 249 199 59 249 249 202 58 249 34 56 119 249 32 54 249 226 31 130 249 31 151 253 226 31 253 253 226 150 253 49 226 149 253 47 149 253 214 45 149 253 43 152 250 216 41 249 224 218 152 247 30 221 152 223 30 152 152 221 30 152 219 219 151 152 216 151 151 230 212 152 250 232 153 153 234 30 154 154 235 150 155 237 237 149 156 238 146 145 239 239 143 161 158 141 139 150 147 137 141 137 163 134 129 125 165 227 116 167 168 106 53 169 238 94 171 171
246 0 0 249 244 0 0 250 190 0 251 251 191 30 252 191 191 35 253 191 240 253 25 191 239 253 191 238 238 31 191 238 7 9 114 237 16 18 116 238 29 252 237 236 47 251 235 62 67 249 233 96 246 76 179 67 242 178 109 67 95 175 236 65 106 102 236 113 115 96 236 121 92 90 226 127 85 226 226 63 78 226 223 65 226 226 66 203 226 226 68 145 227 70 72 148 227 74 151 152 78 79 155 40 39 158 159 39 244 163 40 41 227 169 45 47 227 77 53 227 227 62 227 227 127 129 227 227 136 189 226 140 142 194 226 146 197 197 40 150 200 201 151 253 202 113 152 204 56 118 226 206 122 124 226 54 128 226 226 52 135 226 151 51 249 226 150 249 249 31 149 250 226 31 253 213 30 149 253 215 30 253 216 42 30 253 218 152 253 253 39 152 253 38 37 243 222 36 152 240 30 35 237 218 30 33 234 30 152 233 232 30 250 231 30 30 249 230 30 248 248 29 31 247 246 28 245 245 28 27 243 242 27 228 241 27 27 227 27 26 227 227 26 27 227 43 45 226 226 51 53 226 58 61 224 225
232 18 82 233 233 21 85 234 24 25 242 236 28 30 236 0 34 22 238 38 253 25 108 43 27 27 111 253 30 113 113 253 34 114 238 253 189 116 238 187 187 237 236 185 116 237 58 66 237 234 87 67 237 126 66 82 236 185 66 93 208 212 231 104 219 224 223 172 98 217 119 171 236 210 170 87 236 206 168 235 226 167 166 236 223 163 236 236 222 156 236 222 222 207 238 221 221 212 221 220 216 217 219 218 223 103 216 228 229 92 233 234 86 84 239 240 78 247 248 74 73 248 248 70 249 249 90 66 249 67 62 249 249 50 47 249 43 41 252 252 38 37 253 58 36 253 253 57 34 253 56 55 253 253 54 249 253 53 53 249 253 51 249 249 31 50 249 249 31 148 250 31 31 249 226 31 253 250 30 30 253 225 30 253 253 225 30 253 40 39 150 253 38 38 150 224 36 241 252 227 152 237 229 34 235 235 231 153 233 30 30 152 232 30 249 152 202 30 248 196 194 155 247 187 31 156 238 177 157 243 239 166 159 239 27 137 161 240 27 227 240 240 131 227 240 129 128 116 240 125 124 103 123 122 93 89
247 232 0 249 249 233 22 251 190 235 26 20 190 30 31 22 191 35 24 24 106 40 26 191 109 238 29 112 238 239 33 114 238 9 115 115 238 60 116 237 237 63 116 236 65 65 59 234 66 66 69 66 66 77 80 66 86 88 110 65 97 99 105 228 106 102 101 113 116 96 226 225 92 90 225 226 85 226 226 62 78 226 62 63 236 226 64 65 236 222 66 146 227 222 70 149 48 73 152 153 42 218 156 39 39 224 161 39 227 231 89 41 227 171 81 247 227 110 54 248 154 119 248 227 110 128 249 81 134 251 249 57 141 195 48 45 252 199 41 39 253 59 109 253 253 57 249 253 56 56 249 253 54 249 249 53 53 249 226 52 249 249 31 50 249 31 31 253 249 31 31 253 31 31 253 253 31 31 253 44 30 253 253 42 30 253 40 41 247 253 39 245 244 38 37 242 241 36 239 239 30 35 236 235 30 234 234 30 30 232 30 30 250 249 30 30 249 30 31 248 247 29 31 246 28 28 245 244 28 27 243 27 27 228 240 27 228 227 35 27 227 227 39 130 227 43 44 127 226 50 227 226 57 60 223 91
246 248 188 245 244 189 189 243 234 190 242 241 0 29 241 0 0 253 240 0 0 253 1 1 253 253 2 3 253 190 5 253 253 189 253 253 188 188 237 252 186 237 237 185 184 237 237 183 237 237 92 181 237 236 151 236 236 191 199 236 211 214 230 228 220 221 221 173 222 216 214 171 223 210 170 170 206 206 169 235 204 167 166 236 236 163 236 236 223 155 236 237 222 52 238 222 222 45 239 221 217 241 227 219 223 227 217 228 230 90 211 235 84 82 102 240 77 76 112 180 72 248 247 185 71 249 189 65 83 249 62 90 249 226 48 98 249 42 147 105 226 38 253 110 226 151 253 226 226 151 207 226 150 150 209 53 150 209 210 134 150 211 51 140 212 212 145 249 212 148 149 226 214 150 151 226 151 152 226 226 149 152 225 149 149 225 225 149 253 224 150 150 223 224 150 225 226 30 151 228 228 152 229 230 152 153 232 232 152 214 234 152 152 209 30 151 205 203 29 149 197 155 148 229 188 156 156 181 32 158 240 170 159 159 240 34 161 240 240 36 236 240 130 40 232 240 127 229 228 28 123 106 239 28 225 92
79 231 232 19 82 233 22 23 242 234 26 27 241 0 31 23 23 0 36 25 106 40 253 27 110 253 30 190 113 253 34 114 238 253 189 116 237 237 187 237 236 63 185 237 235 64 237 237 74 64 237 108 123 244 236 170 64 239 201 207 233 100 174 219 225 173 101 219 217 172 236 212 171 171 235 207 170 235 236 168 168 236 226 165 236 236 223 63 236 236 223 206 237 222 222 210 222 222 214 215 221 221 220 107 219 225 227 95 92 232 87 85 246 238 80 247 247 75 73 248 248 70 248 248 109 67 249 249 73 249 249 58 54 251 249 46 252 252 41 40 252 59 37 253 253 57 35 253 56 56 253 253 54 54 253 53 53 249 249 51 249 249 31 50 249 249 31 146 249 31 31 150 249 31 253 250 226 31 253 253 31 149 253 42 31 253 220 40 149 253 39 39 149 225 37 241 150 227 35 238 229 229 153 234 30 153 152 217 30 152 231 213 153 152 209 31 249 150 203 154 247 197 195 155 245 187 156 157 239 27 158 240 240 138 160 241 27 134 240 240 131 227 240 240 128 128 240 126 124 114 169 122 104 101 171 117
246 188 188 244 244 0 189 243 0 0 242 241 0 252 240 0 0 253 240 0 253 253 1 1 253 253 2 253 253 190 189 253 189 188 237 253 188 187 237 47 186 237 237 55 184 237 62 183 116 236 98 112 237 231 159 241 236 196 62 235 228 216 229 227 227 60 221 173 226 59 213 171 59 59 127 170 236 132 133 80 235 136 166 236 226 141 66 236 223 145 58 227 223 52 50 227 222 45 227 227 74 219 227 79 80 162 227 85 231 168 91 94 172 81 100 103 178 52 110 182 183 62 227 187 71 74 227 192 83 226 226 90 92 226 226 98 226 226 146 105 226 226 149 249 226 149 150 207 35 150 208 209 150 150 210 127 149 211 211 134 149 212 139 141 253 213 145 226 253 47 149 226 226 46 250 226 148 152 226 226 149 249 226 149 149 248 225 149 222 245 31 149 224 153 30 252 227 153 151 252 35 153 252 231 34 152 251 32 152 231 250 31 231 211 30 30 229 206 154 229 229 31 155 228 228 31 244 228 32 32 242 228 33 240 239 34 34 237 27 37 235 234 27 128 231 27 27 226 228 28 28 226 28 28 224 224
187 245 231 0 249 243 0 22 251 242 0 252 22 0 0 252 25 0 253 253 191 0 253 190 190 253 253 189 190 238 189 189 238 238 188 188 237 21 187 237 237 36 185 237 51 57 237 237 79 248 237 115 131 244 243 177 240 238 176 210 232 231 174 226 224 173 173 218 172 172 236 212 171 171 235 223 170 235 235 223 168 235 223 223 236 235 223 223 236 223 223 207 237 223 210 211 227 223 215 216 115 75 221 104 101 226 228 93 244 233 86 83 246 175 78 247 247 180 73 248 152 186 66 248 108 98 249 227 74 250 249 58 54 251 226 47 252 252 226 147 252 58 226 148 253 57 149 149 208 55 249 253 209 123 249 210 53 131 226 211 136 249 226 213 142 226 31 147 148 226 31 253 226 226 149 253 226 226 149 218 226 148 148 219 149 149 221 222 149 149 223 153 149 225 226 153 239 228 152 152 222 230 152 220 220 152 152 218 217 152 215 214 152 151 211 209 154 229 205 154 155 239 198 155 239 240 156 157 240 140 158 240 240 137 160 241 134 132 236 241 130 129 142 27 127 131 128 27 226 118 169 120 225 103 171 224
246 248 20 80 244 21 188 86 233 22 92 241 234 24 99 236 0 34 105 237 0 253 237 237 44 253 238 48 49 34 238 53 54 39 56 57 43 45 59 60 50 118 117 56 58 117 237 65 116 116 232 75 115 230 230 113 112 228 228 110 227 227 59 105 226 226 58 115 225 58 57 123 223 57 128 129 223 57 133 80 58 137 138 72 59 141 66 64 227 145 58 56 227 140 50 227 227 125 239 227 73 40 241 227 79 243 227 218 86 245 227 93 237 176 199 102 180 73 172 245 185 63 129 248 66 74 249 250 64 86 251 62 62 249 251 60 249 249 42 58 249 226 147 249 249 36 149 249 249 35 253 249 34 34 253 249 33 253 253 52 32 253 50 50 253 253 48 147 253 47 47 249 253 45 45 249 44 44 249 249 43 249 248 31 31 247 247 31 253 245 31 31 252 241 31 252 252 31 31 252 252 31 251 251 34 31 251 32 32 231 250 31 31 230 30 30 229 229 29 29 229 31 29 228 228 31 142 228 32 32 228 228 33 240 239 34 35 236 236 37 234 233 27 40 231 230 27 167 227 28 28 169 240 28 224 224
248 20 0 249 249 188 0 251 22 90 241 252 189 98 235 190 190 240 236 190 190 239 1 190 238 238 2 190 238 5 5 253 238 10 253 253 18 21 252 49 33 252 251 184 53 250 250 182 248 248 180 180 245 243 178 236 236 177 176 236 215 175 236 236 221 173 236 223 223 236 236 223 223 235 223 223 206 235 223 204 204 167 223 203 203 162 204 205 155 152 206 207 143 237 210 132 128 239 216 117 240 241 222 103 242 221 220 244 244 216 214 245 208 204 240 247 187 180 244 227 151 247 247 227 123 249 65 64 131 250 62 249 251 201 60 249 252 59 102 249 206 58 249 226 208 112 249 36 210 117 226 34 253 124 226 33 253 226 226 148 253 226 32 253 214 226 148 253 48 148 148 216 46 250 148 217 152 249 218 219 153 249 220 153 153 226 222 153 225 225 153 153 225 31 152 224 224 150 252 223 222 151 232 221 151 151 234 219 152 235 236 152 152 237 150 153 238 238 148 154 239 146 145 198 240 143 142 189 27 139 182 179 136 228 171 161 132 161 158 163 227 149 164 165 226 135 167 240 240 49 169 240 240 171 221 239
75 21 21 79 81 21 84 86 233 233 92 94 234 29 100 235 236 35 106 236 38 40 238 237 44 32 237 3 49 36 237 52 253 41 117 56 45 47 118 252 52 117 118 251 60 118 233 249 181 116 231 180 115 236 229 178 112 228 209 58 236 227 57 57 236 222 56 115 236 223 212 123 223 223 207 130 223 205 204 169 78 204 139 165 235 204 160 64 236 206 149 237 227 139 135 238 224 123 239 240 224 109 241 223 222 227 243 220 218 233 214 212 237 239 200 241 242 72 171 245 246 68 247 248 65 65 249 250 64 249 249 61 61 249 249 60 249 249 43 58 249 40 39 249 248 37 37 248 36 36 253 253 34 34 253 52 33 253 253 51 253 253 50 50 253 253 48 249 253 47 47 249 253 45 249 249 31 44 249 249 31 153 248 31 31 247 225 31 252 244 31 31 252 225 31 252 252 224 31 252 35 34 151 251 33 232 251 235 32 230 250 31 151 229 238 30 229 229 239 147 228 31 31 143 228 32 243 140 188 33 241 181 178 160 238 169 35 162 241 157 163 233 241 143 165 240 27 123 168 240 120 225 240 239 115 224
248 187 187 249 249 188 188 251 189 189 241 252 189 240 240 189 190 239 239 190 239 239 1 1 238 238 2 253 238 5 6 253 9 10 253 253 19 22 252 185 33 252 251 183 54 250 182 182 236 247 180 179 236 82 178 236 236 176 236 236 216 175 236 236 221 103 236 223 223 97 236 223 209 208 225 223 206 170 223 56 204 167 223 204 141 161 58 205 154 151 61 149 142 237 237 153 126 239 224 158 40 241 223 38 38 227 221 38 244 227 89 41 227 205 98 48 227 105 244 188 227 115 192 66 122 124 197 63 130 199 200 89 137 203 60 97 205 206 102 249 207 207 107 226 38 111 113 226 147 117 226 226 148 124 226 148 147 226 226 147 148 226 148 148 214 215 148 215 216 150 148 217 217 152 253 218 153 153 219 219 153 226 221 153 153 226 223 153 225 225 149 153 225 150 150 238 224 150 150 235 31 151 232 222 31 151 234 31 152 249 236 31 249 237 30 149 248 239 148 208 246 29 144 201 244 28 228 192 27 137 227 182 27 227 174 34 161 227 36 163 234 227 39 165 241 42 44 227 240 48 50 223 28 57 220 219
73 248 248 188 80 250 250 188 242 251 189 189 241 252 189 240 240 190 190 239 0 189 238 238 1 45 238 3 4 253 238 7 8 253 13 16 253 252 26 252 252 184 44 251 250 182 249 249 181 180 236 245 179 236 236 177 177 236 236 176 236 236 220 174 236 222 222 236 235 223 223 210 223 223 207 206 224 223 204 168 224 204 204 164 57 204 159 157 206 206 148 237 209 137 133 238 238 121 239 240 225 107 241 242 223 37 243 220 219 245 227 212 238 246 200 194 243 227 171 245 246 67 128 248 65 65 125 250 62 249 133 202 61 249 251 205 98 249 207 58 104 248 40 108 248 226 37 114 248 36 147 120 226 34 253 226 226 147 253 226 226 147 215 226 147 148 215 48 147 216 47 151 147 218 152 249 219 220 153 249 220 153 153 226 222 153 153 225 153 153 225 225 149 153 225 150 150 224 224 150 232 223 151 151 234 221 151 235 236 152 152 237 237 150 238 238 148 148 239 146 146 205 240 143 142 198 28 139 191 188 27 135 181 160 132 227 170 162 162 160 38 164 241 147 166 228 241 46 168 240 240 52 222 239 114 60
248 187 230 18 249 188 0 22 24 189 25 252 25 189 240 27 190 105 239 29 189 238 236 32 113 238 2 115 115 237 6 117 117 236 54 118 236 22 57 252 234 58 251 60 233 59 66 181 58 58 76 179 57 84 86 114 56 94 96 111 101 103 107 106 225 112 102 225 225 97 96 225 53 90 225 226 53 83 226 54 54 226 226 56 56 143 58 58 146 147 60 149 151 51 63 154 155 43 217 159 40 39 223 165 37 227 170 88 38 227 227 41 246 227 96 48 227 180 106 248 227 113 116 248 107 123 199 248 75 131 202 60 136 251 205 96 252 207 58 103 252 209 107 248 253 56 112 226 253 55 248 226 53 53 249 226 147 249 249 34 147 249 33 33 253 249 32 147 253 32 32 253 218 32 32 253 44 31 253 253 42 248 253 41 40 246 253 39 244 243 38 38 240 239 37 237 236 31 35 234 233 31 232 232 31 31 250 31 31 249 249 31 31 248 30 31 248 247 29 31 246 29 29 244 244 28 228 228 27 27 227 227 27 227 227 35 27 227 227 37 227 227 39 41 226 226 44 226 226 48 50 223 28 56 220 218
245 229 17 244 230 0 21 24 0 24 252 26 0 29 27 189 0 253 29 108 0 253 190 112 253 253 189 115 237 188 188 237 236 187 237 237 19 186 237 235 34 237 237 50 58 237 237 82 248 236 125 142 243 178 186 239 237 176 213 231 175 175 225 223 173 103 217 173 173 235 211 172 172 235 171 171 235 235 224 235 235 224 224 235 235 224 205 236 224 224 208 237 225 211 212 225 225 216 115 112 220 222 101 98 227 92 89 244 233 83 81 245 77 76 247 247 71 71 247 160 67 248 248 117 248 248 89 82 250 249 65 251 251 226 52 251 252 47 252 252 57 42 252 56 56 145 253 55 55 248 213 53 249 249 214 52 249 34 51 136 249 33 50 249 226 33 147 249 32 147 253 226 32 253 253 226 148 253 43 226 148 253 41 148 149 224 40 149 225 226 153 149 228 37 152 224 230 153 235 224 233 152 223 31 152 152 221 31 151 220 219 152 150 217 153 153 214 213 154 246 240 155 155 241 28 156 157 241 136 158 241 242 133 242 242 130 129 242 242 127 160 157 125 124 147 143 122 136 132 169 118 122 117 171 224 106
15 23 229 18 19 24 84 22 25 26 94 26 27 100 102 28 29 106 239 30 110 111 236 34 114 236 236 188 116 236 236 51 236 236 53 54 235 235 56 54 234 57 57 61 232 57 68 70 97 57 77 117 56 242 87 114 114 95 176 110 226 104 107 106 226 174 102 225 225 172 235 225 51 172 235 226 52 134 235 224 53 139 226 224 204 143 224 57 207 148 225 209 152 134 225 213 122 43 218 219 107 38 228 97 94 243 227 86 38 245 216 78 246 227 200 247 247 180 105 248 248 138 247 248 106 97 249 201 75 250 251 60 58 251 251 59 252 252 58 57 252 57 57 248 252 56 55 248 38 54 248 249 36 53 249 35 34 249 249 34 253 249 33 33 253 249 33 253 253 32 32 253 253 45 253 253 43 43 253 42 42 248 253 41 40 245 40 39 243 242 38 38 239 31 37 236 236 31 31 233 31 31 251 231 31 250 250 221 31 249 249 31 152 248 30 31 247 247 29 228 245 29 28 228 241 28 227 227 241 27 227 33 242 131 227 35 27 128 168 37 126 226 156 41 229 145 44 226 225 130 169 222 28 115 171 218
245 0 0 249 243 0 0 251 0 0 252 252 0 252 252 189 0 253 253 189 238 253 189 189 238 253 189 238 237 188 187 237 9 187 237 237 19 185 237 30 35 237 237 51 58 250 75 86 247 246 132 149 243 178 191 238 236 176 233 230 175 175 225 222 174 235 236 173 173 235 235 173 235 235 223 171 235 223 224 80 235 224 224 235 227 224 206 236 225 225 208 141 225 212 213 125 226 217 114 110 68 222 99 242 74 171 88 244 234 178 39 245 183 74 247 247 188 52 248 160 149 63 227 117 248 74 227 82 250 227 226 132 251 226 53 137 209 226 140 252 211 105 143 212 56 110 144 213 115 248 214 214 122 249 215 128 130 226 216 136 138 226 146 143 226 226 147 226 226 147 147 226 226 147 219 226 148 148 221 226 148 223 223 148 148 225 153 153 226 227 153 153 228 153 153 225 231 152 152 224 34 152 224 223 33 151 222 152 151 220 220 152 239 218 153 153 240 214 154 240 240 31 155 241 241 32 242 242 135 158 239 27 132 184 242 27 129 173 27 126 227 160 27 123 150 43 27 226 136 169 28 224 53 171 223 223
15 25 244 0 18 26 242 0 251 27 0 26 252 29 0 253 30 189 0 253 189 111 238 253 188 115 236 188 188 237 236 187 187 237 14 186 237 237 26 237 237 40 46 250 236 67 249 248 102 119 245 81 169 241 239 177 207 234 232 176 228 226 175 174 220 174 174 235 235 173 173 235 223 172 235 235 224 170 235 224 224 235 235 224 205 235 224 225 207 236 225 210 211 133 226 214 216 117 218 220 105 102 225 226 92 243 231 85 82 245 181 77 246 247 201 71 247 179 170 248 248 138 127 248 106 97 249 248 76 250 251 226 59 251 251 226 137 252 58 57 141 252 57 248 252 213 55 248 253 54 249 249 215 53 249 35 216 132 249 34 50 140 226 34 253 249 226 33 253 226 33 147 253 226 147 253 221 226 148 253 42 148 148 224 41 245 149 226 153 241 228 229 153 237 231 153 152 225 232 152 224 224 151 152 223 31 151 222 222 152 249 220 219 152 239 216 153 153 241 155 155 241 241 156 156 241 137 157 242 242 133 159 242 130 130 180 242 127 126 168 27 124 158 155 122 148 144 168 118 133 130 170 223 118 172 172
245 0 0 76 243 0 0 87 231 0 252 252 232 0 252 189 0 253 253 189 0 253 189 188 42 253 188 238 47 42 187 237 253 46 119 237 19 185 120 237 36 119 237 232 60 119 231 91 54 118 229 157 242 228 228 52 236 176 227 51 103 175 50 50 112 174 49 118 120 98 49 125 93 91 130 132 85 235 136 79 77 226 224 71 69 227 54 62 227 227 58 227 227 60 61 227 227 64 162 227 68 69 169 228 73 174 176 36 80 180 182 40 186 187 45 47 191 52 55 227 197 63 65 227 63 74 227 227 125 83 226 131 132 248 226 136 210 226 47 140 212 226 141 252 213 41 143 214 214 38 253 215 122 124 253 216 130 226 253 51 138 226 49 49 249 226 48 148 249 33 46 249 226 147 44 249 32 148 222 248 32 253 224 32 31 253 226 31 252 252 38 31 252 230 37 252 252 35 152 233 251 34 231 223 33 32 230 31 32 229 229 31 30 228 31 31 228 228 31 31 228 31 31 243 243 32 241 241 27 33 239 238 27 237 236 27 27 233 232 27 226 230 27 27 226 227 27 225 225 48 28 224 52 55 223 222
0 248 243 0 0 250 0 0 251 251 0 0 252 188 188 253 253 188 239 253 188 189 238 253 188 238 238 188 187 237 237 187 237 237 14 16 237 23 27 252 237 41 47 250 61 70 248 248 109 126 245 178 175 240 239 177 210 233 176 176 236 225 175 235 236 174 174 235 235 173 235 235 223 172 235 235 224 83 235 224 224 75 227 224 205 206 227 225 208 146 226 58 211 131 227 215 160 115 65 221 103 100 70 171 91 243 243 178 37 245 218 185 42 247 201 47 50 227 169 57 248 227 111 68 227 98 249 227 227 126 251 60 226 133 209 59 136 137 211 57 140 213 213 106 142 214 55 113 215 215 118 249 215 124 126 226 36 133 135 226 145 141 226 226 146 146 226 147 146 226 226 147 220 226 147 147 222 222 148 223 224 153 148 225 225 153 253 227 153 153 229 229 153 226 231 152 152 225 35 152 224 224 151 151 223 151 151 229 222 152 152 228 31 152 240 218 31 246 241 31 155 242 241 32 242 242 136 135 240 242 132 193 237 27 128 183 242 27 226 171 27 123 226 41 27 225 147 46 168 225 49 170 220 223 56 171
67 227 0 249 78 229 20 251 230 231 24 252 232 28 29 32 234 33 253 35 37 38 37 188 42 39 40 117 237 43 44 119 235 49 120 120 234 54 120 233 233 120 120 232 53 119 231 230 53 52 229 52 52 87 227 51 50 97 216 50 104 106 49 48 113 104 48 119 121 98 210 126 93 91 226 132 85 226 226 169 77 226 227 71 235 227 54 62 227 226 56 237 228 59 60 238 228 63 164 166 229 68 171 36 227 230 178 36 79 236 77 40 240 190 71 247 244 68 54 248 227 65 248 227 107 62 248 227 124 248 248 64 131 248 55 53 251 248 49 47 252 45 44 252 252 55 41 252 54 116 253 253 53 124 253 52 51 249 253 50 249 249 49 49 249 249 48 249 249 33 33 249 249 33 253 249 32 32 253 32 32 253 253 32 32 253 39 32 252 252 38 37 252 37 36 234 252 35 35 232 34 34 230 230 33 230 229 31 32 229 228 31 147 228 31 31 246 228 32 245 244 32 32 242 28 32 241 240 27 33 239 27 27 160 235 27 27 233 242 27 226 226 27 27 225 43 27 225 225 48 115 223 52 53 110 222
247 248 187 243 249 187 187 241 251 187 241 240 188 188 239 239 0 239 239 0 0 238 238 1 253 238 2 3 253 4 6 253 253 11 14 252 184 23 252 252 183 183 251 182 181 236 248 180 236 236 178 178 236 236 177 236 236 214 176 236 236 220 222 235 222 222 215 235 223 211 210 223 223 207 172 224 205 205 170 224 205 166 165 51 206 158 155 236 150 146 236 237 134 48 238 228 116 239 239 229 38 241 229 229 36 243 226 234 36 227 219 238 240 227 90 243 69 178 100 199 65 107 248 203 63 117 206 62 80 125 208 60 249 226 211 94 248 51 98 100 226 45 104 106 226 141 110 226 226 143 118 226 144 144 226 226 144 217 50 145 145 218 49 146 219 219 148 146 220 220 151 220 221 152 152 222 222 153 226 224 153 153 226 148 153 226 226 149 153 225 149 149 226 226 150 150 225 150 150 235 225 150 236 237 150 151 238 238 149 249 239 147 147 247 240 145 218 241 29 142 214 242 139 227 209 27 135 203 33 159 227 195 160 160 226 36 162 242 226 38 164 242 40 41 227 241 44 224 223 28 49 220 240 110 222 216
66 226 227 186 78 228 229 187 241 230 24 98 240 232 29 239 233 0 34 36 0 38 253 39 1 42 42 187 4 253 46 119 9 253 185 120 252 252 183 236 233 182 182 236 231 181 236 236 118 179 236 228 50 236 236 207 49 236 236 218 226 235 221 221 218 174 222 213 212 174 223 208 173 172 206 206 171 83 205 169 167 235 205 163 235 235 155 152 236 236 226 237 237 227 228 238 238 229 220 240 230 229 226 242 228 231 232 225 224 236 76 74 240 241 71 69 244 67 67 248 246 64 64 248 63 62 248 248 61 248 249 65 60 249 249 55 251 248 50 48 252 248 45 252 252 43 42 252 252 40 252 252 53 38 253 52 51 145 253 50 50 249 218 48 249 249 219 47 250 34 46 152 249 33 153 249 226 33 153 247 32 147 253 226 32 253 252 226 149 252 38 226 149 252 36 150 150 234 35 150 235 34 151 151 237 32 229 223 239 148 228 31 240 146 219 32 144 143 216 154 140 213 212 156 136 208 157 158 202 201 159 237 242 160 161 243 27 162 163 242 123 165 242 242 120 241 241 117 116 241 241 113 128 124 109 107
247 186 187 243 249 187 187 241 0 187 240 240 0 188 239 0 0 239 238 0 0 238 1 1 253 238 2 253 253 235 6 253 253 185 49 252 184 183 51 252 183 236 250 68 181 236 74 179 119 236 83 178 236 227 203 116 236 215 217 112 225 220 222 108 225 222 215 225 223 46 209 225 46 207 131 226 47 205 170 79 49 142 164 235 51 147 63 236 151 153 54 228 157 48 46 228 164 41 227 227 37 36 228 229 70 228 228 75 235 227 227 83 192 227 89 92 198 96 99 201 202 106 108 205 70 73 207 208 79 82 211 86 88 226 212 93 226 226 57 99 226 226 104 248 226 140 110 226 226 142 217 226 143 143 218 226 144 218 219 36 144 219 143 145 252 220 148 146 220 46 151 252 222 152 153 226 43 153 226 226 42 246 226 148 40 243 226 149 240 239 32 149 236 226 31 251 234 31 150 250 236 31 250 237 33 31 249 32 148 248 248 31 146 247 30 29 228 245 29 29 227 32 28 227 227 33 227 227 34 159 227 226 34 235 226 36 36 232 226 38 230 229 41 41 226 225 27 223 222 28 28 220 29 29 222 216
185 243 226 186 187 242 0 20 241 241 0 25 240 0 0 253 239 0 253 253 0 0 253 253 1 253 253 187 4 253 253 186 237 253 184 184 237 183 183 236 236 182 182 236 66 180 236 236 124 178 236 175 188 236 236 209 213 231 217 219 225 223 221 219 218 174 222 213 211 174 209 208 173 173 206 206 172 235 205 169 168 235 225 162 235 235 226 151 236 227 227 52 237 228 229 238 228 230 221 240 230 230 227 89 229 231 233 80 76 237 75 73 84 241 70 247 244 200 66 248 247 64 64 248 207 62 248 227 80 81 249 67 64 89 226 56 251 95 226 50 252 226 226 138 252 226 43 141 217 226 142 252 218 124 143 218 51 133 144 219 139 249 219 219 146 249 220 149 150 226 221 152 226 226 146 153 226 33 147 226 226 147 252 226 226 148 228 226 149 149 231 226 149 233 233 150 150 234 151 151 236 236 150 150 238 149 149 223 239 147 146 222 31 145 220 220 143 228 217 154 139 214 213 156 243 209 157 158 243 202 159 243 243 35 161 243 243 37 231 242 122 165 228 27 119 157 241 28 115 143 28 112 222 127 29 105
14 248 31 74 17 32 187 86 21 33 95 240 35 36 104 232 37 110 111 233 0 114 234 234 41 117 234 235 45 234 234 47 47 234 234 48 58 233 50 50 64 43 49 70 72 121 49 78 120 120 85 87 118 118 93 116 116 226 102 113 225 225 175 108 225 225 104 235 225 44 45 225 226 46 132 226 46 47 138 226 48 142 144 225 51 148 63 226 209 154 54 51 214 125 45 228 165 109 38 228 98 36 242 228 86 243 228 226 78 245 227 82 247 247 201 90 200 248 168 246 204 136 126 248 207 99 249 210 61 75 250 60 87 251 251 58 94 251 57 57 249 226 56 56 249 45 55 249 249 42 249 249 40 40 249 249 38 252 249 37 37 253 249 36 252 252 47 35 252 252 45 252 252 44 44 252 43 43 247 252 42 41 245 40 40 242 241 32 38 238 32 32 235 234 32 251 232 31 31 250 230 31 250 249 31 31 248 248 31 248 247 31 31 246 245 29 228 244 29 29 227 242 28 227 227 28 28 227 34 27 227 226 35 27 226 36 36 231 226 39 229 228 169 42 226 225 155 168 222 28 49 170 219 29 171 216
186 243 243 186 186 242 241 187 241 240 0 187 240 0 0 107 239 0 0 238 233 0 253 253 1 2 253 186 3 253 253 185 47 253 184 184 48 252 183 236 49 67 181 236 249 75 121 236 131 178 119 236 192 118 236 226 214 115 226 218 45 111 225 221 217 225 225 44 211 174 225 44 129 173 45 46 136 83 47 140 167 74 49 145 68 235 150 152 58 236 156 51 49 228 229 43 41 228 62 37 228 228 67 228 228 71 72 228 228 77 193 227 83 85 199 227 92 202 203 56 101 206 63 66 209 209 74 76 211 80 82 226 213 88 90 226 58 95 226 226 135 101 226 137 138 249 226 139 217 226 42 141 218 226 143 252 219 38 143 219 220 37 252 220 146 147 252 46 150 226 252 45 152 226 44 153 248 226 42 153 226 33 40 244 226 148 241 240 32 149 231 236 32 251 234 32 32 251 236 31 249 249 33 31 249 239 32 248 248 31 146 228 31 30 228 220 29 29 227 32 28 227 227 33 28 227 33 34 227 227 35 236 226 35 36 232 243 37 230 229 27 41 227 226 27 224 224 28 28 221 220 28 222 217 29 30
13 33 33 73 17 34 35 87 251 36 96 98 230 37 105 231 232 188 111 233 35 115 238 234 40 118 234 43 43 237 234 45 46 237 13 48 60 62 28 251 66 122 48 249 74 121 247 80 178 120 243 88 119 236 236 176 116 226 228 175 236 225 44 174 235 222 43 235 235 223 44 235 223 223 206 235 224 46 205 224 224 206 145 161 207 207 152 60 210 211 137 237 214 123 119 238 219 107 240 240 96 93 242 228 85 243 244 227 75 245 220 217 241 247 201 194 244 177 167 246 247 136 126 248 62 100 249 249 61 250 250 60 59 249 251 58 249 249 58 57 249 249 56 249 249 46 54 249 249 43 249 249 41 41 252 39 39 252 252 38 37 252 49 37 252 252 47 36 252 46 45 146 252 44 249 252 224 42 247 247 41 245 244 33 40 241 240 32 152 237 32 32 151 226 32 250 232 225 32 249 225 31 151 249 33 31 248 239 31 152 247 31 30 153 241 29 227 154 242 138 227 242 242 134 227 33 131 131 206 34 128 226 199 161 125 191 37 163 183 180 165 228 171 168 167 241 157 168 169 241 28 170 240 240 105 172
247 0 0 249 249 186 0 251 187 187 252 252 187 187 253 187 187 238 253 187 187 238 187 186 237 237 2 237 237 4 5 237 237 11 252 237 19 23 252 236 37 250 250 230 72 248 179 119 245 244 178 177 239 177 176 236 232 176 176 235 108 175 235 235 116 175 235 222 174 99 235 223 93 235 226 224 206 235 224 46 206 227 225 207 207 227 51 209 144 228 54 160 127 56 57 167 110 239 173 175 35 241 181 87 33 228 188 34 245 223 195 38 227 207 43 45 227 93 52 227 227 102 248 227 109 111 211 227 117 250 213 122 124 215 59 128 216 216 96 133 217 217 102 217 218 108 110 226 218 116 226 226 123 125 226 226 132 226 226 143 140 226 144 144 249 226 145 145 222 35 145 222 223 146 146 224 152 147 225 226 152 252 228 152 152 252 230 152 226 251 37 151 226 226 36 232 226 150 150 230 32 150 229 225 151 151 228 31 152 241 228 32 153 242 32 32 244 243 139 155 242 28 135 240 243 28 227 238 27 129 226 235 27 226 195 26 26 226 184 164 226 225 41 166 225 44 45 222 223 48 49 219 51 52 216 215
0 0 248 186 0 250 37 186 251 252 187 98 252 252 187 239 253 187 187 238 253 187 238 237 186 186 237 237 3 237 237 7 8 237 13 16 252 236 27 32 251 44 52 249 248 87 104 246 178 158 242 240 177 236 235 176 176 236 227 176 235 236 175 175 235 235 175 235 235 223 175 235 235 223 206 235 224 224 206 227 225 206 206 225 226 208 151 227 211 212 135 229 215 122 117 58 220 105 240 241 178 91 242 243 84 33 244 228 76 245 246 217 39 247 201 193 47 248 166 246 57 227 125 248 62 227 112 249 61 78 120 215 60 125 251 216 58 130 217 57 99 134 217 104 249 47 218 112 249 44 118 120 226 42 128 129 226 142 136 226 38 143 143 226 144 252 226 226 145 223 45 146 146 224 44 146 225 225 152 147 227 227 152 229 229 152 152 231 152 151 226 233 151 151 226 149 150 225 225 150 149 225 151 151 224 224 152 152 224 152 152 241 222 153 242 242 140 154 243 243 136 241 243 133 133 239 243 130 207 243 27 127 200 27 124 226 191 26 121 182 165 165 225 170 167 167 224 46 168 241 222 50 170 240 54 172
247 243 224 15 249 226 0 19 251 228 23 252 187 230 27 42 187 238 32 45 187 238 47 48 118 237 51 185 120 233 55 121 237 233 61 122 232 23 123 123 231 46 250 230 230 46 247 229 45 45 89 227 44 43 97 43 42 103 105 42 109 111 110 42 117 119 105 225 124 99 97 226 131 92 226 226 85 83 227 227 76 227 227 49 67 227 50 51 157 228 53 54 164 230 57 170 171 232 60 178 34 63 229 185 32 233 191 34 34 238 197 37 227 227 68 45 227 227 65 248 227 100 62 248 227 110 249 227 83 118 249 71 122 251 249 61 128 217 57 55 251 218 102 50 252 55 110 252 252 53 249 252 53 52 249 252 51 249 249 39 49 250 226 38 250 250 37 145 250 249 36 252 249 35 35 252 34 34 252 252 34 34 252 40 39 252 252 39 151 251 37 37 233 250 36 232 231 35 34 230 229 33 229 229 32 32 228 228 32 246 227 32 32 245 227 32 244 243 33 33 241 28 33 240 239 28 34 237 27 27 226 235 27 26 226 26 26 226 226 26 225 225 42 27 225 224 45 113 223 48 49 108 221 52 216 215
0 248 248 185 0 250 186 186 251 252 187 186 252 187 187 239 253 187 187 238 0 186 237 237 1 186 237 3 3 237 237 7 253 237 13 16 252 236 27 251 251 230 53 249 248 179 45 245 178 177 44 92 176 236 235 176 176 235 106 176 235 235 113 175 235 222 222 103 235 223 223 95 226 223 206 235 226 44 206 227 225 47 207 227 49 209 154 228 52 212 133 49 55 167 115 238 173 175 36 241 181 183 33 228 189 32 32 228 196 34 227 227 38 41 227 193 88 227 227 95 247 227 102 104 212 227 110 112 214 117 118 215 216 123 125 217 92 93 217 218 98 226 218 103 105 226 219 112 226 226 118 120 226 226 128 226 226 142 137 226 226 143 221 226 144 144 222 37 145 223 224 36 146 225 152 147 252 226 152 147 227 41 152 251 230 151 239 226 38 151 226 226 36 232 226 149 35 230 225 150 229 229 32 151 228 224 32 247 241 32 153 245 30 32 244 242 139 33 242 28 135 241 240 28 132 238 28 27 226 235 27 226 226 36 26 226 192 39 226 226 40 165 225 224 44 223 224 46 47 220 222 50 217 217 53 54
13 223 223 15 16 225 225 19 42 42 22 23 43 104 27 45 46 111 32 47 115 116 50 51 119 119 54 120 121 233 58 122 122 233 44 123 232 232 45 236 231 45 45 236 230 44 83 228 149 43 90 227 42 236 99 213 41 104 176 114 222 112 111 109 216 175 105 225 210 175 98 226 174 174 235 226 172 83 235 225 46 235 227 48 208 235 227 51 158 236 229 215 166 231 231 220 174 233 224 226 92 233 230 85 82 244 235 76 33 246 72 71 247 227 68 67 248 175 65 248 248 135 63 249 109 101 249 249 84 250 250 73 70 251 251 63 251 251 57 56 251 251 56 251 251 56 55 252 54 54 249 249 52 52 249 42 51 249 249 40 49 250 39 39 250 250 37 37 249 37 36 252 249 36 252 252 43 35 251 251 41 251 251 40 40 251 251 38 236 251 37 37 233 235 36 231 231 237 34 229 32 32 148 228 32 32 228 224 32 246 227 32 32 244 222 32 243 243 219 155 240 28 28 156 239 28 227 158 244 27 226 234 26 124 226 243 26 226 187 242 118 225 43 242 115 165 46 221 111 151 49 218 139 135 171 215
243 243 185 185 241 0 186 240 240 0 186 239 0 0 239 239 0 253 238 0 0 253 253 1 253 253 185 3 253 253 184 253 253 183 183 252 252 182 236 251 180 180 236 78 179 236 236 132 177 236 182 193 120 236 210 213 236 225 218 224 235 220 40 217 225 221 213 211 225 40 209 175 175 42 206 172 235 44 142 168 235 207 148 68 235 154 148 59 228 161 51 237 230 231 42 228 233 223 36 228 233 229 228 228 66 234 228 70 71 200 228 77 242 205 82 84 208 66 50 93 211 58 249 213 213 68 249 215 75 77 227 216 83 226 226 89 90 226 226 96 226 226 132 133 226 226 135 219 226 137 138 220 45 140 221 221 141 141 221 139 142 222 222 145 146 223 148 149 226 223 150 151 226 44 152 226 226 42 246 226 147 151 242 226 148 239 226 148 149 233 226 149 235 235 33 149 237 149 32 249 238 147 151 248 33 145 246 241 31 144 245 30 142 227 222 30 227 220 33 28 227 217 156 227 227 34 158 227 226 35 235 226 36 37 231 243 39 229 228 26 41 226 27 27 224 223 28 112 220 28 28 221 217 29 30 218
13 62 242 0 16 241 225 0 251 240 0 23 252 239 0 253 48 0 0 253 51 0 253 253 185 120 253 253 184 237 253 184 183 236 182 182 236 236 181 181 236 46 180 236 236 97 43 236 154 171 241 236 201 236 234 213 215 228 226 218 222 220 176 221 215 214 175 211 210 175 175 235 207 174 235 235 172 171 235 225 166 235 235 226 155 235 227 228 236 236 230 230 237 231 232 221 222 233 225 227 91 234 231 232 81 67 236 76 74 239 240 70 247 243 68 67 248 248 65 248 248 135 63 249 109 102 70 249 86 81 79 226 72 251 249 64 62 251 226 58 251 251 56 133 251 55 55 136 251 54 249 138 220 52 249 252 221 135 250 221 49 142 250 222 146 250 226 38 150 226 37 145 151 226 36 251 226 226 146 251 226 226 148 230 226 148 148 232 149 149 234 234 150 149 236 149 149 238 238 148 229 239 147 146 225 240 145 144 224 143 142 223 223 154 222 222 154 155 220 220 155 244 217 156 157 243 212 158 244 243 159 160 244 123 161 243 243 120 119 243 117 117 177 242 114 113 164 28 109 152 149 29 103 137 171 98
243 242 185 70 241 0 186 240 240 0 96 239 0 0 253 230 0 253 253 231 0 253 185 232 37 253 185 2 40 61 184 41 253 66 182 42 70 181 124 236 76 124 236 229 82 123 236 138 122 122 227 195 121 120 226 40 118 225 225 39 112 225 39 39 119 225 39 125 175 40 40 131 175 42 136 138 85 43 143 145 76 148 150 68 66 228 60 58 228 228 50 48 228 55 41 228 228 58 35 228 61 62 228 228 65 196 228 69 70 202 203 75 205 207 41 83 209 211 50 247 212 57 60 248 214 67 227 216 61 76 227 116 82 249 226 123 89 226 60 128 249 226 131 132 249 52 134 220 249 48 251 220 46 45 252 221 133 252 222 50 141 252 222 145 250 251 47 149 226 251 45 249 226 44 43 248 36 42 246 245 35 147 242 34 34 251 238 34 149 250 33 33 249 236 33 249 249 34 32 248 248 33 247 247 32 32 228 245 31 227 227 30 30 227 227 29 227 227 33 28 227 34 34 227 227 34 35 235 35 36 234 233 37 37 231 27 39 229 228 27 227 226 27 27 224 223 28 223 220 28 28 220 220 29 218 217
0 242 242 0 0 241 0 0 251 240 0 0 252 0 0 253 253 186 0 253 186 185 253 253 185 185 253 184 184 237 253 183 236 236 182 181 236 236 27 236 236 47 57 236 236 101 246 236 158 174 240 227 202 235 233 213 215 227 176 219 221 220 175 175 215 176 176 235 210 176 175 235 134 174 235 235 141 82 235 225 166 73 235 226 65 235 228 228 213 236 230 53 218 228 232 222 180 228 58 227 90 228 62 194 81 65 67 200 74 246 204 70 37 247 208 67 248 227 212 51 249 135 59 61 227 103 69 71 227 112 78 226 226 119 251 226 123 125 219 226 129 220 220 131 132 220 55 134 221 221 118 138 221 221 128 221 221 135 137 226 222 142 226 226 146 147 226 144 149 226 226 145 151 226 146 146 247 226 147 147 229 35 147 231 231 148 250 233 150 149 234 235 149 249 237 148 148 248 239 147 226 247 33 145 225 225 144 227 224 152 142 224 33 154 227 222 155 155 227 34 156 244 227 34 157 244 35 35 235 243 124 233 232 27 121 230 243 27 225 227 27 116 224 224 27 223 165 28 28 222 150 170 219 219 53 171
56 13 47 47 74 223 48 86 90 226 96 100 227 228 107 109 230 29 114 231 231 33 118 232 36 36 237 232 38 65 65 6 40 69 70 41 251 74 124 41 78 80 124 248 85 124 123 244 91 122 227 227 176 120 226 38 176 235 225 38 114 225 220 38 235 225 38 38 235 222 39 132 235 223 207 139 85 224 207 146 75 208 208 157 65 211 160 141 236 214 128 47 237 219 110 239 228 99 95 241 235 61 243 243 234 65 245 229 227 240 246 217 212 243 199 191 245 246 163 247 247 64 64 248 248 62 249 249 62 61 249 250 60 249 249 59 59 249 249 58 249 249 57 56 249 54 53 251 249 50 49 251 47 47 251 251 45 44 251 50 43 251 251 48 251 251 47 46 251 251 45 249 249 43 43 247 247 42 245 244 35 41 242 240 34 151 237 34 34 234 226 33 249 249 33 33 248 34 33 248 247 33 33 246 32 32 152 245 31 227 153 243 30 227 242 29 137 227 33 29 227 227 34 130 227 35 35 126 226 36 233 123 204 38 231 198 195 163 228 188 42 165 242 27 167 222 241 28 169 241 28 103 171 239 98 216
48 60 241 0 49 78 240 0 251 93 226 0 252 239 0 27 253 230 0 253 253 231 33 253 185 232 36 64 184 237 39 68 182 236 72 73 124 236 77 180 124 230 83 124 236 228 123 123 227 177 122 121 226 38 232 226 225 37 225 225 37 37 117 225 37 38 124 38 38 130 131 39 135 136 89 42 142 144 80 227 149 72 70 228 157 62 228 228 54 51 228 52 44 228 228 55 36 228 57 58 191 228 61 62 198 233 65 202 204 70 72 207 36 76 210 211 44 246 213 51 53 248 215 61 227 227 62 70 227 227 61 249 226 117 85 249 66 123 249 226 60 128 249 57 131 251 249 52 135 221 54 49 251 222 129 46 251 51 137 251 251 49 250 251 47 47 250 251 46 250 226 38 44 248 226 146 247 246 36 147 243 35 35 250 239 34 34 250 34 34 249 249 33 33 248 35 34 248 248 34 146 246 33 32 228 245 31 227 227 31 30 227 227 30 227 227 33 29 227 227 34 238 227 35 35 236 35 36 234 234 37 38 232 27 38 230 229 27 41 226 27 27 224 224 27 223 223 28 28 221 220 29 219 217 53 30
55 59 248 184 73 222 52 186 240 225 185 100 239 227 186 238 229 0 185 237 230 33 253 237 1 36 64 237 3 253 69 6 8 252 181 15 251 77 180 33 250 179 124 236 247 177 124 228 177 176 236 226 176 236 235 213 176 235 235 218 235 235 220 220 235 235 221 211 210 222 222 208 136 223 207 207 172 225 207 167 165 208 209 156 152 211 144 140 236 215 126 122 238 233 108 239 240 235 241 241 236 235 243 244 234 236 245 230 227 240 247 216 243 243 68 190 245 246 66 247 247 64 64 248 63 63 249 249 62 61 249 219 61 249 249 60 59 249 64 63 249 249 58 251 249 55 54 251 249 51 251 251 226 48 251 251 226 139 251 50 44 141 251 48 250 251 224 46 250 225 45 150 249 227 44 247 37 229 150 244 36 230 150 226 35 250 150 226 148 249 226 34 149 248 226 150 248 239 225 150 247 33 151 152 241 31 152 242 242 141 227 243 243 138 223 244 135 134 221 244 132 219 218 129 128 215 36 125 211 210 160 122 205 161 162 243 197 163 164 243 165 165 242 242 167 167 241 107 169 240 240 101 217 239 96 94
246 246 185 14 249 185 185 250 251 185 239 239 185 186 238 0 186 238 237 0 185 237 0 1 120 237 2 2 122 232 4 252 236 231 12 252 180 21 39 250 179 39 248 178 178 39 245 177 236 38 98 176 236 234 105 119 235 216 176 116 225 219 112 235 225 221 106 225 222 38 99 226 223 207 227 227 41 207 227 227 44 153 158 46 47 161 58 49 167 170 48 52 176 41 39 183 185 34 241 191 31 29 228 199 29 228 228 65 30 228 228 72 227 227 77 79 227 227 85 215 227 92 94 217 227 100 218 218 72 108 219 78 80 250 220 86 88 220 92 94 226 220 100 102 226 55 109 226 226 54 249 226 136 137 250 226 138 223 226 45 140 224 226 142 251 224 41 143 225 225 39 251 226 150 38 250 42 150 226 250 41 150 226 39 39 237 226 38 149 233 34 36 231 226 33 230 229 34 150 247 228 33 245 241 33 33 244 242 33 243 243 30 34 242 29 29 240 240 29 132 238 28 28 227 216 27 27 226 36 27 226 226 39 27 226 40 40 225 225 42 226 224 44 45 223 223 47 220 220 28 50 217 217 30 214 214
184 242 248 185 185 240 185 185 240 239 0 186 239 0 0 238 238 0 29 237 0 0 253 237 1 1 253 2 3 253 252 6 252 252 180 181 251 251 180 236 250 178 178 236 247 177 236 236 176 176 235 199 176 236 236 213 176 235 217 218 220 235 220 220 214 221 221 211 210 222 223 208 175 223 207 207 172 42 208 166 164 44 210 154 235 235 142 138 236 236 124 237 238 234 107 239 235 236 32 241 236 236 29 228 234 237 238 228 227 241 71 216 72 244 68 189 245 214 65 86 247 64 57 95 218 63 249 103 219 73 249 80 219 82 249 71 87 90 226 65 96 226 226 128 104 226 56 132 226 226 135 251 226 226 137 222 51 139 139 223 49 141 224 224 145 142 224 148 149 225 226 149 249 227 150 150 226 37 150 150 226 147 150 226 226 148 226 226 148 148 226 226 149 238 226 150 150 239 226 150 240 241 144 152 242 242 142 244 243 140 139 243 30 137 223 244 135 134 221 28 130 219 218 27 127 216 158 159 226 210 160 244 226 39 162 243 197 41 227 242 43 165 224 242 46 222 241 105 104 219 240 99 145 216 30 92
12 246 57 220 15 58 185 18 19 59 96 22 60 61 107 26 62 113 115 64 65 118 237 231 121 121 231 2 123 231 231 37 124 231 231 38 236 230 38 38 229 229 38 90 228 37 37 96 97 37 100 102 122 36 107 120 119 226 113 116 115 118 176 111 225 125 107 104 226 176 99 226 226 39 235 227 41 41 235 227 43 155 235 227 46 163 228 230 215 172 232 51 220 182 235 224 188 96 31 230 87 29 243 235 78 28 228 74 73 247 228 70 69 248 197 67 248 227 161 247 249 135 92 248 249 106 249 219 92 88 250 220 78 250 250 60 70 251 251 58 251 251 57 57 249 56 56 249 249 54 53 250 52 53 250 250 48 51 250 46 46 250 250 44 250 250 42 42 250 250 40 250 250 44 38 250 250 42 250 250 41 40 249 249 39 237 249 38 38 233 34 36 231 230 34 35 229 34 34 228 228 34 34 228 33 33 244 227 33 242 242 224 34 240 240 29 155 239 29 28 237 237 27 227 235 27 27 226 233 27 226 225 244 27 226 40 243 115 224 42 43 112 182 45 222 222 168 48 220 157 50 170 216 142 171 214
184 242 247 185 185 240 250 185 239 239 61 185 239 238 185 110 238 0 185 237 229 0 119 237 1 1 253 231 3 252 252 231 7 252 181 230 37 251 179 32 37 89 178 37 246 94 124 37 98 176 123 235 104 122 235 213 111 118 235 218 115 114 225 220 110 225 225 36 102 226 222 38 138 227 39 208 146 227 42 152 163 44 44 160 149 47 167 169 52 49 176 44 42 183 186 36 34 228 31 30 228 228 27 27 228 61 27 228 228 66 247 228 71 73 227 227 78 215 227 84 86 217 218 93 218 219 65 101 219 219 75 250 220 80 83 250 60 89 226 221 58 98 226 127 104 249 226 131 114 226 133 134 250 226 136 223 250 48 138 223 226 46 250 224 44 142 250 226 148 250 226 45 149 250 228 149 246 249 41 149 226 40 39 238 226 38 38 234 35 37 232 231 35 149 230 34 34 246 228 34 245 245 34 34 244 242 33 243 242 30 34 241 240 29 240 240 29 29 227 237 28 227 227 27 27 226 36 27 226 226 38 27 225 39 40 225 225 42 42 226 44 45 224 223 46 222 221 28 49 219 218 29 216 215 30 31
12 13 61 0 15 62 63 0 251 63 96 22 252 65 108 227 67 113 115 229 70 119 230 230 183 122 231 34 182 236 231 36 124 236 11 37 236 230 26 37 89 50 37 247 94 118 36 98 176 185 238 104 122 233 231 176 119 225 223 176 235 218 176 176 235 225 176 235 235 222 176 235 223 223 235 235 224 41 235 226 226 210 235 228 228 213 140 230 216 217 122 233 221 109 105 225 226 95 241 230 86 84 244 235 78 245 246 74 73 247 247 216 248 248 196 188 249 170 161 247 249 134 126 248 113 107 249 249 92 89 250 62 81 250 250 60 60 251 59 59 250 251 58 249 249 56 56 250 250 54 250 250 53 53 250 250 50 250 250 48 47 250 226 45 250 250 43 43 250 45 42 250 250 44 39 249 42 42 146 249 41 40 239 233 39 236 235 235 148 232 35 36 146 230 34 146 229 226 34 144 228 34 151 142 225 34 243 243 225 153 241 30 224 154 244 29 155 156 244 28 156 244 244 126 158 244 27 123 244 244 120 225 39 117 116 201 41 114 113 191 165 110 182 179 167 106 169 168 169 158 154 170 239 238 171 171
184 56 13 64 184 240 65 65 89 239 66 67 102 225 68 110 112 228 0 116 229 229 31 120 230 33 34 231 231 35 252 231 36 36 84 230 36 36 88 36 36 92 93 125 96 97 125 124 101 102 123 226 107 122 121 225 113 119 225 225 115 114 225 225 35 225 226 36 36 226 37 37 139 227 39 39 147 225 42 154 156 226 44 162 63 46 214 172 51 228 179 117 41 229 188 35 240 228 91 29 228 228 82 244 228 60 75 246 228 65 247 248 209 71 215 187 179 246 217 151 84 248 65 119 249 219 64 98 249 63 74 250 250 61 250 226 60 60 250 226 58 249 249 63 57 250 226 59 250 250 56 133 250 250 53 250 250 50 49 250 49 47 250 250 47 45 250 46 46 249 249 44 44 249 43 42 245 249 41 243 242 40 39 238 237 36 235 234 36 35 231 231 35 246 229 34 34 245 228 34 244 244 34 34 243 31 31 242 241 30 30 240 29 29 227 239 29 28 227 28 28 227 227 27 226 226 37 27 226 226 39 230 225 40 41 228 225 43 226 225 189 45 224 27 47 168 221 28 50 218 239 29 170 216 30 31
0 13 241 0 0 249 68 0 0 251 184 0 252 252 184 0 253 184 184 253 253 183 237 253 183 182 236 253 182 236 236 5 180 236 236 13 236 236 26 31 236 236 64 247 236 120 141 242 174 185 238 236 205 208 230 176 176 225 223 176 176 218 176 176 235 213 177 235 235 177 176 235 235 174 235 235 224 225 235 235 226 210 235 228 228 214 236 231 217 218 229 234 222 108 236 52 227 93 237 231 201 84 244 236 78 77 246 210 73 247 247 213 32 248 195 216 39 249 160 47 49 227 127 56 249 227 97 249 227 91 105 250 226 110 250 61 226 117 222 59 121 122 222 57 126 222 223 112 250 223 54 122 226 223 129 250 226 135 137 226 48 141 142 226 141 145 226 226 142 148 226 144 144 228 226 145 145 230 146 146 231 232 147 233 234 148 148 236 236 146 247 237 146 146 239 239 144 226 226 143 143 226 151 141 225 225 152 139 225 153 153 227 224 154 154 227 35 156 244 244 35 157 244 125 158 233 244 121 232 244 119 118 230 244 115 202 227 26 112 191 242 27 223 180 167 104 220 49 169 217 155 51 170 213 53 171
50 241 0 0 70 220 0 250 89 222 20 252 224 225 24 253 227 27 27 76 184 30 253 78 122 32 81 182 124 82 83 125 236 86 88 126 230 90 126 126 229 95 126 228 228 34 125 227 226 34 226 226 34 34 225 33 33 116 225 33 33 123 219 34 128 129 34 34 134 101 99 140 142 92 227 147 84 81 228 156 73 228 228 151 62 228 228 133 237 228 49 49 229 229 51 194 228 53 53 201 238 55 205 206 236 59 210 26 227 242 213 30 67 245 69 37 227 217 67 249 227 66 53 249 227 65 250 227 95 63 250 226 107 250 250 77 115 250 250 71 250 222 67 65 250 56 62 250 250 54 58 250 54 53 250 250 51 135 250 50 49 250 226 48 250 250 45 46 250 249 43 249 248 41 41 246 245 40 248 242 38 38 248 238 37 247 247 37 36 246 36 36 246 245 35 34 244 34 34 228 243 32 32 227 32 31 227 227 30 227 227 34 35 226 227 35 237 227 35 35 235 227 36 234 233 37 38 232 231 39 230 230 26 26 228 26 26 224 226 27 27 223 241 27 221 220 28 28 218 51 29 215 213 53 89 208
0 246 246 0 0 249 250 0 250 251 184 0 252 252 184 25 253 184 184 253 79 183 237 236 182 182 236 2 181 236 236 5 180 236 10 13 126 236 25 32 126 228 65 246 236 124 34 242 176 187 237 236 175 33 230 175 176 33 223 176 235 33 125 177 235 130 132 105 235 222 176 96 227 223 89 235 227 225 78 228 226 42 67 228 229 214 228 228 47 219 229 49 49 190 103 51 52 199 29 53 203 205 25 56 209 25 246 212 213 27 228 214 31 32 227 217 39 227 227 79 48 227 227 88 227 227 95 97 227 227 103 221 226 109 111 222 76 116 222 222 95 121 222 102 105 222 223 112 114 223 119 122 226 223 129 226 226 51 137 226 226 49 250 226 140 141 250 226 142 227 226 43 144 229 226 145 248 231 40 146 232 39 38 247 234 147 37 246 37 146 226 246 35 145 226 34 34 228 226 33 228 226 34 32 227 225 153 227 227 34 154 244 227 35 237 244 35 35 236 244 36 234 234 27 37 233 27 27 231 231 26 116 229 26 26 224 199 26 26 223 45 27 222 221 48 220 220 50 50 217 215 52 216 211 53 54
49 54 217 14 69 219 219 17 239 221 20 21 78 224 23 79 79 26 27 81 81 29 82 83 122 31 85 124 124 252 88 126 126 252 179 126 229 229 178 126 228 34 126 236 228 34 125 227 177 33 235 226 32 232 235 212 32 118 235 216 219 125 113 219 214 131 107 211 136 176 99 209 175 92 235 209 170 81 228 163 160 235 228 44 145 236 230 46 237 237 234 48 238 236 237 227 240 238 231 232 238 238 236 208 236 239 240 74 25 242 243 71 248 245 69 68 249 68 67 249 249 66 66 250 114 65 250 250 96 63 250 87 85 250 250 79 77 250 74 72 250 250 69 250 250 57 64 250 250 55 250 250 53 53 250 250 51 250 250 50 49 250 49 48 250 250 46 46 249 44 44 248 248 42 42 246 41 40 248 247 39 39 247 39 37 246 246 37 148 246 36 35 149 244 35 229 243 241 33 228 242 32 141 227 34 31 227 34 34 137 227 35 35 133 223 35 236 129 222 36 235 220 37 158 233 27 38 231 244 26 161 229 26 114 163 243 26 224 164 242 107 223 241 241 102 220 240 98 97 160 51 92 149 145 170 84
215 0 58 217 218 16 79 220 0 251 222 223 21 252 184 24 25 82 184 27 28 84 120 30 86 87 123 32 89 125 125 91 92 126 236 230 126 126 229 31 126 228 228 33 126 227 227 33 226 226 32 32 226 225 32 116 225 32 32 122 116 32 126 129 111 33 134 105 103 210 141 96 94 146 173 86 228 155 78 75 228 156 66 228 228 45 236 228 46 47 237 229 48 194 239 238 50 201 228 239 234 207 238 55 210 76 232 241 214 26 27 244 71 32 227 246 68 40 227 67 67 249 227 66 57 250 105 64 250 227 91 250 250 84 108 250 250 76 250 222 72 71 250 223 67 250 250 56 63 250 54 54 250 250 53 52 250 51 50 251 251 49 48 250 48 47 250 250 45 45 249 44 43 247 247 41 247 244 40 40 247 247 38 246 246 38 37 245 245 36 245 245 35 35 243 34 34 228 242 33 32 227 35 31 227 227 34 31 227 35 35 227 226 35 36 227 36 36 235 227 36 233 233 218 38 232 231 27 160 230 26 26 228 228 26 224 226 26 26 223 242 27 221 221 241 27 219 50 239 94 214 52 53 87 142 54
184 52 241 0 184 239 219 0 184 239 0 20 238 238 0 23 237 0 0 253 237 0 253 253 1 1 253 253 181 252 252 180 179 251 251 178 236 250 177 177 236 248 176 235 235 176 175 235 177 187 235 235 204 207 235 211 213 224 235 216 217 217 218 219 214 213 220 211 210 176 222 209 209 174 235 209 170 168 235 211 159 235 235 148 144 236 236 130 237 237 234 112 239 237 237 32 241 238 239 233 228 238 236 237 236 234 240 74 226 243 243 71 64 245 69 69 71 247 68 249 248 220 66 250 250 65 62 250 98 64 250 250 86 78 250 81 79 88 226 75 250 97 226 70 250 57 226 126 250 55 62 130 224 53 133 249 224 135 136 225 49 141 138 226 143 250 227 227 146 249 45 147 147 226 42 147 147 226 145 147 226 226 147 226 226 148 245 226 226 149 238 226 149 149 240 34 150 241 241 141 152 243 139 139 243 243 138 136 244 135 135 225 244 132 131 223 155 129 222 222 157 124 220 158 159 217 216 160 244 213 161 161 244 206 163 243 242 44 164 242 242 104 223 241 100 99 221 28 95 160 238 29 88 146 31 82
215 13 57 216 217 16 17 219 18 19 85 222 21 87 87 0 24 88 88 27 253 90 120 29 91 92 124 229 94 125 125 229 96 126 229 229 178 126 229 33 177 235 228 32 126 235 148 32 235 226 194 31 115 206 31 227 120 214 222 124 177 217 216 130 111 213 212 177 103 210 209 176 235 209 173 171 235 228 165 235 228 227 152 235 229 44 236 236 233 46 238 235 236 226 240 238 239 231 89 239 234 235 81 238 239 77 76 241 242 73 248 244 71 70 249 246 69 249 249 67 68 249 250 121 250 250 106 102 250 96 92 250 250 85 83 250 80 79 250 250 74 73 250 58 69 250 250 56 250 250 55 54 251 249 52 250 250 51 50 251 250 49 250 250 50 47 250 250 47 248 249 45 44 247 226 42 247 247 41 40 246 40 39 245 245 38 37 244 36 36 149 244 35 229 229 240 34 228 228 242 140 227 35 31 138 227 35 137 227 225 35 133 226 36 155 130 223 36 234 27 221 158 233 27 218 159 244 26 160 229 244 26 162 243 26 109 164 242 106 223 241 241 102 220 49 99 97 168 51 93 91 154 170 85 142 138
183 241 240 0 184 239 239 0 239 238 0 0 238 238 0 253 237 0 0 253 182 0 253 253 181 1 253 181 180 252 252 179 179 251 178 178 236 250 177 177 236 53 176 235 235 130 125 235 178 187 235 235 203 231 235 210 212 223 235 215 219 217 226 218 214 177 177 33 211 177 176 35 148 174 235 210 157 167 235 164 158 69 235 174 142 236 231 184 47 237 235 223 36 229 238 229 241 228 50 234 228 239 52 238 228 54 241 215 228 59 217 71 29 64 218 70 249 220 220 43 249 220 221 53 227 221 60 63 227 222 70 226 226 78 80 226 110 111 226 226 116 250 226 120 121 223 226 125 126 224 128 129 224 224 132 224 224 135 135 225 225 140 226 226 143 143 226 227 145 226 226 44 146 226 226 146 244 226 145 146 226 146 147 235 226 147 148 237 37 149 239 239 36 150 240 142 151 241 242 140 240 243 31 138 239 243 137 227 225 29 133 225 224 29 226 223 156 27 227 222 157 226 226 38 159 226 39 39 230 225 41 161 228 26 44 226 243 26 45 225 27 102 223 222 27 218 220 28 28 213 218 29 208 206 31 31
12 13 91 91 15 91 91 82 86 92 92 98 222 92 108 109 225 94 115 226 227 182 120 228 29 123 236 229 30 125 229 4 31 101 229 32 31 104 24 31 107 107 69 246 110 126 150 241 114 125 236 116 175 123 225 121 121 235 225 176 117 225 226 177 235 226 32 177 235 221 34 235 235 223 37 235 224 225 211 166 227 40 214 146 230 217 183 128 220 221 114 39 225 226 100 240 230 91 89 243 235 82 245 245 236 77 246 247 226 248 248 211 62 249 189 181 247 249 156 148 248 133 127 249 249 66 107 249 65 65 250 250 64 250 250 62 62 250 250 60 250 250 59 58 250 250 57 250 250 66 65 251 251 62 249 251 59 58 249 56 55 248 248 52 51 248 47 48 247 247 45 45 247 43 42 245 246 41 242 241 233 40 237 236 38 145 233 37 36 231 230 36 142 229 36 36 241 228 36 240 240 226 35 239 31 35 153 237 29 35 236 245 29 155 235 28 27 156 245 27 226 226 244 120 226 39 244 116 225 41 113 112 208 43 109 224 200 164 104 193 47 166 100 181 167 221 239 168 168 238 29 169 169 236 31 170
95 183 240 95 184 71 239 94 184 238 220 0 102 238 0 23 112 225 0 253 118 227 27 253 228 228 29 252 229 30 30 103 179 31 104 105 127 31 107 176 127 109 110 126 235 112 114 125 226 116 125 124 225 120 122 225 225 30 119 225 30 30 226 226 31 213 226 32 32 144 227 35 35 153 223 36 160 162 39 212 169 68 65 178 180 55 229 187 46 43 229 196 35 229 229 96 28 229 228 24 244 228 51 51 228 234 53 216 228 57 58 218 204 62 219 220 172 69 220 42 140 248 221 52 249 249 66 62 227 222 65 250 226 63 80 250 226 62 250 226 77 60 250 226 120 250 250 69 125 251 66 65 249 224 62 61 249 51 57 248 225 49 54 248 47 143 247 247 46 249 247 44 43 247 226 42 244 243 42 40 239 238 40 236 235 38 38 232 232 37 242 230 37 37 241 36 36 240 240 32 35 239 31 31 238 237 30 30 237 29 29 226 235 28 226 226 27 27 226 226 27 226 226 39 39 225 225 40 229 225 42 42 227 224 44 226 226 46 46 224 26 48 223 222 27 27 221 28 28 212 218 29 30 204 235 31
44 13 245 184 65 248 99 184 86 251 184 98 221 252 183 110 224 183 183 237 226 182 236 236 0 28 236 228 2 252 236 4 30 251 236 11 250 108 23 31 248 176 70 245 244 175 126 240 174 174 235 234 175 175 235 175 176 235 235 176 176 235 217 177 235 235 219 235 235 221 221 210 235 223 210 210 224 225 212 212 227 214 214 144 230 217 131 126 221 222 113 109 226 102 99 241 241 90 88 243 239 82 245 245 236 77 247 228 224 248 248 209 245 249 188 180 247 247 155 248 248 68 127 249 249 67 87 249 65 66 250 222 64 250 250 63 62 250 223 61 250 250 76 59 250 73 71 113 251 68 67 123 226 64 249 251 226 133 248 226 57 136 248 226 138 247 46 46 140 247 45 248 142 230 42 245 231 232 146 240 234 39 144 226 236 144 233 226 37 143 226 37 149 141 226 36 240 226 226 151 239 226 152 153 244 226 153 153 244 153 154 245 244 130 155 245 126 125 245 245 122 221 244 119 118 218 244 114 214 213 111 110 208 207 107 203 201 164 165 193 190 166 240 181 167 167 239 52 168 238 237 54 169 235 79 170
102 48 54 215 102 70 75 217 85 90 219 220 101 222 222 23 111 224 225 25 237 226 27 27 105 228 28 106 106 29 30 108 108 30 109 110 127 30 111 127 127 247 114 126 126 243 174 126 226 226 174 124 226 29 123 225 225 30 235 225 29 30 235 226 30 140 235 220 32 147 227 222 210 155 88 36 211 165 76 213 172 152 64 216 139 54 236 220 121 42 229 109 105 240 229 46 93 242 240 48 244 245 238 239 246 233 231 242 248 220 244 245 202 194 246 220 171 248 248 69 43 248 249 68 250 249 67 66 250 65 65 250 250 64 64 250 85 62 250 250 79 60 250 76 75 249 251 71 249 249 68 67 249 249 64 248 248 51 60 248 248 49 248 247 47 46 250 247 45 249 248 44 43 246 45 42 243 243 42 40 239 40 40 235 234 39 39 232 38 38 241 241 37 240 240 33 36 239 239 32 151 238 31 31 153 236 30 227 236 29 29 226 234 28 226 226 37 28 226 38 38 120 226 39 40 116 216 41 228 225 212 43 227 207 45 163 225 26 165 224 241 27 166 222 27 93 167 238 28 210 169 237 82 201 234 234
0 0 244 246 0 248 249 183 0 250 251 183 238 252 183 183 237 183 182 237 237 182 181 236 0 181 236 236 1 179 236 4 4 236 235 10 250 249 23 31 247 247 71 245 244 174 152 240 238 174 29 233 175 175 29 226 175 235 221 132 176 235 216 177 235 235 219 177 235 221 221 97 235 222 223 85 228 225 212 235 228 39 215 228 231 41 219 125 42 223 198 109 44 228 98 28 45 209 88 243 47 213 20 246 215 216 20 228 224 22 23 228 201 27 227 227 64 35 227 146 72 227 227 79 249 227 85 87 222 227 94 96 223 77 102 223 223 87 109 224 95 98 224 224 106 251 224 114 116 226 224 123 226 226 53 131 226 226 133 226 226 135 136 226 226 138 228 226 140 140 229 48 142 231 231 45 143 232 144 144 243 234 144 144 236 37 143 226 239 142 142 226 34 140 226 226 33 227 226 151 31 227 226 152 244 227 36 153 244 225 36 234 244 37 155 233 28 37 232 245 27 39 231 26 116 230 229 26 112 213 26 26 224 207 26 104 222 47 26 221 190 49 218 218 51 167 214 212 53 219 237 54 54 216 234 55
13 47 213 214 15 109 216 17 18 109 219 20 109 110 22 22 110 183 24 110 110 119 26 110 122 123 228 112 125 126 228 126 126 228 228 127 127 228 29 127 228 227 29 235 227 29 29 235 226 28 123 124 200 29 127 128 29 223 131 118 29 136 137 113 214 142 108 106 211 176 99 227 211 173 88 228 36 165 235 228 38 66 235 230 40 236 229 234 222 238 237 43 203 240 240 231 208 240 240 236 213 20 239 240 79 20 242 217 75 248 245 73 26 249 72 71 250 227 70 70 250 133 75 250 250 113 84 250 103 100 250 250 94 250 250 88 87 250 249 83 249 249 60 78 249 249 57 251 249 56 55 251 248 54 251 251 51 51 251 60 50 251 251 56 47 250 53 52 249 249 49 48 245 47 46 244 244 44 243 243 39 42 242 242 37 241 241 36 36 240 240 34 229 228 33 33 228 227 32 227 227 36 31 227 36 36 133 226 36 36 226 225 37 233 226 37 37 232 27 38 231 231 26 159 230 26 26 160 229 26 224 162 243 26 223 225 242 101 221 241 26 219 218 51 92 215 52 53 87 161 54 218 80 147 55 215
212 0 244 184 183 15 248 183 184 250 113 183 237 252 182 109 237 113 182 237 237 113 120 236 0 114 124 236 1 252 126 228 4 251 228 228 29 249 228 30 247 119 227 29 244 174 226 28 123 174 29 29 127 175 235 129 131 120 235 134 117 116 225 140 112 235 226 106 104 227 221 97 94 228 34 211 228 228 37 175 228 38 39 185 229 41 192 194 41 42 200 202 43 206 207 27 44 210 211 21 228 215 19 19 228 78 19 228 228 21 23 228 56 27 227 227 63 35 227 69 70 250 227 77 222 222 110 85 223 223 99 250 223 77 100 223 223 88 249 224 96 98 249 224 106 226 226 57 116 226 124 54 251 226 128 131 251 63 132 251 226 59 135 250 55 137 246 250 51 245 230 43 48 244 231 144 243 243 40 143 242 242 38 235 241 37 37 232 240 35 230 229 34 34 228 37 37 227 227 36 152 227 36 36 235 227 36 36 234 36 36 234 233 37 232 232 27 38 231 231 26 226 230 26 26 225 229 26 224 225 26 26 223 223 26 222 222 48 26 220 50 50 222 217 52 52 221 53 54 219 219 55 55 217 31 56
13 13 213 0 15 117 215 17 18 116 0 19 116 116 0 22 116 113 115 253 116 119 226 252 180 123 227 117 179 236 228 177 127 236 228 176 235 228 22 175 235 54 28 244 235 134 28 124 176 184 235 127 199 201 228 175 208 223 221 176 213 217 177 113 214 213 177 235 227 176 176 235 227 172 235 235 224 163 235 235 228 235 236 230 231 236 233 234 223 224 237 238 228 100 240 232 233 90 240 236 84 82 239 240 79 78 243 76 76 248 245 74 249 249 183 72 250 250 152 250 250 133 127 250 251 114 249 251 104 102 250 226 95 250 250 90 89 249 63 61 249 249 60 60 249 58 58 251 249 56 55 251 225 53 251 251 52 133 251 62 61 251 251 57 246 250 54 53 245 249 50 244 244 226 47 243 41 226 144 242 39 42 146 236 37 233 240 239 36 230 239 34 140 228 241 32 227 226 243 136 227 36 135 134 226 36 132 132 226 154 233 225 224 155 232 223 156 231 245 222 157 244 26 158 159 244 26 160 244 244 107 162 243 243 102 203 242 98 98 193 240 94 184 181 90 89 171 167 85 161 158 168 79 147 169 169
212 212 14 245 214 16 16 121 216 18 120 120 20 20 120 119 22 120 119 116 118 120 120 122 226 120 123 124 228 178 126 228 228 177 127 228 28 127 227 228 28 127 227 28 27 125 226 28 28 127 190 28 130 130 203 226 133 120 28 220 139 116 216 143 177 110 226 150 104 235 227 174 94 228 223 168 235 228 36 157 235 229 38 236 236 232 39 237 235 236 226 204 239 42 231 94 241 234 212 85 237 239 81 18 241 242 77 248 244 75 74 249 246 73 250 250 167 72 250 145 138 250 250 122 77 251 111 107 250 251 100 98 250 94 93 250 250 63 87 249 62 61 249 249 59 251 249 57 57 251 248 55 251 251 53 53 251 251 50 251 251 61 60 250 57 56 245 250 53 52 244 50 49 243 243 46 46 242 40 44 241 241 38 41 240 37 36 231 239 35 229 229 34 33 228 228 32 227 227 37 31 227 227 36 133 227 36 36 233 225 37 233 233 224 38 232 27 38 157 230 26 40 229 244 26 160 228 26 26 161 243 26 223 223 242 99 221 48 241 95 218 51 92 91 178 53 87 209 164 168 81 154 56 217 143 140
0 183 240 239 0 239 239 0 0 250 238 0 251 252 0 0 252 182 0 253 253 181 0 252 180 179 252 252 178 178 251 177 177 236 235 176 235 235 22 175 235 235 72 235 235 134 151 235 235 183 234 235 197 200 228 235 207 222 221 176 212 217 177 177 214 213 177 177 212 176 175 234 211 172 170 235 172 162 235 235 228 65 236 230 231 52 237 234 224 238 229 238 229 240 240 42 233 229 241 237 238 228 44 241 79 78 47 219 76 249 51 221 74 249 221 222 31 250 222 71 250 227 222 49 250 115 57 60 227 103 250 71 226 96 250 226 226 104 249 226 109 110 224 226 115 249 224 119 120 225 55 123 225 225 129 251 226 226 134 226 227 138 138 226 228 140 226 226 141 142 226 140 143 226 226 143 143 226 144 145 235 226 146 146 237 40 148 239 239 148 148 240 139 149 241 242 137 235 243 136 135 226 244 133 226 226 29 130 226 225 29 226 224 156 124 223 38 157 226 222 157 158 245 41 159 244 244 43 161 243 105 45 227 242 100 163 225 26 95 224 240 26 216 223 27 87 210 168 28 203 157 56 30 191 143 168
240 212 14 129 239 0 16 128 0 0 251 127 99 20 127 182 111 252 127 116 117 252 180 121 226 252 179 236 227 178 177 236 227 177 235 235 12 27 235 227 40 246 235 92 27 242 235 164 237 131 188 192 231 174 202 226 224 176 119 219 176 177 235 215 177 177 234 176 177 234 235 174 235 235 223 167 235 235 226 235 235 229 230 219 236 233 222 223 236 237 227 228 239 230 232 94 241 235 87 86 238 239 82 80 242 78 78 248 248 75 75 249 196 74 250 250 165 250 250 144 138 250 250 123 249 251 111 109 250 250 101 250 250 66 94 250 249 63 104 249 62 61 249 224 60 251 249 58 57 251 225 55 251 251 71 52 251 67 65 135 251 62 246 251 226 57 245 249 54 139 243 226 50 243 242 226 143 241 40 39 145 240 38 234 146 238 36 231 239 240 139 229 241 33 137 226 242 136 227 226 37 134 226 37 153 132 226 154 232 225 225 154 232 224 156 156 245 223 157 157 244 158 158 244 244 109 160 244 106 224 243 243 101 207 242 98 96 198 240 93 190 187 90 89 177 174 85 167 164 167 167 154 168 168 232 140
0 0 240 0 0 247 239 0 0 250 217 0 251 252 0 21 252 182 0 252 252 180 24 252 180 179 236 251 178 236 236 129 177 235 7 176 127 235 21 174 235 227 72 127 235 134 151 126 226 182 234 232 225 199 227 175 225 27 221 176 27 27 146 177 28 213 153 106 30 159 175 96 234 168 88 235 228 178 75 228 228 64 61 229 232 51 229 229 38 38 229 229 40 229 229 40 234 213 228 41 216 83 43 43 218 17 45 219 220 20 49 221 23 24 222 222 30 32 222 37 40 227 227 48 227 227 79 59 227 227 88 251 226 94 96 226 226 102 224 226 107 109 224 224 113 224 224 114 119 225 121 123 248 225 128 129 247 51 133 226 227 49 138 226 47 139 250 226 138 248 226 51 140 246 226 142 233 241 45 144 236 236 42 239 237 41 147 237 240 39 236 241 33 137 236 32 136 227 234 31 134 226 30 30 227 226 29 29 226 37 28 226 226 38 230 226 39 39 230 226 40 229 229 41 42 228 244 44 227 227 26 45 226 226 26 225 225 26 26 218 26 26 214 213 27 27 207 55 28 200 197 56 30 186 57 57
38 43 212 183 59 213 214 76 81 216 18 94 218 219 20 21 221 22 23 133 223 24 133 132 0 25 132 132 1 251 132 126 26 250 132 127 248 132 174 127 227 173 127 226 226 173 126 226 26 173 235 225 26 123 235 203 27 235 225 209 27 234 213 28 214 153 216 213 159 176 220 212 168 91 213 213 164 78 215 215 150 235 218 138 133 236 234 120 238 238 238 105 240 240 240 242 242 241 40 244 240 239 241 246 234 231 244 223 218 245 246 75 247 247 74 74 248 248 73 250 249 71 71 251 249 70 251 251 69 68 251 101 67 251 251 94 93 251 91 90 249 251 86 85 249 83 82 248 248 79 77 248 54 74 247 247 52 251 246 50 49 251 245 47 250 250 46 45 249 249 43 247 246 50 41 243 47 46 141 239 44 43 238 226 41 237 237 226 40 236 34 39 149 235 32 38 234 31 31 151 233 30 227 153 244 29 226 226 245 127 226 38 27 122 226 39 119 226 223 40 114 221 41 158 109 217 43 227 243 213 161 227 26 206 162 241 26 164 164 240 26 165 238 238 86 166 236 82 81 234 233 77 188 146 72 71
211 143 48 212 0 64 70 214 0 86 216 217 19 101 219 220 21 137 222 22 23 136 224 24 136 135 25 25 135 125 26 134 134 127 26 134 127 127 227 134 127 127 226 126 126 226 226 126 226 226 26 124 226 225 26 235 225 26 27 235 226 27 150 151 214 28 156 158 29 212 165 96 31 172 168 84 214 182 74 71 217 145 60 229 221 128 46 229 37 37 239 229 38 241 229 241 39 243 228 40 239 245 237 41 219 248 226 244 220 212 206 246 221 24 248 248 73 32 248 73 72 251 249 71 50 251 70 70 251 227 68 68 251 98 95 251 251 93 249 251 89 88 249 251 85 248 248 82 80 248 248 77 247 247 53 72 246 246 50 251 245 49 48 251 47 46 250 249 44 43 248 53 42 245 244 49 40 241 45 45 237 236 43 238 237 42 41 236 236 40 235 235 33 38 234 234 31 233 233 30 30 233 232 30 227 226 29 29 226 37 28 226 226 39 27 226 39 39 116 225 41 41 225 220 43 228 224 44 161 227 25 46 226 226 26 163 225 26 26 164 224 26 213 223 237 27 205 221 28 79 194 233 31 182 143 57
182 41 241 243 183 239 213 183 183 238 0 182 237 237 0 182 237 0 0 236 236 0 23 236 0 0 251 235 1 1 250 177 4 249 249 175 248 248 174 174 245 245 173 235 242 173 173 235 236 173 235 235 193 174 235 201 203 235 234 208 209 235 212 213 214 235 216 217 212 219 219 212 212 222 222 213 163 160 215 216 149 236 219 136 132 237 223 119 238 238 208 104 240 240 96 242 242 242 88 245 240 239 241 247 232 230 244 228 216 246 246 228 191 247 75 168 56 248 73 142 249 223 72 70 250 70 56 251 223 69 251 251 223 77 251 96 224 88 251 91 96 99 226 87 107 226 226 116 248 226 79 121 225 226 124 246 226 226 128 227 49 131 132 228 47 135 229 229 140 138 231 140 141 226 232 141 242 226 140 140 226 44 140 140 226 146 139 226 226 148 226 226 149 149 226 226 151 243 244 151 152 244 244 152 245 244 128 153 245 245 125 230 245 121 120 245 27 116 222 222 112 111 220 158 107 217 217 160 102 213 161 162 222 206 162 241 219 51 164 239 189 53 223 237 84 166 221 235 79 220 233 30 74 218 230 70
210 150 46 212 212 183 68 214 17 18 237 217 19 20 219 0 21 144 221 22 23 142 0 24 142 141 0 251 140 124 125 250 140 126 227 248 174 127 227 139 173 235 226 173 126 235 226 173 235 226 184 173 235 195 26 145 235 204 26 149 209 210 216 155 213 27 213 176 217 212 169 173 213 213 168 84 214 215 156 235 229 144 140 236 229 126 237 237 237 111 239 239 240 240 241 242 241 243 241 240 240 240 237 235 243 80 225 245 245 77 204 247 75 75 248 248 74 250 249 73 73 251 249 71 251 251 113 70 251 251 104 251 251 100 98 251 251 94 249 251 91 90 249 88 87 248 248 83 82 248 56 55 247 247 53 53 246 51 50 251 245 48 251 251 228 46 250 249 44 139 248 54 52 245 244 49 239 241 47 46 237 236 44 237 236 226 41 235 34 226 148 234 32 39 150 243 31 227 232 243 30 226 244 29 226 226 245 127 226 38 245 122 226 39 119 117 223 40 114 225 221 158 228 219 43 159 227 215 160 227 242 209 162 241 25 163 163 240 26 164 238 238 85 165 236 235 81 166 234 78 76 153 74 73 142 139
182 183 239 183 183 239 238 183 183 237 0 182 237 237 0 237 237 0 0 236 236 0 251 251 0 0 251 251 1 250 250 176 3 249 175 174 25 247 174 173 245 141 173 235 235 173 173 235 170 173 235 235 191 174 235 199 201 120 235 206 218 116 226 212 214 234 227 28 213 174 219 213 213 169 30 214 162 159 32 191 148 235 34 199 130 237 204 206 39 238 210 104 28 229 241 22 243 228 241 17 228 238 38 15 228 40 244 228 228 44 247 228 48 49 222 75 54 56 222 35 62 223 223 47 223 223 55 58 223 223 68 226 224 77 79 226 225 88 226 226 104 100 226 226 110 226 226 115 116 226 118 120 225 226 123 124 226 72 127 227 227 67 131 228 136 137 229 230 138 226 231 140 139 226 233 140 226 226 38 139 226 226 37 233 226 146 147 230 226 148 241 226 39 149 242 39 150 231 244 38 151 244 29 38 231 244 127 38 230 27 123 225 229 27 226 223 26 26 225 222 26 225 224 43 25 224 216 45 223 223 46 161 221 220 49 225 240 51 52 224 26 54 223 223 27 56 222 28 29 221 220 30 74 218 32 34
240 238 183 239 239 183 183 238 214 182 237 237 0 182 237 237 0 236 236 0 0 251 0 0 251 251 0 1 250 176 2 249 249 175 6 248 174 174 246 245 173 235 243 173 172 235 235 173 235 235 181 173 235 235 195 234 235 202 204 235 234 209 216 235 213 214 214 227 216 213 213 172 220 213 167 164 215 216 154 151 218 143 138 236 222 125 237 238 208 110 239 240 240 25 241 242 241 19 244 240 240 246 228 234 243 248 224 245 246 228 201 247 76 227 50 248 75 75 57 223 73 251 250 223 72 251 223 71 61 251 224 71 251 226 224 83 251 96 91 94 226 92 249 105 226 111 248 226 226 117 247 226 121 122 226 226 125 226 227 128 129 227 48 135 228 229 137 249 230 231 138 226 232 139 139 226 139 139 226 226 139 139 226 145 138 226 226 147 234 226 148 148 242 226 149 150 243 38 151 244 244 152 244 244 127 153 245 245 124 229 245 121 119 224 245 116 223 223 26 111 221 158 106 224 218 159 101 215 46 161 222 209 162 162 240 51 163 239 238 53 164 237 84 56 223 235 80 222 221 29 76 220 230 32 167 218
163 183 14 161 182 61 16 159 183 237 157 157 95 237 0 155 107 220 0 114 116 223 0 120 224 224 24 123 225 24 24 226 226 25 248 147 25 24 146 173 25 25 146 126 25 146 146 125 146 146 124 124 148 149 122 225 151 120 119 225 207 116 226 226 26 110 226 227 27 227 227 28 29 228 29 30 187 228 31 31 196 229 32 201 203 48 34 207 38 35 229 212 27 229 215 93 20 228 218 16 246 228 83 14 228 228 39 249 228 42 43 250 228 47 222 251 158 54 223 140 135 249 223 123 69 250 71 112 250 224 70 70 250 67 80 226 249 65 251 226 63 63 251 226 60 251 251 86 57 251 226 81 251 251 78 123 246 251 73 245 227 68 67 243 46 63 242 241 43 57 240 42 41 239 238 40 39 240 38 38 236 235 36 233 233 42 34 230 230 40 229 228 39 39 227 227 39 231 227 38 38 230 230 38 230 230 28 38 229 27 27 229 229 27 26 229 26 26 225 228 25 25 224 25 25 224 223 46 223 222 47 48 220 220 50 225 217 52 53 224 211 55 223 223 175 57 222 222 29 165 220 30 31 219 228 34
0 14 165 165 0 244 163 71 0 248 182 91 250 250 182 105 251 181 180 236 251 179 118 236 178 178 236 225 1 176 235 2 24 235 235 7 247 235 19 26 244 235 69 241 240 130 146 236 235 172 232 231 173 174 226 174 174 234 220 175 176 234 176 176 234 234 176 175 234 217 173 235 234 220 222 235 224 225 217 235 228 219 221 232 233 224 225 236 227 229 106 240 232 234 95 236 237 89 88 245 85 84 247 247 81 80 248 217 78 250 250 191 77 250 170 163 27 251 144 139 249 227 126 250 250 117 73 250 71 108 250 250 69 89 249 66 66 97 249 64 251 104 225 61 251 89 225 113 251 85 56 251 226 80 125 251 76 75 130 226 70 243 134 226 65 242 226 226 135 240 42 137 138 233 40 140 237 235 139 143 236 37 138 145 239 136 231 240 240 135 226 40 133 133 226 39 132 226 226 151 129 226 226 152 226 226 153 153 225 225 154 245 224 155 155 244 113 156 244 244 107 158 244 103 102 243 243 98 97 241 95 94 207 240 90 201 199 26 86 191 188 164 207 179 164 164 168 165 165 231 155 165 165 228 142 165
170 169 14 168 167 59 65 165 76 81 215 164 94 98 218 181 107 219 220 113 115 222 22 119 224 224 23 155 225 23 24 153 226 24 153 152 9 24 151 151 36 243 150 126 24 150 172 125 235 151 124 124 225 173 122 226 225 175 119 226 25 176 234 226 25 109 234 214 27 234 227 218 214 234 221 29 216 193 226 218 198 141 231 222 205 47 225 227 112 34 230 102 100 241 235 93 91 244 241 86 245 246 235 82 248 226 38 249 249 204 42 250 183 176 248 251 156 249 249 139 135 250 250 73 250 250 72 71 250 250 70 251 250 68 67 251 67 65 251 251 64 62 251 92 61 251 251 88 87 251 85 83 246 252 80 78 245 75 74 244 244 69 243 242 46 64 241 241 43 248 239 41 41 245 237 39 241 240 38 37 236 45 35 233 232 42 34 230 41 40 134 228 40 39 231 226 39 230 229 39 38 229 29 38 229 229 28 153 229 27 27 155 228 26 226 155 244 25 225 225 243 105 224 44 25 100 216 46 96 221 210 48 92 205 51 162 87 196 53 224 237 184 164 223 27 171 164 232 29 165 165 229 73 165 227 226
0 0 238 239 0 244 245 0 0 248 249 0 250 250 181 0 251 251 180 236 250 179 178 236 250 177 236 236 176 175 235 2 175 235 235 7 173 235 18 25 243 235 68 88 240 226 143 236 234 226 24 230 173 188 225 224 174 24 220 175 175 24 216 176 234 234 171 175 234 234 179 96 235 220 164 84 228 224 73 235 228 230 58 229 233 31 44 229 238 230 213 229 32 234 95 33 33 218 87 34 34 219 13 35 221 221 14 38 221 15 17 228 222 20 251 161 26 28 227 138 36 227 227 65 48 227 227 74 227 226 81 83 226 226 90 225 225 96 97 225 97 103 225 225 107 109 225 113 115 226 226 120 121 226 125 126 226 227 129 130 226 128 133 226 226 131 250 226 134 135 247 226 137 233 226 51 140 235 226 142 234 237 137 144 239 34 135 232 240 134 133 231 31 132 226 230 30 130 226 29 29 226 226 28 125 226 38 153 225 225 154 228 225 40 155 244 225 41 227 244 43 43 227 243 45 227 226 25 47 226 25 25 219 226 25 88 215 26 26 210 187 26 27 201 58 28 192 189 59 29 176 60 60 220 156 60
233 176 0 240 241 183 0 246 172 79 249 249 182 97 250 251 180 236 220 180 179 236 0 178 236 236 0 176 235 1 2 235 235 3 23 235 9 12 244 235 35 242 241 172 108 238 237 172 234 233 172 172 228 227 174 234 222 174 174 234 218 175 234 234 209 176 234 213 214 234 234 217 219 235 221 222 216 235 226 227 220 229 231 223 224 234 226 227 111 108 231 232 99 241 236 93 90 244 240 86 246 246 83 82 248 248 80 249 249 201 78 250 180 173 249 251 153 148 249 227 133 250 250 227 120 250 72 113 76 250 71 83 250 224 68 91 249 66 92 251 225 63 252 252 225 109 251 89 226 117 252 85 121 123 226 80 126 226 226 126 243 226 70 242 229 226 132 240 43 226 136 232 40 137 139 234 137 140 235 236 137 143 238 135 136 226 240 134 229 226 133 132 226 39 131 130 226 150 128 226 226 151 226 226 153 153 226 226 154 245 245 154 155 245 244 155 244 244 108 157 243 103 102 227 243 98 97 242 25 93 210 208 90 89 202 162 86 195 192 163 82 184 163 163 197 171 164 230 182 60 164 228 147 61 219 224
210 0 237 211 0 15 244 183 0 247 174 182 18 249 181 181 20 170 180 236 21 168 178 236 166 177 121 235 163 123 235 225 2 124 235 6 23 125 226 25 243 126 226 23 239 226 226 24 158 225 23 23 159 225 23 160 162 119 24 165 175 115 169 171 111 234 176 177 103 227 183 96 93 227 87 83 228 228 29 69 228 30 30 228 228 30 30 229 31 31 214 228 31 216 216 242 32 218 219 32 242 220 13 13 221 221 13 228 222 15 16 228 223 19 227 227 76 27 227 55 36 251 227 64 47 227 115 73 224 226 80 82 224 104 88 225 225 100 249 225 97 96 248 225 106 248 248 58 114 247 226 55 252 226 53 125 251 226 49 251 226 71 47 250 67 131 249 249 61 134 247 57 55 236 234 52 51 235 37 47 233 233 35 232 232 34 134 231 231 32 228 230 31 31 227 229 30 227 227 39 29 226 226 39 226 226 39 39 225 39 39 228 225 40 40 227 41 41 227 227 43 43 227 25 25 226 226 25 221 226 25 25 218 225 25 215 213 26 26 208 206 26 201 198 58 59 188 184 60 222 171 61 61 220 140 61
14 35 210 211 15 238 212 16 16 237 0 17 176 237 0 19 174 0 0 250 171 115 21 250 178 120 249 167 175 123 247 175 124 235 246 173 235 226 172 172 235 226 171 235 235 124 23 234 234 169 230 234 182 23 225 190 193 221 166 199 201 217 175 206 215 214 175 212 214 172 171 234 214 166 163 235 157 154 235 235 142 235 236 232 126 237 237 237 238 238 240 241 234 241 241 237 239 241 240 241 85 235 243 244 81 222 246 80 79 247 248 78 78 249 77 77 251 251 76 75 251 129 74 251 251 118 251 251 112 110 251 251 106 250 251 103 102 249 252 99 249 249 63 95 248 60 59 110 247 57 55 246 226 53 251 245 50 50 251 228 48 251 251 229 45 250 64 62 134 248 58 237 135 226 53 235 241 226 140 233 226 46 143 231 226 144 230 240 32 147 242 31 228 148 243 30 227 244 244 127 226 245 28 124 226 245 120 225 225 245 116 224 40 155 111 223 156 227 222 221 157 227 219 158 158 242 215 159 159 240 160 160 239 239 161 238 237 84 83 236 235 81 180 232 79 78 167 229 77 156 153 75 73 143 140 71
210 210 14 45 211 15 16 212 213 17 17 215 17 18 178 217 19 19 176 0 20 173 173 117 249 171 121 121 169 168 123 225 167 124 125 226 164 125 226 226 171 125 226 23 171 234 226 23 23 234 172 22 163 225 186 23 166 194 23 218 170 202 216 175 175 209 214 182 103 234 214 169 93 227 216 160 235 228 150 146 235 228 133 236 236 235 117 238 238 30 239 240 241 30 218 241 241 240 219 239 237 243 83 229 245 246 80 247 247 79 79 248 248 77 251 249 76 76 251 227 76 251 251 122 74 251 251 114 251 251 109 108 251 105 104 249 252 102 101 249 65 97 248 248 61 94 247 58 58 247 246 55 252 245 52 52 252 244 49 251 251 47 46 250 250 66 249 249 61 60 247 246 56 236 243 52 51 234 226 48 232 232 45 45 231 33 42 230 230 31 31 229 30 30 227 228 29 227 226 244 28 226 226 244 122 226 39 27 118 225 40 227 225 224 40 227 225 42 156 227 220 44 226 242 217 158 226 25 212 159 240 25 160 160 238 25 211 236 26 82 204 233 80 195 173 231 78 179 61 76 75 149 62 74 73 136
183 183 239 239 183 238 238 0 182 237 237 0 248 237 0 0 249 236 0 249 249 0 0 249 177 0 248 248 175 1 247 174 174 245 245 173 172 235 172 171 235 234 171 171 234 122 171 234 234 166 123 234 179 182 234 234 190 220 234 197 199 216 216 204 215 214 174 211 214 172 170 25 215 165 162 27 199 153 235 220 204 137 236 232 125 46 237 237 109 239 228 240 24 241 242 238 17 228 240 242 13 228 31 245 228 219 33 247 79 36 248 223 78 41 223 77 24 49 224 76 251 224 224 43 251 224 224 56 227 224 66 70 226 106 80 226 226 93 92 226 99 100 226 226 105 248 226 109 111 226 226 115 116 227 122 119 227 227 126 228 228 128 129 229 229 131 226 230 133 134 226 232 134 226 226 38 135 226 226 140 235 226 142 143 226 43 144 240 226 146 147 242 40 147 243 243 39 149 244 125 150 227 244 122 226 244 27 118 225 244 115 225 224 26 109 223 223 25 224 221 157 25 223 218 158 241 221 48 159 240 50 50 226 238 53 161 225 26 55 225 234 26 58 224 27 79 223 223 29 167 152 31 33 146 139 36
240 210 14 239 211 0 15 238 213 17 247 237 0 18 184 183 0 249 181 110 0 249 178 117 248 248 176 120 247 175 175 235 245 173 124 235 172 172 235 226 31 235 235 81 22 234 234 149 232 234 170 174 227 234 184 223 221 191 193 218 217 175 216 215 175 109 214 174 172 234 214 168 167 234 161 158 235 235 148 145 235 230 132 236 236 235 228 238 238 239 233 240 241 236 237 242 241 240 241 238 243 243 83 228 246 246 80 247 247 79 78 250 78 78 251 251 77 76 251 135 76 251 251 122 75 252 116 114 60 252 110 250 250 226 105 250 249 103 249 249 64 99 248 248 61 106 247 58 57 112 246 55 252 245 227 51 252 80 49 126 251 74 45 250 226 67 131 249 62 60 133 226 56 235 135 226 138 233 226 226 141 231 34 142 143 239 32 144 229 241 130 147 242 30 127 148 244 125 226 244 244 123 226 39 120 119 226 39 116 225 224 154 111 224 41 155 223 222 156 226 220 157 157 242 217 158 158 240 91 159 239 239 87 160 237 84 84 235 234 82 81 232 80 80 171 229 78 161 158 30 76 148 145 162 138 135
194 183 239 0 0 238 238 0 0 237 0 0 247 237 0 0 249 218 0 249 248 220 0 248 177 0 21 247 175 235 246 175 174 235 244 172 124 235 171 171 235 235 169 125 235 119 169 124 225 164 122 122 225 180 224 226 226 22 219 226 197 22 179 226 23 214 185 227 24 190 170 25 25 196 87 234 201 203 73 235 207 61 57 228 211 45 237 228 35 32 228 240 24 228 228 28 17 228 228 29 221 228 30 30 222 228 32 223 223 35 36 223 223 40 223 224 23 47 224 30 33 250 224 42 46 227 74 56 227 226 66 70 226 84 80 226 226 92 252 226 98 99 252 226 104 225 226 94 110 226 226 89 246 227 121 118 244 228 125 242 229 46 128 240 44 130 226 238 41 132 226 133 39 244 226 137 134 239 49 139 235 226 45 230 231 43 144 228 229 41 228 242 40 39 227 243 126 227 227 28 123 227 226 27 225 226 26 26 225 26 26 225 225 26 25 224 42 42 223 223 44 157 222 46 46 226 221 48 226 226 50 51 225 225 54 225 225 26 56 224 225 26 192 224 28 28 176 223 30 162 156 32 33 140 63 36
240 240 183 183 239 0 0 238 237 0 246 237 0 0 248 236 0 248 248 0 0 248 247 0 248 247 176 0 246 245 174 235 244 173 173 235 174 171 235 235 171 171 235 78 170 234 234 146 171 234 168 172 226 234 181 222 221 225 191 218 217 197 22 215 174 205 214 214 172 23 214 167 165 25 216 158 235 235 205 144 235 229 210 53 236 235 115 38 228 240 29 240 228 241 20 228 241 28 14 228 29 244 221 228 30 247 80 32 33 223 79 36 38 223 19 43 224 77 27 50 224 36 252 227 224 49 227 114 59 62 226 109 73 226 226 88 86 226 226 95 226 226 100 102 226 105 106 226 226 110 112 226 117 116 227 227 122 120 228 125 126 229 229 128 129 230 130 131 226 232 132 226 226 135 133 226 226 138 237 226 140 140 233 226 142 240 226 42 144 242 40 146 227 243 126 148 243 28 124 227 244 122 120 226 27 118 226 226 26 113 224 26 110 225 223 25 224 222 43 156 223 220 157 226 221 47 158 240 218 50 226 237 52 53 225 25 55 225 225 26 58 224 27 27 183 223 28 78 164 30 32 148 143 34 35 127
200 199 35 239 198 51 57 212 195 73 78 214 88 91 216 216 102 218 218 19 19 220 221 20 185 222 20 21 182 224 21 180 179 21 21 177 177 21 176 175 124 21 174 124 124 226 173 123 123 225 171 122 225 226 172 119 225 22 117 234 226 22 234 226 22 22 189 227 23 193 195 214 24 199 201 220 218 205 73 26 222 209 57 225 212 118 41 230 108 32 239 228 97 21 228 241 89 244 228 27 84 247 229 29 248 249 209 247 250 188 181 249 251 161 250 250 77 140 250 224 76 251 251 75 45 251 251 74 252 251 73 72 252 70 70 252 252 104 67 252 101 101 252 252 98 104 252 94 94 246 252 90 245 245 86 85 244 243 80 242 241 46 45 240 239 43 249 237 41 40 246 235 38 244 242 37 36 239 49 35 235 234 45 33 231 43 42 228 229 41 40 227 40 39 226 226 39 226 226 28 39 226 226 27 151 226 26 26 225 226 26 225 225 244 25 224 224 25 223 223 44 25 222 46 47 93 219 49 49 88 208 51 226 226 200 55 225 26 57 160 224 27 161 224 227 28 161 223 30 78 161 221 33 135 161 217
183 1 231 234 183 238 240 182 182 237 245 182 237 236 181 180 236 218 179 236 236 0 177 235 0 0 235 235 0 0 235 2 2 243 242 5 7 240 171 20 238 237 170 74 235 170 170 231 230 171 234 226 171 171 234 221 173 234 234 190 173 234 234 199 234 234 205 206 234 210 211 215 234 216 218 218 228 222 220 221 138 229 224 126 122 228 229 111 108 233 102 99 240 237 93 243 243 220 86 246 246 221 11 248 219 213 10 250 193 248 250 227 166 250 227 149 43 250 227 132 251 224 227 59 251 75 227 68 224 74 252 78 225 71 252 225 225 88 252 225 96 98 226 225 104 252 96 109 111 226 91 246 116 226 116 244 226 226 120 228 226 123 124 230 226 127 230 231 130 130 232 38 133 234 235 132 240 236 236 132 226 238 131 130 226 129 129 226 226 128 127 226 146 125 226 226 148 123 226 149 150 244 226 151 244 244 39 151 244 244 153 226 244 107 154 243 243 102 226 242 97 97 218 241 93 215 214 24 89 210 158 25 212 201 159 83 204 57 160 197 182 160 160 182 61 161 225 224 63 223 221 79 64 222 217 78
223 204 34 211 202 182 56 212 201 72 237 214 16 90 216 216 17 236 218 18 18 235 0 19 190 235 0 20 187 0 1 243 184 122 21 241 171 123 239 180 123 234 236 170 123 225 232 170 234 226 171 171 234 225 172 234 234 185 21 234 191 193 215 234 200 22 214 205 207 214 198 212 214 216 159 219 219 219 145 226 223 133 129 236 227 117 237 237 107 104 239 240 96 241 242 241 89 244 245 236 246 247 227 222 247 212 205 248 248 184 177 249 78 158 250 250 77 138 250 77 77 251 251 76 76 251 75 75 252 252 73 252 252 108 71 252 252 105 252 252 102 102 252 252 99 248 252 95 94 246 226 91 245 245 51 85 243 48 47 121 241 45 44 239 230 42 249 237 40 39 246 233 38 243 242 235 131 238 49 48 131 233 45 228 129 226 42 227 228 226 145 226 226 40 226 243 226 148 226 28 27 150 244 26 225 151 244 26 225 244 244 109 224 243 25 104 222 242 100 223 220 96 95 217 47 157 90 212 157 226 207 205 159 225 198 159 159 232 187 160 229 229 160 160 226 225 160 223 222 80 80 219 219 80 135 215
183 183 229 183 183 238 239 183 182 237 181 181 237 236 180 180 236 0 179 236 236 0 177 235 0 0 244 235 0 243 242 224 2 241 241 4 20 239 171 18 237 236 170 21 233 170 170 234 180 170 234 234 181 171 234 178 172 117 234 188 173 234 226 196 109 234 202 22 102 227 210 215 216 227 23 218 152 228 24 222 137 24 25 212 121 25 230 216 35 25 218 98 23 219 219 17 243 228 220 12 228 230 11 10 228 210 10 228 228 31 13 227 35 36 227 227 42 43 224 48 50 224 77 57 60 224 51 67 224 225 65 76 225 75 79 225 225 87 226 225 95 97 226 226 103 226 226 106 110 226 226 111 252 226 114 116 226 83 118 229 226 122 123 230 70 126 231 231 129 129 233 130 130 232 235 131 131 230 34 131 226 238 33 232 226 31 128 229 226 30 228 226 39 146 227 226 147 225 226 39 149 244 39 39 226 244 39 40 226 25 40 226 226 25 105 226 25 101 223 226 25 95 218 25 25 219 213 24 216 215 51 25 210 208 55 204 202 58 58 225 190 61 224 225 63 63 224 30 65 223 223 33 65 222 36 38
221 225 183 38 234 183 182 238 241 182 237 237 182 181 236 236 180 236 236 0 178 235 235 0 244 235 0 0 243 235 1 241 241 2 3 239 171 9 238 237 170 37 235 170 169 232 231 170 170 234 170 170 234 234 171 234 234 182 172 234 234 191 111 234 197 199 234 234 205 214 234 210 212 216 217 218 219 220 144 225 223 132 128 25 228 116 113 25 217 103 239 236 96 94 242 241 88 244 245 235 11 247 225 220 10 249 202 248 11 227 174 249 251 227 37 250 227 136 45 251 77 51 251 224 77 62 224 75 58 72 225 73 252 225 225 82 252 225 225 93 226 225 99 101 226 102 106 226 226 108 112 226 112 113 226 226 116 243 226 119 121 229 226 123 124 231 126 127 232 232 129 233 234 130 130 235 236 130 226 237 130 130 226 239 128 226 226 127 126 226 144 144 226 226 146 146 226 147 148 244 226 149 149 244 39 150 244 243 40 152 243 108 153 225 243 103 222 242 25 98 220 240 94 220 215 25 90 211 210 24 213 204 158 25 205 56 159 231 194 60 159 227 62 62 225 223 64 159 224 32 65 223 216 83 66 222
211 211 13 230 183 14 14 208 182 15 15 206 83 16 204 203 98 217 201 106 108 219 199 113 221 0 116 118 223 0 119 224 224 20 121 225 225 20 188 225 20 20 186 20 20 185 184 20 20 185 120 20 185 186 119 20 187 117 116 190 191 113 226 226 109 107 226 226 102 226 227 22 93 227 227 23 234 227 23 24 235 228 24 214 228 235 24 216 35 24 235 218 23 24 220 89 15 242 221 12 11 245 81 10 228 247 79 250 227 30 78 251 227 35 251 251 140 42 252 227 49 251 252 120 58 224 252 114 251 225 111 111 251 72 78 250 250 68 90 249 65 64 252 248 61 104 252 57 56 252 226 53 252 252 88 49 252 251 81 241 251 76 74 239 250 69 237 236 63 61 234 233 57 232 231 35 51 230 33 33 234 228 32 31 231 31 30 229 228 29 29 227 39 28 227 226 39 226 226 38 39 225 225 39 225 226 39 40 225 225 40 225 225 25 41 226 226 25 226 226 25 25 226 25 25 218 226 24 24 213 52 25 208 207 55 25 199 58 59 83 185 62 225 172 166 64 224 152 65 159 223 34 67 223 222 39
219 223 183 239 232 183 183 238 210 182 237 237 181 181 236 0 0 236 236 0 0 235 0 0 243 235 0 0 241 223 1 240 239 224 19 238 171 8 19 235 170 234 233 188 169 234 230 169 121 234 187 170 234 225 189 117 234 179 191 114 226 188 111 110 226 197 213 226 203 21 214 227 211 216 206 227 22 220 143 23 23 213 127 23 23 215 42 237 217 218 28 240 219 21 18 228 221 14 228 228 11 10 228 217 9 228 228 27 10 227 227 31 224 227 36 37 224 227 44 224 224 51 53 224 42 60 224 225 57 70 225 68 71 251 225 81 84 226 68 92 226 226 98 252 226 101 105 226 226 107 252 226 110 112 252 226 115 228 228 80 119 229 230 122 238 231 125 126 232 38 127 233 234 129 129 230 34 129 226 228 32 129 226 139 31 230 226 141 228 228 40 143 227 226 39 225 226 39 147 225 225 39 225 244 39 39 225 244 110 225 225 25 105 226 25 25 223 226 25 25 221 25 25 219 219 25 25 215 50 156 211 209 54 226 203 57 58 226 191 60 225 225 62 63 224 225 65 224 224 31 67 223 223 36 114 223
215 212 13 214 213 1 13 212 212 67 241 210 82 86 208 180 97 217 206 104 107 219 177 112 221 221 175 116 223 18 18 235 224 19 19 224 5 19 192 225 19 233 190 63 19 189 189 134 227 189 120 162 222 190 118 225 218 171 115 226 172 172 234 226 171 107 234 200 168 234 227 208 161 234 214 22 234 234 222 23 212 228 230 227 215 234 231 232 104 239 236 237 94 239 240 89 15 243 243 83 246 228 81 80 249 203 79 250 250 174 77 251 155 150 251 251 137 133 252 128 125 251 252 120 119 251 77 114 251 251 75 251 251 73 71 250 250 68 252 249 66 64 252 248 60 252 252 57 56 252 94 93 252 252 88 86 251 83 82 241 251 76 74 238 226 69 236 235 63 61 233 36 36 231 231 34 239 229 33 32 234 227 32 231 230 240 30 229 228 29 124 227 39 28 227 226 39 225 226 38 39 225 226 39 225 225 225 39 225 25 224 152 225 25 42 153 241 25 154 226 239 95 219 239 25 91 215 236 89 212 205 233 86 204 56 85 86 187 60 85 178 175 158 225 164 65 158 218 151 158 224 214 138 157 211 40
2 1 239 239 1 1 238 1 1 239 237 0 0 243 216 0 243 243 0 16 243 177 177 242 241 175 235 240 174 173 235 238 172 235 235 196 170 234 234 169 121 234 44 61 234 225 117 227 234 151 157 223 225 167 220 218 225 176 216 171 225 19 213 171 20 20 201 170 234 214 205 96 234 208 156 84 234 211 74 235 227 214 59 228 233 46 43 228 238 32 228 228 22 239 228 228 23 221 228 23 23 222 228 24 223 79 25 26 223 10 29 224 224 14 251 224 19 21 227 224 28 31 227 38 41 227 227 52 226 226 71 67 226 226 81 252 226 87 89 226 226 94 225 226 99 100 226 226 104 226 227 109 109 227 113 113 243 228 116 117 240 43 120 226 226 40 123 226 125 125 246 226 129 243 226 52 132 237 226 135 227 233 45 137 240 240 42 225 242 123 40 225 243 121 224 243 27 119 224 26 117 225 225 26 113 225 25 25 224 224 152 25 224 41 153 222 222 43 226 221 45 46 226 218 48 226 226 50 51 226 233 54 226 226 25 86 225 225 26 183 225 27 27 165 28 29 149 144 32 32 128 68 36 114 110 68
215 240 1 12 217 1 1 236 215 1 240 241 181 0 242 243 180 243 242 178 178 235 241 176 235 235 175 174 235 223 173 235 235 2 171 234 5 7 234 234 21 30 234 58 77 228 227 130 142 224 169 160 221 220 170 218 217 170 171 215 214 171 233 213 171 170 234 213 168 234 234 206 161 234 234 214 234 234 221 223 235 227 229 228 236 234 236 232 228 238 236 237 93 240 240 88 86 243 244 82 246 246 80 79 249 248 78 250 250 224 77 251 251 224 15 251 135 131 23 252 124 251 252 227 118 251 227 114 66 251 226 111 251 225 226 83 250 69 226 90 226 64 252 96 226 101 252 226 55 106 252 227 109 252 226 228 113 251 82 116 117 226 74 238 121 226 122 235 226 226 126 234 226 129 130 236 226 132 237 238 135 135 239 30 138 240 241 124 228 242 122 122 226 243 120 119 226 118 117 226 226 115 114 226 149 112 225 225 151 107 224 152 152 242 222 153 241 240 44 154 239 238 154 225 237 91 155 235 234 89 225 232 88 87 194 25 87 185 182 26 87 172 157 88 157 159 157 90 149 68 157 121 135 157 157 104
2 2 29 239 1 230 49 213 1 238 239 215 14 241 180 0 14 212 179 15 241 210 177 16 207 175 114 17 205 173 235 203 202 118 234 3 199 120 225 13 120 120 225 18 120 225 225 18 119 225 18 18 225 225 18 218 225 18 18 199 171 19 201 202 108 19 204 205 102 206 207 96 93 210 210 85 227 212 75 71 227 214 60 227 227 22 43 228 22 22 238 228 22 21 228 21 21 222 228 21 22 222 216 22 223 223 9 249 224 9 10 250 224 13 227 224 77 20 227 224 28 252 227 78 41 227 227 77 252 226 71 73 252 109 79 226 252 107 88 226 105 104 248 226 101 99 247 56 97 246 227 51 245 244 48 111 251 242 44 251 226 41 41 250 226 38 249 248 62 36 245 226 56 242 241 51 131 228 48 47 226 239 44 43 225 29 42 225 224 28 40 224 28 27 224 224 27 225 224 26 26 225 225 25 225 224 39 25 224 223 40 223 223 41 42 222 222 43 225 220 45 46 226 47 48 226 226 25 51 226 24 25 226 226 25 25 225 26 26 179 225 27 164 159 218 29 144 138 68 128 123 69 69 110 106 69
212 240 2 224 227 1 1 234 182 1 238 239 181 181 241 180 180 236 241 178 178 235 177 176 235 235 175 174 235 0 173 235 234 2 119 234 4 7 232 234 19 230 230 225 72 227 226 126 224 223 168 157 220 169 169 18 216 170 170 234 201 170 233 233 203 170 233 194 167 100 234 203 160 234 227 212 82 234 219 21 68 227 228 228 229 227 22 233 102 228 22 237 93 21 21 221 85 21 222 222 10 22 222 79 9 223 223 9 250 166 224 11 227 143 14 16 227 130 22 227 227 47 33 227 55 57 227 227 65 251 225 72 75 225 73 81 83 226 87 89 226 226 96 226 226 100 101 226 226 104 226 227 107 109 226 226 111 226 226 115 115 226 226 118 250 226 121 122 226 60 125 234 226 127 128 236 50 131 237 238 125 134 239 125 124 225 241 123 226 224 28 121 226 243 27 226 226 26 116 225 226 25 225 225 148 149 224 225 149 242 223 40 151 241 42 42 225 240 44 153 226 24 47 226 236 25 91 226 25 89 206 226 25 198 193 25 26 184 180 26 172 167 64 28 152 146 68 135 130 69 69 225 112 70 224 224
213 213 28 33 214 214 47 214 214 13 68 215 13 13 236 216 14 14 218 0 15 213 219 15 16 211 113 16 208 208 116 235 205 117 118 233 203 119 224 231 168 120 225 199 168 234 225 168 118 234 225 18 234 225 164 17 233 171 18 213 233 179 18 204 185 188 212 207 195 197 213 161 94 216 211 150 234 220 140 72 235 225 123 235 227 112 109 237 227 99 238 239 239 89 241 242 236 243 244 228 224 246 213 207 248 248 185 178 249 76 158 250 250 76 138 251 77 77 251 251 77 252 252 78 79 252 252 78 252 252 112 76 252 252 109 252 252 107 106 252 252 104 249 248 101 100 247 55 97 246 246 50 92 244 47 45 242 242 42 42 240 40 40 250 237 37 248 248 62 35 245 244 55 125 241 51 49 237 236 46 226 232 43 42 225 229 41 224 224 226 39 224 27 27 143 224 26 26 145 243 25 225 224 243 25 224 242 25 108 223 242 105 223 41 42 100 221 43 226 97 218 46 226 93 213 154 226 208 51 155 226 200 155 226 227 189 156 223 26 90 156 219 28 154 216 215 95 133 211 210 97 135 207 99 100 124
20 240 214 12 224 214 1 12 233 214 12 237 181 215 13 240 180 14 14 216 178 15 238 214 110 15 212 174 114 222 209 116 234 223 206 118 224 6 119 118 225 24 119 225 225 17 119 225 17 17 201 225 17 17 202 17 17 203 203 18 18 205 110 18 206 207 104 18 208 100 97 211 211 91 227 227 83 80 227 227 69 227 227 21 53 227 227 21 237 227 20 20 240 239 20 221 227 233 20 222 10 20 247 223 8 21 223 8 9 250 224 10 227 250 76 15 227 224 77 252 227 45 32 252 227 56 252 227 113 66 252 226 74 251 252 109 82 226 106 106 249 226 103 102 248 58 100 247 246 52 104 245 48 47 252 243 44 251 251 42 41 251 226 38 250 249 65 36 247 246 58 231 243 53 51 228 238 48 226 226 45 44 225 29 42 224 224 28 40 223 27 27 226 223 27 26 225 26 26 225 225 25 225 224 38 25 224 223 39 223 223 40 41 222 222 42 225 225 44 45 225 226 47 226 226 24 50 226 25 24 226 226 25 25 226 25 26 180 226 27 27 161 66 28 146 141 69 97 126 70 70 100 108 71 224 98
240 214 184 31 214 2 184 238 214 12 237 237 1 13 236 236 0 238 218 0 0 238 216 0 237 236 174 0 235 211 172 234 233 171 117 232 169 169 234 230 168 168 234 47 168 234 234 118 168 234 148 154 233 233 163 216 233 168 170 213 233 176 211 211 169 184 211 211 165 212 213 160 158 215 216 149 234 220 138 135 234 126 122 235 235 111 107 237 236 238 238 239 239 238 241 237 234 244 244 226 246 246 210 203 248 248 181 249 249 74 154 250 250 75 252 251 76 76 252 224 77 252 252 78 79 252 115 79 252 252 112 76 252 110 109 250 252 107 106 249 226 104 249 248 226 96 247 54 97 102 245 49 105 244 228 45 109 241 41 111 251 230 38 250 226 232 118 248 61 233 122 226 54 123 123 226 49 124 226 226 131 124 226 42 135 241 226 137 223 27 139 140 242 27 142 143 243 116 145 243 243 113 147 243 111 110 225 242 107 224 224 104 103 222 42 101 220 220 152 97 217 216 153 213 212 154 154 206 205 154 228 228 154 155 225 92 155 222 220 93 155 217 95 96 226 212 99 100 208 34 102 133 204 105 100 121
184 184 240 218 184 239 238 2 183 237 237 1 75 237 1 1 90 217 0 237 235 219 0 236 220 0 15 235 222 0 234 212 171 16 232 170 169 16 207 168 234 17 206 118 234 204 204 118 234 204 117 116 225 205 115 233 165 17 113 225 172 211 225 225 17 211 226 226 18 211 226 19 19 213 226 19 214 214 77 20 216 67 62 217 218 50 236 219 38 34 227 220 25 22 227 17 15 227 227 11 10 227 19 20 227 227 21 224 227 22 23 224 227 27 224 224 128 34 224 224 41 251 225 34 51 225 79 49 226 225 61 64 226 75 75 226 226 69 86 226 88 63 252 226 94 97 252 98 99 227 226 103 244 228 88 107 228 229 81 240 230 112 73 237 231 117 234 234 34 120 231 33 32 241 226 31 123 236 46 30 233 226 42 29 229 41 135 228 227 39 139 227 38 38 223 225 37 223 224 25 38 224 224 25 224 224 25 24 225 225 24 222 225 24 24 220 24 24 218 218 45 24 215 48 48 211 209 51 52 203 54 55 226 191 58 59 226 61 63 226 226 66 226 226 29 30 226 225 33 117 225 37 38 101 224 44
240 209 184 184 239 184 183 238 238 1 182 237 1 1 236 236 1 0 236 0 0 236 235 0 235 234 0 0 234 233 0 232 232 171 170 230 230 169 234 228 168 168 234 226 167 234 234 205 167 234 145 167 116 233 160 162 233 225 168 212 233 173 175 210 225 181 210 211 226 18 212 159 226 19 216 148 19 19 216 133 234 225 217 59 235 218 106 42 237 219 31 238 237 221 20 227 233 14 13 227 218 9 227 227 19 248 227 168 21 224 227 24 250 224 28 30 224 76 35 38 224 27 46 225 225 41 252 225 53 57 226 225 68 71 226 77 80 226 226 87 226 226 91 93 226 226 96 252 226 100 101 227 226 104 228 228 107 108 229 109 111 230 230 113 114 232 117 118 232 233 121 121 229 31 122 226 226 30 123 226 130 123 231 226 133 229 226 136 137 227 226 139 242 226 38 142 243 242 38 224 243 113 146 224 25 110 224 241 24 106 225 24 104 221 225 24 100 219 24 24 217 215 152 24 212 49 153 206 204 54 226 197 56 58 226 182 61 226 226 64 65 226 213 68 226 226 32 104 225 35 36 106 225 41 42 94
230 230 25 11 229 228 43 228 228 59 64 227 73 78 216 225 89 92 218 178 100 219 219 14 107 220 14 14 222 222 15 215 223 15 15 213 224 16 211 210 14 16 209 209 54 224 208 117 117 220 207 116 225 207 114 114 225 168 112 225 225 168 108 225 17 166 233 226 17 18 233 194 18 214 226 205 218 216 214 19 224 217 225 228 218 109 232 233 220 36 237 238 88 22 227 242 81 243 227 77 76 246 204 74 248 249 173 73 250 153 147 251 252 134 27 252 126 123 251 224 119 252 252 79 115 252 252 79 252 251 78 77 251 251 73 252 250 69 67 252 226 62 252 252 101 55 252 97 97 252 252 92 91 252 87 86 242 251 80 78 239 74 72 236 235 35 234 233 33 32 231 230 31 241 228 30 30 236 225 29 232 231 28 28 229 229 27 228 227 38 39 226 38 38 223 225 37 37 223 225 37 224 224 38 38 224 24 39 225 225 24 222 225 24 24 220 225 24 218 217 234 24 214 213 231 96 207 51 25 95 198 56 96 188 187 61 226 178 64 154 226 164 67 226 209 150 154 226 34 136 154 201 39 153 153 196
240 240 184 28 239 3 183 238 238 2 63 237 1 1 81 236 1 235 94 218 0 234 177 219 13 233 174 0 14 217 172 15 231 215 170 15 213 168 116 15 211 167 234 210 210 116 233 106 116 116 225 148 115 115 225 16 113 225 225 16 110 225 16 17 226 226 17 212 226 17 18 214 156 18 215 215 84 19 216 216 72 217 217 61 56 218 219 44 227 220 33 29 227 85 20 227 227 18 13 227 17 18 227 227 18 18 227 19 19 224 227 22 224 224 129 27 224 224 18 252 224 26 29 252 225 40 227 225 80 56 226 225 67 252 226 72 79 226 106 65 252 226 89 90 252 100 94 227 252 95 98 227 91 89 243 228 84 241 240 38 76 238 231 112 235 235 34 116 226 231 32 243 226 31 30 238 226 29 234 233 43 28 231 41 41 229 228 39 135 223 38 38 223 242 37 37 223 25 37 223 224 25 224 224 24 24 224 224 24 222 225 24 24 221 220 24 219 218 44 24 215 214 47 212 210 49 51 204 53 54 226 194 57 58 226 61 62 226 226 27 66 226 29 29 226 226 32 120 226 35 36 103 225 42 94 92
200 232 24 11 231 184 42 225 230 57 237 231 182 76 216 217 180 236 218 12 178 235 219 13 235 220 0 14 235 1 14 230 234 1 14 216 169 4 227 213 116 17 225 167 116 223 222 166 116 219 166 166 233 215 167 233 233 167 167 233 225 168 233 233 174 16 233 233 183 210 233 191 193 214 199 202 217 219 211 214 223 124 223 227 229 108 104 233 98 94 237 238 86 84 240 81 79 242 243 75 245 246 199 72 248 249 168 250 250 149 143 250 251 131 251 251 123 122 252 75 118 252 252 79 115 252 80 80 252 252 78 78 252 75 74 252 252 68 67 252 104 61 252 252 100 93 252 97 96 97 252 92 244 252 226 85 242 241 79 106 239 36 71 236 232 34 113 232 32 32 117 235 30 241 121 236 29 235 238 28 121 231 42 27 229 226 39 119 227 38 136 117 226 38 223 115 226 142 223 225 225 144 224 24 145 146 240 24 148 239 239 105 149 237 24 103 235 235 101 216 232 232 99 211 229 98 98 203 53 98 196 194 153 99 185 153 153 175 172 153 226 161 153 153 206 147 153 153 201 74 153 197 196 118 226 194
240 5 207 211 215 3 221 223 2 10 229 182 1 232 229 181 11 233 179 178 12 225 177 235 13 223 174 235 1 221 111 234 1 114 234 223 3 115 234 8 14 116 224 33 223 115 225 14 219 166 225 15 216 166 15 15 212 167 16 212 212 109 16 213 166 105 213 214 101 233 215 215 94 226 198 88 85 226 18 77 226 227 19 62 227 18 18 227 227 18 18 227 18 17 221 227 17 222 222 12 17 222 223 8 248 223 7 7 224 224 8 227 224 10 10 227 224 15 227 227 36 25 227 45 48 252 227 56 60 226 111 67 226 226 73 75 226 107 81 226 226 103 249 227 91 92 247 227 95 226 245 45 98 226 228 40 251 226 38 105 251 226 35 250 226 64 33 247 58 114 230 243 52 119 236 48 47 225 237 44 43 224 27 41 223 223 27 223 223 26 26 223 223 25 225 226 25 25 225 225 24 224 224 38 25 223 223 39 222 222 39 40 221 41 41 225 226 43 44 225 24 46 226 226 24 50 226 25 25 226 226 25 186 226 25 26 169 227 27 155 150 68 29 134 129 72 120 115 74 75 104 101 76 225 93 76
196 202 5 4 213 184 184 222 224 183 183 229 182 182 236 232 180 179 235 178 178 235 235 176 235 235 0 0 235 234 1 229 234 1 2 227 234 4 226 225 10 15 224 223 43 222 221 166 111 218 166 166 233 215 166 167 233 213 166 233 233 166 166 233 171 165 233 233 179 99 233 187 190 93 233 199 217 218 226 212 223 224 221 18 229 106 229 233 234 93 18 238 84 83 17 222 77 242 243 222 72 246 194 223 8 249 163 68 7 227 139 8 251 227 23 11 227 119 30 19 227 38 252 225 227 50 252 80 59 61 226 78 68 70 226 75 76 226 226 84 226 226 88 252 227 227 92 226 95 94 95 226 89 97 226 226 101 101 226 103 104 226 226 107 108 226 110 111 233 234 114 115 235 119 119 236 237 121 123 238 120 121 239 240 119 226 240 119 118 226 242 116 226 226 139 115 226 226 142 224 225 143 144 223 38 146 240 224 39 147 238 40 149 225 235 42 149 233 24 102 226 230 101 101 226 24 100 202 226 24 191 191 25 25 176 179 26 163 169 66 153 142 154 153 226 122 73 152 198 75 76 226 193 77 77 226
216 216 10 208 216 216 10 233 216 10 226 232 10 10 231 180 11 11 230 93 235 228 227 102 235 226 106 107 221 224 110 222 223 112 113 223 224 114 224 224 13 13 224 224 14 215 225 14 14 214 225 14 213 213 15 15 213 111 15 214 214 108 15 214 106 105 226 215 101 99 226 156 95 226 226 145 233 226 17 78 233 226 17 234 227 226 18 235 227 17 237 220 233 17 221 222 227 244 222 12 207 247 69 9 248 223 67 7 250 67 7 251 227 68 10 227 120 71 252 227 34 252 252 114 46 252 252 112 252 252 111 110 251 252 108 251 251 66 105 250 226 58 249 248 53 90 247 48 46 252 245 43 42 252 40 39 251 251 36 35 250 71 69 249 249 63 233 247 57 55 230 243 50 227 227 46 45 225 225 42 224 224 27 26 223 223 26 227 222 26 25 225 25 25 225 225 25 24 224 36 25 224 224 37 25 223 38 38 225 221 39 225 225 41 41 226 226 43 226 226 24 46 225 226 24 151 226 25 25 152 227 25 183 179 214 26 165 65 27 109 145 69 29 130 73 73 117 112 75 76 123 123 77 226 226 111
193 198 185 10 210 184 184 219 221 183 238 226 182 181 236 229 180 236 236 1 178 235 1 1 103 235 0 1 108 222 1 228 234 223 2 227 224 4 13 225 224 13 223 166 165 13 220 165 233 13 215 165 233 214 214 112 233 214 166 109 233 215 107 233 225 215 103 226 176 16 98 226 186 212 226 226 17 217 226 226 17 218 226 17 18 219 227 18 220 220 36 17 221 26 23 222 222 16 242 222 11 10 227 223 8 7 227 7 7 227 227 8 227 227 21 22 227 227 28 225 227 35 39 225 227 48 225 225 112 60 226 226 66 251 226 73 73 226 80 82 226 226 86 87 226 50 89 226 226 44 93 226 93 95 251 226 98 251 226 74 101 231 226 104 234 232 60 108 233 234 53 228 235 118 47 226 237 120 225 224 27 119 223 26 26 228 226 26 117 226 37 25 225 226 36 25 225 36 141 224 224 37 224 223 37 37 224 222 38 225 225 24 40 225 234 24 225 226 24 104 226 225 24 207 226 24 25 198 25 24 189 185 59 25 172 62 64 158 153 68 69 138 71 72 227 119 75 226 227 77 77 226 226 78 226 226
241 217 9 185 239 217 9 238 217 3 9 234 217 10 228 233 1 10 231 231 1 230 230 100 1 229 174 106 228 228 172 110 222 170 169 234 224 168 113 234 9 166 233 225 35 233 233 82 13 233 233 137 214 233 152 154 211 215 159 209 208 165 164 207 207 163 207 207 161 159 209 155 153 232 213 145 141 233 133 129 233 233 217 112 234 224 226 235 235 231 237 237 231 231 242 240 225 244 245 209 203 247 247 66 248 249 65 64 250 250 65 251 251 65 66 252 67 68 252 252 72 73 252 113 77 252 252 112 112 252 110 110 251 252 108 251 251 226 104 250 249 102 81 248 50 98 247 247 45 89 245 41 40 252 243 37 251 251 230 34 250 70 32 107 249 61 31 246 226 54 115 242 49 48 226 226 44 225 224 226 122 223 26 226 127 223 26 130 131 241 25 134 223 241 115 138 241 25 114 223 240 112 223 225 239 111 224 38 110 109 222 39 108 220 219 149 106 216 215 150 212 211 150 226 224 151 151 220 25 151 151 215 108 151 211 209 111 152 206 114 115 201 200 119 120 139 123 124 129 126 128 119 116 150 132 108
10 195 217 217 9 237 217 9 9 236 183 9 235 234 75 9 233 85 88 232 232 95 235 230 101 103 220 228 106 108 222 171 110 222 223 12 112 224 12 12 224 224 12 219 225 12 13 218 225 13 217 217 142 13 216 216 13 209 216 109 109 217 165 106 225 217 103 102 225 159 98 226 226 150 91 226 17 137 233 226 17 17 233 218 17 219 226 227 234 220 230 16 239 221 228 242 222 71 214 245 223 10 247 248 64 8 227 63 63 250 227 63 63 252 119 65 252 227 114 69 252 113 35 252 252 112 49 252 111 111 252 226 109 251 251 67 106 250 250 58 249 249 52 51 248 248 46 252 246 42 40 252 87 38 251 251 79 34 251 73 71 250 249 64 62 248 58 56 230 244 51 228 228 47 46 226 225 27 224 224 26 26 223 223 26 228 222 26 26 226 223 25 225 225 24 25 224 36 25 223 223 37 37 223 37 37 224 221 38 38 225 220 40 225 225 42 149 226 24 45 226 226 24 206 226 24 25 195 226 25 185 182 212 26 168 164 206 114 149 69 29 119 148 73 123 115 134 77 227 124 79 150 227 112 81 227
241 241 7 9 240 5 5 214 238 4 3 222 3 2 226 227 2 1 228 178 1 228 228 176 235 228 174 173 234 227 172 234 234 169 169 234 234 167 234 233 8 166 233 233 30 233 233 73 91 217 121 132 214 213 149 152 210 164 157 208 207 164 162 206 163 162 206 206 160 232 208 155 152 232 232 144 233 233 200 128 233 233 214 68 234 222 224 234 235 228 237 236 229 229 241 73 221 244 245 67 198 247 64 63 14 249 62 61 14 224 61 251 251 224 8 252 224 65 14 252 112 20 252 111 111 35 252 111 252 54 226 109 251 226 226 67 251 226 103 73 226 226 77 248 227 46 82 227 42 87 86 228 38 251 228 229 95 251 230 99 100 226 231 105 107 226 102 111 226 226 107 115 226 111 112 226 226 115 238 226 120 121 239 226 125 240 240 128 129 240 241 116 241 240 115 115 240 240 114 225 239 113 113 224 24 112 223 222 24 110 221 146 109 218 218 148 148 214 149 149 225 209 150 222 220 50 150 217 215 55 226 211 112 151 227 206 116 165 202 28 120 150 196 124 118 135 35 129 125 79 41 94 113 150 48 86
9 239 20 240 7 185 35 217 4 50 238 217 9 223 218 2 9 226 218 9 227 233 219 9 227 175 9 10 229 172 10 228 228 109 11 225 225 111 224 223 112 112 224 221 112 224 224 112 112 225 118 112 225 225 13 111 225 13 13 225 225 14 14 217 15 15 217 218 15 16 217 97 16 218 218 90 214 218 83 81 220 219 72 226 219 62 57 226 226 45 226 226 16 29 226 226 15 240 226 14 14 244 178 13 223 226 148 13 224 7 13 251 224 7 17 224 63 12 252 225 17 252 252 71 30 226 252 77 252 226 75 72 252 226 63 252 252 104 69 252 101 100 249 252 97 79 227 93 92 245 227 87 85 243 35 80 241 240 32 97 237 31 31 249 234 29 246 246 29 28 243 226 27 239 238 44 27 234 233 41 223 230 39 38 223 37 37 223 222 36 36 222 25 36 223 223 25 35 223 24 24 224 224 24 24 222 24 24 221 220 24 219 218 40 24 216 215 43 213 211 45 46 206 204 49 226 197 53 54 226 25 58 227 227 26 64 226 27 28 227 227 30 31 227 33 35 109 227 38 40 95 82 45 89 87 83
242 241 8 197 240 7 6 211 238 4 219 220 3 3 223 224 180 226 226 178 178 227 177 176 235 226 174 173 234 230 171 234 234 169 169 234 3 167 233 233 7 9 233 18 25 219 233 64 217 216 225 126 213 212 225 12 209 164 155 13 207 163 232 206 218 161 232 218 159 100 232 218 152 232 226 218 88 232 196 219 79 226 210 70 67 226 221 231 226 226 16 237 226 15 15 222 226 15 245 64 14 13 223 60 13 12 223 7 13 224 224 7 226 224 8 9 226 225 12 226 226 19 21 226 110 33 226 226 49 50 226 226 57 226 226 63 64 226 67 69 226 227 73 74 227 81 77 227 227 85 82 228 88 89 242 229 92 226 226 31 98 226 226 103 248 226 98 109 226 226 103 241 226 107 109 236 226 113 237 232 39 118 239 117 37 222 240 116 128 222 24 115 222 240 115 114 223 24 114 225 223 24 223 224 24 24 221 222 145 220 219 39 147 218 217 42 226 213 44 149 226 207 47 226 217 50 52 226 25 114 227 227 26 117 227 27 27 148 227 29 29 128 32 32 114 111 36 104 100 81 42 93 90 83 227 85
183 240 18 22 218 239 34 218 218 184 54 218 218 67 236 218 8 82 218 219 8 235 219 8 8 235 1 9 231 231 1 9 229 108 2 224 227 110 10 223 165 111 221 223 164 233 218 164 112 225 215 163 233 225 12 163 232 225 12 232 232 157 13 232 225 162 205 232 167 15 206 173 175 209 219 142 187 214 131 83 219 220 114 71 226 100 96 234 232 85 235 235 76 74 237 238 68 239 240 198 190 243 244 164 248 247 143 136 250 250 124 250 251 116 114 251 58 111 252 252 62 109 252 65 67 252 252 69 69 252 67 66 252 252 60 252 252 103 53 252 252 99 252 252 95 94 247 252 90 245 245 85 83 243 242 77 240 240 31 69 237 30 29 93 233 28 28 230 233 28 242 241 27 27 237 42 26 233 232 40 117 229 38 38 117 227 37 222 115 226 36 223 224 225 134 223 24 35 138 223 24 140 224 24 24 143 234 24 220 145 231 24 218 228 227 112 214 225 24 112 208 46 112 202 200 149 114 192 55 150 116 180 150 227 170 167 150 227 155 151 151 192 32 150 150 187 134 150 184 183 139 181 180 142 143 177
13 241 10 240 25 218 7 208 43 218 5 217 218 218 8 222 218 7 8 236 219 8 225 235 8 8 233 173 9 9 231 105 234 230 229 109 223 228 110 110 224 225 111 224 224 111 111 225 225 110 225 225 12 12 225 225 12 220 225 12 13 219 158 13 219 219 14 14 219 100 14 219 219 95 16 219 89 88 226 219 81 226 226 108 69 226 226 91 234 226 15 41 226 226 15 237 226 14 14 241 226 13 223 223 153 11 223 7 130 250 224 7 13 251 55 8 251 225 58 13 252 61 20 252 226 64 252 226 106 65 252 226 52 252 252 103 59 252 252 100 249 252 97 96 248 252 92 246 246 36 86 244 34 33 242 241 32 91 239 30 29 249 235 29 28 247 28 28 244 243 27 241 239 44 43 235 234 40 224 231 38 38 223 228 37 222 223 36 36 222 222 35 223 223 24 24 223 24 24 223 224 24 24 222 24 24 221 220 24 24 219 39 24 217 216 41 113 212 44 45 226 206 48 226 227 51 52 226 226 56 227 227 26 63 227 227 27 150 227 30 31 150 189 34 112 108 37 38 98 84 43 91 89 86 51 84
242 185 186 21 219 186 185 239 218 184 184 238 4 182 237 237 3 180 236 2 2 225 235 2 225 235 1 1 225 232 1 225 224 169 2 224 224 167 223 222 165 165 221 164 164 233 233 163 163 233 100 163 232 232 141 163 232 151 153 232 232 156 157 232 159 160 204 204 164 205 205 153 172 208 209 142 211 213 131 126 217 219 112 232 224 98 95 233 220 83 234 235 221 72 236 215 211 238 239 192 184 242 167 159 248 246 137 131 249 226 120 250 251 113 13 251 54 55 251 252 57 252 252 59 60 252 252 61 252 252 226 59 252 103 226 61 252 100 100 69 226 97 248 252 226 92 247 226 88 73 245 226 81 242 229 226 81 239 30 84 85 231 29 248 90 232 105 245 233 234 111 240 235 114 236 226 237 116 226 39 117 116 226 37 116 226 226 124 222 226 226 129 239 225 133 134 238 225 137 237 237 140 140 235 114 143 233 232 114 219 229 114 114 216 225 114 114 211 114 115 206 204 116 200 198 149 118 189 186 150 176 177 150 150 197 163 150 194 191 72 149 188 186 150 227 183 139 149 180 42 143 227 177 146 146 227
12 14 219 8 24 219 219 8 41 218 7 7 218 218 7 239 219 7 7 238 219 7 237 237 96 7 235 235 101 224 233 104 105 224 231 107 223 229 166 109 224 165 110 233 224 10 110 225 62 11 233 225 11 11 232 144 11 220 232 153 206 220 156 157 204 220 160 204 219 156 99 206 219 95 232 209 138 88 226 215 121 232 226 106 102 232 213 89 233 233 220 76 235 218 216 241 237 203 13 245 181 172 247 223 148 248 249 52 125 249 250 51 250 251 51 52 252 251 54 252 252 55 56 252 252 57 252 252 104 57 252 103 103 252 252 101 100 253 99 98 249 249 95 94 248 38 90 246 245 34 244 243 32 31 241 241 30 250 238 29 28 249 234 28 247 247 52 26 244 47 46 240 239 43 42 235 40 40 223 231 38 37 223 226 36 222 222 24 35 222 24 24 130 223 24 223 223 237 24 223 224 24 115 222 233 24 220 220 230 115 219 39 39 115 214 41 226 115 208 45 226 203 48 148 227 194 52 227 204 182 150 227 26 168 149 194 28 140 149 189 134 122 185 183 138 106 180 142 143 111 177 146 88 100 148 149
177 181 186 186 193 197 185 239 207 184 184 238 237 182 237 237 3 180 236 3 3 235 235 2 2 235 2 2 224 234 2 1 224 222 2 223 223 166 9 222 165 164 9 219 163 233 217 224 162 232 214 162 109 232 221 162 232 232 151 107 232 154 155 104 225 158 203 101 225 163 205 225 225 15 207 225 179 211 219 226 16 218 111 75 16 220 92 232 16 221 50 234 221 221 33 236 222 23 21 226 223 14 242 226 10 9 226 127 10 226 226 10 250 226 226 12 225 226 14 16 225 226 20 225 225 26 29 225 35 38 226 226 48 51 226 56 58 226 226 64 66 226 39 69 226 226 73 73 226 68 77 226 226 73 229 226 75 77 230 226 81 231 231 56 85 232 232 49 229 233 110 95 235 25 114 224 236 115 115 226 25 115 226 226 24 115 226 122 24 225 226 127 115 224 34 133 223 224 35 224 235 35 139 224 232 36 224 229 23 38 225 225 116 225 226 24 117 226 24 24 205 226 24 24 196 51 25 186 182 57 25 169 62 64 154 149 69 149 134 74 75 227 116 80 227 228 84 85 227 227 45 227 227 51 53 227
242 242 8 8 242 242 7 241 241 45 7 241 241 63 218 240 74 78 239 239 86 220 238 92 94 220 7 99 221 221 7 103 222 8 8 234 223 9 9 223 5 9 227 224 9 218 225 39 10 224 224 109 212 222 108 108 208 222 107 225 205 160 105 225 220 159 231 225 156 100 231 165 14 231 225 175 15 231 184 15 215 231 197 16 220 206 209 228 221 215 233 235 70 213 239 240 61 237 243 56 17 241 246 51 243 226 49 49 247 226 48 249 250 109 47 251 105 104 252 252 104 103 251 103 103 251 251 103 103 251 50 102 251 251 46 250 250 42 41 249 249 38 252 252 36 35 252 252 33 252 252 79 30 251 251 71 251 250 65 63 249 59 57 233 247 51 50 230 26 46 227 227 25 42 225 25 25 224 223 25 229 223 25 24 227 222 25 225 225 238 24 224 224 34 115 223 35 35 223 222 35 224 222 35 36 225 221 37 225 225 217 39 225 24 24 146 226 24 24 147 212 24 200 227 206 122 188 202 25 126 172 195 129 157 160 190 133 137 73 149 138 134 79 227 142 120 149 227 110 108 148 172 99 148 228 170
8 178 187 187 240 242 186 239 239 242 184 238 7 241 66 237 4 77 80 219 3 88 235 220 6 95 220 2 7 223 221 7 223 234 223 8 231 166 8 8 229 164 9 228 227 109 9 225 225 109 224 224 108 232 225 223 107 225 148 106 106 225 12 104 225 225 13 101 225 14 14 225 225 14 15 220 15 15 220 220 15 220 220 77 16 220 220 64 229 221 53 48 221 221 36 226 222 26 23 226 226 16 226 226 10 10 226 9 9 247 226 9 9 250 106 10 225 226 103 13 225 13 17 251 225 21 251 225 48 33 251 226 42 252 250 43 53 226 249 39 252 226 36 35 252 226 59 252 226 81 63 251 75 67 241 251 67 71 230 61 59 235 231 54 52 231 26 48 228 228 25 239 226 25 25 234 224 25 231 230 24 24 228 226 24 226 226 34 24 225 224 34 223 224 34 34 223 34 34 224 224 35 35 224 24 36 225 225 24 38 225 23 23 226 226 24 211 210 24 24 204 202 24 197 194 52 25 183 179 58 170 166 63 65 151 146 70 227 131 76 77 227 35 82 227 227 40 88 228 45 47 228 227 53 55 227
243 243 15 7 243 25 12 199 242 43 8 210 183 61 215 241 181 76 220 179 84 235 220 176 235 220 2 173 234 221 7 234 234 2 7 234 233 3 221 230 5 6 220 163 13 217 217 162 43 214 161 161 211 210 161 107 208 160 160 232 205 159 159 231 155 158 231 231 159 231 231 163 165 231 231 171 208 231 180 183 214 231 193 219 220 201 204 226 81 77 232 234 67 65 238 60 58 236 243 53 52 239 49 48 242 243 46 45 246 112 44 248 249 105 250 251 103 102 251 252 101 251 251 101 101 251 251 100 251 251 44 99 251 42 41 252 250 38 38 252 226 35 252 252 227 33 252 83 30 70 251 76 29 251 70 68 81 250 62 236 235 226 54 233 232 226 81 229 25 44 87 226 25 92 225 235 25 100 236 24 114 107 237 24 227 226 237 114 225 34 236 114 225 34 115 115 224 34 116 223 223 137 117 221 140 141 226 219 143 225 222 144 145 218 24 146 146 213 122 147 208 207 124 203 202 126 127 197 196 130 171 167 133 134 156 69 137 144 141 149 141 129 126 149 105 116 148 148 106 148 148 169 95 148 148 167
8 8 243 243 7 7 243 33 7 242 242 52 211 242 65 68 220 241 78 220 220 177 88 220 220 94 235 221 6 99 221 2 7 234 222 7 7 233 3 8 231 230 7 8 228 108 21 216 226 108 9 225 160 107 209 223 107 232 206 160 105 225 203 158 231 225 13 156 231 225 14 231 231 165 14 231 172 175 210 231 184 15 216 193 196 222 220 84 205 229 73 52 235 236 61 36 240 55 53 237 244 49 239 241 46 45 243 245 43 246 247 106 8 249 250 102 250 251 100 100 251 100 100 251 251 100 99 251 42 98 251 251 40 97 250 38 37 252 249 35 34 252 33 32 252 252 30 252 251 78 28 251 251 71 251 250 65 63 237 249 57 234 233 52 50 231 26 46 228 228 25 42 226 25 25 94 224 24 24 223 236 24 228 227 24 113 225 34 24 224 224 34 114 224 34 34 115 223 34 224 222 222 35 225 221 36 141 225 24 37 225 219 23 145 226 24 24 146 209 24 203 147 203 25 192 198 196 130 177 191 133 134 161 66 137 143 146 148 141 134 79 148 145 120 148 228 110 107 148 228 98 148 148 166 56 147
169 243 17 16 185 240 13 196 199 185 10 207 209 182 213 215 181 180 218 179 178 235 221 176 175 235 174 173 234 234 2 169 234 2 3 233 233 3 221 233 5 5 219 233 11 217 216 224 35 214 213 75 10 210 160 160 207 206 159 231 204 158 159 231 222 157 231 231 221 153 231 161 148 96 230 168 136 231 225 179 212 231 188 15 219 226 198 225 227 226 15 232 65 226 14 238 55 12 12 222 49 238 245 223 13 242 223 42 8 225 224 7 248 225 224 7 226 99 9 9 226 99 12 226 226 16 251 226 20 22 225 226 27 250 225 32 34 226 34 39 40 226 54 45 227 227 60 50 227 65 66 226 228 71 226 226 77 79 226 226 86 226 226 71 95 226 226 77 242 226 83 84 234 40 90 235 236 96 98 236 112 104 236 236 113 112 236 113 113 223 235 114 225 223 24 115 224 223 24 222 223 137 117 221 220 140 220 218 37 143 217 213 144 214 213 41 145 208 44 44 226 202 127 147 227 25 131 227 191 26 134 227 28 137 147 227 30 132 136 33 34 114 121 37 103 100 91 148 93 91 95 228 86 98 98 228
220 220 7 17 220 15 7 220 220 6 203 220 220 5 242 220 5 5 241 220 5 241 241 89 5 240 94 95 239 238 99 100 237 101 102 223 234 104 105 223 163 106 224 224 8 232 224 9 9 224 224 9 225 225 10 10 224 225 10 223 222 149 11 222 222 153 202 221 101 100 202 150 97 225 220 140 92 225 127 88 225 225 107 81 226 15 87 231 226 14 231 232 200 14 221 226 185 240 222 163 11 244 223 131 246 223 41 111 248 223 8 249 249 38 7 225 38 38 250 226 38 38 252 97 38 252 252 96 37 252 95 95 252 252 93 249 252 91 90 249 226 87 247 247 29 81 245 245 28 243 243 27 27 240 26 26 250 237 26 25 248 25 25 246 246 46 25 243 43 42 239 238 40 39 234 38 37 224 230 36 223 223 35 34 223 223 24 223 223 24 24 223 223 24 223 223 24 24 222 229 24 221 221 24 24 220 36 24 218 218 38 38 215 39 40 226 210 42 44 226 195 47 227 227 184 147 227 25 58 148 227 27 148 227 29 30 136 227 32 122 118 171 36 106 89 168 151 94 95 48 155 92 99 156 83 83
167 171 19 18 183 186 15 193 197 184 12 205 183 182 5 213 181 236 5 242 178 236 235 241 90 235 3 173 234 234 3 100 234 3 3 102 223 3 220 105 223 5 218 224 224 8 216 160 28 9 226 159 9 210 225 159 10 224 158 105 11 222 103 231 222 222 102 231 221 99 99 225 160 96 95 225 15 92 225 225 15 225 225 15 15 226 226 15 220 226 14 14 221 60 14 221 221 33 12 222 222 21 223 223 14 13 223 11 10 225 223 7 7 225 37 7 225 225 8 9 226 9 10 226 226 13 225 226 17 18 225 226 22 225 225 91 29 226 226 88 248 226 49 50 246 227 55 226 227 27 62 226 26 68 250 226 26 75 226 54 25 248 226 66 67 244 44 72 233 240 40 226 234 38 37 224 235 36 223 223 24 35 223 236 24 223 223 24 113 225 223 24 224 224 24 24 223 33 24 222 222 34 24 221 35 35 220 219 36 143 217 38 39 226 208 41 226 226 24 45 226 227 25 227 227 25 25 227 227 26 164 228 28 29 144 139 31 129 125 81 35 112 87 89 102 99 94 95 92 97 99 228 85 101 102 228
9 221 187 15 241 221 185 30 220 13 184 239 220 5 210 237 8 5 242 236 5 219 241 5 4 221 240 4 221 222 170 3 222 237 167 233 221 165 104 233 163 163 232 224 161 161 232 19 160 232 232 58 159 232 100 113 231 231 137 204 204 147 149 202 222 152 201 201 154 156 201 201 147 202 203 139 135 206 207 121 230 211 106 100 230 189 85 230 230 195 68 231 193 190 232 232 176 169 234 153 146 243 236 124 246 246 39 106 248 248 37 249 249 36 35 250 250 35 250 250 34 34 251 250 34 251 252 225 33 252 92 92 252 252 90 90 252 88 87 248 252 83 82 246 226 78 245 244 226 44 242 25 66 49 239 25 249 236 230 25 248 233 25 89 245 232 24 242 241 233 102 237 38 234 107 225 36 224 110 226 35 223 225 225 105 223 225 33 114 233 224 120 223 231 126 127 229 24 132 133 225 118 221 222 221 121 220 217 122 123 211 211 125 213 205 127 127 199 44 129 191 188 146 133 179 176 147 185 166 148 148 179 151 148 175 173 148 148 170 148 148 167 166 152 148 164 154 154 96 161 156 157 86 57 158 80
7 10 221 221 7 221 221 6 6 221 221 5 244 243 5 4 243 180 4 242 242 82 5 241 241 90 240 240 95 96 239 98 99 222 237 101 102 223 6 103 223 223 7 105 224 7 8 232 224 8 227 224 65 9 225 225 10 206 224 139 11 223 223 103 201 222 102 101 201 221 99 225 201 145 96 225 135 131 230 225 115 87 230 182 15 230 225 189 15 230 191 14 221 231 182 236 221 165 157 241 222 133 244 245 39 110 246 223 37 242 248 35 8 246 249 34 248 225 33 33 250 93 32 251 251 92 32 251 91 91 252 252 90 89 249 88 87 248 248 84 247 247 27 79 245 245 26 244 243 26 25 241 240 25 250 249 25 25 249 248 24 247 246 46 24 244 43 42 241 239 39 38 235 37 37 224 231 35 35 223 24 34 223 223 24 223 223 24 24 223 223 24 224 224 24 24 223 224 24 222 222 222 24 221 220 35 121 219 36 36 216 209 39 226 212 41 42 226 194 45 227 227 183 51 227 26 25 147 227 27 162 148 175 29 141 227 170 147 123 167 36 110 107 163 153 98 97 161 156 89 103 228 158 82 107 228
244 244 186 186 242 241 18 240 240 15 14 239 12 12 208 237 9 9 214 8 7 217 218 6 5 220 173 172 220 221 169 168 220 167 167 233 220 164 233 233 163 162 233 232 160 232 232 16 159 232 232 46 210 231 88 101 206 122 130 204 203 143 146 201 155 150 200 200 153 154 200 149 147 14 202 139 134 229 220 120 229 229 104 84 230 184 83 230 230 188 66 230 185 182 51 231 167 238 239 225 136 242 40 225 8 245 36 100 247 223 34 6 248 33 32 6 224 32 249 6 224 31 250 91 224 12 251 90 16 17 226 89 22 251 226 20 30 226 83 25 37 226 29 246 226 226 34 227 26 38 39 228 25 43 228 229 67 49 229 230 78 231 230 85 88 231 232 94 225 225 100 101 225 77 105 225 225 86 108 225 93 95 225 225 102 105 224 109 112 231 224 118 229 229 114 126 226 225 117 224 222 119 120 218 216 122 215 212 124 125 209 206 127 203 202 24 130 195 145 146 200 184 146 146 187 54 147 179 161 62 147 174 68 147 227 169 78 228 165 35 151 228 162 153 100 228 46 156 92 228 52 86 83 58 60 81
7 10 221 221 6 244 221 6 6 244 15 5 244 244 12 4 243 69 9 215 243 81 4 218 174 89 220 241 171 234 222 168 97 234 222 166 233 223 4 163 233 223 7 232 232 9 7 232 232 24 212 231 53 66 208 157 106 205 204 156 138 202 156 156 201 200 154 101 200 152 150 230 200 144 229 229 163 130 229 229 171 229 229 178 180 229 229 184 220 230 184 183 228 230 173 234 235 154 146 239 41 40 243 243 37 36 245 35 34 240 247 33 32 244 31 32 247 247 31 248 249 89 30 250 250 89 250 251 88 88 249 251 86 249 248 84 83 248 247 80 247 246 26 75 245 25 25 251 242 25 25 250 228 25 249 249 24 24 248 49 24 246 246 44 86 243 41 40 95 238 38 225 225 225 36 224 224 225 86 223 23 33 96 223 24 104 223 231 24 113 229 24 112 121 226 24 223 221 222 118 222 34 218 121 216 35 123 124 211 141 126 206 204 143 130 198 145 227 191 187 146 227 25 146 147 180 26 147 176 174 144 147 170 169 148 167 165 150 151 163 161 153 107 104 155 156 95 103 158 87 85 147 159 78 147 147
186 244 245 185 242 242 244 27 240 17 183 239 238 13 58 237 11 10 213 236 9 216 217 221 6 219 219 221 5 220 169 5 5 239 166 5 220 237 163 6 235 161 103 232 232 159 232 224 229 104 231 37 104 104 225 87 105 104 225 10 103 225 225 11 200 225 12 12 222 225 13 200 221 14 14 221 134 15 220 220 90 15 220 220 83 220 220 77 75 225 220 65 225 226 54 50 226 12 38 225 225 10 24 225 9 8 225 225 7 6 225 6 5 223 223 5 5 223 7 6 224 224 8 249 224 10 11 249 225 14 225 225 27 20 225 225 25 251 226 21 33 225 74 26 251 225 29 30 250 63 34 228 250 57 39 228 52 51 234 229 73 49 231 23 84 229 231 24 239 226 24 99 225 224 24 231 225 23 23 228 225 24 227 226 33 102 225 33 33 223 224 32 118 224 32 33 224 221 33 33 225 24 34 225 225 24 35 226 24 23 216 226 24 213 212 24 24 206 204 25 199 196 50 25 186 182 57 173 169 63 65 228 70 72 227 227 80 83 228 36 90 228 228 42 99 228 47 48 228 228 54 56 228 60 61 81
7 245 11 6 175 244 23 26 244 183 39 221 244 53 238 221 180 68 221 221 177 236 221 4 174 235 221 4 234 234 5 5 240 222 5 220 238 5 6 236 162 5 217 233 104 8 215 158 104 212 211 157 104 208 157 156 231 225 156 230 230 136 155 230 225 147 230 230 151 13 229 230 155 200 229 159 161 202 220 167 205 206 102 174 211 85 79 216 218 66 62 224 55 53 230 232 46 44 231 41 39 232 233 102 234 235 92 90 237 238 86 247 241 85 85 248 245 85 249 249 85 85 249 249 85 249 249 27 27 249 27 26 251 248 26 26 251 25 26 251 251 25 25 251 69 24 250 250 63 46 250 58 57 238 249 52 235 235 225 46 232 231 43 50 229 24 40 227 227 24 63 225 24 24 232 232 23 229 228 232 24 227 33 231 107 225 33 24 224 223 32 111 224 32 121 114 221 33 225 225 218 132 225 24 214 137 226 24 140 140 200 24 143 226 193 133 144 187 24 136 182 181 139 189 167 175 143 156 62 146 146 141 71 149 130 127 147 152 116 147 147 106 103 147 147 155 147 147 154 53 147 147 153 160 146 154
7 244 245 245 16 221 245 26 30 221 19 43 221 221 4 60 221 12 4 221 221 4 216 221 221 4 242 221 4 4 241 4 5 240 239 98 5 238 100 101 236 235 102 102 233 103 103 224 230 104 224 224 157 104 225 225 9 230 225 10 10 225 225 11 223 225 12 12 222 225 13 222 222 156 14 221 94 161 203 220 91 89 220 95 85 225 220 79 77 225 61 68 225 225 49 230 225 12 41 231 225 10 232 233 94 8 222 225 85 246 223 83 5 247 223 82 248 223 28 83 249 27 7 249 249 27 10 225 26 26 250 225 25 25 250 78 25 250 250 73 250 250 70 22 250 250 64 242 250 59 58 239 227 53 237 236 24 48 234 233 24 231 231 24 23 228 23 24 238 226 24 24 234 23 23 231 230 34 24 228 33 33 226 226 32 223 225 32 32 223 224 32 224 224 32 33 224 224 24 225 225 24 24 225 225 24 219 226 24 23 216 195 24 212 211 24 24 206 44 25 198 195 51 52 185 56 58 227 167 65 228 228 135 75 228 227 83 147 228 37 94 228 228 43 147 228 48 50 90 228 55 85 84 152 63 82
159 163 184 12 173 176 184 241 187 183 38 239 181 180 238 221 179 179 237 12 177 236 236 10 4 235 8 8 219 234 7 7 219 6 6 219 219 6 218 218 161 6 217 216 159 214 214 157 157 231 211 157 231 231 156 156 230 91 155 230 230 128 155 230 141 143 230 230 148 150 198 152 153 199 199 157 159 201 123 164 204 205 100 16 209 83 78 214 216 64 229 222 54 50 229 229 44 229 230 116 38 231 98 93 23 233 85 83 235 225 80 246 239 80 80 247 225 80 248 248 27 80 248 26 26 6 248 25 249 8 225 25 250 247 225 19 250 225 24 25 250 69 30 250 225 63 37 225 59 240 44 225 53 237 225 225 35 234 225 225 40 229 225 46 229 230 24 53 231 24 92 61 231 97 231 231 231 101 228 230 102 103 224 229 104 105 223 107 107 222 222 113 221 221 120 122 219 218 127 212 215 132 133 206 211 137 201 199 139 140 194 192 131 188 187 134 135 181 138 138 175 175 141 143 161 27 145 151 147 29 149 136 147 151 136 121 147 155 111 93 147 153 98 147 152 152 111 147 151 151 117 229 151 161 146 228
7 8 165 245 14 17 179 183 28 221 244 181 46 221 180 59 237 221 177 72 221 12 174 235 221 4 218 235 8 4 242 234 7 219 240 7 7 218 238 6 217 217 160 6 215 158 102 231 212 157 103 224 156 156 231 225 155 155 230 106 155 230 230 134 153 230 143 146 229 229 150 198 198 154 155 199 221 159 201 202 111 166 205 207 87 210 211 72 67 217 59 56 228 225 47 45 229 126 39 230 230 98 35 231 85 83 233 234 78 77 236 76 77 246 239 77 247 247 27 78 248 248 25 248 248 25 25 248 248 25 249 247 25 25 250 225 24 250 250 24 24 250 65 64 250 250 60 58 249 56 54 238 249 50 49 235 225 45 233 232 225 40 230 23 39 47 227 24 237 226 230 23 233 225 23 97 229 230 24 227 224 228 102 226 32 226 105 222 32 224 108 221 32 224 219 219 123 225 217 128 225 206 213 134 226 24 137 138 194 24 140 141 187 133 210 182 180 138 203 175 141 141 165 169 144 155 151 147 148 140 69 150 129 126 147 153 115 112 147 152 102 147 147 150 147 147 149 149 146 146 149 160 146 149 150 162
36 161 183 32 171 175 183 5 185 181 181 194 197 180 238 238 178 178 237 236 176 236 236 12 173 235 235 10 90 234 8 8 94 222 8 218 233 222 7 217 160 7 6 215 158 7 213 232 157 7 210 156 231 8 228 155 230 9 226 103 230 118 154 101 230 138 100 229 225 147 99 229 151 14 96 225 157 200 225 225 16 203 225 225 16 220 76 16 16 220 58 15 220 220 62 14 220 51 47 220 220 35 230 221 26 23 225 222 17 15 225 5 11 225 225 4 8 225 4 4 225 225 4 224 225 5 5 224 225 6 224 224 13 9 225 225 18 246 225 22 23 226 23 28 225 226 33 35 225 23 40 225 225 23 48 225 30 32 246 224 36 38 225 39 43 229 225 48 226 230 35 57 229 229 34 224 229 97 33 223 228 100 223 224 23 103 222 23 23 224 221 23 109 223 32 23 223 216 33 24 221 33 132 225 220 34 226 193 36 37 226 186 39 227 227 24 43 227 227 25 227 227 26 144 227 227 28 170 141 29 30 150 76 33 135 130 88 37 117 97 100 106 103 108 111 95 116 118 228 87 124 229 228 62 128 228
183 8 164 167 183 243 178 182 182 240 191 181 239 239 179 179 238 237 17 236 236 14 3 235 12 12 217 234 11 10 219 10 9 218 218 8 8 218 161 160 217 217 159 232 214 157 157 232 211 156 231 231 155 155 231 230 154 230 230 91 154 230 230 126 198 229 138 141 197 146 147 197 197 152 153 198 132 157 200 201 110 163 204 92 86 16 209 70 228 228 219 54 228 228 45 60 228 115 38 229 229 88 34 230 77 75 22 232 71 244 244 225 70 245 27 71 4 246 25 72 247 223 25 4 247 24 24 5 224 24 248 7 224 13 249 68 224 18 249 64 22 24 225 59 28 249 225 19 34 225 51 23 42 225 26 234 224 224 32 228 23 36 38 228 23 43 229 229 82 50 229 23 89 228 228 93 229 227 96 97 223 32 99 100 222 93 102 221 221 104 106 220 112 115 217 216 121 123 214 127 128 200 209 133 195 193 126 137 188 186 131 226 181 135 136 175 174 139 172 169 142 144 159 27 146 149 145 28 149 135 146 146 144 121 146 146 125 93 147 148 97 105 147 147 114 147 228 146 122 229 147 59 161 229 148 162
7 160 182 222 6 244 182 242 4 244 180 240 244 244 52 238 244 177 67 222 244 75 236 221 243 83 222 12 89 89 222 4 218 222 222 4 218 222 5 5 238 223 5 215 235 6 6 233 156 7 231 230 102 231 228 228 102 225 226 102 102 225 225 101 225 225 100 100 225 225 98 225 225 14 96 225 15 15 221 225 16 16 220 163 16 219 219 16 16 219 77 15 219 219 65 225 220 54 51 232 220 39 225 225 30 26 225 225 28 232 225 5 12 235 225 4 238 225 69 3 241 70 3 223 223 70 4 223 9 69 246 224 11 7 246 23 16 244 225 23 249 243 23 25 249 241 23 249 225 50 23 248 224 23 247 247 43 28 245 245 40 230 242 37 37 228 36 35 226 226 34 34 225 24 24 224 224 23 94 224 23 23 226 224 23 225 225 23 23 224 224 23 224 224 32 32 223 222 32 225 221 33 33 226 220 35 226 226 36 36 226 24 39 227 227 25 43 227 25 25 196 227 26 27 182 28 28 169 164 31 154 149 79 34 133 129 92 156 116 101 105 105 102 114 229 229 121 124 228 229 130 229 228 63 135 229
244 246 40 6 244 222 34 180 244 29 4 192 178 24 200 244 177 20 208 175 72 236 213 172 81 222 170 169 234 222 166 166 234 11 163 233 233 9 233 232 8 7 232 232 7 213 212 8 9 210 231 14 207 206 154 34 204 153 153 201 200 153 152 198 152 152 229 229 150 149 228 145 144 228 228 151 130 228 155 157 227 228 160 203 227 161 160 208 227 154 213 215 49 134 221 223 39 227 229 35 34 234 32 31 229 239 29 28 231 221 27 232 233 26 26 235 65 66 238 239 67 67 241 67 67 246 244 67 246 246 225 65 246 245 225 8 244 23 23 243 243 23 248 242 23 23 248 225 23 248 248 226 23 247 43 226 45 246 40 23 56 225 37 228 240 224 35 226 224 34 49 225 224 56 224 226 223 67 224 23 75 78 221 23 87 90 217 100 224 213 212 105 217 208 109 111 214 201 115 210 209 120 121 204 34 125 199 196 138 226 190 187 141 172 179 142 143 166 143 143 161 160 144 144 156 149 145 153 152 152 146 150 154 155 111 147 156 102 99 158 158 90 88 159 83 80 146 160 73 72 146 85 66 145 145 81
7 7 244 222 5 5 244 35 4 244 244 29 4 244 50 3 204 244 65 222 244 173 76 222 244 82 222 222 168 88 222 222 164 233 222 4 96 233 222 5 232 223 8 5 236 7 6 211 233 9 7 231 154 19 205 228 102 46 201 153 101 199 198 152 229 196 151 150 228 225 147 228 228 146 138 228 225 152 228 228 156 16 227 227 159 204 227 156 154 211 55 141 216 218 43 114 224 37 36 229 231 32 39 235 30 29 229 240 27 231 231 26 26 233 234 62 235 236 63 64 239 239 64 246 242 64 64 246 244 63 245 245 62 61 244 23 59 244 243 22 23 242 23 23 248 240 22 22 248 23 23 247 247 23 246 246 41 23 245 244 38 56 241 36 36 227 237 34 226 226 224 33 225 224 32 224 224 23 32 224 23 23 79 224 23 23 225 213 23 224 224 207 23 223 31 23 112 222 32 116 222 205 33 122 220 35 135 128 192 36 227 227 182 140 227 25 170 143 227 26 144 144 156 27 145 153 151 151 146 149 32 154 147 146 156 128 103 144 158 94 110 159 159 83 146 160 76 74 146 161 68 145 145 63 62 145
180 246 47 44 245 244 39 179 242 34 32 191 194 28 199 202 176 24 207 209 173 212 213 171 170 215 169 168 234 217 165 164 234 14 162 233 233 11 160 232 10 9 232 232 8 8 231 8 8 209 231 11 206 205 224 26 203 202 152 10 199 152 152 11 197 151 228 195 223 148 228 222 143 97 228 221 129 228 225 220 92 227 155 156 88 225 154 206 83 225 142 213 225 225 15 221 225 14 13 219 225 11 233 219 33 9 220 28 230 7 221 16 232 221 221 11 225 221 9 8 225 222 7 225 225 7 7 224 61 4 224 224 5 244 224 224 7 224 224 8 9 224 10 11 224 224 13 14 225 28 16 225 225 35 37 225 41 44 224 225 51 224 224 23 63 223 223 70 235 223 45 78 223 223 55 229 222 63 65 219 221 75 217 216 31 87 212 97 31 225 206 103 108 225 23 109 225 194 24 116 205 24 121 200 198 23 219 191 136 24 216 182 140 212 211 43 142 204 160 49 227 192 55 144 227 150 65 228 148 32 77 228 35 155 228 228 39 158 228 43 44 104 228 49 50 94 54 55 88 87 141 84 84 145 146 81
54 7 243 245 46 172 244 40 38 185 244 36 193 196 176 52 203 244 174 237 210 172 75 236 170 169 235 222 166 166 234 16 163 234 233 14 4 233 12 11 216 232 9 213 213 9 8 211 210 9 208 207 153 15 204 203 153 201 201 152 152 229 197 151 229 228 151 150 228 130 147 228 228 141 137 228 146 148 227 227 151 152 199 153 153 203 204 148 207 208 52 131 214 215 41 219 221 36 35 227 229 31 227 233 29 28 228 229 27 229 230 54 26 231 55 56 10 234 57 57 236 224 58 245 239 58 58 245 224 58 244 244 23 5 243 23 23 7 242 23 247 9 223 23 247 239 224 24 247 224 22 246 246 41 35 245 39 38 44 224 37 229 55 223 35 227 223 223 39 226 222 33 48 221 222 55 224 219 85 67 216 23 89 79 211 93 225 207 206 98 224 201 103 104 211 195 109 111 206 115 117 201 200 130 195 194 134 135 187 184 138 165 175 140 140 160 164 142 155 154 143 144 151 149 150 148 147 153 153 144 154 155 110 142 157 157 98 41 158 89 87 47 101 79 145 161 73 71 145 140 65 145 145 142 59 145
6 247 53 52 169 222 44 178 181 222 37 190 175 222 3 200 174 28 206 243 171 3 212 170 169 235 243 167 234 234 243 89 234 17 242 93 233 14 95 96 223 11 98 232 223 6 99 224 9 7 233 224 7 204 230 224 9 228 152 10 10 226 152 11 225 225 99 13 224 223 98 222 222 96 96 225 95 95 225 148 93 92 225 17 89 225 225 17 84 225 17 17 225 225 16 217 217 14 14 218 218 12 218 219 36 9 219 219 25 239 219 18 16 220 220 12 224 221 9 9 224 3 7 224 224 3 7 224 3 3 242 224 4 5 244 53 6 222 224 50 241 223 48 9 239 223 21 237 224 23 26 235 224 31 245 232 23 39 223 230 23 241 223 23 23 237 34 36 234 233 32 44 230 32 51 224 228 31 62 214 31 31 224 210 31 225 225 23 31 225 225 23 223 225 23 23 223 226 24 222 222 24 24 220 193 24 219 218 36 24 216 39 39 212 210 43 45 227 48 50 227 227 56 59 228 30 68 228 228 33 228 228 36 37 228 228 41 118 114 44 46 104 101 50 96 93 138 56 88 146 148 84 83 152 154 81
63 60 163 246 53 50 175 46 44 184 187 39 192 195 173 33 202 204 172 3 209 170 170 213 214 168 235 235 165 164 234 234 162 234 233 17 159 233 15 14 96 232 11 11 98 223 9 210 231 224 9 206 153 12 203 202 152 9 199 151 151 10 197 151 229 12 224 149 228 193 223 97 228 133 136 95 227 141 94 227 225 146 90 225 145 18 87 225 136 206 225 225 17 213 225 225 15 217 34 14 13 217 45 11 218 218 32 8 219 24 21 219 219 15 230 220 11 10 224 220 8 8 224 3 7 224 224 3 224 224 3 4 224 224 5 222 224 6 6 222 224 8 222 223 18 10 223 21 22 223 223 26 28 223 31 33 223 223 40 42 223 23 50 223 222 23 60 222 36 38 231 221 45 218 221 31 55 214 219 64 224 209 31 76 205 204 31 225 199 95 31 225 23 102 207 226 24 110 201 24 24 221 194 24 123 219 35 24 217 178 137 25 213 41 140 154 206 47 227 148 52 55 228 145 63 228 228 32 76 228 139 36 228 228 39 158 228 42 44 110 83 48 50 98 135 54 91 89 146 59 85 153 155 83 81 159
6 6 223 223 10 12 222 4 20 222 222 4 37 222 3 3 243 222 3 243 243 3 3 243 243 3 243 243 84 3 243 243 89 217 242 92 93 216 241 95 223 223 156 97 223 6 99 231 224 6 100 224 10 8 230 224 9 9 229 32 10 227 228 64 195 225 99 98 193 223 98 193 193 138 96 193 221 94 227 195 103 92 225 198 78 226 225 18 57 226 121 17 226 226 95 16 226 74 68 223 226 56 12 229 49 48 233 218 46 237 238 25 18 240 240 24 231 241 24 24 233 242 23 235 236 23 23 238 239 22 240 241 50 23 242 48 48 241 244 46 46 239 45 44 238 237 42 41 236 23 40 234 233 23 232 231 23 23 242 229 23 239 238 23 23 236 234 23 232 232 32 23 229 229 31 228 227 31 31 226 31 31 225 225 31 31 225 23 31 225 225 23 31 225 23 24 114 226 24 222 226 172 24 221 226 24 126 218 36 24 216 215 40 138 210 44 46 144 201 51 228 148 134 61 228 125 121 144 228 34 85 228 137 38 145 228 42 43 145 135 48 103 145 136 161 93 136 137 161 87 138 162 162 57 162 162
173 161 173 173 245 172 172 244 243 50 172 241 240 42 240 239 37 37 238 237 34 210 236 31 31 214 29 28 216 216 162 25 216 160 159 216 216 158 157 215 156 155 232 212 155 154 231 153 153 230 230 152 230 230 12 13 229 229 23 197 229 40 48 195 228 74 193 193 225 103 192 143 118 16 192 131 130 193 220 108 226 195 89 83 226 218 66 226 226 216 49 226 103 41 73 226 76 65 226 225 57 225 226 49 11 231 225 44 235 236 224 7 238 24 224 4 219 24 3 4 219 23 3 219 219 7 236 220 23 7 224 220 8 241 224 221 10 224 45 12 12 224 7 15 223 223 9 18 223 11 12 221 223 14 15 220 17 18 220 23 21 220 219 47 26 218 217 56 226 215 63 64 220 213 69 219 218 73 74 217 216 78 215 214 76 83 211 87 90 224 208 100 102 204 31 111 177 175 118 120 170 115 126 165 163 124 227 158 130 131 227 152 137 160 227 26 143 147 144 27 195 135 143 151 180 122 144 166 113 83 144 146 95 145 228 126 112 145 134 125 128 228 134 160 143 228 56 161 228 228 61 84 228 66 162 81
171 6 223 223 171 245 223 4 4 242 223 4 242 240 44 3 242 40 39 207 243 36 3 212 165 33 214 243 163 30 215 161 88 233 216 158 92 222 156 156 232 223 154 232 231 12 153 231 230 10 230 230 10 8 229 230 14 199 228 24 29 195 150 48 194 193 149 80 192 146 145 191 191 137 134 192 125 119 226 226 101 94 226 131 76 226 226 123 226 226 109 104 226 226 84 212 226 66 61 220 226 50 225 227 27 43 231 26 26 235 235 25 25 238 25 24 229 240 24 23 231 219 23 233 234 23 23 236 46 46 238 239 45 241 240 45 44 240 242 43 238 238 223 41 237 236 40 9 234 23 23 233 219 23 242 231 23 23 240 218 23 238 237 217 23 235 32 214 56 231 31 23 63 218 31 225 227 216 57 225 214 31 69 225 212 78 225 189 208 92 226 23 101 104 177 24 112 171 170 110 222 164 24 119 181 158 125 218 170 152 133 162 41 139 140 150 47 145 141 137 142 228 128 143 143 136 116 144 144 134 144 144 133 133 145 145 132 159 145 133 132 160 228 133 161 161 66 135 161 61 59 161 162 56 54 162
169 162 241 169 246 173 169 169 244 241 169 241 241 242 168 240 45 242 59 238 40 209 70 222 37 213 235 222 3 215 222 32 3 216 222 4 215 242 222 4 214 155 5 5 238 153 231 237 236 99 230 234 233 99 224 230 100 99 224 228 99 225 35 99 99 225 13 192 225 225 15 191 225 16 16 221 225 17 18 219 18 18 218 218 19 19 217 86 19 216 215 80 225 215 74 72 225 215 64 225 225 54 51 225 225 41 225 225 9 29 224 7 6 228 224 5 4 217 42 3 218 218 43 3 218 8 3 241 218 7 3 218 22 8 240 219 9 241 238 23 11 223 223 23 243 223 8 23 243 223 11 243 242 36 13 241 34 16 229 239 33 21 215 23 32 226 212 51 32 226 23 58 225 225 23 64 225 23 23 226 225 23 225 225 23 23 224 207 31 224 223 31 100 223 223 31 226 223 32 32 227 33 33 227 227 35 36 227 25 38 227 227 26 26 227 27 27 204 228 29 29 192 30 31 180 176 34 166 161 88 37 145 140 105 228 125 119 123 228 110 135 228 228 147 150 228 57 159 228 229 62 168 228 66 67 228
167 167 247 247 167 167 245 69 167 243 242 58 241 240 52 50 239 239 46 207 237 43 42 212 213 40 214 214 161 37 215 215 159 215 216 157 156 215 156 155 232 212 154 153 231 15 152 231 231 11 151 230 9 9 229 229 11 198 229 17 20 194 228 35 192 191 225 62 191 190 143 16 190 136 132 17 191 118 226 192 219 92 226 217 74 88 226 216 54 226 225 215 79 225 74 69 70 225 55 217 59 225 13 224 225 40 10 230 224 8 233 215 224 6 236 24 15 4 216 23 230 3 217 9 232 217 217 8 224 217 8 8 223 218 8 223 223 9 9 223 40 5 223 223 7 235 222 8 9 217 222 11 11 216 13 13 215 215 16 18 214 35 21 212 211 44 46 209 50 51 217 205 56 216 215 23 62 213 213 66 225 210 66 72 208 206 79 224 203 89 92 174 31 102 168 167 31 113 161 107 120 227 155 117 128 151 24 126 227 146 133 135 152 27 140 144 140 28 201 131 141 30 188 119 143 176 171 82 144 156 100 99 228 135 113 144 228 46 131 228 131 51 147 228 55 161 228 228 60 161 228 63 65 82 228 68
5 6 239 239 8 5 240 15 17 240 240 29 241 223 41 45 223 51 57 222 222 3 69 222 222 3 222 222 3 3 222 222 3 242 222 4 4 242 155 4 241 240 95 5 239 97 97 208 236 98 98 234 151 99 224 231 99 99 224 10 100 225 225 12 228 225 14 14 227 225 15 223 225 89 17 220 225 18 190 219 110 19 217 217 89 195 215 85 85 199 47 80 225 205 37 73 225 33 31 225 225 29 54 226 39 27 226 224 37 231 226 37 7 234 227 38 236 215 39 39 238 215 40 238 239 23 40 239 239 23 235 239 23 8 237 23 23 239 223 23 23 241 38 23 241 242 37 23 242 36 35 241 241 34 230 230 34 33 228 228 33 227 227 23 32 226 226 23 226 226 23 23 225 225 23 227 225 23 23 225 30 23 225 225 30 23 224 30 31 224 224 31 31 223 31 31 227 223 32 227 227 177 33 227 227 24 227 227 25 26 227 227 27 212 228 28 28 204 228 30 196 192 132 33 180 76 80 155 161 93 97 145 92 111 228 126 125 130 228 76 142 228 228 68 143 228 58 61 143 229 63 84 143 136 67 81
7 165 162 95 172 239 163 180 183 163 23 190 193 163 240 199 163 163 238 207 162 237 237 161 161 236 46 45 235 234 43 41 234 39 38 215 233 33 32 214 28 26 212 211 20 18 208 151 14 206 205 151 230 201 150 150 229 197 150 228 228 149 149 228 228 148 227 227 52 144 227 69 75 189 226 89 93 189 98 100 190 191 103 103 193 66 98 196 197 49 84 200 41 39 18 206 34 225 225 212 29 225 225 27 49 225 37 26 226 226 36 28 226 36 36 20 223 37 236 14 223 38 237 23 223 3 238 23 39 3 214 23 3 237 215 23 4 215 23 239 5 215 10 240 36 214 12 241 35 15 15 220 34 18 240 220 14 24 219 32 17 218 218 21 227 217 216 26 201 23 32 34 196 23 41 192 190 57 51 186 184 62 181 179 67 69 174 73 75 196 166 82 84 190 103 92 185 182 113 104 176 121 122 169 167 128 143 159 132 133 138 148 136 136 135 141 138 133 132 148 228 130 151 151 228 128 154 103 128 38 156 93 42 158 86 83 47 158 77 144 144 103 69 143 143 93 167 143 132 57 177 228 135 182 142 228
223 110 168 238 8 5 178 238 16 186 239 161 31 196 161 43 239 203 161 59 222 160 160 237 222 159 159 235 49 3 235 222 44 215 233 40 4 214 232 33 213 241 27 25 210 239 19 207 206 150 98 203 202 150 229 199 150 150 229 149 149 228 228 148 148 227 33 146 227 227 55 139 226 71 75 187 226 87 189 189 93 94 191 191 94 193 194 56 85 197 198 42 201 202 36 35 206 208 31 225 225 28 28 225 37 26 225 225 35 25 226 35 35 226 227 35 35 227 36 36 236 236 37 237 237 23 37 237 237 23 3 237 23 23 237 236 23 237 236 23 23 239 235 23 240 240 35 23 240 34 34 15 239 33 33 20 219 32 228 236 217 32 227 216 31 23 226 214 28 226 195 23 35 226 23 226 45 184 23 225 56 178 60 225 173 23 68 224 166 74 224 189 31 84 185 31 108 96 177 32 227 170 168 123 227 161 158 130 138 150 133 134 134 136 137 132 131 144 139 129 148 150 128 128 152 176 126 154 156 96 126 156 157 87 158 158 80 78 159 73 72 143 143 66 64 143 130 59 142 142 133 54 142 136 136 187
120 167 223 111 174 176 100 96 183 158 86 191 194 158 74 200 158 159 239 207 159 237 237 240 158 236 236 241 79 235 51 156 85 234 45 88 233 40 38 92 222 32 211 210 223 23 208 151 223 7 204 150 12 8 232 149 9 196 230 149 11 228 148 98 227 225 97 227 225 223 96 226 56 95 95 225 74 93 92 225 19 90 225 225 20 225 225 20 20 212 225 20 211 211 19 19 209 31 17 209 209 60 15 209 209 48 209 209 39 37 209 32 29 223 223 22 21 223 5 16 223 223 4 12 223 3 3 231 222 3 211 222 3 3 211 211 3 211 211 9 4 210 210 10 234 210 11 11 232 208 13 219 207 23 17 218 23 21 236 216 16 27 215 31 21 231 213 25 26 229 31 32 188 227 30 226 182 30 30 226 175 30 226 226 23 63 226 163 24 224 227 24 79 223 227 24 222 175 24 24 222 33 25 221 220 36 127 219 38 39 227 215 43 136 228 50 52 228 128 60 228 228 34 75 228 228 37 228 228 40 41 145 228 44 130 126 48 49 113 109 52 103 100 164 57 93 173 176 88 86 183 185 83 188 189 228
153 125 170 173 154 111 180 154 155 187 189 156 242 196 156 156 240 204 157 238 238 65 157 237 236 60 236 235 57 56 235 234 53 215 233 48 46 214 42 40 212 211 151 31 209 150 150 206 205 150 150 202 149 149 229 197 149 229 228 148 149 228 228 148 227 227 23 27 227 227 39 186 226 53 57 186 226 68 187 187 225 77 188 74 78 190 191 54 72 194 44 42 225 199 35 34 225 208 30 225 225 208 58 225 35 26 47 225 33 38 225 224 33 229 226 33 6 232 223 34 234 234 223 4 235 23 222 3 209 23 3 3 209 23 3 209 209 9 236 208 23 9 220 207 10 238 34 11 11 219 33 13 14 217 11 17 216 216 14 22 215 17 18 194 212 21 226 190 26 28 186 23 34 181 180 44 43 175 173 50 170 168 54 56 193 162 61 189 187 68 71 183 94 78 178 175 105 90 169 113 116 221 161 122 123 153 36 128 132 132 132 133 129 137 136 128 127 144 228 126 148 149 228 124 152 102 228 39 155 93 123 43 140 84 142 158 121 144 142 109 69 142 142 97 170 142 129 89 181 142 132 188 189 228 135 160
7 170 223 223 6 179 223 5 5 236 152 4 195 153 36 4 237 154 238 238 238 62 237 239 239 73 222 240 79 80 222 241 84 222 222 4 89 222 46 5 222 223 5 210 223 6 6 238 223 7 7 236 8 9 233 232 98 11 231 98 98 228 228 97 225 226 97 97 225 223 96 225 225 131 94 225 225 93 226 225 20 20 225 225 21 213 225 21 21 210 61 20 208 208 50 19 207 71 41 207 206 62 16 214 26 51 224 206 43 225 224 25 32 223 223 24 226 223 5 24 227 223 3 228 228 34 3 207 222 34 235 206 34 3 234 23 34 234 206 23 34 233 23 9 232 232 23 10 231 23 23 237 216 23 236 236 31 23 234 234 31 232 232 31 31 230 229 30 226 228 30 30 226 226 30 226 226 23 30 226 23 23 226 226 24 24 227 24 24 224 227 24 24 223 24 24 223 223 32 222 222 33 34 221 221 36 227 219 39 40 228 215 45 228 227 51 54 228 228 63 228 228 35 36 228 37 38 166 228 42 43 145 123 45 130 126 49 50 113 156 54 103 100 171 159 93 179 182 228 86 188 227 228 50 194 227
248 140 173 175 223 128 182 148 148 5 191 150 150 198 236 151 240 205 152 152 238 237 152 237 236 239 74 235 66 240 82 234 61 214 86 222 54 213 232 222 5 211 223 38 6 208 223 7 204 149 223 9 235 149 10 10 232 148 228 230 229 98 227 227 146 97 225 225 96 227 225 95 95 225 42 94 93 225 20 91 225 225 21 187 225 21 21 210 225 21 21 208 20 20 206 206 19 205 205 67 17 204 204 58 224 203 49 47 224 203 39 223 223 32 29 223 6 24 223 223 4 17 222 4 4 228 222 3 3 204 34 3 204 203 34 3 203 8 4 233 202 8 232 201 9 9 231 199 10 216 230 23 12 214 215 23 234 213 13 19 232 31 17 231 208 30 22 228 30 27 226 227 30 34 169 23 30 226 163 43 30 226 23 48 227 227 24 224 227 24 24 223 227 24 223 223 25 25 223 160 33 221 221 35 122 220 37 38 228 217 42 44 228 48 50 228 228 58 62 228 34 73 228 228 37 152 228 40 41 155 228 44 140 135 47 48 121 117 52 109 106 166 56 97 95 179 228 89 187 189 228 193 194 227 227 197
223 7 249 223 6 6 247 223 5 233 223 4 4 234 102 4 235 235 89 3 236 60 64 212 237 71 73 214 151 79 222 240 151 234 222 151 88 233 222 150 232 223 44 150 231 223 6 205 230 24 8 236 229 15 197 233 11 10 193 148 9 190 189 146 12 187 144 143 185 185 138 95 226 128 123 226 225 108 226 225 51 83 225 225 55 225 225 55 54 225 225 50 194 195 44 42 200 203 38 204 206 28 34 211 26 26 216 217 25 25 222 24 24 225 226 24 24 226 31 24 226 227 32 227 227 32 32 228 228 33 233 230 33 33 233 231 33 233 232 33 33 232 232 23 231 231 23 23 230 23 23 235 229 23 23 234 188 23 233 232 23 23 230 30 23 229 228 30 226 227 30 30 226 226 30 227 226 192 30 227 227 186 57 227 24 30 70 227 24 224 227 140 24 223 137 25 78 223 133 25 222 152 129 103 221 36 127 117 136 41 125 128 127 133 228 119 117 136 228 110 138 138 120 101 139 228 40 140 140 120 44 141 141 120 157 141 121 122 158 69 123 158 158 62 125 158 58 56 158 158 52 195 159 48 48 138
138 249 152 139 248 248 141 141 246 130 126 244 243 114 110 203 103 99 207 208 89 211 211 149 80 213 213 149 3 215 150 150 215 214 150 233 233 150 150 232 54 149 231 231 42 149 230 33 29 96 229 21 19 97 224 13 194 228 224 9 190 147 9 14 187 144 16 185 224 139 18 183 130 94 19 219 112 226 20 216 90 225 213 212 88 225 50 84 84 225 47 80 225 43 21 75 225 38 201 224 224 18 208 224 224 15 198 25 12 12 198 40 9 198 198 31 7 197 25 23 198 198 19 227 197 15 15 221 197 12 220 220 3 10 219 219 4 218 218 4 4 217 217 5 192 215 6 6 190 214 7 188 187 31 10 184 14 15 228 180 18 18 176 23 22 202 171 25 26 198 23 29 194 193 23 225 190 42 23 225 184 53 148 224 30 66 143 174 76 227 138 30 89 134 133 31 227 130 81 33 227 26 96 144 227 27 110 135 28 28 216 126 30 133 211 56 33 204 110 69 196 193 83 138 180 176 103 228 119 119 124 228 119 139 228 228 51 157 228 228 55 228 228 57 58 228 59 61 88 227 63 63 83 199 65 81
165 7 249 249 155 6 247 146 143 192 245 131 198 200 141 114 205 233 144 209 209 145 62 212 213 147 236 214 148 148 235 149 149 234 234 149 149 233 62 60 232 232 52 49 231 43 40 204 230 30 26 199 20 18 196 195 12 193 191 147 9 188 187 145 227 185 143 141 226 183 136 226 226 125 121 226 30 105 225 225 38 81 225 42 44 186 225 45 45 189 43 43 192 193 39 39 197 31 35 201 203 28 17 208 26 26 14 214 25 225 225 194 24 225 225 24 31 225 30 24 226 222 31 19 227 31 31 15 220 31 231 11 219 32 232 23 32 4 231 23 31 231 189 23 5 230 23 9 7 184 23 233 8 180 12 232 31 176 15 231 30 17 18 201 30 21 198 197 24 24 193 30 30 190 188 37 227 184 183 47 146 24 55 59 141 24 68 138 136 51 82 133 58 61 130 130 71 74 127 81 85 145 124 97 101 137 123 112 130 128 128 215 121 131 133 114 112 134 118 105 137 137 118 97 138 117 117 112 139 118 118 155 228 119 156 156 120 52 157 67 121 157 157 61 58 157 56 55 61 157 51 138 137 82 47 137
6 249 167 131 7 248 157 190 247 223 144 197 243 131 4 204 223 114 208 232 223 4 212 143 223 4 235 146 235 4 237 147 234 238 239 86 233 240 89 90 223 240 92 231 223 94 94 223 37 96 96 223 10 197 224 224 11 192 224 13 13 230 224 15 227 227 17 17 225 137 19 222 221 93 20 219 218 91 225 214 89 89 225 68 87 225 225 84 83 225 22 80 225 225 21 75 225 20 20 195 224 18 18 193 31 16 192 192 13 216 191 43 11 191 190 35 224 190 29 27 227 190 22 221 221 23 16 220 3 23 228 219 3 11 229 31 3 230 216 31 4 231 31 5 230 232 31 6 180 9 31 228 176 10 228 228 23 13 228 169 23 229 227 23 18 228 227 23 227 191 30 23 226 30 34 225 225 30 44 225 29 29 227 224 29 29 227 30 30 227 227 31 31 227 25 25 227 228 26 222 228 27 27 221 228 28 220 219 29 29 216 215 31 212 211 59 34 204 70 75 228 193 89 94 228 105 111 228 228 126 132 228 48 146 228 228 52 164 228 54 55 102 228 57 95 92 59 60 88 86 62 83 83 201 65 81
248 125 249 249 170 167 248 163 159 194 245 149 144 202 223 131 206 207 118 113 210 139 101 213 214 142 4 214 144 145 235 214 146 234 234 238 147 233 232 147 90 232 61 148 231 230 48 94 230 37 33 96 223 23 195 193 224 13 190 146 224 14 186 144 8 16 226 140 18 182 223 94 20 220 119 92 225 216 90 225 225 212 88 225 35 85 85 225 37 82 81 225 22 78 225 225 21 225 225 20 19 191 224 17 190 26 15 14 188 25 12 187 187 41 9 186 34 32 186 186 27 25 185 22 20 220 220 17 16 219 4 13 218 217 3 10 216 4 4 215 214 4 179 213 5 5 176 175 6 173 172 9 8 169 168 11 227 165 13 13 227 23 16 195 157 23 18 190 23 20 226 184 30 23 180 29 38 225 175 45 48 225 29 57 133 224 30 228 129 30 30 228 126 31 228 228 26 67 227 121 78 222 228 28 94 130 29 30 218 123 30 32 214 54 33 209 207 68 134 199 82 87 228 184 103 137 228 119 125 228 116 140 228 228 50 158 228 228 53 227 227 56 57 97 227 59 90 89 61 62 85 200 63 82 81 204
223 7 223 224 7 8 223 225 11 223 223 18 21 223 5 32 223 223 4 4 223 4 4 231 223 4 4 233 90 4 235 235 83 215 237 85 5 212 239 89 210 239 147 92 223 239 94 230 223 147 96 223 223 147 228 224 12 146 228 12 14 227 224 9 16 227 9 18 182 224 11 20 221 122 16 180 217 91 181 181 84 88 182 182 62 225 184 50 47 225 225 39 225 225 34 33 224 225 32 225 224 31 18 224 30 30 208 224 30 29 214 30 30 218 219 24 29 222 24 24 224 225 23 226 227 23 23 226 228 23 227 227 23 23 228 228 23 229 229 31 31 230 230 31 229 231 30 30 228 30 30 228 228 30 30 227 23 30 227 227 23 23 227 23 23 227 227 23 226 226 23 23 225 225 24 225 225 29 24 225 225 29 28 225 29 30 228 224 30 228 228 151 31 228 26 31 97 228 26 33 228 119 28 114 228 29 30 121 116 31 216 215 115 126 211 63 36 137 202 80 143 193 94 101 148 176 118 136 152 82 139 228 228 75 138 228 52 69 138 119 56 138 138 122 58 137 124 125 156 136 128 62 155 132 133 155
223 188 7 249 184 191 8 223 175 197 15 223 5 203 223 148 4 209 223 4 212 228 134 4 230 137 69 4 232 140 235 234 235 82 234 236 237 87 223 238 90 90 223 239 92 223 223 8 95 223 9 10 223 223 11 192 224 13 13 232 224 15 15 228 16 17 226 225 95 224 223 94 93 220 219 92 225 215 90 89 225 210 87 225 225 58 84 225 225 81 225 225 22 22 225 32 21 188 225 20 20 184 30 18 182 182 30 15 180 53 13 213 178 44 218 177 24 36 222 176 30 225 220 23 24 219 219 23 226 218 4 23 227 215 4 228 228 30 4 169 30 30 228 166 30 5 228 23 30 228 160 23 30 227 23 11 227 227 23 228 227 23 23 227 186 23 226 226 29 24 226 176 29 225 225 29 37 225 225 29 228 225 29 29 228 30 30 228 228 25 31 228 25 26 228 228 26 27 228 27 27 222 228 28 221 220 30 31 218 217 49 215 214 58 61 209 207 73 228 199 88 94 228 184 110 228 227 127 132 227 48 147 228 228 51 52 228 53 54 109 227 56 57 97 122 59 90 89 60 86 85 202 62 82 81 204
109 7 223 190 111 7 223 113 114 246 223 5 245 244 161 5 242 223 140 212 239 124 4 214 237 107 215 230 98 95 215 139 89 214 214 142 85 212 144 144 232 209 145 92 231 146 145 230 223 146 146 229 37 145 228 228 21 228 227 14 12 185 227 9 183 182 8 8 180 180 9 179 179 119 13 179 105 99 179 179 82 77 225 66 61 225 225 50 47 225 30 39 224 224 31 33 224 31 31 224 224 30 199 224 29 29 205 206 29 209 211 25 29 215 216 25 218 219 24 24 222 23 23 225 224 23 23 226 168 23 226 227 30 23 227 30 30 11 228 30 30 229 208 30 228 229 30 6 228 201 30 228 228 23 9 227 23 23 11 227 23 227 15 142 23 226 138 138 15 226 135 24 16 168 131 18 225 29 29 20 159 29 228 24 153 30 228 149 148 73 228 144 83 86 117 138 95 228 116 103 105 115 29 78 114 114 92 219 113 113 110 112 112 121 125 104 112 134 99 97 140 142 92 90 134 87 85 135 135 80 78 136 114 74 136 136 116 173 136 117 119 136 136 121 154 135 123 124 155 155 128 155 154 47 133 154
199 189 191 105 8 195 107 108 6 220 111 246 5 221 115 243 222 223 41 240 225 124 55 223 117 65 236 223 101 74 223 94 5 81 223 6 212 223 223 6 209 223 7 7 238 223 8 201 238 95 10 238 145 96 236 235 97 228 233 232 97 224 230 96 95 224 226 95 224 225 94 93 225 225 22 225 225 22 23 225 23 23 205 225 23 23 199 26 23 193 192 23 23 187 76 75 182 181 72 225 178 68 67 224 173 62 224 224 25 55 223 223 25 224 222 10 42 225 221 7 165 220 29 6 163 29 4 225 162 29 4 161 16 30 227 159 13 30 227 23 10 228 154 23 228 203 23 9 229 198 23 229 194 30 23 228 189 11 227 227 29 14 227 226 29 227 134 29 29 228 24 29 228 228 24 29 228 24 24 228 228 24 20 228 25 25 224 228 25 224 223 31 26 223 223 32 222 222 34 34 222 222 37 228 221 41 43 228 218 49 228 228 58 61 228 37 38 228 228 41 41 228 43 44 180 227 46 47 160 48 49 145 139 51 129 125 172 175 112 108 183 227 99 191 193 227 90 198 226 226 202 203 225 224 204 224
190 98 249 194 100 101 249 103 103 247 247 106 107 244 176 111 242 242 156 117 239 139 132 238 237 117 216 216 105 102 215 215 94 214 214 139 87 212 211 141 7 208 143 143 205 204 144 230 229 144 145 229 45 144 228 228 27 144 228 17 15 96 227 11 10 95 224 8 179 226 225 21 178 117 11 22 177 97 23 178 81 75 24 179 61 225 23 195 47 224 183 187 79 224 182 34 74 225 29 70 224 224 30 66 224 29 17 60 224 29 208 223 223 12 214 222 10 9 160 24 7 6 158 31 5 157 157 24 5 155 20 19 154 153 16 226 152 13 12 207 149 11 204 203 5 9 199 198 6 195 194 7 8 190 188 10 137 184 11 13 134 29 15 132 131 29 19 128 12 13 228 126 13 14 124 14 15 154 121 16 17 149 25 19 145 144 25 224 141 72 29 223 136 84 114 132 33 95 113 127 103 228 111 39 111 111 32 46 228 111 103 57 228 37 119 101 228 40 133 95 42 43 188 88 45 146 171 137 48 155 77 156 139 134 167 134 120 116 179 227 118 187 190 226 121 195 226 226 60 201 225 61 62 224 224 63
223 9 214 214 8 8 214 97 7 215 216 15 6 217 23 26 223 219 38 42 223 50 54 223 223 63 66 223 5 72 223 223 6 234 223 6 6 233 223 7 235 236 8 8 237 238 9 238 238 94 11 238 237 96 191 236 96 96 186 142 96 224 224 139 95 224 19 94 226 224 20 93 225 9 22 225 225 23 177 225 15 24 203 225 20 178 194 82 24 181 186 79 183 184 35 75 187 174 31 224 192 29 68 224 27 27 224 224 26 25 224 28 13 224 225 29 10 225 29 29 218 225 29 220 221 29 29 222 150 29 224 225 23 18 225 226 24 226 226 24 24 227 226 24 227 227 23 23 227 29 24 228 227 29 24 227 29 29 227 227 29 29 227 29 29 227 227 29 227 227 24 29 228 228 24 228 228 25 25 228 228 25 224 224 25 26 224 224 26 224 223 31 27 223 32 32 222 222 34 35 222 37 38 228 221 43 44 228 34 52 228 228 37 124 228 39 40 127 228 42 196 227 109 45 180 227 47 146 160 150 50 144 139 166 151 124 175 178 152 64 185 227 152 59 194 226 55 54 131 225 50 203 130 131 62 129
86 87 249 199 89 249 249 213 92 247 247 214 16 245 190 100 28 242 171 214 240 223 146 216 223 128 5 216 223 109 215 227 223 6 214 134 223 7 233 138 232 8 236 141 231 237 237 93 230 238 94 95 223 236 96 228 35 96 96 224 19 96 96 224 18 179 224 224 20 223 224 22 22 218 225 23 213 211 23 24 205 75 24 199 196 83 24 190 187 80 225 181 78 77 225 75 74 225 225 71 70 225 20 67 224 224 18 62 224 16 15 152 223 13 150 150 29 9 148 148 8 218 146 35 6 144 144 28 222 143 24 22 224 141 18 208 207 24 14 203 5 24 227 197 5 10 227 29 7 227 187 8 8 227 29 10 127 226 29 227 125 10 29 227 122 10 227 227 24 10 227 119 24 225 228 25 12 224 228 25 224 141 30 26 224 30 61 224 224 31 73 223 31 32 228 223 33 33 228 36 36 228 228 40 228 228 34 35 228 228 37 215 228 39 39 208 228 42 201 198 44 45 188 184 47 175 170 144 50 155 157 161 227 134 171 174 227 180 182 227 227 189 190 227 58 196 225 226 60 225 225 60 60 223 223 61
223 215 200 250 214 8 210 210 211 207 211 13 203 211 213 24 213 213 99 39 215 217 107 238 216 113 63 236 119 121 235 223 103 128 234 96 7 233 233 89 8 231 84 83 204 230 77 199 198 69 66 193 193 142 190 189 141 141 185 184 140 227 181 137 136 226 178 131 226 226 124 121 225 10 109 225 225 11 12 225 13 15 176 225 18 19 177 21 22 179 180 25 182 182 36 27 186 186 32 189 190 29 29 224 196 27 224 224 27 26 224 224 26 224 224 28 24 224 29 29 43 225 29 29 219 216 29 221 222 29 29 223 23 29 224 224 23 4 225 23 23 5 226 23 227 6 128 24 227 227 126 9 226 29 24 9 226 29 10 226 29 29 10 161 29 227 10 155 29 228 151 149 28 228 25 29 35 113 25 42 228 112 13 52 111 26 17 63 110 20 223 110 109 27 223 33 33 36 121 36 45 48 116 106 61 113 111 113 108 107 118 119 102 101 123 107 96 125 126 108 45 128 108 108 140 129 109 144 145 110 111 148 148 112 149 150 68 114 150 151 63 57 151 59 58 129 152 54 129 128 83 49 127 131 46 126
218 249 250 218 204 250 216 216 208 223 212 210 211 223 202 213 90 223 6 215 98 99 5 216 105 237 217 112 114 235 222 120 234 234 226 81 233 94 230 86 232 88 89 90 223 82 200 230 223 11 194 223 62 13 236 223 15 185 234 223 17 231 137 18 19 228 132 226 224 223 92 225 219 217 90 225 211 89 88 225 86 86 225 225 83 83 225 25 81 225 225 24 181 225 24 24 162 225 23 156 155 22 21 150 149 19 147 145 62 17 142 142 57 207 139 52 51 220 136 46 219 218 41 39 216 6 34 213 212 5 27 209 5 4 225 204 5 4 127 29 5 126 125 29 226 123 11 7 226 122 10 227 121 23 10 227 119 10 225 227 24 9 158 157 24 225 152 20 24 225 29 26 224 224 29 33 224 29 29 229 224 30 49 109 30 30 228 109 17 228 228 28 22 228 228 30 222 228 32 32 222 228 33 221 220 36 36 218 107 58 216 214 70 120 210 85 91 227 201 108 114 227 125 131 227 227 145 150 228 51 162 227 227 54 128 227 55 55 111 227 56 101 98 58 58 91 89 59 86 85 200 59 82 80 202 79
221 221 205 206 221 220 208 74 218 211 211 78 212 213 81 83 215 215 87 90 216 93 95 239 238 102 237 236 127 112 235 235 109 234 233 100 98 233 233 93 208 232 89 87 203 137 82 198 197 139 73 193 140 140 189 187 139 139 184 138 138 227 180 135 134 226 226 129 226 226 9 92 225 10 10 225 225 11 174 225 13 14 175 225 16 176 176 225 20 178 44 225 24 181 37 36 24 156 32 224 188 148 30 224 144 28 65 224 139 27 224 223 135 57 224 28 11 51 220 28 214 45 217 7 217 215 213 6 220 210 5 5 124 205 5 123 24 5 5 121 23 226 120 120 13 226 119 118 11 177 117 10 10 170 116 10 165 163 9 9 158 15 9 152 151 18 228 147 22 23 111 141 28 30 109 33 35 109 109 41 108 108 10 51 108 108 13 126 107 16 17 123 107 21 120 120 31 29 117 116 37 221 113 103 51 109 50 111 217 104 115 117 105 78 120 106 106 100 123 106 126 124 227 107 137 227 228 51 142 227 109 145 138 227 54 148 69 67 56 107 63 128 57 95 58 127 89 88 198 125 83 200 200 221 80 200
223 11 223 224 10 9 224 9 212 223 223 7 214 74 7 7 207 80 6 6 210 42 6 212 213 57 7 215 65 68 218 219 75 223 222 80 82 223 96 85 223 223 10 90 223 223 11 223 223 13 13 223 14 14 236 223 16 17 234 95 18 232 231 95 20 228 94 94 175 222 92 92 217 111 90 225 209 88 225 225 80 85 225 225 25 224 225 25 25 224 225 25 163 225 25 24 154 27 23 186 145 28 22 140 29 28 195 135 64 63 201 27 59 222 206 25 54 220 25 25 224 217 24 224 224 29 24 224 210 29 220 225 29 5 222 225 29 223 117 29 29 224 24 29 225 225 24 29 226 24 24 226 227 24 24 225 24 24 225 155 25 25 225 29 25 225 225 29 224 224 29 29 224 224 29 228 224 29 29 228 229 30 229 229 28 30 229 28 29 229 228 30 31 229 31 32 222 228 33 34 222 40 36 221 220 49 38 218 58 63 215 214 76 227 210 92 98 227 200 116 227 227 86 138 228 228 51 126 227 52 52 227 110 54 127 227 55 56 110 114 56 100 97 118 57 90 196 58 150 84 199 199 81 48 199 218
247 226 210 250 223 226 213 249 225 8 214 66 220 215 216 71 7 217 76 78 6 208 84 239 7 211 93 237 214 215 70 235 218 111 234 223 102 82 232 96 9 87 223 90 202 91 223 12 196 223 223 14 190 223 15 16 235 223 17 181 232 95 19 230 132 94 226 225 93 225 221 218 91 224 212 89 88 225 203 87 225 225 84 84 225 25 25 225 225 25 25 225 25 25 154 225 24 24 145 27 23 139 137 21 21 132 67 66 129 128 63 223 125 60 58 221 122 54 219 219 25 48 216 215 24 224 212 6 37 208 29 5 115 202 5 5 113 29 5 112 112 29 6 112 15 29 225 111 13 8 226 24 12 226 109 25 225 154 25 9 225 147 25 225 142 29 25 224 137 23 224 224 29 30 224 29 29 228 106 30 30 228 28 30 229 229 29 30 229 30 31 228 229 32 18 228 33 34 222 228 36 221 220 46 38 219 218 57 217 216 70 75 213 211 90 227 205 108 114 227 126 131 227 228 145 150 227 52 52 227 227 53 53 227 55 54 118 226 55 56 102 56 56 94 92 57 88 87 197 197 82 82 198 219 79 197
198 12 249 223 11 10 223 224 9 249 223 8 8 247 223 7 203 244 207 7 205 223 186 218 208 54 7 218 93 66 217 215 104 75 214 112 80 232 210 121 85 223 126 128 231 223 131 230 230 83 14 229 228 74 187 228 61 57 181 227 40 179 231 26 22 176 226 14 174 174 119 11 173 110 106 225 172 94 89 225 81 76 225 224 65 61 224 18 51 224 224 21 224 224 24 24 224 224 26 184 185 27 28 189 190 28 193 195 28 28 199 200 27 203 204 26 26 207 25 25 224 224 25 25 224 28 25 224 224 28 24 224 29 29 225 225 29 222 225 29 29 224 225 29 225 225 25 29 226 226 25 9 226 25 25 227 227 25 225 227 25 25 225 106 25 224 224 105 26 224 29 29 6 224 29 29 6 125 30 228 224 122 48 228 120 30 58 229 118 66 228 104 32 76 228 34 19 86 103 36 221 96 103 35 220 103 103 51 103 103 65 214 98 104 87 94 106 118 108 89 129 227 85 84 122 227 80 123 123 107 75 123 124 109 124 124 111 112 123 123 114 147 148 117 118 148 88 122 149 149 52 127 149 48 47 149
223 223 12 215 223 223 10 198 224 9 218 199 223 8 200 60 7 7 202 30 7 204 204 45 7 207 56 59 223 210 67 70 223 75 76 223 223 81 223 223 10 86 223 223 12 230 223 13 13 223 223 15 235 235 17 17 235 234 18 233 233 95 21 230 94 94 174 225 93 92 173 116 91 224 224 102 88 225 25 86 225 225 26 224 225 16 26 224 225 25 176 224 22 25 145 224 25 181 135 72 27 185 128 70 190 123 29 67 195 29 64 224 201 27 61 221 26 26 224 218 26 25 224 28 8 224 224 28 217 224 28 28 219 224 29 221 222 29 29 223 105 29 224 224 25 17 225 225 24 225 226 25 25 225 25 25 224 224 25 25 224 29 26 224 224 29 26 224 29 29 228 224 29 228 228 29 29 228 228 30 228 228 30 30 228 228 31 228 228 32 33 228 229 34 222 222 36 36 221 40 38 221 220 48 41 219 58 62 217 216 75 81 212 92 98 227 204 116 227 227 50 138 227 227 51 121 227 52 53 122 227 54 135 227 109 55 116 226 55 146 102 189 56 94 192 193 148 86 194 195 148 51 195 217 148 46
231 46 249 249 232 47 250 232 232 249 249 229 9 247 226 224 219 199 215 212 219 64 197 219 219 73 219 218 81 84 217 216 93 234 214 102 105 232 209 113 231 231 96 122 231 92 91 230 229 88 86 229 82 80 185 227 70 66 180 55 50 177 176 33 29 174 126 124 173 173 118 225 172 109 106 225 171 94 225 225 83 79 224 224 67 224 224 17 18 224 20 21 176 224 23 24 180 225 26 182 183 225 27 187 32 27 20 193 29 28 197 28 28 224 202 27 224 224 108 26 224 224 106 51 224 28 25 46 224 28 41 224 198 28 34 191 29 6 222 182 29 223 102 172 7 224 25 163 8 102 25 10 9 102 26 11 102 102 10 224 102 9 8 133 102 7 224 128 6 6 125 29 5 5 122 33 5 119 118 41 117 117 48 50 102 115 57 102 102 65 67 102 35 75 101 102 15 84 102 102 21 228 101 29 31 102 38 42 101 100 56 61 97 111 78 93 92 115 100 88 117 118 184 83 119 105 80 163 120 106 76 121 226 108 142 121 110 111 145 225 113 146 147 224 118 147 58 221 57 148 53 57 57 79 48 115
42 13 13 193 12 12 194 194 10 250 195 11 12 223 196 16 245 223 24 27 223 207 38 223 223 8 53 223 223 8 207 223 9 9 212 223 10 216 217 11 11 222 223 12 226 227 90 14 230 92 93 189 233 94 95 223 131 95 223 223 94 94 223 22 94 223 224 24 225 224 24 25 225 224 26 205 224 11 26 191 187 26 171 176 82 26 164 160 79 174 149 77 77 176 43 75 225 180 38 72 225 23 34 224 224 21 69 224 28 19 224 223 28 200 224 28 13 205 224 28 209 103 28 28 212 102 49 215 215 26 43 218 219 25 224 220 26 31 224 26 26 224 171 26 26 224 29 26 224 224 29 10 224 29 29 227 224 29 227 227 29 29 228 228 29 228 228 27 29 228 229 28 224 229 29 30 224 229 30 224 224 31 32 223 30 33 223 223 31 35 223 33 34 222 222 36 37 228 41 42 228 228 49 228 228 44 63 228 228 46 106 228 48 48 227 227 50 201 228 51 51 187 183 52 174 169 163 53 154 170 172 137 133 178 179 119 70 183 225 103 187 188 224 56 190 222 221 56 116 218 57 57 114 214 57 78
219 39 248 249 192 39 250 250 235 11 249 234 233 247 246 229 221 245 222 219 220 223 207 220 219 223 182 219 69 159 9 216 81 84 214 211 94 233 209 104 84 231 221 114 230 230 226 91 229 90 230 93 228 85 94 94 223 74 179 227 223 22 175 223 37 24 225 224 25 171 217 224 25 210 106 26 26 197 92 225 185 180 83 224 168 81 80 225 152 78 224 225 76 76 225 23 74 73 225 24 72 225 225 23 187 224 21 20 108 224 18 105 105 16 15 103 102 13 101 101 59 10 100 100 54 213 99 50 48 202 26 44 195 192 38 36 184 6 31 176 174 7 26 165 8 8 224 155 9 9 98 29 10 99 98 29 227 99 11 15 227 99 9 228 100 28 7 228 100 6 224 228 29 5 117 34 30 224 115 41 32 223 30 49 223 111 31 59 223 32 66 228 222 35 75 100 38 40 228 101 17 228 228 44 25 228 228 46 216 228 48 48 210 227 50 204 202 51 51 193 142 147 182 178 158 116 163 167 169 227 142 175 177 225 179 181 225 224 184 185 223 55 188 222 222 56 86 220 56 56 81 215 56 78 77 56
190 16 223 190 14 14 191 191 11 223 191 11 12 223 192 15 223 223 45 24 223 223 9 241 223 9 9 238 172 10 203 223 141 10 207 122 11 211 213 106 13 217 85 98 199 223 90 223 192 123 92 223 231 127 228 223 128 94 227 223 128 226 223 47 125 226 223 25 225 225 18 26 212 14 13 169 198 12 12 169 87 13 170 170 72 15 172 63 60 173 173 53 224 224 47 45 224 225 40 224 224 26 36 224 224 27 224 224 28 28 224 224 28 199 224 28 28 204 28 28 207 208 28 28 212 27 27 214 215 27 27 217 27 26 224 219 26 224 224 26 26 224 224 28 224 224 29 29 224 224 29 226 224 29 29 227 224 29 227 227 29 29 227 28 29 228 228 29 29 228 30 30 223 228 31 32 223 99 33 223 223 99 4 223 31 36 5 223 32 228 222 34 34 228 222 37 228 228 106 44 228 228 104 93 228 47 68 99 100 49 103 228 101 50 206 101 51 81 196 101 52 185 85 102 116 167 166 126 128 78 173 134 136 74 115 225 71 69 114 223 67 113 113 116 62 112 219 121 112 111 125 56 110 130 132 146
237 189 17 249 238 32 14 223 238 12 250 223 236 12 223 233 10 18 223 10 221 223 223 9 220 51 9 9 199 61 10 10 203 69 11 206 208 77 211 212 82 83 217 218 87 223 223 90 91 223 92 93 223 223 20 94 223 223 22 223 223 23 24 223 24 25 224 223 25 26 216 89 26 207 204 87 27 192 85 84 169 174 82 225 161 80 80 225 144 78 225 225 52 75 225 225 25 224 225 24 24 224 225 23 106 224 27 20 102 28 18 195 99 28 16 98 30 28 205 96 62 61 209 28 58 208 213 28 224 199 27 27 224 188 27 224 224 28 27 224 168 28 222 224 28 8 95 224 29 225 96 29 29 226 28 29 226 227 29 29 227 29 29 228 228 30 7 223 30 31 223 114 32 223 223 29 33 223 223 29 223 223 30 31 223 222 31 228 222 33 34 228 228 36 228 228 43 41 228 45 45 228 228 47 48 228 48 49 215 228 50 50 209 111 51 203 201 134 195 192 148 152 180 175 162 227 161 169 171 226 139 176 225 225 179 180 224 224 55 223 222 55 55 221 55 55 85 217 55 55 80 127 55 78 77 134
187 238 238 228 29 239 228 228 30 238 226 31 32 248 225 33 246 246 37 38 243 223 41 241 240 204 49 238 237 176 236 236 151 143 234 234 123 209 208 110 107 203 99 100 198 196 111 95 190 117 119 185 184 123 124 180 125 125 227 175 126 226 226 58 124 225 226 34 225 225 22 20 225 225 15 168 224 14 13 168 224 14 169 169 77 15 171 68 65 27 172 58 55 174 51 49 224 177 45 43 224 107 39 224 224 102 70 224 27 27 69 224 28 198 224 221 28 203 224 28 12 207 213 28 211 212 205 8 214 29 195 7 93 29 224 7 93 28 224 93 94 34 224 94 28 29 148 95 25 224 139 22 20 133 29 226 16 126 15 227 122 121 18 228 118 21 22 97 114 26 228 97 30 31 98 35 35 98 98 3 223 98 98 4 107 98 4 4 106 98 6 106 105 7 8 105 77 9 104 104 85 14 103 90 91 99 101 96 97 99 97 101 99 99 104 105 99 72 107 100 101 95 227 101 110 114 81 103 124 78 77 55 133 75 74 55 110 71 110 141 96 184 109 89 64 185 108 83 185 107 126 127 183 106 133 146
16 186 19 19 230 187 15 14 187 28 12 223 187 12 248 223 11 17 223 223 10 243 223 10 10 240 223 10 195 237 173 11 198 148 141 212 203 75 13 206 87 82 201 214 101 87 193 110 90 223 186 118 228 223 121 123 227 223 124 226 226 73 25 226 223 51 170 225 33 27 169 225 20 168 200 15 15 168 98 14 168 168 86 15 169 77 74 224 171 65 62 224 58 56 224 224 50 224 224 24 44 224 224 26 224 224 27 27 224 224 28 194 196 28 28 200 201 28 204 205 31 28 208 30 31 211 212 30 29 214 29 30 224 224 29 29 224 28 29 224 224 28 224 224 28 28 224 224 28 225 223 28 29 226 223 29 227 227 31 29 228 228 31 19 228 33 32 228 97 34 223 229 35 35 223 97 37 223 223 97 38 223 31 31 4 222 32 228 5 105 34 228 222 105 72 228 104 44 80 228 103 85 228 50 50 91 227 51 214 97 99 53 208 99 99 56 198 99 54 79 88 100 96 172 84 101 115 81 172 108 127 77 109 224 74 74 108 223 71 108 108 112 67 107 106 118 106 106 122 124 105 105 129 145 145 135
230 240 231 232 24 25 232 231 25 250 230 26 26 248 227 27 247 246 30 31 244 226 34 242 241 212 40 239 194 186 217 236 162 154 213 223 131 209 207 115 15 202 90 103 196 194 103 18 189 111 113 229 182 119 227 227 229 122 227 83 229 93 226 68 123 225 223 43 91 225 28 24 88 224 18 167 167 224 14 167 95 224 28 168 82 27 27 137 71 27 171 123 75 26 115 55 74 26 106 73 224 225 101 72 225 26 71 71 224 27 70 223 222 17 69 221 220 14 218 217 12 12 212 210 10 91 91 9 8 91 56 8 91 91 51 8 91 46 44 92 92 40 38 92 35 34 143 140 29 136 133 11 24 127 126 14 223 122 16 16 118 116 19 95 114 22 23 96 110 26 96 96 5 31 96 3 4 228 97 3 3 228 41 3 105 97 43 4 104 45 5 221 104 47 221 104 43 77 220 103 82 227 218 65 88 98 215 86 227 98 104 110 227 98 128 227 227 55 69 227 55 55 175 226 56 108 82 55 55 140 78 55 55 120 179 55 107 104 182 97 94 182 183 217 86 182 214 212 181 181 207 127 179 201 198 53
223 16 184 223 15 15 185 223 14 185 185 13 12 186 186 12 186 187 17 19 187 188 27 223 189 37 41 223 40 51 223 223 61 64 223 13 71 223 223 15 79 223 17 17 211 223 19 216 218 97 21 222 224 93 179 227 93 25 174 228 93 171 227 122 92 223 121 91 225 223 117 89 224 22 111 224 224 29 102 224 15 28 224 224 15 28 224 16 17 170 123 19 172 114 59 21 175 106 73 178 179 48 72 183 184 43 224 188 41 40 224 38 38 224 224 28 36 224 28 28 224 224 28 10 224 28 28 212 224 28 28 215 28 28 218 218 28 220 220 32 32 222 222 32 224 223 32 32 223 224 32 223 223 33 33 223 28 34 223 223 29 29 223 29 29 228 223 29 29 228 29 29 229 228 29 29 229 41 30 228 228 43 47 228 44 45 222 228 46 222 221 48 48 221 220 50 220 220 50 51 218 60 63 12 216 78 83 18 99 102 227 227 96 125 227 55 141 101 227 56 157 226 99 55 104 225 55 114 104 102 55 128 123 104 133 109 180 108 138 96 181 141 89 67 181 142 63 180 101 144 58 178 200 54 53 100
20 20 16 235 20 20 15 184 21 250 232 184 22 249 185 23 14 246 186 18 245 223 228 28 241 218 12 42 223 196 218 55 223 13 213 223 223 15 200 223 16 201 206 85 19 210 96 88 21 217 108 228 221 223 92 227 226 226 93 223 227 93 93 223 92 92 223 223 29 90 223 29 30 224 224 30 166 224 29 29 163 224 29 148 143 28 28 130 126 28 120 116 75 75 109 107 74 225 102 73 72 225 97 72 225 225 45 71 224 20 71 224 223 17 16 221 28 15 90 217 12 12 89 28 10 89 89 28 213 89 60 28 216 89 55 218 90 33 49 158 90 45 223 145 33 39 137 135 34 223 128 13 35 223 28 15 223 223 28 18 223 29 29 228 94 29 24 228 39 29 228 95 40 229 229 42 4 228 228 44 223 228 45 46 222 102 48 222 222 35 49 221 221 40 220 220 46 48 219 54 58 227 217 71 76 227 87 93 227 227 55 117 226 56 56 227 227 56 188 226 56 56 171 225 56 157 151 56 56 136 131 55 121 116 178 179 104 101 180 219 92 180 180 214 179 179 210 208 177 176 203 53 176 195 192 52
223 17 18 247 242 15 250 250 241 14 183 241 241 231 184 239 228 227 22 235 225 186 25 223 222 29 37 220 220 35 237 216 42 45 235 223 54 233 233 123 69 231 110 107 230 230 101 99 229 97 97 181 227 95 94 176 117 91 172 171 121 170 169 122 122 168 168 121 225 167 119 117 225 165 113 224 224 108 106 224 224 16 224 224 16 16 224 16 17 170 224 18 19 172 20 21 175 176 22 23 179 55 24 182 184 49 224 188 46 46 224 193 43 224 224 89 41 224 224 39 69 224 28 37 224 224 28 212 223 28 28 215 182 28 217 218 167 28 220 36 153 10 222 36 28 223 91 36 12 225 36 32 223 93 37 223 223 93 20 223 28 93 13 223 29 10 9 106 29 6 223 104 31 4 103 29 37 95 102 42 228 96 102 49 96 49 54 56 96 51 62 96 96 4 69 96 6 6 101 96 7 8 100 10 11 100 99 15 17 99 91 25 96 96 95 41 94 97 97 91 90 98 98 99 100 100 100 100 100 101 102 123 100 104 104 133 220 107 137 138 111 54 140 69 117 142 143 64 98 144 60 59 97 145 54 97
18 223 17 17 182 223 15 183 183 242 14 183 183 14 231 183 14 14 184 184 18 223 185 25 28 223 186 38 223 223 34 52 223 15 15 234 223 16 17 223 121 19 201 223 20 21 208 100 24 213 215 97 179 219 92 94 174 223 93 223 170 121 92 223 221 121 225 223 121 89 225 223 118 225 223 23 112 224 18 30 224 224 16 29 137 16 17 169 120 17 18 170 75 19 173 174 67 175 177 62 59 180 181 55 224 225 51 50 224 224 48 224 224 27 44 224 224 28 224 224 28 28 224 28 28 210 223 28 28 214 39 28 216 217 38 28 219 38 38 220 221 38 223 222 38 38 223 224 38 223 223 39 39 223 223 28 223 223 28 28 223 223 29 227 222 29 29 228 104 29 228 228 29 29 228 47 47 228 228 49 49 228 50 50 222 228 52 221 221 95 53 220 220 54 4 219 49 56 218 217 63 227 216 77 82 227 212 99 227 226 98 124 227 58 95 94 226 57 156 95 97 57 97 225 98 56 146 100 56 115 126 102 124 112 78 105 133 97 178 137 138 72 177 141 141 68 96 204 64 63 95 194 58 95 185 137
240 242 239 247 243 242 239 250 242 237 236 242 241 233 17 240 230 229 18 237 226 20 21 224 223 24 25 239 28 29 237 237 35 38 235 162 46 233 233 130 75 232 114 110 230 230 103 186 184 99 98 179 177 96 175 174 115 94 171 119 120 31 168 122 122 167 216 121 225 165 120 119 224 34 116 224 224 21 111 224 18 17 80 224 17 167 77 224 17 169 224 225 28 172 225 20 27 175 67 26 179 94 61 24 92 56 72 22 89 52 224 88 88 72 224 88 88 72 218 28 72 224 211 28 70 204 28 11 68 191 10 215 179 176 10 218 163 10 10 89 149 11 11 90 49 12 90 91 43 91 91 38 36 91 91 29 113 92 23 21 109 93 16 107 106 11 10 104 103 29 103 102 33 34 102 37 38 94 100 42 44 95 32 49 95 95 34 56 95 3 3 228 94 4 100 95 57 5 100 95 6 216 100 58 9 100 100 59 208 99 88 59 200 96 91 95 95 154 93 96 163 94 224 97 170 95 99 57 175 222 101 120 177 220 55 131 217 217 54 90 74 53 53 81 69 52 78 76 172 52 73 61 170 72 71 170
240 242 243 17 181 181 243 240 181 21 242 236 15 15 233 182 16 14 229 17 17 245 225 20 26 223 224 24 239 223 15 237 236 184 17 235 234 149 204 232 127 121 195 231 109 189 187 102 101 181 210 101 177 175 110 91 172 116 117 226 168 120 121 225 122 122 225 225 122 121 225 50 120 224 224 29 164 224 21 20 165 224 18 166 166 17 17 168 168 17 169 170 84 19 173 77 75 224 176 70 68 224 65 63 224 224 59 58 224 26 55 224 224 27 52 224 27 28 224 224 28 206 207 28 28 210 211 28 213 214 44 28 216 217 44 10 219 43 43 11 89 43 223 223 90 43 223 28 44 44 223 28 45 223 28 28 29 222 28 28 20 107 28 228 222 105 26 227 50 29 30 228 51 34 228 94 53 40 228 54 3 46 94 56 221 94 94 3 220 94 94 4 100 44 4 4 100 55 5 100 100 77 7 100 89 81 100 99 85 226 99 87 88 95 97 90 90 95 49 92 97 96 73 92 97 91 97 99 99 111 84 101 122 125 80 105 132 78 77 92 138 74 73 92 79 69 92 92 66 65 92 129 60 92 92 138
239 243 14 246 223 243 29 250 243 15 21 223 241 236 15 223 14 231 16 224 14 227 17 15 224 183 21 15 220 24 43 16 186 32 235 188 189 65 233 138 193 74 223 114 80 82 223 103 86 223 223 30 90 223 32 32 223 223 34 168 223 35 35 218 122 35 35 210 89 35 200 196 87 34 180 84 83 164 158 81 224 141 80 79 224 123 77 224 224 29 75 224 224 29 224 225 28 27 225 22 26 91 225 24 24 89 25 23 88 88 73 20 87 73 73 198 86 73 73 87 51 73 211 87 72 223 201 49 71 190 186 48 223 173 11 11 223 157 11 89 223 28 12 89 28 28 224 90 28 15 225 48 28 226 91 49 28 227 49 25 222 227 50 16 104 52 52 222 102 53 222 222 29 55 222 222 31 221 221 31 45 228 221 33 228 94 35 36 227 60 40 227 227 61 48 227 61 61 227 227 61 61 227 61 61 210 209 61 61 204 128 60 197 194 147 188 185 158 161 173 169 167 224 154 172 172 222 133 174 221 220 56 176 218 55 55 215 214 54 54 210 53 53 79 202 52 52 74 124 51 71 71 167 50 68 166
180 31 33 242 13 33 223 223 12 25 223 16 13 250 223 15 249 248 239 15 246 224 235 226 243 230 15 221 239 217 218 185 28 193 211 187 60 205 203 47 71 196 60 64 230 187 77 84 228 90 94 228 223 98 107 226 96 35 226 226 94 166 225 91 89 165 225 82 164 163 67 61 163 163 42 163 163 119 118 164 164 114 224 165 109 107 224 103 101 224 224 95 93 224 19 87 224 224 21 79 224 22 23 182 224 24 186 187 25 25 191 193 26 196 197 59 27 201 202 56 14 206 54 53 223 210 53 223 223 52 52 223 28 50 223 223 28 50 223 28 28 62 223 28 28 223 127 28 224 224 28 16 225 52 28 226 226 52 21 227 54 54 24 227 55 222 27 93 56 222 227 93 6 222 30 58 4 99 31 4 221 98 33 3 98 35 228 3 99 39 227 99 99 65 227 62 69 70 94 63 74 227 93 7 78 93 62 11 82 93 15 198 94 94 27 186 94 40 45 95 166 63 92 92 89 88 89 88 89 86 86 89 89 83 82 89 106 79 88 88 110 172 88 115 117 142 88 122 143 144 128 130 145 145 137 146
237 223 34 35 223 243 17 223 223 16 241 223 223 15 180 223 15 15 181 224 15 181 181 16 16 182 182 17 183 183 39 42 184 49 52 223 187 61 64 223 49 72 223 223 78 80 223 30 84 223 223 34 227 223 35 36 212 223 37 214 215 94 38 214 212 90 164 206 88 38 162 190 86 163 175 122 83 223 120 80 223 223 115 78 224 32 109 224 224 31 75 224 19 30 224 224 20 174 224 21 27 179 89 23 183 88 73 24 189 87 73 193 194 65 74 199 200 62 223 204 59 59 223 58 58 223 223 28 56 223 28 28 223 223 28 12 223 28 28 221 223 28 222 223 28 28 224 224 28 224 225 55 55 226 226 56 222 226 56 56 222 227 57 222 222 58 59 222 29 59 222 222 30 30 222 31 31 228 221 32 32 228 33 33 228 228 36 227 227 64 42 227 227 65 65 227 65 65 215 226 64 212 212 64 64 207 206 63 203 200 133 62 193 147 151 30 179 160 163 49 95 169 223 222 92 173 221 57 175 87 218 56 86 215 55 54 86 210 53 83 86 112 53 76 75 118 142 71 165 50 145 68 163 145 66 58
244 11 242 245 11 11 249 223 11 251 250 242 11 250 241 241 249 248 239 239 230 236 236 227 225 231 230 221 19 221 218 216 24 201 210 31 33 204 201 43 232 194 54 59 230 230 72 229 229 102 90 227 227 98 227 226 97 97 226 96 95 165 225 94 93 163 223 87 162 162 125 72 162 124 124 162 162 123 122 163 120 119 224 165 116 224 224 110 109 224 224 19 74 224 19 19 224 224 21 177 224 22 22 182 225 23 186 187 224 25 192 72 223 19 197 68 67 17 86 65 223 207 86 63 223 87 61 75 223 87 74 223 176 87 72 223 28 70 69 146 28 222 66 133 15 224 125 122 16 90 117 18 18 90 110 20 90 91 22 23 91 61 26 91 92 16 222 92 92 9 99 92 7 6 98 5 5 97 97 4 4 97 48 4 97 97 54 227 97 58 60 92 98 63 92 92 67 69 92 93 72 92 92 7 76 92 92 10 225 92 14 16 99 93 24 99 99 61 42 97 84 60 149 94 85 85 91 174 85 115 88 85 85 98 174 85 105 106 172 204 111 138 169 196 117 142 188 185 50 144 174 131 49 65 159 48
31 223 10 39 246 223 11 37 223 242 10 251 223 16 11 250 240 16 248 247 237 16 180 235 234 225 181 228 221 220 20 215 214 183 26 208 206 34 61 198 195 48 231 188 61 65 229 107 80 228 228 101 97 227 98 98 226 226 97 42 226 96 95 163 225 93 91 162 126 84 162 161 126 162 162 126 125 162 162 123 224 163 120 120 224 165 116 224 224 111 110 224 19 19 224 224 20 20 224 21 21 179 224 22 23 184 24 24 189 190 25 193 194 75 26 199 201 71 223 204 69 68 223 209 66 223 223 87 65 223 223 64 74 223 28 63 222 28 28 221 223 28 28 223 129 28 224 224 119 28 225 62 28 20 226 63 22 226 91 64 25 227 64 21 222 91 66 222 222 92 9 221 30 92 6 220 31 4 5 97 33 4 97 97 52 4 97 39 57 92 97 61 227 92 98 66 92 67 69 70 92 6 73 92 92 8 76 92 11 12 101 92 18 186 100 27 31 99 165 47 52 97 82 72 94 93 83 92 91 83 83 88 88 83 103 104 82 82 108 109 82 113 114 140 82 120 142 143 177 127 145 145 134 48 146 60
246 10 10 246 10 10 248 246 10 250 251 242 10 250 250 241 18 249 239 238 17 246 236 228 243 223 231 223 240 224 21 216 223 207 210 183 29 27 199 39 42 30 188 54 230 34 191 73 228 195 196 85 227 201 88 89 223 206 89 225 223 45 90 223 94 162 88 223 43 161 223 223 42 170 223 40 40 147 223 38 132 127 78 36 115 120 76 106 104 75 224 97 96 73 224 93 73 72 224 73 72 224 225 73 73 225 25 24 224 224 22 21 223 20 19 86 220 18 86 86 27 16 86 86 15 211 87 77 14 87 87 76 175 88 75 75 157 88 74 145 141 67 71 132 17 66 223 121 18 61 222 28 20 90 109 28 23 90 28 25 91 91 28 227 91 19 29 227 92 11 227 228 70 7 227 92 70 220 97 70 4 219 96 71 219 97 39 70 217 43 59 216 216 53 64 214 65 69 226 211 84 90 226 67 107 225 225 66 224 224 65 64 224 224 63 175 223 62 61 158 221 60 143 137 173 59 122 117 174 109 104 174 174 93 173 172 205 81 170 169 197 167 166 189 186 163 162 176 50 49 165 162 48 62 150 47
223 20 19 179 44 19 179 179 40 18 179 31 28 243 179 21 223 237 10 17 224 179 11 244 224 19 23 223 223 21 239 223 24 25 236 223 27 183 233 163 32 186 137 130 183 189 114 40 175 81 84 170 197 99 87 166 109 89 225 163 119 225 223 123 125 225 223 127 224 224 87 128 224 224 69 161 224 50 44 162 34 30 163 164 23 22 165 121 20 167 168 116 19 170 111 110 223 175 105 103 224 100 99 224 224 94 224 224 24 89 224 224 25 223 223 26 26 223 223 27 206 207 27 27 211 76 28 214 215 74 28 216 73 73 219 219 71 72 221 71 71 223 223 71 71 223 28 71 222 222 28 60 222 28 28 222 222 28 226 222 28 28 227 222 29 227 227 73 30 227 73 73 38 227 73 73 227 91 73 219 227 73 73 218 92 73 218 218 92 72 217 49 52 4 214 63 226 5 98 81 226 208 100 72 225 100 122 74 224 101 76 224 91 101 77 91 63 35 78 92 61 144 93 94 77 124 95 96 101 93 99 116 119 89 103 128 86 86 79 136 83 79 189 80 79 79 176 75 80 81 130 69 82 82 139 83
246 179 42 242 179 9 47 223 179 41 250 223 179 28 223 240 21 20 223 238 18 224 224 20 20 224 223 21 180 223 24 24 180 26 27 181 182 31 31 183 62 35 185 186 72 40 188 78 79 191 193 84 223 223 86 87 223 223 89 223 223 50 89 223 223 49 225 223 48 48 223 223 46 164 158 44 43 141 80 41 126 122 77 39 111 75 75 166 101 74 73 168 118 73 224 91 112 223 224 30 73 224 224 28 224 224 23 25 224 224 23 194 224 25 21 86 223 26 204 86 27 27 209 82 79 212 213 79 79 216 78 78 222 218 77 78 157 76 76 223 140 76 223 223 28 19 222 222 28 225 222 28 28 225 222 28 226 226 28 28 226 91 29 227 227 76 29 227 76 76 221 227 76 76 220 76 76 219 219 75 75 219 36 75 218 218 40 217 217 46 48 215 214 58 226 226 69 74 225 225 90 225 225 70 113 224 224 68 224 224 66 66 222 65 64 169 164 63 62 150 169 61 135 130 172 59 115 173 174 102 98 173 208 87 171 170 200 76 168 193 191 52 163 182 178 50 78 168 49 48 79 153 47 58 141 142
232 244 243 248 244 242 248 248 242 242 246 9 241 244 243 9 23 239 9 9 247 233 10 11 244 12 12 241 241 15 239 238 218 20 236 235 196 234 233 171 162 188 231 137 181 178 117 113 173 171 105 168 167 98 100 164 109 112 162 162 120 121 161 125 126 225 225 129 129 224 91 131 224 224 79 81 224 62 55 224 224 38 162 224 27 25 165 165 22 166 167 122 20 170 171 118 33 175 113 112 31 88 108 224 184 87 103 224 87 99 75 224 24 95 223 222 25 77 223 26 18 78 212 27 211 79 201 17 215 189 185 17 218 171 17 17 88 81 18 222 88 78 19 89 79 222 89 89 71 222 89 90 63 109 90 54 51 105 28 41 102 101 30 28 100 33 34 98 98 37 227 97 40 41 91 96 44 45 91 47 48 91 90 5 53 90 5 5 91 91 5 97 90 5 5 97 90 5 99 98 72 6 100 100 7 198 101 72 73 101 146 74 90 102 75 75 91 166 75 92 92 171 75 93 77 173 214 96 102 107 208 56 120 92 103 54 77 88 53 137 85 85 51 65 81 77 49 60 76 78 58 58 156 80 141 157
21 178 44 20 248 178 52 19 178 8 44 246 178 33 30 243 8 22 223 223 9 247 224 22 11 243 224 24 240 240 226 28 237 223 31 204 234 191 36 181 232 157 184 183 70 125 175 68 77 170 169 88 83 166 101 105 225 162 115 88 225 122 124 225 223 97 224 224 95 53 224 224 89 160 224 78 73 160 224 54 161 162 37 33 163 164 25 165 165 127 126 168 124 123 223 172 120 118 223 116 115 223 223 111 109 224 22 106 224 224 23 224 223 24 24 201 223 25 205 206 26 26 210 211 27 213 213 89 27 216 217 87 219 219 86 86 223 85 85 223 223 85 84 222 28 83 222 222 28 83 222 28 28 62 222 28 226 222 104 29 226 226 29 33 226 82 30 227 227 82 38 227 82 82 42 227 81 219 47 90 80 218 90 90 5 217 42 78 216 96 52 5 214 61 65 6 98 79 225 6 99 68 224 100 100 70 223 69 71 72 90 67 73 221 90 27 74 90 63 45 74 92 64 122 94 94 90 98 97 108 112 95 171 124 92 92 74 134 88 88 75 85 85 75 75 81 76 77 128 75 78 78 136 156 80 143
229 243 243 249 243 243 249 249 8 248 248 8 8 246 245 8 250 241 9 9 248 236 10 245 244 179 12 241 230 14 29 238 221 217 236 223 202 197 233 179 170 186 223 143 178 176 223 117 171 77 223 56 166 97 58 162 193 112 225 160 121 87 224 191 127 224 224 181 85 224 94 164 83 222 86 80 80 222 66 161 223 223 45 162 223 30 42 99 223 40 167 93 223 37 91 124 35 35 88 72 33 87 87 73 223 87 74 74 224 86 75 76 222 76 76 221 25 78 219 218 20 79 212 210 19 223 201 19 19 87 185 19 87 88 19 20 88 88 21 88 88 82 21 88 80 80 224 89 76 74 114 87 67 109 108 59 56 105 30 46 102 101 33 221 99 36 36 221 98 39 90 220 31 42 90 90 33 227 90 6 49 226 90 6 226 89 80 6 226 79 5 213 226 77 6 98 76 75 206 99 67 74 201 115 69 194 192 137 222 183 149 71 221 168 161 220 90 167 168 217 91 58 215 214 60 84 210 209 57 92 204 56 55 79 55 54 71 69 53 52 64 161 50 60 59 157 75 57 156 155 143 54 155 133 129 155
249 249 7 243 249 250 8 249 249 8 51 250 247 8 250 223 8 8 249 223 9 247 246 235 10 243 232 232 241 240 227 225 212 218 214 203 199 198 190 190 34 164 182 179 51 175 173 66 71 168 167 87 226 163 101 105 225 225 116 224 224 99 125 225 224 98 224 224 97 96 224 94 93 159 224 86 82 160 222 66 161 161 134 42 163 134 133 164 165 132 223 167 130 129 223 172 126 223 223 88 121 223 223 21 73 223 22 22 223 223 23 195 223 23 24 201 220 25 206 207 215 25 210 100 208 20 215 98 97 20 87 96 223 219 87 84 223 88 93 85 222 88 84 222 127 88 81 222 28 77 74 112 28 225 108 106 30 226 104 103 33 89 101 35 226 89 98 38 90 88 41 42 90 86 45 90 90 9 219 90 7 6 95 89 6 6 96 6 6 96 96 6 6 97 62 6 98 98 65 88 99 67 67 88 101 69 88 89 70 70 88 88 70 89 89 27 71 90 90 47 215 92 65 72 103 60 92 102 101 57 114 99 71 126 73 95 71 136 92 161 72 60 87 73 121 56 156 74 129 131 154 136 138 150 154 122
38 223 243 250 223 223 21 250 223 223 20 178 223 21 21 178 223 22 178 9 24 25 178 21 245 178 178 24 240 178 28 30 223 179 38 41 223 46 49 223 223 58 61 223 55 56 223 223 60 184 223 63 64 186 223 66 187 188 67 66 188 187 66 184 183 86 64 174 84 84 222 156 82 81 222 136 79 222 222 136 76 222 50 75 223 222 46 73 223 26 43 223 223 40 171 90 21 37 88 88 21 180 87 73 21 186 87 74 191 193 114 76 197 112 77 223 220 108 79 217 25 105 223 210 22 103 223 26 21 223 223 27 22 223 27 27 221 223 28 222 223 96 28 224 88 95 224 225 94 79 225 225 93 222 226 93 93 221 93 93 221 221 91 91 221 30 30 220 220 30 31 219 32 32 226 219 33 34 226 36 37 226 226 40 226 226 84 83 226 226 82 212 225 80 79 208 224 78 204 203 76 76 198 120 73 191 188 140 71 178 152 155 220 162 163 164 217 167 168 215 214 171 171 211 60 171 207 205 58 70 200 56 56 70 190 54 66 64 110 52 59 58 50 144 55 155 48 52 80 154 149 50 154 154 150 68
223 7 7 238 223 7 245 246 240 8 249 239 239 248 250 238 23 244 236 236 240 178 235 234 233 10 232 226 223 13 218 214 16 17 205 201 22 233 232 30 33 231 223 45 229 229 129 65 227 227 109 226 226 103 102 225 100 100 159 159 99 99 158 128 98 157 157 133 98 157 135 135 158 158 136 223 159 137 137 223 160 137 223 223 46 136 223 223 30 223 223 24 23 223 223 21 173 223 21 20 179 223 21 183 184 223 21 190 120 119 29 196 116 115 201 86 113 223 207 110 223 223 87 108 223 223 87 84 223 26 27 85 223 27 221 223 158 27 222 222 28 26 224 131 28 224 88 120 28 225 97 113 31 89 96 222 33 89 95 221 89 89 41 221 89 31 28 98 89 20 219 96 15 14 96 33 11 10 96 51 226 95 95 54 226 96 56 58 88 96 59 88 88 62 62 87 80 64 88 87 8 198 87 87 9 101 87 11 12 103 70 17 105 105 25 29 106 69 43 107 107 68 67 106 68 68 95 105 68 68 99 167 69 103 104 69 181 109 139 70 114 116 144 157 121 146 147 142 130 149 78 77 45 150 71 78
39 223 22 22 240 223 22 22 223 240 22 178 223 23 24 177 38 25 177 177 26 240 178 23 23 232 178 24 224 178 13 30 223 178 36 234 223 51 47 223 223 58 230 223 62 64 228 124 68 180 226 108 72 181 102 101 159 182 100 74 158 125 85 157 175 131 224 157 134 83 223 157 136 223 222 138 138 223 222 138 223 223 64 138 223 223 41 163 223 30 47 167 24 23 171 89 21 21 176 130 21 180 182 127 21 186 124 123 223 193 121 223 223 118 118 223 223 116 223 223 24 113 223 223 25 223 223 26 26 223 223 26 220 221 27 27 222 105 27 223 223 103 28 224 102 102 225 225 101 101 226 100 100 222 226 99 221 221 29 98 221 221 30 40 221 30 30 220 220 31 226 219 32 33 226 219 34 226 226 91 38 226 89 88 56 225 87 86 225 88 85 211 224 83 82 207 87 80 202 201 87 9 195 124 129 10 184 143 220 14 104 157 218 156 106 67 215 107 168 68 211 107 67 207 93 107 67 96 58 80 68 100 55 68 104 106 136 59 111 52 143 93 118 146 51 88 148 149 83 153 74 151 76 77 115 70
225 7 7 236 242 241 244 246 240 251 249 239 238 249 250 237 247 246 236 235 242 240 234 237 234 10 232 227 12 13 239 214 15 17 235 20 22 233 232 30 33 230 168 44 228 228 134 65 227 116 112 162 225 104 160 159 223 100 158 158 100 78 157 129 99 157 157 134 73 157 137 137 70 135 138 223 223 118 139 223 80 106 75 223 57 138 73 222 36 73 223 222 26 72 222 23 173 72 222 41 179 131 223 38 186 128 35 35 87 124 32 197 86 77 30 87 119 79 87 87 81 223 212 87 83 204 25 85 86 190 26 87 177 173 28 89 159 155 28 147 143 29 30 132 30 31 88 88 32 32 88 80 34 88 88 70 36 88 60 56 88 88 45 100 88 35 31 98 88 24 97 97 47 16 96 96 51 218 96 52 53 216 96 55 88 95 50 58 87 58 60 87 87 8 62 86 8 8 223 86 9 9 221 77 11 102 87 73 175 104 71 19 158 106 68 143 107 168 67 122 108 67 207 101 170 67 95 84 168 194 100 165 164 183 54 161 174 170 52 157 160 50 50 50 145 48 149 47 47 46 45 79 45 43 43 152
7 228 223 7 238 241 241 24 246 247 238 250 250 237 237 248 236 236 245 244 235 234 239 9 233 233 230 11 26 221 13 14 236 206 18 20 233 24 27 231 230 36 229 229 153 54 227 227 123 226 226 110 107 160 224 102 158 158 100 100 157 126 99 156 156 133 99 156 136 136 156 156 138 138 157 139 139 223 223 139 140 223 75 140 223 223 51 73 223 36 33 223 223 26 170 223 23 22 176 177 21 181 182 131 21 187 129 128 36 194 126 125 33 87 123 223 205 87 120 223 86 118 82 223 24 84 223 198 25 87 223 26 221 89 169 26 222 91 152 31 224 140 27 32 225 127 33 225 88 106 35 88 105 77 37 88 104 221 88 88 54 221 88 88 40 100 88 30 27 98 47 21 97 97 50 15 96 52 53 96 96 55 225 96 57 58 87 96 59 60 87 60 61 86 86 9 86 86 9 9 86 86 10 101 86 12 13 103 87 16 104 105 71 25 107 66 36 129 109 66 65 109 169 65 94 109 65 65 97 166 65 101 102 162 66 106 139 67 163 114 145 96 119 49 148 90 128 150 44 84 45 152 79 77 44 41
224 177 7 235 241 177 70 245 240 7 72 223 237 63 250 223 236 44 223 235 34 242 223 38 236 177 224 45 225 12 50 52 177 17 57 59 177 43 65 177 177 54 229 177 62 64 223 177 71 223 223 77 78 223 103 82 223 223 86 84 223 223 85 222 222 83 83 153 81 80 141 137 77 76 124 79 72 113 110 77 67 102 75 74 161 96 73 73 92 140 72 222 222 72 222 222 49 72 222 222 45 223 221 42 42 223 222 39 87 221 21 36 87 77 34 204 87 80 32 86 121 82 213 87 84 85 217 117 87 190 220 116 223 173 114 114 222 157 33 222 222 27 34 222 131 27 225 222 27 36 226 222 28 226 88 28 29 226 105 29 226 226 103 45 226 102 102 220 226 100 24 219 99 98 218 97 97 218 217 39 94 216 216 45 224 214 52 55 224 211 65 224 224 77 82 223 222 98 222 222 80 120 220 78 77 219 219 75 74 166 72 71 152 147 69 68 132 167 66 115 110 169 100 95 168 168 82 78 165 188 68 163 162 176 172 159 166 162 52 155 151 148 49 141 137 48 47 127 46 46 42 114 44 44 40 151
7 226 241 241 237 239 240 240 246 239 238 250 249 237 250 249 236 235 247 245 8 243 241 9 9 234 231 11 240 221 13 14 236 205 18 233 232 177 27 230 192 36 228 228 158 149 226 133 126 162 225 111 108 159 223 103 157 156 223 90 155 127 99 89 155 134 87 155 145 137 222 156 139 81 223 117 140 223 223 105 76 223 83 98 74 222 62 73 73 222 40 167 222 222 54 172 221 24 50 88 222 47 183 87 44 43 87 132 41 40 87 76 38 87 87 79 223 87 81 81 214 87 83 223 206 85 85 198 24 88 187 183 34 91 170 165 35 157 153 36 36 88 138 37 88 88 38 38 88 89 39 88 88 80 41 88 72 69 226 88 58 54 102 104 43 100 100 33 31 98 50 23 97 97 52 218 97 54 55 217 96 56 87 215 49 59 86 86 60 224 86 10 62 223 85 10 222 86 83 11 221 80 12 101 219 77 14 103 74 74 159 106 64 27 139 165 64 123 110 168 204 102 168 64 197 84 166 190 98 164 163 179 103 134 169 165 53 143 155 51 50 46 141 49 48 42 47 47 41 40 45 45 39 151 43 38
222 177 52 58 223 177 73 76 223 29 79 223 223 31 67 223 34 36 223 223 40 177 223 45 47 176 224 53 177 177 227 61 176 176 36 196 176 43 46 176 176 54 223 175 62 64 223 66 71 223 223 89 78 223 94 109 223 223 94 94 222 100 93 159 222 91 155 145 99 88 134 130 99 156 118 79 97 157 106 77 158 159 141 75 222 94 142 223 222 141 72 223 36 140 223 221 27 139 223 24 51 223 223 21 47 87 21 21 193 87 21 198 200 130 21 205 207 127 209 211 126 125 214 215 123 223 218 121 121 222 187 120 222 222 25 118 222 25 26 222 222 26 26 222 27 27 225 222 27 28 225 28 28 226 226 110 226 226 108 108 226 226 107 220 226 105 105 220 226 103 219 219 101 101 218 218 37 217 217 41 42 216 46 48 224 213 55 58 224 97 69 223 223 81 86 222 85 102 221 220 81 190 219 79 78 178 217 75 166 162 86 72 147 142 88 36 126 166 66 110 104 167 79 90 166 165 190 113 163 181 178 111 159 169 54 108 65 154 51 154 66 119 49 68 130 127 152 40 134 45 154 38 142 155 37 76
252 7 52 251 7 7 241 252 7 246 247 7 7 249 250 8 249 250 234 8 248 248 232 240 245 231 230 229 229 228 217 213 225 223 200 21 215 187 183 30 195 174 41 46 167 166 61 67 224 78 84 223 223 100 222 222 102 118 222 222 100 85 222 99 100 221 222 100 155 222 100 99 155 141 99 156 157 141 97 158 142 142 76 160 142 142 162 91 142 223 166 141 141 223 34 140 223 223 26 73 223 23 22 74 223 21 190 75 219 21 197 223 218 43 204 217 21 42 87 128 41 214 87 126 40 87 124 88 40 87 122 222 87 88 93 222 88 88 96 151 88 97 96 137 42 95 128 26 43 91 119 44 225 114 112 46 226 108 47 48 88 104 49 87 87 51 51 87 87 31 87 87 24 23 86 86 18 97 86 15 15 97 86 13 97 97 12 13 97 62 62 98 98 62 63 99 63 63 85 100 63 63 85 133 63 85 85 148 215 86 22 63 211 87 34 109 88 67 53 112 90 74 92 113 62 101 114 114 58 64 113 63 56 54 157 64 48 47 154 65 117 153 67 130 125 151 70 132 45 151 109 140 156 102 100 42
41 252 177 58 234 252 7 79 223 252 8 248 223 8 8 249 234 8 249 249 233 9 247 231 231 235 242 229 64 221 227 226 208 176 221 194 190 25 207 179 176 37 171 169 51 56 164 162 72 223 223 90 96 222 223 110 221 222 101 124 221 99 100 221 221 100 99 221 100 100 155 155 99 99 156 141 99 157 157 142 158 159 142 142 160 161 142 222 164 142 142 223 168 141 223 223 31 140 223 223 25 223 223 22 22 223 21 21 194 223 21 21 201 217 21 206 207 214 21 212 129 128 215 216 127 222 219 125 125 222 222 123 222 222 88 121 222 222 88 97 222 25 25 97 222 26 226 222 124 27 225 118 28 48 226 111 28 226 87 106 50 226 109 103 52 87 107 220 54 87 30 219 86 86 22 218 86 18 17 97 86 15 215 50 14 13 97 61 13 13 98 62 222 98 99 63 85 100 63 63 84 101 63 85 85 63 63 85 75 63 86 86 28 137 87 39 44 111 89 62 69 113 83 90 114 114 109 115 115 62 128 114 113 63 141 111 64 64 114 107 65 120 122 152 68 128 130 71 112 137 156 74 143 145 158 97
252 7 240 252 7 7 33 252 8 8 37 176 8 249 249 176 8 249 232 9 50 248 231 38 244 223 230 32 239 227 73 33 224 223 197 39 223 87 182 31 223 93 174 47 97 98 172 68 101 171 85 77 104 168 106 221 164 162 85 220 156 153 87 222 100 86 85 222 100 84 222 222 96 82 222 93 91 222 222 87 158 222 84 82 92 143 79 91 90 73 73 89 89 73 88 88 73 73 88 87 73 219 87 74 74 218 87 75 217 217 52 78 217 51 50 223 214 49 49 211 21 48 87 205 47 47 87 22 47 87 87 23 223 88 95 96 224 88 98 152 225 120 98 138 87 97 222 127 117 94 120 118 115 221 114 51 51 221 29 52 87 220 30 54 87 31 31 226 86 33 56 225 104 36 225 86 102 224 224 100 17 215 224 97 213 98 95 94 211 98 92 207 205 87 88 201 199 106 195 192 121 126 184 135 139 215 215 149 151 212 74 158 209 208 70 163 203 68 67 198 195 64 87 189 62 61 71 66 58 60 58 157 55 51 49 155 45 44 153 152 40 39 152 123 37 151 151 112 150 151 104 102 43 150 97 42
7 252 7 7 232 252 8 8 243 8 8 247 248 8 249 249 233 232 249 249 232 244 246 230 230 236 241 228 225 221 226 225 206 201 221 193 189 26 208 178 35 38 224 168 52 57 222 68 74 221 221 92 97 220 106 112 220 220 101 86 220 100 99 154 220 100 154 154 222 100 154 154 100 99 155 142 100 156 157 143 90 158 143 143 85 91 143 222 222 89 143 222 56 142 73 222 38 142 222 219 28 74 222 24 61 75 217 22 195 77 216 56 202 135 214 54 209 133 53 52 87 131 51 216 87 88 51 87 127 91 87 87 94 222 171 87 97 160 24 99 99 145 25 99 136 133 51 97 126 52 52 120 118 53 53 113 54 54 87 113 55 55 87 55 57 86 86 41 225 86 33 30 86 85 24 99 86 20 19 98 85 17 98 98 62 15 98 98 63 209 99 63 63 99 93 63 84 100 63 63 84 126 63 84 84 17 63 85 21 23 210 86 31 108 205 70 48 112 89 66 95 114 63 94 76 116 60 65 117 158 61 53 116 63 150 45 153 64 115 152 152 126 123 151 151 114 46 150 107 104 44 150 99 43 160 31
252 176 35 36 176 8 78 40 176 90 245 176 176 90 248 176 80 75 223 176 59 223 223 45 42 223 229 36 224 224 83 210 224 223 91 175 223 96 98 174 223 101 173 173 105 106 171 70 108 169 168 78 111 164 83 84 223 157 87 87 223 131 88 222 222 88 219 222 107 86 222 222 103 220 222 100 99 98 222 95 94 93 97 90 91 91 89 163 89 74 81 167 142 73 170 88 142 73 176 141 74 222 217 140 75 216 23 138 223 215 61 223 222 21 59 222 222 20 212 223 20 56 216 222 21 219 87 129 21 222 127 94 223 224 126 97 224 124 124 222 225 122 122 222 121 120 222 222 26 119 221 26 27 221 221 27 226 221 28 29 225 220 30 225 225 31 32 225 225 34 225 225 106 106 225 104 103 217 224 101 101 215 99 98 213 212 95 95 209 73 92 206 205 90 89 200 104 109 218 191 123 217 216 135 139 214 213 148 211 209 74 157 206 204 71 61 199 68 67 98 91 64 83 78 62 61 67 158 59 57 54 155 55 47 154 153 148 41 152 152 153 109 151 117 114 103 70 107 45 150 74 99 43 78 94 150
218 239 239 228 231 238 252 239 236 236 252 246 234 251 251 233 232 249 248 9 246 244 10 11 238 12 12 239 224 14 16 232 18 19 228 227 25 27 224 205 36 221 221 180 166 220 156 147 160 219 125 158 157 110 107 156 155 102 154 154 129 100 154 154 136 113 153 139 140 219 112 141 220 220 142 142 220 100 143 221 221 98 143 221 95 93 76 222 86 164 165 220 68 169 170 219 78 175 142 36 74 181 141 71 187 87 139 68 195 138 78 65 87 136 222 211 87 82 222 20 87 85 203 20 88 89 195 21 92 187 21 58 95 174 58 224 163 160 57 225 124 57 57 87 122 57 58 87 97 58 87 87 91 58 87 84 82 87 87 72 109 108 62 58 105 31 48 103 103 62 36 102 101 63 101 100 63 63 100 64 64 84 99 64 65 84 17 65 84 84 16 65 83 16 16 219 83 16 16 83 84 17 103 84 18 170 105 77 24 107 107 61 135 109 61 61 112 112 61 91 91 160 60 94 159 60 171 99 157 61 103 56 141 147 109 148 150 133 51 153 112 120 48 157 107 46 46 32 100 44 31 31 150 42 30 86
40 176 223 43 252 176 236 48 176 176 234 252 176 96 232 250 9 84 248 247 10 63 223 11 49 242 223 13 39 224 225 17 230 224 100 226 224 213 106 221 220 195 170 219 174 166 163 168 140 160 159 94 115 156 159 113 155 155 124 89 154 131 133 217 154 137 138 218 100 141 218 219 100 142 220 100 100 220 220 100 158 221 98 97 160 221 93 163 164 85 82 167 168 143 170 172 143 142 176 178 141 222 183 141 140 222 140 139 222 222 138 137 222 21 136 222 222 20 20 222 20 20 217 222 20 220 220 20 20 222 222 21 223 223 127 21 224 225 125 222 225 124 123 222 226 122 221 221 87 121 221 26 119 90 221 27 117 221 112 28 69 220 29 30 225 106 32 225 225 103 64 225 107 38 65 224 104 65 224 84 101 65 223 99 19 65 84 96 209 208 83 17 204 92 83 16 101 111 17 17 103 128 18 104 104 63 22 106 149 62 86 108 61 201 87 61 61 89 67 60 60 93 94 60 95 96 119 60 100 133 137 105 107 145 147 118 151 152 116 151 155 112 111 69 158 106 105 72 31 99 76 77 94 91 80 150
216 238 238 225 237 237 253 237 235 235 252 9 233 251 251 10 231 249 10 10 79 244 11 244 237 175 13 238 221 16 232 231 174 21 226 224 216 46 221 206 201 57 223 182 166 217 223 150 161 223 127 120 157 223 108 156 153 223 121 155 130 132 120 130 136 217 118 115 90 217 105 103 87 219 97 85 84 222 92 82 220 221 102 79 221 96 97 220 220 94 165 219 219 89 87 218 86 86 88 216 83 87 87 80 80 87 140 78 88 87 79 222 87 80 81 207 87 83 84 203 134 86 199 198 89 90 192 68 93 185 182 66 87 173 66 66 87 160 65 87 87 22 65 87 87 64 226 87 99 64 87 87 93 120 86 86 84 114 116 74 111 110 114 61 107 65 111 219 104 66 38 218 37 66 217 101 43 224 84 48 66 223 84 57 223 83 19 70 221 83 18 220 220 91 17 218 83 87 192 216 84 19 180 135 80 168 106 146 77 148 152 61 132 126 156 61 109 157 157 186 88 157 177 175 62 155 165 162 58 154 151 56 55 140 137 53 38 127 51 50 34 115 48 32 32 46 46 30 150 150 29 29 150 150 28 150
47 252 238 237 252 176 236 235 252 9 233 252 252 10 247 250 10 10 247 247 11 246 245 12 12 241 239 14 235 233 225 18 227 221 219 189 221 213 209 177 201 196 169 168 176 167 163 73 143 160 159 96 117 157 111 115 155 155 125 214 214 132 134 215 215 138 216 216 100 141 217 217 100 218 218 100 100 219 100 100 158 220 99 99 160 144 96 162 163 143 89 167 143 143 93 172 143 143 176 88 142 222 184 141 77 222 88 140 222 222 24 80 222 22 22 82 222 21 213 85 200 20 217 196 194 73 221 187 20 72 87 130 71 224 87 127 70 87 126 222 69 87 124 221 87 87 101 221 87 99 97 124 86 92 221 117 68 81 113 28 68 69 109 67 225 107 106 68 84 104 68 68 84 103 68 84 84 68 68 84 84 22 83 83 20 20 83 83 19 101 83 18 18 102 90 18 102 103 19 19 103 64 64 105 105 63 63 106 62 62 86 109 61 87 88 155 60 90 90 156 181 93 98 60 169 97 123 119 101 58 139 120 107 148 120 120 52 154 118 66 50 33 114 69 160 30 150 73 29 103 149 78 144 150 81 88
43 223 237 59 226 223 61 86 223 233 69 102 223 75 251 223 223 84 175 223 91 92 174 223 98 174 174 51 105 174 174 43 173 173 44 46 172 49 51 223 170 58 61 223 58 69 223 223 123 80 223 125 125 223 223 125 126 223 126 126 135 223 125 124 120 100 123 109 105 100 154 97 90 90 156 91 87 222 89 144 84 221 144 82 219 220 144 79 220 101 143 221 219 98 143 221 69 94 88 215 50 91 87 39 89 189 87 30 196 87 139 24 203 87 83 209 210 136 85 198 215 135 222 193 133 132 222 19 131 222 222 19 130 222 20 20 222 222 20 73 222 21 21 226 87 22 226 226 122 23 226 226 120 226 226 118 118 226 226 116 220 226 114 114 220 225 112 219 219 35 109 218 38 40 217 217 44 45 216 49 52 222 214 59 62 222 68 72 221 220 83 219 219 91 90 218 217 87 191 215 85 83 178 211 81 166 161 78 77 146 141 74 129 123 153 154 106 154 154 181 85 155 154 169 118 153 158 155 120 152 145 56 151 63 131 53 64 121 118 50 33 110 48 30 30 131 46 28 28 139 164 27 149 42 166 27
237 217 219 236 252 253 235 234 252 10 232 252 252 10 231 250 11 11 92 246 12 12 100 174 14 239 238 174 52 231 224 20 46 223 219 47 218 223 209 55 213 196 170 65 223 169 164 76 223 126 160 98 118 127 152 116 128 156 140 129 128 129 135 96 126 113 139 214 102 99 93 215 92 91 91 222 101 88 87 221 113 85 221 221 110 82 220 106 106 219 219 103 168 218 100 100 87 143 97 87 87 78 95 88 87 79 88 88 80 80 87 87 82 203 87 84 84 199 135 87 195 194 84 90 188 83 82 222 181 81 80 174 19 79 87 163 78 78 87 20 77 87 87 21 226 87 103 102 226 86 99 126 86 120 91 119 86 83 220 114 116 72 111 30 113 220 108 72 72 219 36 72 84 218 41 72 84 47 48 223 83 55 70 222 99 67 221 82 95 220 219 93 20 202 218 89 196 103 86 85 184 105 82 174 169 139 79 156 145 147 139 134 150 61 116 152 153 184 91 153 154 173 64 153 163 159 60 152 149 58 57 138 135 55 39 125 52 52 33 33 50 31 30 150 47 29 28 150 28 27 149 149 27 149 149 85
44 223 223 60 223 223 72 87 223 223 81 241 223 88 90 246 229 95 174 174 228 103 174 78 108 228 174 59 113 173 19 50 197 172 49 218 184 33 54 223 223 47 210 223 126 65 208 223 128 208 208 124 129 208 223 107 157 208 101 130 155 99 99 154 114 98 99 154 141 96 155 155 142 93 156 144 144 216 157 144 217 218 144 144 218 220 144 219 219 96 107 220 220 89 170 220 79 75 176 221 61 182 183 48 45 189 140 35 196 198 139 139 204 138 138 222 211 136 136 222 135 135 221 221 133 222 222 19 131 222 222 19 222 222 19 19 225 221 20 226 226 20 20 226 226 21 226 226 122 22 226 121 120 226 226 119 118 225 117 117 220 220 114 114 220 31 112 219 219 35 45 218 39 41 35 217 45 223 216 103 54 222 222 61 71 221 97 73 220 219 94 69 218 91 90 67 83 87 190 66 83 83 177 84 84 25 160 142 76 33 109 148 42 121 151 61 62 114 152 176 89 116 60 163 118 118 61 149 119 61 62 107 55 63 125 113 156 66 118 50 161 124 126 163 28 131 133 166 111 138 167 167 103 149 168 98
252 10 11 220 11 11 228 231 232 11 238 231 230 243 244 230 229 246 228 228 243 245 227 234 231 226 225 218 214 224 204 200 23 25 189 186 31 213 178 40 44 209 167 57 206 206 164 78 205 138 94 88 205 114 110 206 223 103 156 207 100 99 155 222 99 154 155 222 128 155 142 222 125 155 144 123 122 85 144 216 158 144 88 217 85 144 218 219 86 83 219 95 87 81 216 86 80 81 214 71 80 212 211 103 187 208 42 101 87 204 99 202 87 98 97 87 137 96 96 87 89 94 87 87 93 221 87 97 97 174 87 101 167 165 103 104 158 156 106 151 149 85 106 142 140 83 221 134 82 82 86 126 81 85 85 80 80 85 83 79 85 84 70 78 84 61 58 225 84 48 46 224 108 39 105 105 33 216 104 74 27 104 104 73 212 103 71 71 208 103 70 82 203 96 69 82 82 111 213 83 22 66 209 81 25 206 84 77 31 199 75 39 125 191 71 57 113 68 67 85 115 60 71 68 151 61 56 53 151 139 45 150 150 126 37 150 117 114 150 150 106 124 150 100 98 46 165 94 45 44 26 88 42 41 25 41
11 213 252 12 221 224 11 12 232 234 231 239 241 230 230 245 245 228 246 245 227 227 236 241 226 225 221 225 224 207 22 23 195 191 28 30 183 35 38 208 174 49 54 205 63 68 203 203 85 203 203 125 105 203 203 107 157 204 101 100 156 205 99 155 155 99 99 155 155 100 155 155 143 100 156 144 144 123 157 144 144 216 84 144 217 217 144 144 218 98 144 219 219 93 83 220 86 83 82 220 72 181 183 209 55 189 192 205 105 198 139 33 103 206 138 102 211 136 136 100 87 135 221 98 87 133 221 20 87 100 221 19 130 103 161 19 105 221 152 89 107 146 19 87 106 137 86 226 132 130 85 226 120 84 83 85 118 83 82 84 78 81 84 84 66 84 84 56 53 83 84 45 107 107 38 35 106 48 31 105 105 75 26 104 74 73 104 104 72 71 104 70 70 82 104 69 69 82 22 67 83 83 24 65 84 27 29 202 86 34 110 87 45 49 112 90 65 114 114 66 93 116 116 61 62 118 61 61 50 151 63 108 121 150 64 114 150 67 109 120 150 70 126 48 166 95 133 167 167 90 43 169 107 85 41 24
78 174 12 217 253 174 82 227 174 12 106 223 174 115 243 223 173 116 223 227 109 104 223 226 228 223 223 122 210 223 223 125 171 224 127 128 170 128 129 168 167 130 131 165 75 78 161 160 86 200 154 93 95 223 144 99 223 223 103 103 223 223 105 222 222 134 104 222 222 131 87 222 129 128 83 222 126 82 82 123 123 83 92 121 84 85 89 118 86 87 86 167 86 85 84 215 143 84 213 213 142 220 210 111 83 220 205 109 221 201 39 108 221 195 106 210 87 27 104 87 87 23 219 87 95 21 222 132 99 223 224 130 103 225 129 128 221 225 127 107 221 19 125 221 139 90 221 221 20 88 221 221 22 226 220 24 24 226 220 26 225 225 28 29 225 84 111 225 225 110 49 224 107 106 217 223 104 104 216 102 101 214 214 99 98 211 72 75 208 207 85 217 203 96 99 215 194 110 212 211 120 123 208 206 131 203 202 77 139 196 194 74 124 187 70 70 100 68 67 84 79 64 64 66 150 61 54 52 150 58 44 150 150 38 36 150 113 110 150 150 103 101 149 97 96 47 149 91 90 44 81 86 42 42 87 83
12 210 213 12 217 220 231 13 228 230 230 236 238 229 228 243 228 228 244 244 226 226 234 17 225 222 217 20 126 204 23 25 192 189 31 211 181 38 41 205 174 52 202 201 162 71 199 199 146 90 198 125 120 99 223 107 157 199 223 100 156 223 98 137 156 222 99 155 89 222 132 156 143 102 129 80 144 212 126 81 96 213 83 83 93 215 84 90 90 218 86 88 218 96 117 86 214 90 176 211 211 115 183 207 206 114 88 202 113 112 87 197 111 88 87 110 109 87 91 92 87 87 95 221 87 97 99 169 87 102 103 161 104 105 156 154 107 108 149 97 109 143 142 95 86 137 94 93 86 130 91 85 85 23 90 85 84 88 226 84 80 87 84 113 68 112 83 59 56 110 108 48 108 108 106 38 107 80 103 216 106 78 214 213 67 76 210 105 74 219 82 89 72 82 82 103 214 82 23 116 210 83 26 206 204 79 30 199 76 75 135 190 73 51 111 146 69 94 114 149 65 73 149 61 60 57 149 138 48 149 150 125 39 149 116 113 52 150 105 104 50 99 97 48 47 93 92 45 25 87 44 43 24 42 42 23
90 173 173 64 173 173 84 91 173 173 108 223 223 118 120 223 118 121 223 223 123 114 223 125 125 236 223 128 128 223 221 129 170 224 130 182 168 66 132 166 165 72 170 163 80 82 166 157 90 223 163 103 99 223 140 104 197 223 128 108 223 98 139 199 222 137 137 202 99 135 83 205 100 132 79 101 101 158 80 101 159 160 144 101 161 83 144 215 164 144 91 217 168 143 218 214 143 143 219 211 142 219 219 75 141 220 63 60 196 220 49 45 204 40 38 210 87 32 30 216 135 26 219 220 133 221 222 132 131 224 224 130 221 221 128 128 221 221 127 221 221 19 124 221 221 20 221 221 20 21 220 22 22 226 220 24 24 226 116 26 225 225 113 30 225 112 111 224 224 108 218 224 107 106 217 223 104 216 216 55 101 214 214 65 27 211 73 76 208 106 85 217 203 96 99 214 106 109 211 210 107 120 206 81 80 65 200 77 76 193 87 73 122 183 70 63 98 92 67 82 77 96 111 64 149 100 135 50 149 129 150 120 149 116 120 120 68 106 120 149 71 124 120 74 94 131 117 79 135 44 171 84 142 42 23 147
14 207 99 173 71 216 173 173 98 227 173 114 117 223 227 123 241 223 124 122 223 225 127 223 223 129 213 223 223 131 170 223 132 132 168 224 133 167 166 72 135 164 78 80 161 159 88 90 154 95 98 223 145 104 106 223 123 110 223 223 141 112 222 140 140 222 222 138 85 222 136 135 79 222 133 78 78 101 130 79 80 101 161 81 98 97 163 144 95 218 85 93 92 215 143 90 213 213 142 89 209 121 141 219 204 120 89 219 61 119 87 193 47 206 87 39 117 213 87 32 217 87 134 26 221 87 102 223 223 130 106 155 129 129 221 149 127 127 221 20 125 221 221 20 123 221 20 20 220 220 21 98 220 23 23 226 84 25 226 226 114 28 225 225 112 225 224 110 109 224 224 107 218 224 105 104 216 103 102 216 214 60 98 213 68 71 210 209 79 83 205 89 92 215 198 102 105 211 111 114 208 207 122 204 202 78 78 196 194 75 133 187 72 71 109 175 69 92 87 66 65 72 148 63 59 55 149 149 46 149 149 121 38 149 149 109 120 149 103 100 149 149 95 48 149 91 90 46 81 86 44 44 23 82 42 22
232 253 172 66 253 253 15 93 252 252 16 230 250 17 17 238 246 18 241 223 18 19 239 223 21 234 231 222 132 222 220 219 188 211 214 213 179 207 204 174 173 192 186 169 71 168 166 165 91 163 163 105 109 191 160 121 192 192 129 131 193 193 136 194 195 97 140 197 198 99 199 200 99 100 157 100 101 158 159 101 101 160 144 101 162 162 144 101 164 144 144 167 168 143 216 171 143 143 217 217 142 218 218 83 140 219 219 70 92 219 59 56 220 220 47 210 220 39 37 216 173 32 219 220 133 27 222 131 131 114 224 129 129 111 86 128 221 226 86 111 220 86 124 111 220 21 109 220 129 21 105 220 22 100 98 122 25 225 90 118 95 225 116 115 93 83 114 91 91 83 107 88 82 105 44 86 82 102 216 82 82 32 214 81 29 28 107 81 26 25 107 25 25 107 107 73 25 107 71 70 108 109 68 203 109 67 66 86 110 65 87 88 64 64 90 91 63 93 93 93 100 97 97 120 117 101 137 142 118 58 152 119 119 55 161 120 69 165 29 119 73 74 119 149 77 130 118 81 82 136 149 86 141 142 149 80
253 223 230 253 253 223 116 252 16 228 122 171 17 125 248 171 19 239 171 19 126 240 171 22 235 223 169 106 225 220 169 90 223 215 82 205 223 137 79 223 195 138 170 223 139 166 155 223 142 163 101 143 143 138 118 145 127 124 117 145 111 107 118 98 94 119 119 222 82 117 222 222 116 115 222 100 112 221 221 133 109 220 131 130 219 219 129 129 84 128 128 85 86 127 127 87 95 126 87 87 94 180 87 94 93 188 88 94 195 87 138 95 187 185 96 220 179 123 98 173 171 121 220 165 120 119 220 27 118 87 151 24 115 86 22 114 226 86 112 111 86 124 112 226 85 111 220 226 120 107 126 226 118 220 123 116 116 220 119 98 220 219 31 96 219 115 36 224 219 40 91 224 45 46 223 82 52 53 222 100 60 221 221 97 30 219 94 94 208 217 91 204 202 88 88 196 108 85 188 185 115 81 173 169 125 160 155 131 133 189 132 138 181 178 141 142 168 68 145 157 153 64 147 143 62 61 132 129 58 58 120 56 56 35 34 53 31 30 149 51 27 26 149 25 24 149 149 23 23 149 83 22 149 149 80 80
229 253 17 17 253 253 17 18 252 18 18 224 249 19 19 234 20 20 238 238 224 22 237 223 222 232 230 221 198 220 218 217 185 208 212 179 177 205 202 173 172 189 170 168 74 78 166 88 93 188 162 106 111 187 133 121 187 187 117 132 188 97 136 122 189 97 97 191 222 98 157 195 99 157 158 221 100 159 159 221 133 161 144 101 132 162 144 130 164 84 144 212 86 143 100 214 87 142 215 208 87 97 216 89 88 96 197 79 96 96 190 67 97 183 181 126 211 175 125 125 87 166 124 220 87 122 122 87 130 120 119 86 111 118 86 86 113 138 86 113 113 133 85 112 130 129 111 110 127 23 107 124 123 105 100 121 120 102 220 118 101 100 83 98 98 83 83 95 95 82 58 93 82 82 47 90 82 41 39 222 81 34 108 82 96 29 108 108 27 206 108 78 26 108 108 75 193 108 73 72 181 109 70 85 164 126 68 86 38 133 185 89 51 65 172 69 74 163 94 66 102 148 63 122 57 134 60 48 117 58 57 38 118 69 33 32 149 71 28 118 149 94 25 149 79 88 23 149 85 135 149 149 81 43 149 79
253 223 223 120 170 223 124 125 170 109 128 170 170 126 131 170 131 132 170 170 132 237 169 128 125 223 168 117 113 223 106 102 223 223 138 224 224 139 139 223 223 140 159 223 142 143 153 223 144 146 143 123 147 135 118 148 158 120 123 124 107 135 125 222 90 125 125 222 142 124 222 222 143 122 221 139 144 198 221 135 77 202 101 133 80 219 101 164 84 101 132 167 86 100 170 86 102 98 175 142 100 180 182 141 99 198 140 139 217 190 138 100 218 65 136 219 175 53 134 219 46 127 219 219 37 221 220 33 31 224 86 29 225 225 127 26 225 226 124 226 226 123 123 226 122 121 220 226 119 119 220 26 117 220 220 28 114 220 30 31 219 219 34 35 219 38 39 224 219 43 224 223 48 50 223 223 101 222 222 99 98 221 221 96 212 219 94 93 208 91 90 204 201 88 87 196 104 84 187 184 114 117 173 121 123 196 153 129 131 186 112 136 177 174 140 65 164 67 144 153 149 64 64 139 61 61 50 125 59 42 39 109 56 34 149 114 166 29 149 51 170 118 149 171 23 149 149 85 118 149 82 81 117 149 79 42
227 253 253 223 125 252 20 223 129 251 21 218 132 170 21 229 242 169 134 235 169 25 132 223 168 126 228 223 167 115 223 215 105 101 224 208 176 223 223 141 171 223 142 143 155 223 145 164 147 147 147 139 112 149 150 126 123 183 114 109 127 183 97 128 128 222 82 128 222 222 127 126 222 222 124 221 221 138 121 220 220 136 78 219 134 134 82 101 133 84 85 133 133 86 107 133 87 87 104 132 87 103 102 183 88 102 102 193 139 102 187 184 137 218 178 131 104 218 169 129 219 162 46 128 219 153 127 223 87 34 125 86 114 30 225 86 116 27 226 123 116 226 85 122 114 226 120 112 220 226 118 108 121 28 115 220 119 108 219 219 34 105 219 219 38 225 219 43 44 224 218 49 223 223 54 56 222 100 99 222 221 97 34 220 94 93 210 218 91 90 205 89 88 200 197 85 85 190 109 111 180 176 119 199 163 125 127 190 142 132 182 179 137 138 169 165 141 158 155 66 144 144 63 62 56 130 60 59 44 58 57 37 35 55 55 30 148 53 27 27 149 50 24 149 149 22 23 149 83 82 149 149 80 80 149 78
123 194 223 127 169 199 225 131 169 223 224 249 169 223 135 244 168 223 234 168 26 221 218 168 131 229 199 32 123 223 35 37 208 223 43 46 197 201 55 192 190 185 70 187 168 162 185 185 141 162 162 122 117 160 128 105 158 157 130 97 157 157 136 157 156 140 140 156 157 142 185 186 143 143 189 100 144 192 193 101 144 196 101 101 200 201 101 101 204 101 101 167 207 101 169 171 142 100 174 176 141 179 181 140 140 187 190 139 216 196 138 137 217 205 135 217 218 135 134 218 56 53 219 219 46 44 219 41 39 223 219 35 34 225 134 31 225 225 129 122 226 122 122 120 226 120 220 226 118 118 219 226 116 219 219 83 113 219 219 83 92 219 39 109 81 114 44 225 219 113 50 223 112 55 96 223 111 63 222 82 110 90 220 94 87 87 81 91 84 82 82 28 201 82 82 27 192 83 28 28 110 85 31 167 110 34 36 111 129 43 112 112 67 171 112 113 66 94 113 66 66 98 114 67 101 102 67 68 105 153 69 109 110 163 72 114 167 169 116 119 171 172 117 173 173 118 118 174 175 118 90 175 118 118 95 20
224 127 168 168 130 131 168 22 134 168 168 123 136 168 168 134 168 168 137 137 168 136 136 223 223 132 130 223 140 123 223 223 141 112 223 141 142 194 223 143 158 223 145 145 153 223 148 147 144 117 151 136 133 126 159 122 130 131 157 106 134 222 93 137 135 222 140 135 181 222 142 133 222 98 145 187 221 141 141 191 101 139 78 196 101 163 81 101 102 165 84 101 168 169 142 101 172 87 142 211 177 140 110 213 185 139 214 191 138 138 216 84 137 216 217 74 135 217 66 63 216 218 56 132 220 49 47 222 86 42 224 224 126 37 225 225 124 226 226 123 122 226 226 120 219 219 119 118 219 219 116 219 219 34 114 219 36 37 219 219 40 41 219 43 44 225 219 49 50 224 104 55 223 223 101 223 222 98 98 221 221 95 213 220 93 92 210 217 90 206 204 94 87 200 197 103 192 189 109 111 179 116 118 197 162 123 126 187 111 131 179 176 112 137 165 69 67 67 151 66 72 140 99 62 54 126 60 147 43 106 58 36 34 111 165 30 149 116 170 26 149 90 173 116 149 86 117 118 88 82 118 149 93 137 118 97
129 187 223 223 252 191 223 223 251 222 222 248 247 222 221 241 27 27 231 227 29 30 213 31 32 226 195 35 218 215 39 41 205 202 47 197 194 198 194 189 188 181 167 185 164 157 163 145 138 161 160 120 115 158 121 104 157 157 131 96 156 135 136 178 156 140 140 178 142 142 180 181 143 182 183 99 144 186 187 101 130 190 101 101 127 195 101 164 165 216 101 167 143 101 137 170 142 100 174 87 141 137 180 140 140 136 88 138 214 136 88 137 215 82 87 112 216 73 113 113 158 63 115 218 56 133 117 143 48 223 119 134 131 224 125 128 128 86 123 127 126 85 120 125 84 84 117 122 84 116 113 84 84 109 219 84 84 102 115 42 96 93 114 109 85 113 113 106 73 112 104 102 112 111 100 99 111 97 96 81 110 93 82 81 34 89 82 82 31 216 82 29 29 83 83 28 110 84 29 29 110 85 32 110 111 72 37 111 70 70 128 111 69 68 103 138 68 94 112 68 68 98 144 68 101 102 146 118 105 155 158 107 110 164 114 99 54 170 115 118 51 24 116 50 174 22 117 47 21 118 149 46 20 149 97 76
73 166 167 86 186 223 102 107 223 221 121 125 223 139 134 223 223 140 139 223 141 141 223 223 141 165 223 142 142 164 163 142 162 162 118 143 160 159 112 169 156 110 111 151 150 115 223 144 121 123 223 155 129 223 223 157 136 223 158 159 177 222 158 157 176 94 155 74 222 96 156 68 98 149 68 68 137 159 72 134 133 161 76 131 219 163 144 127 216 83 143 199 213 143 122 203 101 141 206 204 100 138 209 98 138 185 212 94 138 87 91 89 201 87 84 207 209 134 75 214 215 132 217 219 130 129 218 223 128 218 218 126 125 218 127 124 219 219 40 121 219 38 38 219 219 38 38 226 38 38 226 225 40 41 225 112 43 225 225 110 225 225 107 107 225 224 105 218 224 103 103 217 217 100 216 216 70 97 215 214 77 214 213 82 84 211 87 89 216 206 94 96 213 110 102 210 208 82 110 203 80 79 198 195 76 156 188 74 74 133 176 71 115 109 93 68 90 85 141 101 70 143 144 128 54 145 120 44 146 147 108 113 148 102 100 113 149 95 53 114 80 89 51 50 85 125 48 21 82 130 176 20 133 45 177 20
25 181 181 221 94 183 220 220 250 189 220 247 246 223 220 238 235 223 141 223 33 218 142 165 36 142 192 39 40 212 162 45 202 199 160 54 192 194 157 114 186 177 115 115 223 153 120 180 223 156 128 223 113 158 157 223 160 155 105 223 160 155 137 159 159 78 140 157 71 69 144 152 67 67 141 68 69 139 138 220 74 136 219 219 134 132 217 140 130 215 214 139 127 212 139 139 208 207 139 139 87 139 139 88 88 139 139 88 119 139 88 87 118 203 87 118 118 211 87 119 155 87 120 121 146 144 122 139 137 135 123 131 134 133 218 124 132 132 218 44 130 85 116 42 128 84 42 126 226 84 116 123 84 112 111 225 83 106 219 226 108 97 112 225 106 219 111 104 103 217 111 106 217 217 72 102 216 76 78 221 214 83 95 82 87 89 218 82 93 95 214 86 101 211 210 83 30 206 81 80 179 199 78 166 161 75 74 145 111 73 127 121 133 70 102 96 138 84 79 141 142 135 143 144 124 121 145 146 113 59 147 105 103 56 148 97 54 53 92 91 52 23 87 51 50 22 21 49 21 20 149 46 20 19 149 19
81 224 164 93 223 223 29 111 223 223 30 189 223 142 135 201 223 142 211 223 217 143 164 223 143 193 163 213 143 162 46 207 176 160 125 198 171 61 119 167 166 75 118 223 86 90 180 223 101 178 223 116 116 177 223 161 176 175 95 163 174 174 93 154 173 93 93 155 70 95 156 157 143 98 157 143 144 159 160 144 140 161 144 144 185 163 144 144 190 143 143 193 195 102 197 198 101 101 201 202 100 177 205 99 99 185 208 97 191 194 94 93 200 203 134 206 209 133 132 214 131 130 215 219 129 128 216 127 127 217 217 125 125 217 53 123 218 218 49 225 218 47 47 226 219 46 226 226 47 47 226 226 49 225 225 110 52 225 225 108 118 225 106 106 219 82 103 218 218 82 101 217 74 98 61 216 80 96 215 110 85 42 213 89 94 218 110 95 216 215 110 86 213 84 110 83 207 81 80 79 85 78 77 87 76 37 74 88 73 132 111 91 59 107 135 94 81 111 139 102 110 111 143 129 111 111 72 149 111 73 74 111 111 76 98 112 78 79 115 53 82 83 120 175 87 123 124 177 126 128 177 177 131 132 177 117
216 87 223 217 140 104 223 217 249 223 223 142 243 223 223 143 164 223 143 143 164 142 143 163 163 140 144 162 138 136 160 160 132 196 159 126 125 223 155 121 223 223 120 121 223 223 156 223 223 159 160 223 223 163 118 223 164 165 102 223 164 89 86 92 163 76 151 161 155 68 149 149 66 143 147 221 68 145 144 220 144 142 219 218 143 183 216 142 144 188 213 141 85 211 102 141 87 205 141 174 87 100 141 88 88 99 186 88 125 96 195 135 124 202 204 134 124 160 132 131 214 150 130 125 215 73 127 216 134 66 216 217 61 136 217 217 56 225 218 53 52 225 85 51 226 226 115 51 226 226 113 226 226 111 110 225 109 109 219 225 106 106 218 66 104 218 218 72 102 217 76 78 217 216 82 222 216 86 87 221 214 91 219 219 94 96 217 217 87 215 214 85 85 211 210 82 191 205 80 79 178 78 77 165 160 75 74 144 127 72 125 119 132 134 100 136 137 146 77 140 136 132 110 143 122 119 145 73 110 59 146 103 101 57 30 95 55 54 25 89 53 23 22 120 51 21 149 49 177 19 149 48 19 117 149 178
