P2
256 256
255
28 170 146 43 170 208 44 44 170 205 45 171 171 59 18 171 171 56 201 171 55 54 202 171 52 200 199 51 50 194 49 48 188 187 50 46 181 51 51 172 176 51 51 172 51 51 172 172 52 172 172 27 51 172 172 21 172 172 17 16 173 172 13 175 176 11 11 178 179 11 180 181 42 14 184 41 40 187 188 38 37 190 36 36 171 171 33 33 171 25 32 171 171 26 28 171 27 27 171 170 27 191 170 27 27 189 170 27 186 185 28 27 182 181 28 29 177 28 28 29 227 28 169 169 228 28 169 229 28 28 169 28 28 168 181 28 28 168 28 159 28 177 28 158 28 176 28 157 176 176 28 155 176 28 152 219 28 28 145 28 27 28 202 28 165 195 193 27 164 188 186 27 201 182 26 27 208 176 27 214 216 23 26 221 23 22 225 227 22 33 229 21 21 165 231 22 21 165 22 22 164 164 23 23 165 28 29 165 166 30 232 166 31 32 232 167 34 232 232 28 38 233 233 41 149 233 27 27 233 27 27 172 234 27 27 172 28 27 173 173 28 27 173 102 27 32 173 119 27 173 28 135 234 172 145 130
17 142 42 16 16 225 43 16 225 44 28 17 225 45 171 225 225 28 171 225 225 28 198 225 28 28 198 26 28 199 200 27 28 203 28 28 207 208 28 178 213 28 28 225 218 29 29 225 29 29 225 225 28 225 225 28 28 225 225 28 219 225 28 28 214 225 28 208 206 43 28 198 29 29 171 189 29 29 184 19 29 225 181 29 29 225 24 29 225 225 26 29 225 28 27 197 225 28 199 196 29 28 201 225 28 170 201 28 28 200 199 28 170 198 29 28 170 27 29 170 170 28 29 228 28 28 168 230 28 29 165 28 28 162 233 28 28 161 28 28 160 159 28 168 175 28 28 168 174 28 168 167 28 28 167 166 28 166 166 28 28 166 28 28 134 165 28 28 116 28 28 100 94 28 28 77 28 28 62 58 28 28 47 28 28 160 38 28 159 159 28 28 158 158 27 158 157 27 27 156 156 27 38 156 27 27 39 27 27 39 39 26 26 38 28 28 37 36 28 27 35 27 27 150 33 27 27 148 169 27 146 145 27 59 144 27 27 142 141 28 31 140 28 29 31 137 29 31 32 234 29 33 28 30 27 35
42 143 148 42 42 170 42 42 171 170 43 44 170 53 44 171 171 51 45 171 50 49 28 171 47 201 171 201 44 195 193 42 28 188 48 39 182 181 48 29 178 49 49 29 225 49 172 29 225 49 172 21 48 28 172 17 48 172 219 13 28 172 12 29 28 209 11 182 28 200 29 186 192 191 29 190 38 30 30 225 36 30 196 225 28 30 225 32 28 225 225 28 171 225 225 28 198 225 28 28 201 27 28 201 201 30 28 201 30 30 198 198 29 29 196 29 29 227 193 29 29 228 28 29 230 230 28 29 231 28 28 233 233 28 179 234 28 28 176 235 28 174 174 28 27 173 173 29 168 173 29 29 174 28 28 211 175 28 28 201 28 28 194 191 28 28 185 27 28 120 178 27 27 99 28 27 205 170 28 162 213 28 26 161 221 28 160 226 28 28 159 229 22 36 158 27 22 158 27 27 38 159 27 27 40 28 27 40 40 28 27 39 28 31 38 38 27 33 232 27 27 151 233 27 150 149 27 27 148 147 27 146 145 28 28 144 143 28 31 141 28 29 31 27 29 32 32 28 30 32 28 28 33 34 29 29
17 225 225 16 15 225 28 15 225 225 28 17 225 28 28 198 225 28 28 202 45 28 202 202 28 28 203 27 28 205 206 28 171 209 29 29 172 213 29 225 172 30 29 225 225 25 174 225 28 29 173 47 28 173 225 47 28 175 45 28 172 178 44 28 208 11 43 172 199 30 172 172 14 30 171 171 17 194 171 20 30 197 171 23 199 225 25 25 201 225 28 202 202 29 28 202 29 29 171 201 29 28 171 28 28 170 170 28 28 170 27 28 170 170 28 188 170 28 28 183 170 28 178 177 28 28 172 172 28 169 168 28 28 165 165 28 168 162 28 28 168 28 28 168 168 28 28 168 28 28 168 168 28 28 167 28 28 166 166 28 151 150 28 28 144 141 28 135 131 28 28 118 113 28 26 97 28 28 79 74 28 162 59 28 28 161 28 28 160 160 28 28 159 28 28 27 158 27 27 27 233 27 39 157 233 24 40 28 27 25 40 28 25 39 160 27 26 37 27 152 27 164 27 151 27 165 40 149 167 27 46 233 27 52 145 234 28 63 233 28 27 77 234 29 31 234 234 27 32 233 27 27 170 234 27 28
40 169 150 225 28 170 225 41 28 170 225 28 171 205 225 28 171 46 28 28 203 44 205 204 204 27 201 206 39 29 225 209 29 188 225 213 30 225 46 30 30 225 28 172 225 225 28 172 225 28 28 219 225 28 28 218 28 28 215 213 28 28 209 31 28 203 201 30 225 194 31 31 225 185 31 225 225 31 31 225 225 31 225 225 28 31 225 28 28 203 225 28 28 195 29 28 198 200 29 28 201 31 28 171 201 31 28 200 27 31 170 198 30 227 227 28 30 228 229 28 184 230 28 30 178 232 28 174 233 28 28 169 28 28 169 165 28 28 173 28 28 168 171 29 28 168 28 29 168 168 28 29 168 28 28 157 167 28 155 154 28 28 151 183 28 145 143 28 27 134 130 28 164 117 28 28 163 28 28 162 162 28 28 162 28 28 161 160 28 23 160 28 28 40 159 28 28 39 27 27 40 40 27 40 41 28 27 41 41 28 156 41 27 27 155 39 27 154 154 27 27 153 27 27 151 151 27 27 149 27 27 147 147 28 28 32 28 28 31 31 28 29 31 27 29 32 32 28 27 33 28 29 27 34 30 133
52 146 170 51 51 166 170 49 179 183 41 47 193 225 42 200 201 42 28 205 43 44 171 204 43 44 171 44 45 171 171 45 45 171 31 30 172 172 27 26 172 24 23 176 172 21 175 175 18 18 175 174 15 175 175 44 44 177 178 43 172 180 42 41 172 40 40 172 172 38 38 172 14 37 171 171 18 35 171 20 21 201 171 23 24 203 25 25 204 205 26 205 205 29 27 205 205 29 32 205 28 28 32 203 29 171 171 226 28 170 27 28 28 170 28 28 170 192 28 28 170 28 28 28 185 28 178 176 180 28 172 28 28 30 168 28 30 165 235 28 30 162 28 28 30 226 28 168 29 216 27 168 28 204 28 171 28 28 27 174 28 27 177 178 29 27 182 28 28 187 189 28 129 195 197 27 158 28 26 26 154 27 25 151 150 27 24 148 27 27 147 146 26 27 146 27 27 233 28 27 233 233 23 28 233 234 24 157 233 24 25 233 233 25 154 233 26 26 157 232 27 159 159 34 27 161 36 38 33 164 41 43 165 27 48 233 167 55 58 233 27 67 233 233 28 140 233 27 27 138 233 27 169 136 30 28
28 169 49 157 169 210 47 176 209 46 17 190 208 44 198 225 207 24 204 42 208 27 225 43 171 29 225 28 171 225 225 28 171 225 28 28 217 225 28 172 218 28 28 219 20 28 28 219 31 175 217 216 31 225 214 32 32 225 209 32 225 225 32 32 225 39 33 225 225 28 172 225 28 28 179 225 28 28 177 33 28 178 179 28 28 183 34 28 188 190 34 28 194 34 34 225 199 34 226 226 27 34 226 226 34 204 227 28 33 227 227 28 198 228 28 28 193 28 28 189 188 28 28 185 32 28 170 181 31 28 170 28 31 169 174 28 31 169 28 30 164 231 28 162 225 28 28 161 214 28 159 159 28 27 158 194 28 167 157 28 27 166 28 28 166 179 28 28 165 28 28 165 165 28 27 164 28 28 108 163 28 28 84 28 28 69 64 28 56 53 28 28 47 45 28 160 43 28 28 158 42 28 159 158 27 27 158 27 27 157 157 27 27 156 27 27 40 156 27 27 38 27 27 36 36 27 27 34 27 28 33 33 27 32 33 27 27 146 32 27 144 143 27 28 141 141 28 140 139 30 29 138 31 31 119 135
47 148 152 46 46 167 40 44 181 184 40 43 194 41 41 201 202 41 170 205 42 42 171 171 42 171 171 32 43 171 171 29 171 171 26 25 171 171 23 181 172 20 19 177 219 18 176 176 43 15 175 42 42 32 176 42 41 178 225 40 172 181 40 28 172 225 38 172 172 225 28 172 15 16 28 172 18 199 28 176 22 203 171 180 36 205 185 25 37 225 192 37 207 225 197 37 226 29 171 36 226 28 171 226 227 28 171 227 28 28 197 228 28 170 193 28 28 190 28 34 28 186 33 186 183 182 33 180 179 32 32 237 175 32 236 236 31 31 233 232 31 228 226 28 28 218 215 28 167 206 28 28 168 28 28 169 170 28 28 172 30 28 175 176 29 27 180 29 29 159 186 28 28 153 28 28 148 147 28 111 143 27 26 88 140 27 72 138 28 27 226 136 27 229 230 28 27 232 22 27 159 234 23 27 159 27 23 158 234 27 24 157 27 25 42 148 27 26 150 27 27 38 154 32 36 36 27 35 34 34 27 150 33 27 27 147 32 27 146 145 29 28 144 30 30 142 141 30 27 139 30 31 34 137 31 31
28 214 213 15 28 212 15 16 211 211 18 19 210 21 22 225 225 26 26 225 28 29 225 225 28 203 225 28 28 225 225 28 217 225 28 28 218 218 28 218 218 33 28 218 218 33 172 216 33 33 172 14 34 225 207 34 34 225 12 35 225 225 28 36 225 28 28 189 225 28 181 193 35 28 177 225 33 171 176 32 28 171 179 31 171 184 25 40 171 191 40 208 171 27 40 226 27 27 207 226 27 27 206 28 27 205 204 28 28 202 28 28 170 199 28 170 170 28 28 170 186 28 170 170 28 28 170 170 28 170 170 28 28 172 170 28 169 168 28 28 166 28 28 164 163 28 28 161 28 28 161 160 28 28 160 28 28 168 168 28 167 167 28 28 166 166 28 166 166 28 28 165 165 28 140 164 28 28 124 163 28 109 103 28 28 86 28 28 70 66 28 28 56 28 27 161 48 27 27 160 132 27 159 159 28 28 158 27 27 159 158 27 44 157 27 27 42 156 27 40 39 232 27 38 37 233 27 35 27 27 27 158 27 150 33 161 27 147 163 28 52 145 164 28 143 233 166 76 141 31 89 93 233 31 36 113
43 149 153 214 15 168 39 41 181 185 39 20 194 40 40 170 203 40 170 171 225 41 170 31 225 28 171 27 41 28 217 25 28 171 218 22 28 219 20 34 180 218 34 178 225 216 34 176 41 35 35 225 40 35 36 225 28 36 225 225 28 38 225 28 28 187 225 28 182 14 28 28 178 16 28 176 176 43 28 176 177 44 179 181 44 44 225 45 45 225 226 45 45 226 28 45 226 226 28 45 227 28 28 227 227 28 199 228 28 28 196 195 28 193 192 40 28 189 188 39 170 185 38 38 170 180 37 238 177 28 36 237 28 35 172 234 28 34 228 28 28 166 218 28 28 163 28 28 166 161 28 168 166 28 28 168 168 31 168 168 28 31 167 174 30 156 166 28 30 149 166 28 149 141 28 28 138 28 28 127 123 28 27 107 28 28 163 84 28 27 162 27 27 161 230 27 160 161 28 27 160 160 28 160 159 28 28 46 159 27 45 44 27 27 44 43 27 42 42 27 27 40 27 27 38 37 27 27 36 27 27 151 151 27 27 149 29 27 148 147 29 145 145 30 30 143 143 30 34 141 31 31 35 36 32 37
37 169 215 38 38 169 213 16 170 170 37 20 170 213 35 202 170 33 29 206 31 30 206 225 28 27 202 41 28 196 194 41 28 189 41 41 172 183 41 28 171 41 41 171 214 41 172 172 15 40 172 172 14 177 172 13 13 178 172 12 181 182 12 12 185 35 13 189 190 34 14 193 33 33 197 198 32 31 172 31 31 171 171 30 30 171 25 29 171 171 26 171 171 27 27 171 171 27 207 207 27 27 206 206 27 205 204 28 28 202 28 28 200 199 28 28 196 28 28 170 191 28 28 170 28 28 170 170 28 28 169 28 28 28 170 28 170 170 168 28 167 169 28 35 164 165 28 163 162 28 33 161 28 28 32 174 28 168 32 164 28 168 157 155 28 166 148 28 28 182 28 28 165 28 28 27 195 28 137 27 204 28 120 211 213 26 99 219 26 25 119 226 24 64 119 27 23 120 27 27 121 122 28 160 124 125 27 234 128 28 28 233 132 28 233 233 28 29 233 233 26 232 232 27 27 232 27 27 151 233 27 27 155 29 27 157 158 27 27 160 46 48 161 162 56 232 163 66 69 233 164 82 233 233 34 101
216 15 28 215 215 16 225 214 18 19 225 22 23 225 225 27 28 225 28 31 225 225 28 34 225 28 28 200 225 28 28 220 40 28 220 219 28 171 218 37 28 216 215 38 171 211 39 39 172 204 40 225 172 13 41 225 28 12 179 225 28 44 183 35 28 186 225 28 28 191 33 28 176 195 32 28 175 53 31 172 178 55 171 171 25 56 171 189 26 206 171 27 57 207 171 27 207 227 27 27 206 28 28 205 204 28 28 203 28 28 171 200 28 28 171 28 28 171 170 28 28 170 28 28 170 170 28 181 170 28 28 176 169 28 172 171 28 28 168 167 28 166 165 28 28 164 28 28 169 161 28 28 169 28 28 168 168 28 28 168 28 28 168 167 28 28 167 28 28 166 166 28 154 152 28 28 147 145 28 139 136 28 28 123 118 27 27 101 27 27 85 113 27 162 66 27 27 162 28 27 161 161 28 27 160 28 28 27 160 28 27 28 233 27 45 159 233 26 43 26 27 42 41 27 27 39 27 27 27 36 27 153 27 153 27 151 156 156 40 148 159 28 47 233 30 55 145 232 31 68 232 32 28 85 232 32
37 169 169 36 37 169 35 35 169 169 33 33 170 31 31 201 170 30 205 206 39 27 206 205 39 203 201 39 39 195 194 39 171 188 39 39 171 182 39 172 171 39 39 171 16 16 171 171 15 14 172 14 14 176 172 13 13 178 184 13 180 181 13 50 184 34 13 188 189 33 172 192 32 32 172 197 31 172 172 225 30 171 171 29 28 171 25 29 171 193 27 206 171 27 27 206 200 27 205 205 201 27 204 28 200 60 202 28 59 58 232 28 57 196 234 28 171 236 28 28 170 238 28 170 180 238 28 170 28 28 28 172 28 28 169 169 43 28 167 166 40 205 164 39 39 192 164 38 182 28 37 36 171 28 35 163 160 28 35 153 28 28 171 144 28 28 176 28 28 180 182 28 28 188 31 28 193 195 30 165 202 29 29 208 211 28 108 108 27 26 108 108 25 107 107 27 24 109 27 27 56 111 28 28 52 27 28 234 118 27 28 234 25 28 160 233 25 28 233 28 26 158 232 27 41 156 28 27 145 155 28 36 150 34 29 35 154 37 33 33 28 43 33 29 49 146 34 31 59 232 33 34 142 232 38 39
169 225 225 28 169 225 28 28 216 225 28 28 217 27 28 217 28 33 28 218 36 206 219 219 38 225 220 40 40 225 221 40 225 225 28 41 225 225 28 225 225 28 28 225 225 28 203 225 28 28 193 37 28 187 185 28 28 180 51 52 178 178 54 55 177 56 58 225 177 60 225 225 16 63 225 225 19 197 225 28 66 200 226 28 185 226 29 28 191 226 28 171 197 28 28 200 69 28 171 201 68 28 171 28 66 230 171 28 65 232 28 64 196 235 28 193 237 28 28 188 238 28 185 184 28 28 180 179 28 170 172 28 28 170 169 28 169 169 28 28 169 28 28 169 169 28 41 169 28 28 161 169 28 28 160 28 28 159 159 28 159 159 28 28 159 158 28 167 158 28 28 166 156 28 166 166 28 27 166 165 28 165 165 28 28 164 28 28 113 163 28 28 90 28 28 75 71 28 28 62 27 26 56 54 27 162 52 26 26 161 49 26 161 161 26 26 160 160 26 159 159 28 27 158 158 28 40 156 28 28 38 232 28 36 36 232 29 34 28 29 27 34 29 30 34 158 31 145 34 33 144 143 160 38 142 141
36 169 169 225 37 169 169 225 28 169 30 30 28 218 28 201 170 219 26 205 219 24 40 204 221 22 200 225 221 42 193 38 221 43 225 38 171 43 225 28 171 225 225 28 171 225 28 28 194 225 28 172 14 28 28 178 13 28 175 175 58 179 175 175 62 225 176 64 65 225 176 67 225 225 69 70 225 30 71 226 226 28 171 226 28 28 189 226 28 28 195 28 28 199 199 28 28 201 74 28 201 201 73 171 199 72 71 232 196 70 234 235 28 68 237 237 67 188 238 28 64 239 28 28 181 237 28 28 176 28 28 171 170 28 28 168 51 28 169 165 48 28 169 28 45 169 162 44 161 169 28 41 159 157 28 160 148 28 28 159 138 28 159 159 28 28 158 28 28 167 158 27 28 166 27 27 166 194 28 27 166 28 31 165 164 28 29 164 28 28 110 163 28 93 88 28 28 74 70 28 64 61 26 26 56 55 26 162 52 26 26 161 26 26 161 161 26 26 160 28 26 160 159 28 28 158 28 28 40 156 28 29 37 29 29 36 35 29 34 35 29 30 34 34 31 34 34 33 33 145 36 36 144 143 41 42
32 150 225 28 28 169 225 28 218 186 36 28 219 225 28 170 219 37 28 220 24 37 170 221 43 43 170 21 44 225 170 19 45 225 19 18 182 225 18 47 178 37 17 177 225 36 176 176 36 28 171 175 35 172 174 35 34 172 170 33 172 172 13 32 172 13 14 172 171 15 15 172 16 17 190 225 19 20 194 29 23 196 196 29 198 198 29 29 199 199 28 171 200 29 29 171 171 28 171 171 27 28 171 171 28 171 171 28 28 171 28 28 190 170 28 28 186 28 28 183 182 28 28 179 28 28 175 174 28 170 171 28 28 170 168 28 170 170 197 28 169 169 28 28 169 28 28 169 169 28 160 169 28 28 159 164 28 159 159 167 28 159 28 28 38 159 28 28 159 111 27 167 158 27 28 166 100 27 166 166 95 28 165 28 93 28 165 28 28 28 220 28 107 164 227 26 85 231 28 24 96 234 24 61 99 234 23 102 26 24 24 108 26 25 113 114 28 161 119 28 29 232 125 29 29 232 29 29 232 28 30 30 231 27 31 232 232 27 35 231 27 27 152 232 28 154 155 28 28 156 156 28 157 157 66 28
225 28 169 219 225 28 219 29 28 28 219 29 28 220 220 36 28 220 40 41 221 221 44 44 222 45 45 225 37 46 47 225 28 47 225 225 28 180 225 28 28 225 225 28 196 225 28 28 183 181 28 175 173 61 28 168 64 65 172 167 68 69 170 13 72 225 174 75 76 225 15 78 225 225 28 81 226 28 28 192 226 28 184 194 29 28 190 227 28 171 196 28 28 171 200 28 171 202 27 84 171 28 83 193 171 28 82 235 28 28 188 236 28 28 184 28 28 181 180 28 28 177 28 28 171 173 28 171 173 28 28 170 169 28 170 170 28 28 170 170 28 170 169 28 28 160 28 28 159 159 28 28 159 28 28 158 158 28 28 158 28 28 158 158 28 27 158 27 27 168 168 27 167 167 28 27 167 166 28 166 166 28 28 165 165 28 142 165 28 28 125 221 28 109 103 26 28 87 26 26 74 70 26 26 62 26 26 163 56 26 26 163 105 26 162 163 28 28 162 28 28 161 160 28 44 160 28 28 41 158 28 39 39 231 29 37 28 231 27 35 30 30 27 150 32 149 35 154 36 147 154 40 55 145 156 47
28 150 155 36 28 169 35 35 169 185 36 36 169 36 36 169 169 24 170 170 22 22 170 170 21 200 170 20 20 191 171 19 186 184 19 19 180 179 18 178 177 36 35 176 35 35 171 175 34 34 171 34 33 172 172 33 33 172 14 32 172 172 13 177 172 14 14 179 172 15 182 182 17 18 185 186 20 187 188 29 23 189 190 29 90 191 28 28 171 227 28 171 171 28 28 171 27 28 171 171 28 28 171 28 28 28 171 28 185 28 194 28 181 180 189 82 178 28 28 80 174 28 78 171 231 28 75 168 28 171 72 210 28 170 199 195 28 170 28 28 28 163 28 28 170 162 28 28 161 28 53 28 162 50 157 163 164 48 158 28 46 45 113 27 43 43 104 28 42 98 97 28 40 92 28 28 88 88 28 196 85 28 28 205 28 28 211 213 31 28 219 221 29 224 226 27 27 230 26 25 87 233 24 24 90 28 24 94 96 28 24 100 28 28 53 105 28 28 111 26 28 232 118 28 232 232 27 29 232 231 27 157 231 27 27 155 231 27 143 231 30 27 148 31 28 35 151 32 28 153 40 32 38 154 57 60
225 35 28 160 225 28 169 177 36 28 220 191 35 169 222 35 36 169 222 46 170 222 21 49 170 20 51 194 170 20 52 225 19 19 182 225 19 18 178 35 28 176 176 35 28 175 34 34 171 174 33 171 172 33 32 172 159 32 172 172 14 31 172 172 14 176 172 14 15 178 16 16 180 181 18 19 183 29 21 184 185 29 24 186 28 28 187 187 28 28 171 28 28 171 171 28 171 171 27 28 171 171 28 171 171 28 28 171 171 28 178 177 28 28 174 28 28 172 171 28 28 168 28 28 166 166 28 28 163 28 28 171 161 28 28 170 28 28 170 170 28 28 170 28 28 28 170 28 157 169 161 28 157 169 28 53 156 164 28 156 111 27 48 157 27 27 45 96 27 168 43 90 27 168 86 27 28 167 82 26 166 200 28 28 165 28 34 28 214 28 137 28 222 29 119 227 228 27 96 232 25 25 84 234 24 88 89 28 24 93 25 28 97 99 28 164 103 105 29 232 110 28 28 232 118 28 232 232 29 29 231 27 27 231 231 27 27 231 27 27 143 231 27 28 147 32 28 150 150 28 37 152 48 28 153 152
27 150 155 35 26 168 173 35 169 184 35 35 170 225 36 169 170 225 35 169 21 35 28 170 21 35 170 20 20 28 170 20 183 182 215 19 178 178 204 61 176 34 18 64 174 34 67 174 225 33 72 173 32 28 172 225 31 172 158 225 28 172 14 225 28 171 14 28 28 176 16 28 177 178 96 28 179 98 98 226 183 100 181 227 101 101 228 28 102 102 229 28 101 230 230 28 101 232 28 28 233 234 28 200 199 28 28 196 28 28 193 192 93 28 188 187 90 170 183 88 88 180 86 86 221 218 84 83 208 28 81 197 193 28 77 181 28 28 156 167 28 28 158 28 28 161 145 28 170 161 62 28 161 162 58 169 163 56 55 169 166 52 100 169 28 49 92 28 28 157 86 28 45 157 26 28 157 78 26 28 157 26 28 166 155 25 28 213 26 26 166 220 25 165 165 28 28 165 230 28 93 164 28 25 75 165 28 66 87 28 28 59 25 28 56 55 25 28 52 26 26 163 50 26 26 162 26 27 160 160 27 28 158 29 29 156 156 30 155 155 31 31 153 152 31 36 36 32 32 37 38 33 39 40 52 33
16 225 222 19 20 225 222 27 225 225 24 37 225 225 43 198 225 28 50 225 35 28 223 225 28 28 222 35 28 221 220 35 28 215 61 35 171 205 64 171 171 19 68 171 177 17 173 225 16 75 173 225 15 172 225 28 14 172 225 28 171 171 30 28 172 30 30 172 175 29 28 172 17 29 171 180 20 29 171 22 105 171 171 25 176 171 26 26 175 171 27 174 174 28 27 173 172 28 171 170 28 28 169 168 28 171 166 28 28 171 28 28 171 171 28 28 171 28 28 170 170 28 28 170 28 28 155 170 28 154 155 28 28 154 154 28 154 153 28 28 153 153 28 170 153 28 28 170 154 28 170 170 28 28 169 28 27 169 169 28 27 169 28 28 155 169 28 28 156 177 28 156 157 28 46 157 26 28 157 157 25 41 157 26 26 39 154 25 166 166 71 25 166 166 72 28 165 28 25 28 232 28 28 165 28 28 28 235 28 65 63 234 28 59 25 233 25 55 26 25 26 105 26 26 50 113 28 27 118 27 29 27 126 29 158 231 133 30 156 30 31 31 231 32 33 230 230 28 36 231 230 28 230 231 28 28
34 17 154 35 35 24 225 35 170 34 225 28 170 225 225 28 170 225 28 28 223 225 28 170 223 58 28 222 21 60 28 217 62 179 211 208 65 225 198 68 69 225 181 72 225 225 28 77 225 225 28 225 225 28 28 225 28 28 152 225 28 28 163 30 28 170 172 28 28 176 105 105 179 179 108 109 181 110 110 227 185 111 228 228 25 113 229 229 26 167 230 28 113 165 232 28 202 234 28 28 202 28 28 200 199 28 28 196 105 28 171 192 103 28 171 28 100 230 183 28 150 219 28 94 149 205 28 150 193 28 28 149 178 28 150 149 28 28 150 150 28 170 162 28 28 170 28 28 170 170 28 28 170 28 28 170 170 28 63 169 28 28 153 169 28 154 154 26 28 155 155 26 155 156 26 26 156 157 25 167 157 25 25 167 156 25 167 166 28 25 166 28 28 166 166 28 28 166 28 28 106 166 28 28 85 28 28 74 71 28 66 64 25 25 60 59 25 165 56 26 26 164 52 26 163 163 27 27 162 162 28 160 160 29 30 158 30 30 39 156 31 31 38 231 32 38 37 230 33 38 48 33 40 41 57 28
24 34 170 24 24 170 169 24 34 170 23 22 190 225 22 196 198 35 21 199 199 35 197 195 34 34 189 187 34 170 181 33 33 170 33 34 170 171 20 33 170 19 19 171 171 18 18 171 17 17 170 171 16 16 170 15 15 169 169 30 168 168 30 29 167 167 29 172 166 29 29 172 165 28 172 172 29 28 172 23 28 171 171 25 25 171 26 26 158 171 27 27 156 202 27 153 153 203 28 150 28 28 115 147 28 113 145 28 28 171 143 28 171 171 233 28 171 171 223 28 171 28 28 28 176 28 28 170 172 28 143 169 28 90 144 166 28 146 150 163 84 147 28 161 80 127 28 78 77 115 28 74 106 104 28 170 96 28 28 165 88 28 169 169 28 28 172 28 28 177 178 54 28 183 185 51 189 190 49 48 67 198 46 65 65 43 42 65 24 40 65 66 28 36 67 28 28 129 69 28 28 232 28 28 234 234 28 28 235 24 28 234 234 24 166 234 25 25 165 232 25 99 231 28 26 106 108 27 49 114 29 27 120 121 29 43 127 29 30 40 35 30 230 38 40 32 230 45 46 152 230 28 37 150 34 28
223 18 20 225 223 27 225 225 22 40 225 225 22 191 225 28 28 197 225 28 223 225 34 28 223 33 28 170 219 33 28 215 21 33 171 203 72 73 171 20 77 225 170 19 81 225 18 18 170 225 17 169 169 31 16 168 225 30 167 166 30 28 172 164 29 171 173 29 29 172 16 28 172 172 19 28 172 21 22 172 172 24 124 172 25 26 149 230 27 27 145 28 27 143 142 28 139 138 28 28 136 135 28 171 133 28 28 171 171 28 171 171 28 28 171 28 28 171 171 28 28 171 28 28 131 171 28 28 133 28 28 136 136 28 28 138 28 28 140 141 28 171 143 28 28 170 145 28 170 170 27 27 170 170 27 170 170 28 28 170 28 28 151 169 28 28 152 173 28 152 153 180 28 153 25 28 53 154 25 25 155 63 24 167 156 24 28 167 63 24 167 167 63 28 166 28 65 28 166 28 28 28 233 28 98 234 234 25 80 234 28 24 81 234 24 63 25 233 25 92 26 25 26 99 27 26 105 108 28 162 114 29 29 230 121 29 159 230 29 29 230 31 30 30 229 28 31 230 230 28 142 230 28 28 143 229
23 170 170 23 23 164 170 22 175 178 22 22 187 33 22 193 194 33 22 196 33 33 192 190 33 33 183 33 33 170 171 33 170 170 21 33 171 171 21 28 171 20 20 28 171 19 168 171 144 17 167 167 16 98 166 30 15 165 225 29 109 162 29 29 115 226 29 172 120 226 28 172 227 227 28 172 21 28 28 187 23 28 172 25 130 28 195 26 134 28 200 129 129 202 203 129 124 203 128 127 237 28 125 238 237 28 123 236 28 28 232 231 28 171 224 221 28 184 210 28 28 179 109 28 176 175 105 28 172 102 101 169 168 98 97 165 95 94 135 163 91 90 122 28 87 113 110 28 142 102 28 28 94 92 28 162 85 28 28 165 78 28 167 168 26 28 172 65 25 169 178 61 60 169 28 58 62 190 55 54 61 28 51 60 60 28 47 61 28 28 154 61 28 221 148 23 28 227 64 23 167 232 24 28 167 234 24 167 235 28 24 167 28 24 167 167 28 25 88 28 28 58 95 28 28 55 27 28 52 52 29 29 48 31 31 45 45 34 159 42 37 39 157 230 43 156 155 33 50 154 153 34 152 152 34 35
171 23 23 155 33 22 167 225 33 22 180 33 28 188 190 33 28 193 33 33 170 191 33 170 170 33 33 170 170 22 170 170 22 22 170 170 21 167 171 21 20 167 171 20 166 166 19 18 165 30 17 164 163 30 30 162 29 29 171 159 29 29 172 29 29 172 172 28 171 172 17 29 172 172 19 140 172 22 22 134 172 24 128 126 25 26 121 119 27 116 114 28 27 109 28 28 133 104 28 28 171 237 28 171 171 28 28 171 28 28 171 171 28 28 171 28 28 28 171 28 96 28 178 28 101 102 28 109 106 28 28 111 112 28 102 117 28 28 97 124 28 170 93 112 27 170 103 101 28 170 28 27 28 161 28 28 170 163 77 28 165 28 73 28 170 71 148 173 175 67 150 25 63 62 61 24 60 59 59 28 56 59 58 28 58 58 28 28 58 59 28 217 59 28 28 224 28 28 228 229 34 28 232 30 29 234 234 26 26 235 25 25 76 234 24 24 82 28 25 86 88 28 25 94 28 28 100 102 28 230 108 28 28 230 115 29 230 230 36 29 229 229 28 157 229 28 28 156 33 28 137 229 34 28 140 35
22 33 28 224 22 28 170 224 45 28 224 22 56 28 224 61 190 225 224 66 189 33 69 70 225 32 72 225 225 28 76 225 225 28 225 225 28 28 225 225 28 162 157 28 28 144 19 28 136 134 104 28 133 109 111 137 139 116 118 149 121 122 226 165 127 128 226 28 131 226 227 28 134 227 28 28 125 228 28 188 229 28 28 193 230 28 197 198 140 28 201 201 140 172 204 139 139 172 28 137 237 202 28 136 234 28 134 73 229 28 131 221 28 28 73 207 28 171 75 28 28 179 79 28 171 175 28 28 171 171 28 171 171 28 28 170 28 28 109 170 28 98 108 28 28 124 97 28 28 131 27 28 135 136 26 28 140 26 26 170 143 25 170 170 25 25 170 173 25 169 169 28 24 169 169 28 169 168 28 28 168 28 28 152 152 28 28 153 23 28 153 154 23 28 151 23 23 145 142 23 23 131 23 23 167 111 23 167 168 28 24 168 168 28 168 168 28 28 168 168 28 63 167 28 28 59 230 29 56 55 29 29 52 32 33 49 48 36 37 45 40 41 159 42 47 48 156 133 54 155 155 136 32 154 35 35
33 28 149 33 33 171 164 33 28 224 22 33 170 224 63 170 170 22 68 170 170 22 181 170 22 23 170 170 23 165 164 32 22 162 32 31 160 160 31 28 160 31 30 171 158 30 30 171 30 30 171 171 29 29 171 16 16 171 171 15 144 171 15 15 137 172 16 131 129 17 17 122 119 19 114 112 28 22 104 28 28 172 94 28 28 172 28 28 172 172 28 28 172 27 28 172 172 28 28 172 28 28 58 171 28 56 56 28 28 54 54 28 54 54 28 28 55 55 28 128 58 28 28 124 161 28 171 171 145 28 171 28 28 28 171 28 28 170 164 28 28 170 28 100 28 161 28 117 28 161 92 125 26 161 88 132 26 85 83 69 25 80 140 25 28 77 61 24 169 59 59 28 169 28 56 28 188 28 28 28 196 28 28 201 203 57 28 209 54 52 215 217 49 152 222 45 44 58 22 40 38 61 28 34 63 63 28 29 66 28 28 70 71 28 234 75 28 28 233 82 28 232 231 26 28 230 230 26 166 230 27 27 230 29 27 112 230 27 27 119 31 27 124 126 32 28 130 30 30 44 133 31 32 135 70 33
224 28 28 224 224 28 224 224 51 54 225 224 62 225 224 67 68 225 224 71 225 225 23 75 225 28 78 163 225 28 82 225 31 28 191 225 28 28 169 30 28 153 149 30 28 137 107 30 171 128 115 171 129 17 122 171 137 127 137 226 16 134 226 226 15 122 226 28 16 111 28 28 103 100 28 28 91 28 28 172 191 28 28 172 26 28 172 199 27 28 172 27 148 172 172 28 49 172 28 28 45 172 28 42 42 28 28 41 40 28 40 40 28 28 40 28 28 171 41 28 28 171 28 28 171 171 28 28 171 28 28 171 171 28 28 171 28 28 74 171 28 83 87 28 28 96 99 28 105 109 26 26 117 119 26 170 126 25 25 170 25 25 170 170 24 24 170 28 24 170 169 28 23 169 28 28 145 169 28 28 147 197 28 148 149 28 59 150 22 28 151 151 22 50 151 22 22 45 147 22 168 168 59 22 168 28 23 28 168 28 23 169 234 28 28 169 28 28 28 232 28 68 66 231 28 63 28 230 27 59 31 27 27 106 35 27 51 114 28 27 119 45 29 28 125 29 158 229 129 30 228 35 31 31 228 35
32 172 172 32 32 172 171 32 171 171 22 32 171 22 22 171 170 23 23 171 23 23 170 166 23 23 159 32 23 154 153 31 152 151 31 31 150 150 30 170 148 30 30 171 146 30 171 171 19 29 171 171 18 28 171 17 16 171 16 16 120 171 15 16 109 172 16 100 97 181 17 88 28 28 150 77 28 172 69 230 28 172 60 28 28 172 233 28 172 172 235 28 172 27 28 28 172 28 37 28 203 28 33 201 200 148 31 197 28 145 202 192 143 30 185 187 141 171 28 28 137 155 28 171 143 139 28 171 129 28 28 170 116 28 171 167 28 28 164 28 28 28 162 110 75 162 161 104 78 161 100 99 72 161 95 68 66 91 90 63 62 87 60 59 28 28 57 28 28 176 55 28 28 183 22 28 188 190 28 28 196 67 28 201 203 62 28 209 59 58 53 216 54 54 54 28 49 55 56 28 144 58 28 38 131 61 28 117 63 23 28 99 23 28 169 233 25 28 232 25 26 169 231 25 28 168 29 26 167 230 29 27 166 30 27 55 110 30 51 115 45 32 48 121 29 46 46 59 29 47 47 68 157 50 74 76
225 32 32 172 224 32 32 172 22 32 171 171 23 32 171 23 23 170 170 23 169 170 23 23 156 225 23 150 149 31 23 146 145 31 144 144 30 30 142 30 30 170 139 30 30 170 29 29 171 171 18 29 171 17 17 171 171 16 16 171 16 16 98 171 16 89 86 16 17 77 75 28 70 67 28 28 60 58 28 172 52 28 28 172 233 28 172 172 28 28 172 27 28 172 172 28 28 172 28 28 29 172 28 28 26 199 28 25 25 28 149 24 28 28 24 24 28 144 24 28 28 171 25 28 171 171 128 28 171 28 115 28 171 28 28 28 166 28 28 171 163 28 52 162 28 112 64 161 28 75 72 161 102 91 25 98 97 62 24 92 91 59 28 88 57 56 28 170 54 28 170 179 53 28 185 28 28 28 192 28 28 197 199 67 28 205 207 63 210 212 60 59 52 219 54 53 53 50 49 55 28 44 57 58 28 37 60 28 28 62 64 28 28 234 28 28 233 232 28 232 232 25 28 231 230 26 168 230 26 27 167 229 27 102 229 30 27 109 111 27 52 116 28 28 121 56 29 48 125 30 30 49 72 30 228 55
32 173 35 225 32 172 156 225 28 171 225 32 28 171 23 28 171 223 23 28 170 24 81 28 218 24 144 212 209 90 139 197 192 96 225 175 102 135 225 30 110 225 30 28 118 225 28 170 225 225 28 171 225 28 28 131 226 28 28 147 28 28 161 166 151 28 176 153 154 183 184 156 228 187 157 158 229 191 158 230 231 159 159 232 233 28 234 234 28 28 234 28 28 205 233 28 28 205 28 28 204 203 28 28 201 155 28 172 196 152 152 192 28 151 166 187 148 20 149 28 146 136 133 28 22 123 28 28 23 111 28 24 102 27 28 167 27 28 171 164 27 28 163 28 26 171 162 115 26 171 28 108 170 170 28 102 61 28 28 98 58 28 109 111 23 28 120 54 22 126 128 22 28 132 133 21 169 136 21 21 169 28 21 169 169 28 20 169 28 28 169 169 28 28 169 28 28 148 169 28 28 144 28 28 138 135 22 127 123 22 22 109 105 23 170 92 24 25 170 80 26 170 170 28 28 169 29 29 168 168 29 29 167 30 30 60 165 30 31 55 32 32 52 51 33 33 50 62 34 50 51 71 158 54 78 80
22 34 225 22 47 151 225 28 159 225 32 28 166 225 28 171 166 32 28 223 154 31 171 219 31 31 170 210 92 170 170 24 98 170 24 23 126 170 23 113 121 22 22 116 225 21 21 107 29 19 100 97 29 171 89 28 28 171 78 28 171 171 28 28 171 173 28 171 171 18 28 172 172 20 171 171 22 22 39 24 24 36 35 26 26 32 28 27 30 29 28 27 27 28 28 26 26 28 172 172 28 28 172 172 28 172 172 28 28 172 172 28 172 172 28 28 172 172 28 19 172 28 28 19 28 28 20 20 28 28 21 28 27 138 22 27 27 25 27 27 171 29 26 171 171 72 26 171 171 28 28 171 28 28 28 171 28 74 170 164 28 91 170 28 94 106 172 28 115 51 21 84 124 21 21 80 49 21 169 76 49 20 169 49 49 28 169 49 28 28 213 50 28 169 220 59 28 225 28 53 28 230 47 142 232 233 40 131 234 34 33 62 234 28 66 67 26 25 71 26 28 76 77 28 170 82 84 28 229 90 28 28 229 28 28 228 228 28 28 228 27 27 227 228 28 28 228 28 28 123 227 28 28 126 36 28
225 28 42 225 225 28 225 225 28 28 224 225 28 224 224 28 28 223 24 28 221 220 87 28 216 91 93 170 205 97 99 225 103 105 225 225 111 113 225 28 120 225 225 28 128 225 28 28 91 225 28 120 226 28 28 129 133 28 171 146 154 28 161 166 157 171 177 159 160 171 18 161 228 172 20 162 230 28 23 33 232 28 164 31 28 28 29 233 28 28 27 28 28 172 26 28 172 205 28 28 172 203 161 172 172 28 159 172 196 28 21 172 28 156 20 28 28 19 130 28 28 19 28 28 19 19 28 28 20 28 27 172 20 27 27 171 27 27 171 171 26 171 171 28 26 171 171 28 33 171 28 28 42 171 28 52 55 28 28 67 22 28 79 84 22 28 96 21 21 107 110 21 20 170 20 20 170 170 20 170 170 28 19 170 170 28 169 169 28 28 169 169 28 141 169 28 28 144 144 28 145 144 21 28 142 21 21 40 131 22 22 119 62 23 171 102 24 25 171 28 27 171 171 28 28 170 29 29 28 169 29 70 28 229 30 65 166 228 27 60 228 32 28 57 59 28 55 65 68 28 122 74 160 28 125 82
22 137 139 31 23 147 149 31 154 155 32 32 158 32 31 172 153 31 31 171 24 30 171 171 24 31 171 24 24 171 171 24 109 171 24 24 103 170 23 98 96 23 22 89 87 28 82 79 28 29 72 69 28 171 61 28 28 171 28 28 171 171 28 28 171 17 17 171 171 18 18 172 19 20 34 171 22 32 32 194 24 30 29 26 166 28 28 27 27 27 28 172 26 28 28 172 25 28 172 172 202 28 172 28 183 28 172 28 28 28 194 28 28 172 28 28 20 186 28 20 20 181 154 20 28 177 151 20 28 150 148 87 27 146 20 80 28 143 75 26 28 165 70 28 171 163 65 28 162 28 28 28 162 28 28 163 163 114 28 165 166 107 52 168 102 100 51 96 95 49 49 91 90 48 28 86 48 48 28 81 47 28 28 47 47 28 206 208 28 28 213 215 28 218 220 63 28 224 226 58 170 229 53 51 170 232 45 56 233 39 37 60 28 31 63 65 28 27 68 28 28 88 74 28 28 80 31 28 229 86 36 169 228 27 28 167 228 27 166 228 32 27 164 227 28 58 162 34 28 120 161 35 60 123 36 36
225 28 23 140 225 28 23 149 32 28 153 225 31 28 151 31 28 172 136 30 172 219 24 30 171 211 100 171 171 25 108 171 170 24 95 171 24 24 88 23 23 81 79 29 22 72 28 29 64 62 28 28 55 28 28 171 48 28 28 171 28 28 171 171 28 171 171 17 18 171 171 19 32 172 21 21 30 171 23 30 29 25 25 28 28 26 27 27 28 27 26 28 28 172 25 28 28 172 28 28 172 172 28 28 172 28 28 172 172 28 28 172 28 28 21 172 28 21 21 28 28 20 21 28 21 20 28 28 20 27 27 151 20 27 27 148 75 26 172 172 69 26 171 28 25 28 171 28 24 171 28 28 28 171 28 33 28 164 28 42 171 167 110 54 21 28 103 71 20 98 83 48 19 92 47 19 28 86 47 18 170 46 46 28 170 28 47 28 210 28 28 28 216 28 28 221 223 63 28 226 59 57 230 230 52 141 233 46 43 57 22 37 35 61 28 30 65 66 28 68 70 28 28 74 76 28 229 81 28 28 229 89 28 228 228 27 28 227 227 27 165 227 28 28 227 28 28 116 227 28 28 120 36 28 122 122
23 133 136 225 23 142 144 225 74 148 31 31 82 146 31 173 136 30 30 172 117 30 172 171 225 30 171 25 225 28 171 25 29 28 163 24 80 171 140 24 71 127 23 141 62 117 146 57 225 115 152 49 28 156 157 225 28 171 161 226 28 171 226 227 28 171 227 28 28 186 228 28 190 190 28 28 193 23 28 196 196 169 28 199 201 169 228 203 169 169 222 169 169 213 210 168 168 198 28 167 182 177 28 166 162 28 28 198 142 28 28 194 28 28 190 189 28 186 185 160 28 182 181 159 172 178 157 156 83 174 155 78 77 28 152 72 28 149 21 68 28 146 64 25 28 22 61 28 28 23 24 28 163 163 22 28 164 125 22 171 166 117 171 171 28 109 170 173 28 65 170 28 97 47 170 28 94 46 28 28 107 18 28 115 117 18 28 122 18 18 170 127 18 28 170 19 18 170 225 28 19 170 28 56 171 171 28 139 171 28 28 132 172 28 122 118 28 28 107 104 28 98 95 30 30 88 32 34 171 82 37 39 170 42 44 169 168 49 51 167 32 57 165 165 33 66 164 34 35 65 162 36 67 68 36 37
130 31 23 136 138 31 141 143 31 31 144 143 31 174 173 31 30 172 25 30 172 172 25 30 171 25 25 171 171 25 25 171 25 25 73 71 24 67 65 29 24 59 57 28 53 51 28 28 47 45 28 171 41 28 28 170 37 28 171 171 18 28 171 17 18 171 171 18 18 171 19 20 30 171 21 22 29 195 24 28 28 198 171 28 28 28 170 27 28 172 27 213 28 172 26 28 28 172 182 28 172 172 161 28 172 28 28 28 197 28 23 28 193 28 23 189 188 163 23 184 28 162 89 180 160 22 27 159 158 77 27 172 156 72 28 172 68 67 28 172 64 28 28 165 61 28 172 163 28 28 163 28 28 163 163 133 26 165 165 126 50 167 121 118 49 171 113 48 48 107 105 47 28 99 47 46 28 28 46 28 28 198 46 28 28 205 17 28 210 212 28 28 216 72 28 221 222 68 170 226 63 62 51 230 57 53 53 28 48 55 57 28 132 60 28 33 120 25 28 109 68 28 28 97 31 28 229 228 35 28 228 26 41 170 227 27 28 168 31 27 167 227 33 71 165 34 28 69 113 35 69 116 81 36 75 119
225 54 133 31 225 72 225 31 80 82 225 31 87 225 225 28 93 225 30 28 225 225 28 172 225 28 28 198 25 28 28 176 127 28 157 151 135 28 135 142 144 123 120 149 225 114 153 155 225 225 159 225 225 28 163 225 225 28 33 226 28 28 226 226 28 176 227 28 28 187 28 28 191 192 172 28 194 172 172 171 198 172 172 200 26 172 221 204 171 27 209 28 171 197 192 28 26 177 28 28 25 155 28 203 25 28 28 199 122 28 172 194 28 28 172 28 28 172 186 28 163 172 28 162 23 172 28 161 74 28 28 23 69 28 22 22 26 28 23 23 25 23 22 24 24 172 23 24 172 164 23 22 171 164 21 171 171 28 21 171 28 28 171 171 28 28 171 28 28 43 46 28 28 56 17 28 68 72 17 80 84 17 17 95 99 17 170 107 17 17 170 170 17 170 170 28 18 170 170 28 170 171 28 28 171 28 28 139 172 28 28 137 233 28 130 127 25 28 117 27 27 108 105 30 173 97 33 35 172 90 39 171 171 88 46 169 169 51 28 168 32 32 166 166 33 74 165 34 35 73 226 36 76 78 225 37
31 31 177 24 31 176 175 24 30 175 24 24 175 174 25 25 109 25 25 91 87 25 25 76 30 26 69 68 29 64 62 29 29 57 55 29 171 50 28 28 171 170 28 171 171 23 28 170 21 21 170 170 20 20 171 19 19 31 171 18 18 30 28 18 30 30 28 18 29 28 28 29 29 28 171 29 28 28 171 28 28 171 171 223 28 172 172 27 28 172 27 28 172 208 28 27 172 28 28 26 206 28 26 26 202 28 25 28 198 169 25 28 28 167 95 28 172 24 86 28 172 81 28 28 172 74 28 172 176 70 28 172 28 160 28 170 28 23 169 168 156 23 166 166 153 57 164 151 149 54 164 146 53 52 143 142 50 28 171 49 49 28 171 48 28 28 172 47 28 28 178 28 28 183 185 28 28 191 98 28 196 198 91 45 203 86 85 45 210 81 45 46 78 76 47 47 73 47 48 28 68 49 28 28 230 52 28 28 232 21 28 233 232 23 28 232 35 28 173 230 28 28 230 29 26 173 228 25 97 79 29 26 84 86 30 88 92 28 31 85 98 28 82 80 68 28 78 73 75 165 79 82 28 225 37 90
225 62 67 177 225 78 81 176 24 88 225 224 25 95 225 25 101 93 225 28 78 225 30 28 66 225 28 172 58 29 28 171 51 28 171 146 28 28 171 24 152 171 170 24 157 171 22 22 34 171 21 165 225 20 20 31 225 19 19 30 28 18 30 30 28 171 29 28 28 171 29 28 171 171 28 28 171 196 28 171 171 25 28 171 26 27 172 172 27 27 27 28 28 27 27 28 28 27 28 28 26 26 28 28 26 28 28 26 25 28 172 172 28 28 172 172 28 172 172 28 28 172 172 28 172 172 28 28 172 28 28 24 172 28 28 24 25 28 24 24 24 28 24 24 24 24 24 23 22 24 22 21 172 24 21 172 171 50 19 171 171 28 28 171 28 28 28 171 28 30 171 180 28 37 185 28 107 49 192 28 60 45 16 92 76 16 16 87 45 16 171 81 46 17 171 47 47 28 170 48 28 171 229 50 28 171 28 58 28 232 28 139 28 232 42 135 231 231 33 63 230 28 27 69 229 26 73 75 26 26 80 43 28 85 87 28 170 92 94 28 226 99 28 28 226 28 28 225 225 28 28 224 28 28 225 225
30 179 178 24 30 178 177 24 128 176 25 25 116 175 25 97 91 25 26 74 69 26 63 61 29 26 55 29 29 135 49 28 29 171 225 28 171 171 224 28 171 24 28 28 170 23 28 171 111 22 28 171 20 168 30 126 19 30 30 145 172 29 28 166 173 29 28 174 28 227 28 175 227 28 28 176 225 28 172 198 220 28 171 26 210 28 204 27 28 28 207 174 28 208 208 173 28 208 173 173 206 206 172 26 110 172 171 100 28 170 170 89 28 170 82 81 28 77 76 28 28 72 70 28 180 179 28 28 177 176 28 174 173 163 28 171 162 161 172 169 160 159 167 28 158 55 165 156 155 53 28 153 51 51 28 149 50 28 28 25 48 28 168 47 17 28 172 47 28 171 179 16 28 184 185 114 171 190 107 105 171 28 98 44 171 28 90 45 28 28 87 46 28 80 100 16 28 108 48 17 28 118 18 28 171 128 19 172 232 20 21 172 232 23 173 173 28 25 174 174 28 125 174 29 29 114 29 29 108 77 30 29 102 47 30 99 98 55 31 96 62 64 93 92 70 72 167 75 77 166 165 84 165 165 37 93
180 24 75 179 178 24 126 225 25 25 118 225 25 102 96 29 26 76 30 30 62 59 29 29 52 29 29 172 46 29 28 172 25 28 171 172 25 171 171 25 24 171 171 24 32 170 23 23 31 170 21 30 30 21 20 29 29 28 29 29 28 28 28 28 28 170 28 28 28 171 28 28 171 171 28 28 171 24 28 172 171 26 28 171 27 27 28 172 27 28 28 208 28 27 27 28 174 27 28 28 27 27 28 172 27 28 28 172 90 28 172 172 81 28 172 28 28 28 172 28 27 172 183 28 28 172 28 167 25 176 28 25 25 173 164 25 25 171 162 25 24 161 161 55 23 159 25 53 28 157 52 21 28 165 50 28 172 166 49 28 168 28 28 28 171 28 28 175 175 133 28 180 126 124 45 187 117 34 44 109 107 44 15 100 98 44 28 92 45 45 28 86 46 28 28 46 46 28 224 225 28 28 228 229 28 231 231 63 28 232 232 54 173 232 47 44 231 28 37 62 230 31 29 67 28 27 71 73 28 26 78 28 28 106 84 28 28 103 58 28 226 97 67 168 225 28 28 167 225 28 166 224 37 28 165 224
225 30 28 225 225 28 178 224 225 28 223 25 28 28 221 111 28 218 217 121 56 211 128 131 225 197 138 140 225 144 146 225 224 151 153 224 28 157 224 224 28 32 225 28 28 110 225 28 111 112 28 28 117 119 28 126 130 173 28 144 174 174 171 165 176 176 180 19 176 226 225 177 177 224 28 177 220 218 28 177 211 28 28 28 195 28 205 28 28 28 208 208 28 172 209 175 28 173 209 174 173 206 28 173 172 28 173 26 173 28 172 78 28 28 26 72 28 28 26 27 28 26 26 27 28 26 27 28 173 26 26 172 174 25 25 172 172 24 172 172 28 162 172 172 28 26 172 28 28 26 28 28 25 25 28 28 25 18 28 26 25 17 28 26 17 16 171 25 16 16 171 15 15 171 171 15 171 171 28 15 171 171 28 171 171 28 28 55 170 28 67 71 28 28 83 16 28 93 96 16 28 106 17 17 116 119 18 19 129 20 20 173 173 22 23 174 28 25 174 174 28 28 174 29 29 175 174 29 120 173 30 30 114 173 30 111 110 57 31 108 63 66 27 105 72 74 28 104 79 167 105 108 88 166 110 97
181 24 25 180 180 25 25 178 25 25 107 177 26 88 80 220 26 61 57 26 129 48 29 29 43 41 29 173 38 29 28 173 224 28 172 172 224 28 172 25 225 28 171 24 28 28 110 23 29 171 113 22 29 120 21 174 28 135 175 28 225 155 176 28 28 177 177 225 28 171 177 223 28 171 220 218 28 198 211 28 172 201 195 28 204 27 28 28 207 28 28 209 209 176 28 209 209 175 108 208 175 174 93 174 174 85 82 173 173 76 28 172 72 70 28 171 67 28 28 186 64 28 184 183 28 28 180 179 28 177 176 167 28 174 173 166 173 171 165 165 55 170 164 53 53 28 162 52 28 160 26 51 28 158 50 19 28 26 48 28 28 26 16 28 171 172 16 172 176 142 15 171 182 134 171 187 28 125 171 195 118 32 171 28 107 44 28 28 49 44 28 28 64 15 28 77 81 15 28 92 16 17 172 106 18 28 172 19 19 173 232 28 173 174 28 49 174 175 28 143 175 29 29 137 175 29 131 129 29 30 124 46 30 120 119 54 28 116 60 62 171 114 69 71 169 75 76 168 168 83 85 167 37 93 166 166
225 28 28 225 225 28 28 224 30 28 223 223 114 28 221 121 124 176 215 132 225 209 26 141 225 194 147 225 225 26 154 224 224 26 32 224 28 28 31 28 28 115 225 28 28 109 28 28 171 111 28 28 117 21 28 171 129 176 28 171 20 177 225 171 20 28 224 20 20 28 222 21 28 28 28 23 28 208 28 28 28 28 28 172 28 28 172 206 28 28 172 28 28 172 173 28 28 173 28 28 173 173 28 174 173 28 28 27 73 28 27 26 28 28 26 26 28 26 26 27 27 26 26 27 173 26 27 26 173 26 26 173 173 28 25 173 28 28 173 173 28 28 173 28 28 26 172 28 28 26 28 28 26 26 18 26 26 17 17 26 26 16 172 26 16 16 172 26 15 172 172 45 14 171 28 14 28 171 28 28 171 28 28 30 171 28 28 38 210 28 47 51 216 91 63 15 28 84 80 16 80 92 48 17 172 107 18 28 173 52 20 174 174 55 28 174 28 58 28 230 29 28 28 228 29 140 228 227 27 132 227 30 26 80 226 27 124 87 27 27 91 68 27 27 97 28 28 101 103 28 168 106 28 28 223 108
30 118 117 30 30 181 113 29 180 179 29 29 178 178 29 178 177 26 29 176 176 26 175 175 26 26 35 26 26 33 33 26 26 31 28 26 30 30 28 25 30 28 28 170 29 28 171 28 28 28 171 171 28 170 170 21 28 170 170 20 28 171 20 20 28 171 20 28 171 189 21 28 194 22 179 28 28 24 28 193 28 179 28 28 28 178 152 28 172 178 128 28 172 112 108 28 173 28 28 28 208 28 28 173 205 175 28 201 28 27 28 196 173 26 193 192 172 61 188 171 171 59 27 171 58 58 28 169 57 26 28 57 56 28 173 55 28 28 172 54 28 28 170 28 28 168 168 164 28 167 163 162 167 167 161 161 167 160 159 48 168 157 48 47 28 153 47 46 28 26 45 28 28 45 45 28 190 44 28 28 197 13 28 203 204 14 28 209 106 14 171 215 96 95 172 28 88 46 223 28 79 47 28 78 49 49 28 109 50 28 28 128 54 28 139 143 24 28 229 60 28 175 228 32 28 175 29 40 175 227 30 47 174 31 26 174 173 32 27 89 33 33 129 95 35 129 130 80 36 131 132 90 135 137 100 104
116 116 30 183 114 29 28 181 30 29 180 222 29 29 178 26 29 177 177 26 29 176 26 26 175 175 26 26 32 26 26 31 31 26 30 30 28 26 29 29 28 29 29 28 28 28 28 28 171 28 28 28 171 22 28 170 171 21 28 170 20 20 171 171 20 20 171 20 21 28 171 22 22 28 28 23 28 28 28 179 28 28 28 28 28 28 172 28 28 28 172 28 28 173 173 95 28 173 28 28 28 173 28 28 174 204 28 27 174 28 28 26 195 28 26 26 191 28 26 27 186 172 26 27 174 171 57 26 174 26 56 28 174 55 25 28 174 55 28 173 171 53 28 170 28 27 28 168 28 27 167 167 163 27 167 167 161 49 168 160 27 48 170 157 47 15 155 154 46 28 172 45 45 28 172 45 28 28 194 44 28 28 201 28 28 206 207 28 210 212 106 28 216 217 96 45 221 89 87 47 225 82 48 48 78 76 49 50 71 51 52 28 63 54 28 28 230 58 28 28 229 30 28 228 227 36 28 227 28 28 175 226 26 175 226 31 27 173 225 27 89 91 34 27 95 97 35 139 100 28 37 143 104 28 148 106
30 25 99 225 29 109 106 225 30 120 225 29 180 132 225 28 178 26 225 28 177 26 28 28 193 27 28 175 172 163 28 154 26 166 28 133 169 29 122 119 171 225 28 173 173 224 28 175 224 224 28 176 224 224 28 224 224 28 28 223 28 28 158 222 28 28 178 180 28 189 191 180 28 196 180 180 199 199 179 179 202 179 179 149 205 179 131 124 28 178 108 103 28 28 91 28 28 27 78 28 208 72 28 28 205 28 28 202 200 28 28 197 174 174 174 192 173 173 174 28 172 56 185 28 171 56 28 171 26 55 28 27 55 25 28 27 55 28 174 27 22 28 171 27 21 173 169 20 20 173 28 19 173 173 28 17 172 28 28 27 172 28 160 27 28 28 27 47 28 28 26 13 28 26 26 13 26 26 13 13 26 26 13 172 171 13 13 171 211 13 172 172 28 13 172 28 28 171 172 28 28 172 28 28 81 173 28 28 102 18 28 119 125 21 28 140 24 25 150 152 29 176 156 33 34 176 156 40 176 176 30 48 175 175 31 174 174 32 32 173 33 33 147 171 35 35 148 223 36 150 151 223 38 156 105 109
113 29 29 184 109 29 183 182 30 29 181 181 29 180 180 26 29 179 179 27 35 178 27 27 31 176 27 31 30 27 27 30 28 26 29 29 28 26 28 28 28 173 28 27 28 171 224 28 172 171 224 28 171 22 28 171 171 21 28 171 21 21 28 171 20 28 28 182 21 28 28 193 180 28 28 24 180 177 28 180 28 152 28 180 132 28 28 179 109 28 172 210 91 28 173 28 28 28 210 28 28 28 207 176 28 204 203 175 28 200 175 175 196 195 174 26 56 174 173 56 27 172 55 55 28 172 55 55 28 55 55 28 28 55 55 28 174 174 28 28 172 168 28 171 170 167 28 169 167 166 168 168 165 165 168 164 164 50 168 162 162 49 28 161 48 48 28 27 47 28 28 27 46 28 186 46 13 28 194 45 28 172 201 12 28 206 28 125 171 212 116 113 172 28 104 46 172 28 94 47 28 28 63 48 28 81 84 17 28 101 51 20 174 126 22 28 230 146 26 175 228 30 31 176 227 36 176 176 29 44 175 30 30 158 175 31 27 156 32 33 156 89 34 34 157 79 36 159 160 89 37 162 99 103 168 169
225 105 109 225 225 118 121 225 28 28 225 225 28 219 225 28 28 213 225 28 206 203 28 28 191 186 28 175 169 168 28 152 147 171 224 132 172 173 224 26 174 224 224 25 176 224 28 177 28 223 28 178 223 28 28 28 222 28 171 141 28 28 157 162 28 171 177 180 28 171 191 181 171 171 23 181 171 200 25 28 148 26 180 128 28 27 28 105 28 28 28 28 28 28 28 28 28 27 28 28 174 27 28 174 175 28 28 174 201 28 175 175 28 175 175 175 28 26 175 28 28 26 175 28 26 26 28 28 26 25 25 26 27 24 24 27 24 23 174 27 22 22 174 21 21 174 174 20 174 174 28 28 173 173 28 27 173 28 28 27 173 28 27 27 28 28 27 27 28 27 27 13 28 27 12 12 172 27 12 12 172 12 12 172 172 12 12 171 28 12 172 172 28 28 172 28 28 28 172 28 46 50 227 28 66 71 28 79 88 18 28 108 115 21 65 134 24 25 55 58 28 176 176 62 35 176 29 68 28 176 30 50 176 225 31 28 175 32 27 28 224 34 166 28 223 28 168 85 222 28 171 98 28 28 102 116
26 26 186 186 26 100 184 26 26 76 183 26 54 48 26 27 37 28 27 33 32 29 28 30 28 28 177 30 28 28 176 28 28 175 175 28 28 174 26 28 173 173 25 28 172 25 25 28 172 24 28 28 116 23 28 28 22 180 28 28 21 28 217 28 180 28 28 28 181 201 28 171 171 182 28 172 24 157 28 172 26 28 28 205 27 28 173 208 180 28 210 28 28 28 211 179 27 28 210 178 27 28 178 178 58 28 177 56 55 28 175 54 28 28 54 54 28 175 190 54 28 187 28 28 28 183 28 28 180 180 171 28 178 171 171 176 175 170 169 174 169 169 55 55 168 168 54 28 168 53 53 28 28 53 28 28 51 51 28 169 50 28 28 172 172 28 175 176 161 28 180 181 158 172 186 155 154 172 28 151 46 200 28 144 45 28 137 45 45 28 126 45 28 28 26 46 28 222 33 13 28 226 48 14 173 228 16 28 174 230 18 174 230 28 67 175 28 60 148 176 29 49 61 29 29 170 66 29 30 172 47 30 172 173 57 28 172 64 66 174 174 72 173 173 79 82 172 223 89 171 171 38 104 170 170 39
225 224 26 104 225 26 132 86 29 26 64 225 28 27 40 29 28 34 32 28 28 31 28 28 178 183 28 28 177 27 28 176 176 27 175 175 26 26 174 174 26 28 173 25 25 28 224 25 28 28 28 24 28 28 28 28 28 28 28 28 28 28 171 28 28 28 171 28 28 171 171 23 28 171 24 24 172 172 25 28 172 26 27 28 173 27 28 28 28 28 28 28 28 27 27 28 28 27 28 28 175 26 28 28 175 55 28 176 176 28 28 176 28 27 176 176 28 28 176 28 28 25 175 28 26 26 182 28 26 26 180 172 26 24 28 27 27 23 170 27 22 22 175 55 21 174 174 55 19 174 28 54 28 174 28 16 28 169 28 28 173 171 28 28 173 28 163 28 177 162 28 48 183 159 27 12 157 156 46 11 153 151 46 28 146 46 46 28 45 45 28 28 216 46 28 220 221 28 28 224 28 28 226 227 90 28 229 229 82 230 230 76 74 53 70 67 55 56 59 57 58 28 48 62 63 28 37 67 28 28 70 72 28 225 76 28 28 224 224 28 224 223 27 28 223 222 28 172 222 28 28 171 221 28 101 221
26 26 188 224 26 94 186 26 26 66 220 27 46 41 29 160 34 28 28 167 31 28 180 171 225 28 178 29 224 28 177 224 28 28 175 224 28 175 121 26 28 114 26 178 28 110 25 28 111 112 179 28 117 119 180 220 128 180 181 217 28 181 212 210 28 181 201 28 171 188 183 28 172 165 28 28 200 138 28 28 203 28 28 205 206 181 208 208 181 181 210 210 180 66 211 179 179 60 210 179 57 56 178 178 54 28 177 53 53 28 28 52 28 28 195 53 28 28 190 27 28 188 186 26 28 184 173 28 176 181 172 56 178 28 171 56 176 171 27 56 28 170 56 56 28 27 56 28 28 28 18 28 28 28 16 28 169 15 28 174 170 14 28 172 28 13 173 176 164 12 173 28 161 172 172 28 27 172 28 28 27 46 28 26 26 11 28 26 46 11 25 24 11 28 24 12 12 172 26 12 13 173 13 14 173 173 28 15 174 28 28 174 175 28 28 175 28 28 145 176 29 162 167 29 29 176 178 42 181 182 49 51 184 185 58 176 186 65 68 175 72 74 174 174 81 84 173 37 93 172 172 38 39 171 40 40
106 26 26 99 95 26 84 77 28 27 55 48 28 39 36 28 28 182 31 28 181 181 28 28 180 179 28 178 178 27 27 177 27 27 176 176 27 27 28 26 26 28 28 26 26 28 28 25 28 28 28 181 28 28 28 28 28 28 171 28 28 28 171 171 28 171 171 22 28 171 171 23 28 172 24 24 28 200 25 28 173 203 27 28 206 27 181 28 28 28 28 67 28 180 27 28 28 179 56 28 176 179 54 28 176 52 52 28 176 28 28 177 198 28 28 177 28 175 28 190 28 25 187 185 173 25 183 183 173 56 180 172 172 57 24 171 58 58 28 171 58 28 28 58 58 28 175 57 28 28 170 56 28 28 170 28 28 170 170 167 28 172 166 166 174 174 165 51 178 164 164 49 183 162 49 48 28 159 48 48 28 27 47 28 28 47 10 28 211 47 28 28 217 11 28 220 221 11 28 224 109 13 173 227 97 94 228 28 87 51 229 80 88 53 28 72 55 55 28 149 58 28 29 172 62 28 181 183 44 28 225 52 54 177 225 61 28 176 33 71 175 223 34 80 174 36 28 173 173 38 28 97 39 40 209 99
224 225 28 28 223 144 28 222 221 156 220 219 163 164 215 214 169 225 208 173 174 225 194 176 225 225 27 177 224 28 28 28 224 28 28 224 28 28 122 224 28 28 114 28 28 111 111 28 28 113 180 181 172 119 181 218 172 23 182 213 143 182 28 202 22 182 190 185 23 28 167 28 23 28 28 28 200 28 28 28 203 28 28 173 207 28 28 174 28 28 174 210 28 28 175 28 180 176 176 28 26 52 28 28 25 51 28 25 25 28 28 24 24 27 24 24 27 27 24 27 27 178 178 26 26 178 28 26 178 177 28 25 177 28 28 177 177 28 28 176 28 28 27 175 28 27 27 19 28 27 28 17 28 28 16 15 28 28 15 174 28 13 13 174 13 12 174 174 12 12 173 28 28 173 173 28 28 173 28 28 27 173 28 28 27 207 28 26 26 28 145 25 10 11 24 23 11 172 23 12 12 173 26 13 173 173 50 15 174 28 51 28 175 28 20 176 228 28 138 176 29 29 168 226 29 181 184 225 30 190 50 225 30 195 60 28 28 78 69 27 201 84 28 175 88 86 28 173 93 28 173 220 97 28 220 40
28 224 26 94 28 223 27 69 28 221 162 42 28 27 33 225 28 174 29 28 28 177 225 28 181 179 225 28 179 27 224 28 178 27 28 28 128 27 28 175 117 180 28 113 26 180 112 112 180 28 114 115 181 219 28 181 182 214 28 182 207 204 28 182 193 189 28 178 171 28 28 151 28 28 197 123 28 28 202 182 28 204 205 182 28 207 182 182 209 210 181 60 211 181 180 55 211 180 53 52 28 179 51 51 28 24 50 28 28 51 51 28 198 52 28 28 193 27 28 190 189 27 28 186 174 174 178 183 173 173 178 28 172 60 178 28 26 60 28 171 27 61 28 27 60 19 28 27 59 28 176 28 17 28 171 28 15 175 171 14 14 174 28 13 174 174 28 12 174 28 165 28 173 28 164 50 28 28 28 49 28 27 27 10 28 27 27 10 26 26 10 10 25 24 10 172 173 11 11 173 224 12 173 173 28 13 174 28 28 174 175 28 28 175 28 28 113 176 28 29 152 29 29 173 178 38 186 189 45 48 195 196 55 178 200 63 65 177 204 72 176 176 35 82 175 36 37 174 174 38 39 173 40 40 222 173
224 224 28 191 223 154 28 189 27 164 188 218 27 172 186 27 176 29 185 27 179 225 27 27 28 225 28 27 28 28 28 28 28 28 178 28 27 28 176 28 28 175 114 26 28 174 112 181 174 173 25 182 172 25 24 28 172 24 24 28 23 23 28 28 23 23 28 28 28 28 28 28 28 28 28 28 172 28 28 173 174 28 28 174 174 28 175 175 28 28 176 176 28 27 176 28 28 26 28 28 25 25 28 28 24 28 28 24 23 28 28 23 27 27 179 22 27 27 179 27 27 179 179 26 179 179 28 26 179 179 28 28 178 28 28 178 178 28 26 26 28 28 27 20 28 27 27 19 28 27 17 17 169 28 16 15 168 59 14 175 28 57 13 174 28 12 28 174 28 28 174 182 28 28 174 28 28 28 195 28 28 28 202 160 27 9 209 156 48 9 152 26 48 10 143 48 10 28 132 48 11 173 49 50 28 174 50 28 28 229 28 28 28 228 80 28 228 228 71 28 227 62 59 225 226 49 188 225 40 38 68 225 32 72 73 28 29 77 79 28 81 83 28 28 87 88 28 220 91 28 28 220 124 28 219 219
28 28 192 225 28 191 191 28 28 190 27 27 188 188 27 30 186 27 27 28 184 27 28 28 183 27 28 28 163 181 28 28 27 181 28 27 177 28 224 28 176 223 28 175 174 222 28 174 26 220 28 173 25 28 28 124 24 28 172 136 183 28 150 23 183 28 170 183 28 148 188 183 28 28 184 184 101 28 183 183 81 28 174 71 68 28 207 62 28 28 211 55 28 211 212 28 28 211 28 28 210 210 180 28 207 180 179 50 203 178 178 51 178 178 52 53 176 176 54 28 176 56 57 28 175 58 28 28 183 61 28 181 180 24 28 179 178 28 177 176 171 28 175 174 171 177 173 170 170 176 28 169 62 62 28 169 61 28 168 28 59 28 168 57 12 28 28 56 28 28 28 11 28 186 28 10 174 193 164 10 173 201 162 173 173 28 159 173 212 28 26 173 28 149 25 28 28 23 49 10 28 21 11 28 22 24 13 28 34 15 15 175 59 18 175 176 21 22 177 227 27 177 177 29 54 178 178 30 196 178 30 31 204 178 32 208 209 33 33 212 76 35 216 217 88 36 221 100 104 174 226 122 128 174 143 151
194 27 28 193 192 27 192 191 27 27 39 189 27 32 31 27 27 29 225 27 28 28 28 27 28 28 27 28 28 28 28 28 28 27 179 179 28 28 177 27 28 177 176 27 28 175 26 26 174 174 25 28 173 25 25 28 172 24 28 28 28 24 28 28 28 28 28 28 28 28 28 28 172 28 28 28 173 89 28 174 174 73 28 175 27 28 176 176 28 28 177 28 28 28 177 28 27 27 211 28 26 26 209 180 24 28 28 179 23 28 181 22 52 27 181 21 27 28 181 56 27 181 188 58 28 181 28 61 28 182 28 23 28 179 28 24 178 177 172 25 176 171 171 67 174 171 27 66 170 170 65 17 169 169 64 28 176 63 62 28 176 60 28 28 174 58 28 177 178 28 28 183 28 28 188 190 166 28 195 197 164 52 203 163 162 51 160 160 50 50 156 155 49 28 150 49 49 28 141 49 28 28 225 50 28 28 228 13 28 228 229 28 175 228 86 28 227 227 75 177 226 67 63 178 225 54 63 64 30 41 67 28 31 208 72 28 29 213 72 28 216 81 83 28 221 93 28 220 220 112 28 219 28 140 174 218
225 28 28 163 225 28 192 225 225 28 218 225 28 28 213 225 28 207 204 28 28 195 27 184 182 177 184 28 163 183 183 224 145 182 182 224 27 182 223 223 181 181 223 28 182 221 221 28 28 218 28 28 118 213 28 124 126 28 28 135 139 28 172 152 183 28 168 173 184 173 186 184 184 104 25 184 88 83 26 184 72 28 27 28 62 28 183 29 28 28 29 52 28 28 29 28 28 179 211 28 180 210 28 28 181 207 180 181 181 28 179 182 182 28 20 182 28 177 20 27 28 20 60 27 28 20 26 28 21 21 25 28 22 24 24 180 24 23 23 179 22 21 179 179 28 178 178 28 28 178 178 28 27 177 28 28 28 176 28 28 28 28 28 28 12 28 28 28 11 11 28 10 10 174 28 10 10 174 9 9 174 174 9 9 173 28 9 173 173 28 27 173 28 28 26 173 28 24 24 28 28 22 21 28 21 21 12 28 26 14 14 99 46 17 18 176 55 22 177 177 27 29 178 29 36 178 179 30 46 179 30 31 28 179 32 213 28 222 33 217 218 221 28 221 91 37 28 227 110 28 231 91 137 28 93 160
196 27 28 195 194 27 27 193 27 27 28 191 27 27 189 211 27 28 188 27 186 28 190 27 28 28 27 185 28 28 28 183 28 27 180 183 224 28 178 28 223 28 177 221 28 28 115 219 28 174 116 26 28 120 25 28 28 129 25 28 138 142 184 28 155 184 184 138 177 184 28 110 28 184 92 28 28 184 75 28 175 65 63 28 176 58 28 28 209 52 28 210 211 28 28 211 212 182 211 211 181 181 209 209 181 50 206 180 180 52 28 179 54 54 178 178 56 28 177 59 60 28 28 62 28 28 185 65 28 28 182 25 28 180 179 24 181 178 172 28 180 176 171 72 175 28 171 72 174 170 70 70 28 169 69 28 28 28 67 28 169 28 12 28 28 63 11 28 179 10 28 175 185 10 28 190 28 9 174 197 166 174 174 28 164 173 173 28 28 173 28 28 27 51 28 26 25 9 28 24 9 10 22 21 11 28 21 12 13 174 30 15 15 176 18 19 176 177 29 25 178 29 29 178 178 29 192 179 30 30 207 179 31 212 214 32 33 217 218 77 220 221 86 89 224 97 102 176 230 119 127 176 142 149 175 175
225 225 28 77 225 28 28 48 28 28 217 225 27 28 212 186 28 206 203 188 28 194 187 187 186 178 186 224 183 27 184 224 146 27 28 224 27 183 28 223 28 28 222 28 28 28 219 28 175 28 28 28 119 28 28 173 126 28 28 173 25 28 173 173 24 184 173 24 24 28 174 25 28 28 25 25 28 74 26 29 29 28 27 30 30 28 178 31 28 28 179 34 28 180 180 28 28 181 28 28 182 182 28 28 183 28 28 183 183 28 28 27 28 28 23 22 28 20 20 27 28 18 18 27 17 17 26 26 18 18 25 182 20 25 24 182 181 23 181 181 28 22 180 28 28 179 179 28 28 179 28 28 27 178 28 28 28 14 28 28 28 13 169 28 12 12 28 28 11 176 28 10 10 175 28 9 174 174 57 9 174 174 28 28 174 28 28 28 213 28 28 174 217 28 27 220 28 154 25 223 28 23 51 226 135 21 11 28 120 52 13 175 104 54 28 176 55 56 28 177 58 28 28 225 61 28 179 224 28 28 223 31 212 223 223 33 217 222 222 29 78 221 29 28 83 220 28 86 87 28 28 90 28 28 92 92
197 223 225 28 196 27 28 28 219 27 28 28 215 187 28 210 208 189 28 200 189 188 225 186 187 225 225 187 186 224 27 185 224 224 28 183 224 223 28 223 223 28 28 118 28 28 117 116 28 28 118 183 28 120 122 184 28 128 184 184 136 140 184 185 146 185 185 124 117 185 103 97 28 185 82 78 28 29 68 28 28 30 58 28 205 54 28 28 209 184 28 181 211 184 28 211 28 183 182 211 182 182 183 28 182 51 184 28 181 53 28 28 30 56 28 26 24 27 28 20 63 27 185 17 27 28 185 17 26 184 182 25 25 183 28 173 182 182 28 172 181 28 28 24 181 28 171 25 28 28 26 76 28 28 27 15 28 28 28 14 177 28 12 12 176 28 11 176 176 10 10 176 175 10 175 175 28 9 175 28 28 174 174 28 28 28 28 28 28 28 28 28 27 8 28 27 26 8 28 25 9 9 23 23 10 174 175 11 12 175 175 14 176 176 28 18 177 177 29 177 178 29 29 179 29 29 191 179 30 30 209 56 31 215 216 67 33 220 75 78 29 223 88 178 226 83 108 177 230 127 28 177 90 159 177 176
89 225 27 71 63 27 28 43 38 27 194 31 28 28 192 28 27 190 190 27 27 189 28 27 187 187 28 28 185 28 28 28 183 28 28 28 27 27 28 28 27 27 28 28 27 28 28 28 28 28 28 28 28 28 28 175 174 28 28 174 174 28 174 174 25 28 174 25 25 174 174 25 25 175 25 26 29 30 26 27 31 28 27 34 36 28 28 41 28 28 185 47 28 182 52 48 28 183 55 28 28 184 28 28 185 185 28 28 186 28 28 28 200 28 34 28 195 28 26 192 191 178 20 188 28 176 73 26 176 16 76 25 175 79 24 183 173 81 28 182 81 81 28 181 81 28 28 175 28 28 180 174 170 28 173 28 169 174 173 169 28 174 175 169 72 176 168 168 68 181 168 66 65 28 168 63 62 28 61 60 28 28 58 28 28 209 57 28 28 214 8 28 218 219 28 28 221 158 157 223 224 152 53 226 144 141 53 227 130 53 54 28 113 55 55 28 58 56 28 28 115 58 28 225 60 38 28 224 47 28 223 223 59 28 222 35 71 180 221 31 28 180 37 29 82 219 39 229 86 40 28 234 89 42 238 91
224 27 75 68 222 184 46 27 219 188 225 27 190 191 225 27 192 225 225 28 190 225 27 28 182 225 28 187 165 28 28 153 28 28 28 138 184 28 130 127 183 28 122 183 183 218 118 183 184 213 184 184 205 202 184 193 188 28 184 170 163 28 28 140 28 28 118 111 28 176 180 28 28 191 185 28 196 198 186 28 201 186 186 179 205 185 185 181 28 185 49 49 184 184 49 28 184 49 49 28 69 50 28 28 67 53 28 206 61 28 28 201 59 28 187 197 179 28 187 28 178 187 189 28 177 186 28 176 16 186 28 175 81 28 28 17 84 28 28 19 22 28 21 22 21 182 24 19 19 181 25 17 180 179 16 15 179 173 14 178 178 28 169 178 28 28 28 177 28 28 28 28 28 28 28 28 28 28 8 28 28 28 8 28 28 8 8 174 28 8 174 174 8 8 174 174 8 174 174 28 8 174 174 28 174 175 28 28 175 28 28 22 25 28 28 42 19 28 77 92 26 29 142 33 36 181 190 45 47 207 54 57 180 180 66 181 180 34 78 180 180 36 28 180 38 38 179 179 40 231 178 42 41 236 216 42
85 27 27 65 57 27 27 38 27 27 196 30 27 27 194 225 27 192 192 27 28 191 28 28 189 188 28 28 187 28 28 28 184 28 28 28 137 28 28 28 127 183 28 28 27 28 217 28 177 28 28 28 176 199 28 175 175 178 28 175 26 149 28 174 25 28 28 164 25 29 176 183 186 29 192 26 186 33 199 186 38 55 203 186 50 28 186 186 50 28 186 49 49 28 185 49 49 28 211 50 28 28 210 53 28 208 28 28 28 204 182 28 201 199 180 28 196 180 179 71 191 179 178 76 178 178 79 80 176 176 84 28 175 86 87 28 16 89 28 28 177 90 28 177 176 28 28 176 175 28 175 175 171 28 174 170 169 179 174 169 169 178 28 169 78 77 28 169 74 28 168 28 70 28 168 68 9 28 28 65 28 175 28 8 28 209 28 7 174 215 166 7 174 219 164 174 174 28 161 174 28 157 25 174 28 149 54 28 28 20 55 28 28 26 16 28 46 57 21 28 102 28 31 179 168 38 179 180 48 51 180 223 60 181 181 33 36 181 181 35 223 180 37 37 226 39 39 229 230 40 41 233 165 42 237 238
224 223 185 225 222 189 190 225 27 193 225 225 28 194 225 28 28 225 225 28 28 225 28 28 183 225 28 171 167 27 28 155 151 28 184 141 185 184 182 130 184 221 125 27 184 217 120 184 28 210 27 184 200 28 26 28 179 28 26 28 28 28 140 28 28 28 157 28 28 176 177 28 177 188 26 28 178 196 186 179 180 27 187 52 182 28 71 50 28 28 86 49 28 94 97 28 28 102 28 28 104 104 28 28 102 28 28 190 205 28 28 190 28 28 190 190 28 190 190 28 28 189 189 28 32 189 28 28 20 188 28 16 15 25 28 15 15 24 16 16 23 22 18 21 21 183 21 19 19 182 18 17 181 181 28 15 180 28 28 179 179 28 28 178 28 28 28 178 28 28 28 28 28 28 28 28 28 28 8 8 28 28 8 175 28 7 7 174 60 7 174 174 58 7 174 28 7 28 175 28 8 174 225 28 24 175 28 22 21 227 28 20 21 226 119 32 18 225 101 78 25 89 131 60 36 180 188 45 28 181 65 58 181 222 69 28 181 34 72 28 220 37 28 28 219 39 28 217 217 29 231 217 28 29 88 215
184 74 223 189 190 225 220 193 33 27 194 195 225 27 195 225 225 28 193 225 225 28 190 225 28 28 175 224 28 164 160 28 28 149 28 185 139 137 185 28 130 184 184 219 123 184 184 213 184 184 204 201 184 184 187 28 185 168 161 28 133 137 28 28 146 108 28 160 165 28 28 180 184 28 179 192 187 28 197 198 187 181 201 186 187 50 28 187 50 49 28 187 50 28 28 118 50 28 186 123 28 28 124 56 28 191 119 28 28 204 203 28 192 199 182 28 192 195 180 191 191 28 179 190 188 28 33 189 28 177 21 26 28 16 97 25 28 14 24 28 15 16 22 28 18 21 20 183 22 19 182 182 17 16 181 181 28 180 180 28 28 179 179 28 28 178 28 28 28 178 28 28 28 28 28 28 8 28 28 28 8 8 28 7 8 175 28 7 7 175 7 7 175 175 7 174 174 28 7 175 174 28 26 175 28 28 23 175 28 20 20 28 28 21 24 28 35 45 21 29 88 27 30 85 160 39 42 180 64 52 181 181 62 65 182 34 74 181 182 36 28 181 37 38 28 181 40 228 28 217 42 231 233 215 29 237
202 223 27 56 201 27 194 34 199 28 30 225 28 28 28 225 28 28 28 27 28 28 27 27 28 28 27 27 189 27 27 187 187 28 28 185 28 28 184 183 28 28 181 27 27 180 180 27 28 28 27 27 28 28 27 28 28 28 26 28 28 28 28 28 28 28 29 28 28 178 31 28 28 179 26 28 180 181 27 28 182 27 27 184 184 28 28 186 28 28 124 188 28 134 137 211 28 143 144 28 186 146 28 28 143 143 28 193 137 28 28 193 70 28 193 193 76 28 193 28 27 28 192 28 28 192 186 28 34 190 28 28 21 182 28 15 15 179 174 14 23 178 173 16 21 185 172 103 19 183 22 102 28 182 99 15 28 175 96 28 180 176 92 28 177 28 28 28 181 28 28 184 186 168 28 191 193 168 74 199 168 168 70 168 168 67 7 168 168 63 28 168 62 61 28 175 60 28 28 224 58 28 225 226 28 28 226 227 28 227 227 141 28 226 226 125 57 225 110 106 59 224 92 60 60 81 77 62 28 64 65 65 28 48 68 28 28 224 72 28 28 219 101 28 218 218 128 181 217 29 28 181 215 29 181 214
189 225 222 193 194 225 225 196 225 225 28 197 225 28 28 28 225 28 28 225 27 28 191 225 28 28 177 190 28 166 162 188 28 152 186 186 186 139 185 221 183 28 184 218 126 27 28 210 27 185 28 196 28 28 179 28 28 28 28 28 177 28 28 28 143 28 28 178 161 28 28 179 26 28 180 181 27 187 183 27 188 93 184 28 114 51 28 28 137 50 28 149 153 28 28 160 162 28 192 165 28 28 193 28 28 194 194 28 28 194 28 28 194 194 28 28 194 28 28 194 194 28 28 83 28 28 61 54 28 41 36 26 28 23 21 25 17 15 24 24 14 14 22 186 16 21 20 185 28 19 184 183 28 17 182 28 28 181 181 28 28 180 28 28 27 179 28 28 28 10 28 28 28 9 168 28 8 8 28 28 8 176 28 7 7 176 28 7 175 175 65 6 175 28 28 28 175 28 28 28 224 28 27 175 226 28 24 226 28 151 21 226 28 20 57 225 125 35 20 178 106 59 30 179 88 61 28 181 63 52 28 182 66 28 182 221 69 28 220 36 28 28 219 38 226 217 217 30 227 216 216 29 84 215 29 29
204 27 27 50 202 28 28 33 28 28 29 29 28 28 28 27 28 28 28 27 195 28 27 27 193 28 27 191 191 27 28 189 189 28 188 187 28 28 185 185 28 28 183 28 28 28 125 27 28 28 27 27 28 28 27 28 28 28 27 28 28 28 187 28 28 178 179 84 28 179 180 69 28 181 26 28 28 183 27 28 185 198 28 28 187 28 148 28 206 28 166 28 209 188 178 28 28 188 56 28 187 183 61 28 187 65 28 28 186 72 28 196 201 79 28 196 28 28 28 193 28 28 28 189 180 28 187 186 179 28 184 178 177 182 181 176 113 113 174 174 114 23 173 115 114 28 172 114 113 28 112 111 28 28 109 28 28 175 105 28 28 176 169 28 177 178 169 28 181 169 169 178 186 168 168 191 28 168 80 199 168 76 75 28 168 71 71 28 28 68 28 28 28 65 28 222 63 6 28 224 7 28 175 226 7 28 227 28 156 176 226 149 146 177 28 135 59 178 29 116 59 29 29 126 61 30 181 192 50 31 212 65 63 182 221 73 28 183 224 89 183 218 105 113 183 40 136 183 183 42 171 182 43 44 183 183
225 225 28 28 225 28 28 219 218 28 28 215 199 28 211 209 198 28 203 196 196 196 193 194 225 182 28 191 224 169 189 28 223 28 187 223 222 28 28 221 28 28 28 28 28 128 28 28 28 125 28 28 180 124 186 28 126 27 186 178 131 187 187 179 26 187 86 179 26 37 70 26 26 59 60 27 88 99 28 28 127 52 28 188 157 28 28 190 28 28 192 208 28 28 194 28 28 195 195 28 28 196 28 28 196 197 28 28 192 28 28 186 82 28 176 173 28 28 159 154 28 141 134 27 27 195 101 27 194 194 26 26 193 28 25 192 191 28 24 190 28 28 189 188 28 28 187 28 28 17 18 28 28 20 16 28 23 24 14 25 25 13 12 26 27 11 180 27 10 10 179 28 9 178 178 28 8 177 28 28 28 177 28 28 176 211 28 28 176 28 28 28 220 28 28 28 6 28 28 6 6 166 27 7 176 26 59 8 176 23 10 28 177 59 14 178 178 59 28 179 29 29 28 223 30 161 28 223 31 208 222 222 60 220 221 34 44 70 219 37 225 73 218 32 76 132 28 30 79 28 183 82 82 28 184 84
28 205 28 28 203 220 28 28 202 28 200 29 214 28 28 225 208 198 28 27 199 195 225 27 193 192 224 27 190 224 224 28 190 223 28 28 148 222 28 186 137 28 28 132 28 28 28 127 185 28 126 125 186 28 125 186 186 144 128 187 121 114 187 187 94 28 188 79 75 28 188 66 63 28 86 58 28 28 55 28 28 197 198 28 28 202 190 28 204 206 190 28 208 190 190 196 211 190 190 210 28 189 68 69 189 206 75 28 188 81 83 28 197 90 28 28 185 98 28 193 168 28 28 189 27 27 196 186 180 28 195 28 178 194 181 28 176 192 28 175 20 190 28 174 125 28 28 14 123 28 16 17 18 28 20 21 15 183 23 14 28 182 26 12 181 179 11 11 180 28 10 179 179 28 168 178 28 28 28 177 28 28 28 28 28 28 28 28 28 28 6 28 28 28 6 28 28 6 6 176 28 6 175 176 7 7 176 176 8 177 177 28 11 177 28 28 178 179 29 29 180 29 29 113 136 30 30 189 50 31 213 216 65 34 222 75 79 224 224 93 184 225 111 119 184 185 145 184 185 43 179 185 184 45 28 185
223 225 26 205 221 26 28 203 218 27 202 215 201 27 201 210 199 199 199 28 196 197 28 28 28 225 28 191 28 28 28 28 223 28 28 28 28 28 28 28 28 186 28 28 28 184 130 28 183 182 28 28 181 181 27 180 180 27 27 180 180 27 30 181 27 27 35 27 27 50 59 28 27 94 28 28 132 143 28 28 169 28 28 191 192 28 193 193 28 28 195 196 28 197 197 28 28 198 199 28 214 200 28 28 213 200 28 211 210 28 28 207 28 28 202 200 28 28 192 28 28 199 174 27 27 198 120 27 196 196 27 28 195 28 26 194 194 28 28 192 28 28 20 190 28 15 14 177 28 15 15 176 171 17 17 28 171 121 14 170 24 117 12 169 112 11 181 181 107 10 180 28 100 28 179 28 28 28 198 28 28 178 206 168 28 212 28 169 28 217 169 28 72 221 169 28 6 168 168 66 6 167 64 63 28 165 62 61 28 61 61 28 28 225 60 28 224 224 28 28 224 120 28 223 223 100 28 222 86 81 222 221 67 62 221 53 49 69 70 40 38 72 28 34 75 75 28 226 78 28 28 227 80 28 212 82
28 222 222 201 28 220 220 202 218 217 202 202 214 201 201 225 208 199 199 225 28 196 225 225 28 193 224 28 28 224 224 28 28 223 28 28 152 221 28 144 142 28 28 136 134 28 184 130 186 186 183 127 186 168 127 186 186 136 27 187 113 107 27 188 89 28 27 45 72 28 189 88 28 28 179 57 28 28 190 28 28 191 196 28 193 200 28 28 196 205 192 197 198 28 192 63 199 28 218 69 28 28 218 28 28 217 216 28 28 215 28 28 212 211 28 28 207 28 28 201 193 28 28 200 28 27 199 198 28 198 197 28 28 196 195 28 68 194 28 28 36 192 28 22 19 22 28 15 20 20 14 15 18 17 17 16 16 185 20 14 14 183 12 12 182 182 28 11 181 28 28 180 180 28 28 179 28 28 28 178 28 28 28 28 28 28 28 28 28 28 6 6 28 6 6 176 28 6 6 177 67 6 176 177 64 7 177 28 8 177 178 28 11 178 28 29 21 179 29 34 44 223 29 100 124 222 100 184 52 32 80 216 66 65 222 67 82 185 69 97 28 186 72 126 186 215 75 28 186 43 79 28 213 45 28 28
60 53 26 26 37 26 26 204 29 26 26 204 28 27 202 202 28 201 200 28 28 199 198 28 28 197 28 28 28 195 28 28 28 28 28 28 28 28 28 28 28 28 28 28 28 185 28 28 28 184 184 28 183 182 157 28 182 27 28 28 182 27 32 183 27 27 47 184 27 80 95 164 27 140 153 181 190 183 28 27 191 55 28 192 212 56 28 197 58 28 28 199 62 28 201 209 68 28 202 28 76 28 209 28 28 28 207 191 218 205 204 190 217 201 189 189 115 196 187 207 123 186 185 128 27 184 131 133 28 181 135 137 28 182 138 28 28 180 139 28 179 178 28 28 178 28 28 177 177 173 28 177 172 172 187 177 171 171 129 170 170 126 125 169 169 120 28 169 116 115 28 27 110 28 28 28 103 28 199 201 7 28 207 209 28 178 213 169 28 218 218 169 177 221 169 169 176 28 169 70 177 28 168 66 28 28 27 64 28 164 24 10 28 22 61 14 179 22 19 28 180 54 30 181 222 41 44 183 222 89 184 184 34 69 185 220 36 224 186 38 41 225 40 41 225 74 42 43 226 183 28 226 227 205 28 228
225 223 203 203 225 28 204 225 225 28 204 225 28 28 225 225 28 201 225 28 28 199 225 28 192 189 193 28 180 177 190 170 168 188 188 159 156 186 220 148 186 186 214 28 185 206 203 28 186 188 28 28 28 161 28 28 137 28 28 130 107 28 28 134 28 28 141 145 28 186 157 190 28 189 175 191 57 192 27 192 56 192 28 216 57 28 193 219 28 28 221 64 28 28 222 28 28 222 222 28 28 209 28 28 205 208 28 28 205 28 28 205 202 28 205 205 28 189 204 203 28 210 132 28 28 199 137 28 185 179 27 28 155 26 26 124 112 25 25 77 24 24 194 40 23 22 192 28 21 190 190 28 18 188 28 28 187 186 28 19 185 28 28 23 184 28 25 25 28 28 27 27 9 27 27 8 8 28 7 7 179 28 7 6 179 6 6 178 178 6 6 177 28 28 177 177 28 28 177 28 28 28 177 28 28 27 226 28 26 25 28 164 23 11 28 20 20 17 180 28 24 27 181 62 37 182 183 63 53 184 32 64 28 185 35 80 28 219 37 28 187 40 40 225 215 42 225 225 214 32 226 199 212 31 227 213
203 48 26 207 207 225 26 206 205 26 28 205 28 27 203 210 28 28 202 28 28 28 197 28 28 28 187 28 28 28 175 189 28 28 188 187 221 28 187 28 28 28 186 211 28 187 186 196 28 186 179 173 28 185 28 28 28 129 27 28 131 132 188 28 136 27 189 143 146 190 143 159 164 191 60 28 192 192 57 28 193 57 58 28 194 60 28 28 62 63 28 28 68 28 28 208 76 28 28 209 195 28 209 208 195 206 207 194 193 204 204 193 119 200 192 191 128 196 189 133 134 28 187 139 29 29 204 143 29 29 187 27 29 182 147 28 28 180 25 28 179 178 24 28 178 174 174 192 177 173 145 190 28 172 142 176 28 15 139 28 170 19 134 28 22 130 11 28 25 10 28 182 27 9 28 193 8 8 180 201 7 7 179 28 6 179 179 28 6 178 28 28 178 177 28 28 28 28 28 28 73 28 28 28 6 28 27 27 7 26 25 9 10 23 12 14 180 21 19 21 181 29 30 182 182 30 46 183 32 32 185 185 34 35 186 36 36 224 187 38 225 225 129 41 225 225 167 225 225 190 196 226 226 209 190 227
225 225 205 37 225 28 205 225 225 28 28 225 28 28 28 225 28 209 206 27 28 201 197 27 200 191 194 28 198 28 190 196 172 28 188 194 28 187 28 191 28 28 213 28 28 28 199 28 28 28 28 28 28 28 28 185 29 28 28 185 34 28 186 134 28 28 187 27 190 189 190 27 191 192 27 27 211 195 28 28 219 28 28 222 222 28 223 223 28 28 223 223 28 204 223 28 28 206 223 28 207 207 28 28 207 207 28 207 207 28 28 207 28 28 222 207 28 28 220 28 28 218 217 28 28 213 27 28 205 202 27 183 187 27 26 165 155 26 198 198 25 24 196 195 23 194 193 28 21 192 191 28 28 190 28 28 188 177 28 16 17 28 28 20 12 28 23 24 10 28 25 9 9 168 27 8 181 168 112 7 180 28 105 28 179 28 6 28 179 28 28 178 221 28 28 178 28 169 28 225 28 28 226 226 169 28 226 226 168 67 8 166 166 64 12 161 63 17 28 151 62 28 182 62 62 28 184 63 28 28 221 64 28 28 220 71 28 218 217 52 28 216 42 40 214 214 36 72 213 34 33 75 211 32 77 78
205 206 225 26 206 225 225 28 206 225 28 28 225 225 28 28 225 28 28 206 204 28 28 197 195 28 190 188 192 198 179 189 189 196 168 188 221 160 187 187 216 150 186 209 206 28 186 193 188 28 28 168 28 28 29 28 28 131 114 28 28 132 28 28 188 136 190 28 143 27 191 192 159 192 211 195 28 194 60 198 28 222 62 28 28 223 66 28 223 223 28 28 224 79 28 207 224 28 28 208 28 28 209 208 28 28 209 28 28 209 209 28 28 209 28 28 223 207 28 221 221 28 28 219 151 28 215 213 27 28 206 203 27 194 188 26 26 200 154 25 198 198 24 24 196 28 22 194 193 28 20 192 28 28 190 190 28 28 188 28 28 17 17 28 20 21 11 28 23 24 10 25 26 9 8 27 27 7 181 28 7 7 180 28 6 180 179 28 6 179 28 28 179 179 28 28 179 28 28 28 178 28 28 28 226 28 27 27 7 169 26 9 10 166 23 13 181 21 63 22 182 37 31 28 183 62 46 184 185 63 28 186 34 35 28 219 37 224 28 217 40 225 215 215 40 225 213 45 35 73 211 34 225 212 33 33
49 210 28 28 33 28 28 29 29 26 28 28 27 26 28 28 27 204 28 27 27 202 28 27 201 201 28 28 199 199 28 198 197 28 28 196 28 28 28 193 28 28 28 28 28 28 28 28 28 28 28 28 28 29 28 28 31 28 28 188 43 28 189 189 28 28 190 191 28 192 193 27 28 195 196 28 28 198 28 28 223 186 28 224 224 193 28 224 28 28 198 224 28 28 224 90 28 199 225 28 28 199 112 28 210 210 125 29 210 28 135 29 210 28 29 29 197 28 29 208 28 192 29 189 28 219 187 186 187 214 27 183 184 159 27 182 181 159 26 180 159 159 28 177 159 23 28 158 157 28 193 177 28 28 177 28 28 28 177 171 28 178 178 170 28 180 170 170 183 184 169 135 188 168 168 128 125 168 121 119 28 168 113 111 28 28 105 28 28 98 96 28 222 91 28 28 224 5 28 226 225 170 28 226 170 170 179 225 170 169 180 28 168 66 224 165 22 64 29 158 63 63 28 64 63 28 28 165 63 28 221 215 72 28 219 64 92 189 217 113 28 191 42 151 192 213 44 37 193 46 35 225 195 47 34 76
28 207 225 28 28 31 225 28 29 28 26 28 216 225 28 206 212 27 28 207 205 27 203 200 196 27 201 28 192 200 199 28 189 198 28 28 28 219 28 187 28 28 28 28 204 28 28 28 28 28 28 28 28 189 30 28 28 189 132 28 190 189 28 28 191 192 28 193 193 27 27 195 28 28 220 198 28 28 223 28 28 224 224 28 28 224 28 28 225 225 28 28 225 28 28 209 225 28 210 210 28 28 211 211 28 211 211 28 28 211 211 28 224 211 28 28 224 28 28 223 223 28 28 222 28 28 220 220 27 27 216 27 27 204 206 26 26 202 163 25 200 199 24 28 198 28 23 196 195 28 28 193 28 28 27 191 28 18 17 178 28 15 13 28 170 18 11 28 21 142 10 169 24 9 8 168 129 7 182 182 122 6 181 28 113 28 180 28 28 28 220 28 28 179 223 169 28 225 28 170 28 226 170 28 76 226 170 73 7 170 170 69 9 168 66 66 28 164 64 64 28 64 63 28 28 222 63 28 221 33 28 28 220 96 28 218 218 73 28 216 57 53 214 214 44 43 212 39 38 72 72 36 73 74 28 35
46 41 28 34 32 26 28 29 29 26 207 28 26 26 28 225 27 206 28 27 27 205 225 27 203 203 28 28 201 28 28 28 199 28 28 197 170 28 28 195 28 186 28 153 28 28 28 145 187 28 28 28 188 30 28 190 188 116 28 190 99 93 28 192 81 28 28 138 72 28 196 149 28 28 161 28 195 28 176 197 224 183 185 198 225 190 199 200 82 197 201 201 94 201 201 104 28 28 202 118 28 212 128 132 29 206 140 29 29 204 150 29 201 200 29 29 197 195 29 193 192 194 194 190 192 192 165 185 189 188 165 28 186 166 166 184 183 166 29 181 165 165 29 28 164 28 28 177 164 28 177 177 19 28 177 177 17 191 177 171 28 189 179 170 187 180 28 170 148 28 169 23 142 28 168 136 28 28 27 128 28 28 28 6 28 28 113 5 28 28 5 28 180 223 5 180 224 28 4 180 226 170 180 180 28 170 180 180 28 27 180 28 28 25 12 29 23 22 19 29 25 28 32 54 75 44 28 156 57 62 188 214 75 79 190 90 96 191 192 40 192 193 42 43 194 195 45 225 196 47 48 225 198 48 225 225
224 223 208 210 222 208 208 220 220 207 225 218 206 206 225 225 203 225 225 28 200 225 28 28 28 224 28 28 28 28 28 185 223 28 28 175 28 28 196 165 187 195 157 186 187 193 149 187 180 192 28 188 152 138 28 34 122 28 189 61 98 28 121 85 28 28 198 28 28 197 219 28 28 155 28 28 202 170 28 28 205 28 28 207 208 28 225 209 28 28 225 210 28 225 225 28 28 225 123 28 225 225 28 28 225 225 28 225 225 28 28 212 28 28 213 212 28 28 211 28 28 211 210 28 28 210 28 28 208 207 28 219 206 28 28 213 211 28 204 200 25 28 181 173 24 153 141 22 22 103 90 20 195 57 18 18 192 28 16 190 190 28 13 188 28 28 187 187 28 28 185 28 28 23 184 28 25 26 201 28 27 27 6 168 28 6 5 168 28 5 181 28 103 5 181 28 4 180 180 88 5 180 28 81 28 180 28 28 28 225 28 27 182 224 29 24 223 29 167 22 222 161 37 64 222 149 124 54 28 130 62 71 190 106 63 28 191 64 64 28 194 66 28 28 213 67 28 211 210 28 28 209 49 39 208 208
209 28 223 209 31 222 221 208 29 219 207 207 225 217 205 204 225 28 202 225 225 28 198 225 28 28 224 224 28 192 223 28 28 183 222 28 175 172 187 28 165 163 186 158 156 187 187 149 187 187 165 142 188 188 135 28 189 114 109 28 190 93 28 28 186 80 28 28 74 28 28 145 71 28 202 160 28 28 172 175 28 207 181 201 28 209 189 202 94 193 28 204 108 28 204 225 124 28 205 135 28 28 225 148 29 28 225 28 29 225 225 28 29 200 28 28 213 196 28 212 212 28 28 211 188 28 210 210 28 191 208 207 28 219 171 28 28 212 26 28 202 198 25 28 178 24 23 148 136 21 21 99 20 19 194 54 17 16 192 28 14 190 190 28 188 188 28 28 187 187 28 20 185 28 28 23 184 28 25 26 28 28 27 6 6 28 28 5 5 28 5 5 181 28 5 4 181 4 4 181 181 4 5 181 28 28 181 181 28 27 182 28 29 25 182 29 23 22 223 29 23 27 30 160 66 46 32 148 63 63 189 213 78 82 191 63 101 193 194 64 137 195 43 168 28 197 47 198 199 209 48 28 200 49 41 225
212 224 26 26 211 28 209 211 210 28 28 210 28 28 28 208 28 28 28 28 28 28 225 28 28 28 28 28 28 28 28 202 28 28 28 200 28 28 199 198 28 28 196 28 28 195 195 28 28 194 28 28 31 194 28 40 48 28 28 93 116 28 167 186 28 28 215 219 28 222 223 28 28 224 225 28 205 206 28 28 208 28 28 210 210 28 28 211 28 28 28 213 28 28 213 28 28 225 214 28 225 225 28 28 225 225 28 206 225 28 28 205 225 28 214 225 175 28 214 225 28 29 212 175 28 211 186 28 29 210 28 28 29 181 28 219 29 179 28 212 178 177 181 196 177 179 178 171 22 176 131 170 28 174 169 18 28 172 167 28 191 166 165 28 190 163 28 28 184 158 28 187 189 169 28 195 28 168 201 203 168 26 210 212 168 127 216 168 169 117 169 169 110 107 169 169 100 28 28 93 91 28 28 85 28 28 225 79 28 28 224 8 28 224 223 28 184 223 170 169 222 222 165 64 222 157 154 63 220 141 62 62 36 118 63 28 39 225 63 28 77 225 162 28 212 66 195 28 209 209 28 201 207 219 28 207
210 28 223 210 210 212 222 210 225 225 28 208 225 225 206 28 225 28 203 225 225 28 28 225 28 28 28 28 28 196 194 28 28 187 189 28 201 178 187 28 199 28 187 197 161 28 187 196 28 187 30 195 28 35 133 28 28 70 108 28 138 164 28 28 210 82 28 201 223 28 28 204 28 28 205 157 28 28 208 28 201 210 210 28 203 212 28 28 225 213 28 28 225 28 28 225 225 28 225 225 28 28 225 225 28 215 225 28 28 215 225 28 215 215 28 28 214 28 28 214 214 28 28 212 28 28 224 211 28 28 223 28 28 222 221 28 28 218 26 28 213 210 25 203 198 24 23 179 170 22 198 197 20 19 196 195 17 194 193 28 15 192 28 28 28 190 28 28 188 185 28 18 18 28 28 21 8 28 24 24 6 28 26 6 6 168 27 5 183 169 119 5 182 28 108 28 182 28 4 28 182 28 28 182 28 28 28 225 28 27 28 223 29 26 223 223 171 23 222 30 169 66 35 165 58 64 52 155 63 66 28 136 62 28 193 62 62 28 196 63 28 28 212 64 28 28 209 54 28 208 208 48 207 206 47 47
212 212 28 212 212 28 28 212 212 28 28 211 28 28 28 28 28 28 28 28 28 28 27 27 28 28 28 28 28 28 28 204 28 28 202 202 219 28 201 200 28 28 199 28 28 197 197 28 29 197 28 28 34 196 28 54 67 141 28 134 28 137 192 210 28 28 194 81 28 203 224 28 28 206 80 28 208 208 86 28 210 28 95 28 212 28 28 28 187 28 28 215 194 208 225 199 28 209 225 203 209 225 168 204 209 176 28 209 208 181 28 208 184 184 30 215 184 184 30 192 183 29 29 187 29 29 185 184 29 29 182 193 29 179 179 189 29 178 186 185 176 177 182 182 176 180 179 175 175 178 175 175 28 175 174 174 28 84 173 28 28 45 171 28 180 181 28 28 184 170 28 188 190 169 28 196 169 168 186 204 168 168 184 28 168 135 133 28 169 125 28 169 28 114 28 28 107 4 28 28 96 28 183 28 5 28 225 28 6 184 224 173 9 184 29 173 186 186 30 171 187 30 31 39 189 32 162 134 34 35 201 62 37 38 223 102 28 225 225 140 198 225 171 179 200 225 200 202 203 212 215 204 206 220 206 206
28 25 212 28 28 212 212 28 210 212 28 28 28 211 28 28 28 28 28 28 28 27 28 28 28 28 28 28 28 206 28 28 28 204 28 28 203 202 28 28 201 28 28 199 199 28 28 198 28 28 31 198 28 28 51 28 28 103 128 28 28 197 28 28 221 222 28 195 224 28 28 206 225 28 208 209 28 28 211 211 28 212 212 28 28 214 28 28 28 215 28 28 225 194 28 225 225 200 28 225 28 28 210 225 28 28 225 28 28 210 225 28 216 208 189 28 216 215 188 30 215 28 28 30 214 28 29 213 183 28 29 180 28 192 29 178 28 221 177 177 185 217 25 176 181 178 24 179 179 177 22 176 177 176 28 174 175 28 28 175 174 28 193 180 28 28 182 28 28 28 187 170 28 192 194 169 198 200 168 168 207 209 168 144 214 168 168 134 5 169 126 123 28 169 115 112 28 28 104 28 28 97 28 28 226 88 28 28 224 7 28 224 223 173 28 223 173 173 187 222 172 66 222 31 169 64 220 162 158 62 36 147 62 61 28 224 61 28 28 225 62 28 211 225 191 28 209 207 210 204 206 218 28 207 51 222
28 213 225 28 213 223 225 28 213 28 28 28 219 28 28 28 217 204 28 215 213 200 28 210 197 196 224 204 193 223 223 191 190 222 28 28 218 217 28 202 211 208 28 172 196 28 28 163 28 28 156 154 28 28 148 190 28 144 143 191 194 140 193 193 91 137 195 195 86 197 197 86 86 199 88 90 28 202 96 99 28 225 109 28 28 178 124 28 184 186 28 28 191 210 29 217 197 211 29 201 28 212 217 202 212 212 189 28 211 192 192 28 210 193 30 28 225 192 30 225 225 28 30 225 187 28 214 225 28 29 213 180 27 211 178 192 27 209 28 187 207 206 28 183 204 28 28 205 202 28 178 182 28 28 155 178 18 28 108 16 28 74 63 13 192 39 11 11 190 21 9 189 188 8 8 187 187 28 186 186 28 28 185 28 28 26 184 28 28 27 28 28 28 28 28 28 28 4 28 28 28 4 4 28 4 5 184 28 6 185 185 8 9 186 186 14 187 187 30 25 189 189 32 190 190 32 33 125 35 35 197 209 38 38 222 108 41 225 225 148 45 225 178 187 83 225 205 209 205 64 217 207 207 220 28 209
37 225 28 28 30 26 28 222 28 26 212 220 27 27 212 218 27 212 211 28 27 210 212 28 209 209 28 194 28 208 28 28 222 28 28 28 28 28 28 28 28 28 28 28 28 28 29 28 28 200 28 28 200 201 28 201 201 28 28 202 202 28 203 204 28 28 205 206 28 225 208 28 28 225 225 28 225 225 28 28 225 28 28 225 225 28 28 225 28 28 217 225 28 28 217 28 28 217 218 28 218 218 28 28 218 218 28 225 218 28 28 225 218 28 225 225 194 28 225 225 28 207 225 28 28 225 188 28 214 225 28 28 212 184 27 210 210 182 27 209 28 181 29 206 28 214 29 175 28 202 202 28 177 178 176 28 149 139 177 173 103 15 179 172 58 12 171 171 175 10 190 173 172 28 188 168 7 28 203 161 28 186 212 152 28 217 28 28 28 222 169 27 224 226 170 28 226 170 170 107 226 171 171 97 172 172 90 88 173 173 82 28 174 76 75 28 222 71 28 28 222 66 28 221 221 28 28 219 219 28 218 218 154 28 215 141 135 200 213 119 113 60 47 96 61 62 82 79 63 28 72 64 65 28 70 66
28 28 225 28 28 224 223 28 223 222 210 28 220 220 207 212 218 204 203 216 215 201 225 213 197 196 224 28 194 223 223 28 190 221 28 28 28 217 28 28 28 28 28 178 195 28 202 168 28 28 162 159 189 202 154 190 190 203 147 192 106 204 28 194 97 139 28 225 93 28 199 225 28 28 225 101 28 28 225 28 28 215 225 28 28 175 28 28 217 182 28 217 217 28 28 218 218 28 225 218 28 28 225 218 28 225 198 28 28 225 200 28 225 225 28 28 225 28 28 225 225 28 28 216 28 28 215 215 28 28 214 28 28 213 212 28 211 210 28 28 209 208 28 220 206 28 28 214 211 28 204 200 21 28 181 173 18 154 144 16 15 109 14 13 194 64 12 11 191 28 10 190 189 28 8 189 28 28 188 188 28 21 187 28 28 24 186 28 26 26 224 28 27 27 4 170 28 4 4 28 28 4 185 28 4 5 185 89 6 186 187 81 10 187 29 74 28 189 30 30 28 222 31 34 192 220 173 117 219 36 166 207 216 156 222 60 214 137 225 157 28 116 60 193 205 96 61 28 208 62 62 28 204 64 28 28
36 34 25 28 30 26 26 28 28 26 26 28 27 27 213 28 27 27 212 28 27 211 211 28 28 210 28 28 209 209 28 28 208 28 28 28 207 28 28 28 28 28 28 28 28 188 30 28 28 188 159 28 203 78 28 28 204 119 28 205 205 105 28 206 28 28 28 209 28 28 28 140 28 225 212 147 204 225 156 28 207 225 167 209 225 145 175 211 225 28 29 213 174 28 218 183 186 29 218 194 195 30 200 199 29 30 200 203 30 199 198 215 30 196 28 225 193 192 212 225 189 210 209 196 184 206 206 191 204 202 188 188 199 198 186 29 29 184 184 29 173 184 29 29 173 183 29 174 174 29 29 174 174 28 175 175 175 28 177 177 173 183 178 172 172 182 28 171 181 180 28 170 177 28 170 19 172 28 169 167 6 28 212 159 28 187 219 5 28 223 224 4 186 226 170 4 186 226 170 186 186 28 171 186 225 28 28 91 28 173 85 9 29 27 76 28 30 25 24 28 24 25 40 28 43 54 59 195 144 75 197 197 39 101 200 214 42 202 203 45 130 205 205 48 225 207 50 50 225 210 51 225 225 222 53 225
25 28 31 26 26 214 29 26 28 223 27 27 214 221 27 27 213 28 204 213 213 28 28 212 28 28 28 211 28 28 28 28 28 28 221 28 28 28 28 28 28 28 28 205 29 28 28 204 28 28 204 204 28 28 204 28 28 205 206 28 28 207 28 28 225 209 28 225 225 28 28 225 225 28 225 225 28 28 225 225 28 225 225 28 28 225 28 28 218 218 28 28 219 28 28 218 218 28 28 219 28 28 219 219 28 28 219 28 28 225 219 28 225 225 28 28 225 225 28 212 225 28 28 210 225 28 216 225 192 28 215 189 28 29 213 187 27 212 173 28 29 209 28 28 29 172 28 218 29 173 28 209 174 174 177 193 175 175 175 185 16 173 131 14 28 172 184 11 193 171 182 28 191 179 178 28 200 174 28 28 209 167 28 215 217 169 28 221 28 169 224 225 169 27 226 227 170 122 227 171 171 110 171 172 101 98 172 173 90 28 28 83 81 28 28 76 28 28 222 70 28 221 221 46 28 220 219 28 197 218 174 173 216 215 165 59 213 153 149 59 210 135 59 59 49 117 59 28 51 225 61 28 100 225 223 28
213 33 25 213 29 225 26 214 28 26 28 214 225 27 214 214 225 28 213 28 225 28 213 28 28 212 213 28 28 210 28 192 28 205 28 28 217 198 189 28 28 191 188 198 28 188 188 177 28 189 159 154 28 190 137 28 28 155 120 28 207 149 28 28 145 28 28 28 142 200 28 142 142 204 145 146 206 207 131 157 209 143 148 211 212 161 165 214 173 177 29 215 187 29 29 225 197 30 29 202 28 30 198 198 30 30 199 217 30 198 197 217 30 195 216 216 218 191 215 205 188 28 211 200 183 209 225 195 30 205 192 190 30 225 188 29 29 224 27 29 171 223 26 29 171 25 25 206 172 23 29 204 28 179 201 174 28 176 199 28 174 157 197 28 125 186 28 28 79 185 28 50 42 9 28 26 23 7 190 19 6 6 189 5 5 188 220 5 4 187 28 4 187 187 28 4 187 28 28 27 187 28 28 28 28 28 28 28 28 28 27 9 29 27 27 16 26 26 25 29 25 26 42 195 195 57 62 197 36 78 199 200 40 107 202 43 44 204 205 47 47 207 49 49 225 225 51 51 225 219 53 225 225 222 113 225
225 225 213 213 225 28 212 225 225 28 28 225 28 28 28 225 28 28 28 27 28 219 225 28 213 215 28 28 212 212 28 211 208 28 28 210 28 189 209 208 28 188 208 28 28 30 183 28 28 47 28 28 98 143 28 171 192 28 28 223 225 28 210 225 28 28 212 225 28 213 214 28 28 215 216 28 216 216 28 28 217 28 28 225 218 28 28 225 28 28 225 225 28 28 225 28 28 225 225 28 220 225 28 28 220 225 28 220 220 28 28 220 220 28 219 219 28 28 218 218 28 225 218 28 28 225 28 28 225 225 28 28 225 28 28 225 224 27 28 224 27 26 210 223 25 208 208 186 24 206 205 22 29 203 28 20 201 200 28 28 198 28 28 28 196 28 119 108 185 28 74 9 191 170 38 8 28 170 178 6 169 18 171 5 169 165 5 28 188 154 28 188 28 142 28 188 28 28 28 227 28 28 188 226 172 28 224 28 173 28 223 175 27 81 222 177 75 23 178 179 69 39 181 65 64 28 182 61 61 28 60 59 28 28 58 28 28 211 210 28 28 208 151 28 205 205 137 28 203 130 129 202 201 127 127 201
214 214 225 225 213 225 225 212 212 225 225 210 225 225 28 207 225 225 28 28 225 28 28 218 28 28 216 215 28 28 212 192 28 208 207 190 28 203 189 189 210 196 188 197 208 28 188 177 171 28 69 155 28 190 160 135 28 215 125 28 28 226 28 28 212 225 28 28 145 28 28 215 144 205 28 217 28 209 217 218 28 212 218 28 28 225 219 28 225 189 28 28 225 200 29 225 225 28 30 225 225 28 220 225 28 28 220 28 28 220 220 28 28 220 28 28 219 219 28 216 219 28 28 225 218 28 28 225 28 28 225 225 28 225 225 27 28 224 224 27 212 224 26 26 210 222 25 208 207 23 23 205 28 21 203 203 28 18 200 28 28 198 198 28 28 145 28 28 113 102 28 28 68 9 28 41 35 7 170 23 6 6 19 19 5 189 21 4 4 189 188 4 188 188 28 3 188 28 28 28 189 28 28 28 225 28 28 190 223 29 27 10 29 176 27 17 30 26 72 32 181 27 45 28 183 63 66 200 185 60 28 202 58 58 28 205 45 28 207 208 49 28 206 50 156 28 204 53 225 202 201 142 225 200 201 142
215 215 28 28 215 28 28 28 215 28 28 28 27 28 28 28 27 28 28 28 28 28 28 28 214 28 28 28 214 28 28 213 212 28 28 212 211 28 211 210 28 28 210 210 28 32 209 28 28 61 180 28 125 149 28 28 210 28 28 225 226 28 28 225 28 28 214 225 28 215 215 129 28 216 217 141 28 218 28 28 28 219 28 225 219 167 28 225 220 28 218 225 180 28 225 28 188 219 225 28 194 220 214 28 220 225 215 28 220 215 28 31 220 215 31 220 191 212 31 219 28 31 30 182 28 30 30 178 210 30 174 173 206 225 170 202 201 190 168 197 189 189 193 192 188 25 188 189 188 29 183 189 189 29 171 190 29 28 173 29 29 176 177 29 29 180 172 29 185 186 171 29 192 170 170 192 201 170 170 182 28 169 177 175 169 19 168 28 169 160 157 28 24 147 28 28 26 133 28 227 123 4 28 226 172 28 191 224 174 28 223 29 176 193 222 178 178 194 31 181 69 197 33 184 64 28 36 98 60 28 183 200 109 28 221 56 151 208 225 182 28 210 225 207 213 203 216 218 215 54 157 216 216 55 156 218
28 214 225 28 214 29 225 28 212 225 27 28 28 225 28 28 28 27 28 221 28 28 215 220 28 28 214 217 28 214 214 28 28 213 211 28 213 212 28 189 28 28 28 30 192 28 28 44 28 28 91 114 28 28 184 28 28 222 226 28 28 213 28 28 214 153 28 215 216 28 28 216 217 28 217 217 28 28 218 219 28 225 219 28 28 225 28 28 225 225 28 28 225 28 28 225 225 28 28 225 28 28 221 225 28 28 221 28 28 220 220 28 220 220 28 28 220 220 28 225 220 28 28 225 218 28 225 225 176 28 225 28 28 206 225 28 27 225 27 27 213 224 26 26 211 189 25 209 208 190 23 206 28 22 29 204 28 211 202 174 28 196 200 28 174 171 181 28 144 133 188 171 100 9 197 170 188 7 170 170 183 6 191 178 176 28 190 169 4 28 226 157 28 190 227 144 28 227 28 28 28 226 172 27 225 225 173 27 224 175 175 89 222 177 27 79 179 180 73 34 183 68 66 28 186 63 62 28 216 59 28 28 214 56 28 211 210 28 28 207 207 28 204 204 178 28 202 174 172 216 200 171 170 57 55 170
28 215 28 30 29 28 28 28 28 28 28 28 27 28 28 28 27 206 28 28 28 202 28 28 216 28 224 28 215 28 28 28 214 28 28 213 210 28 28 212 28 28 28 200 28 35 28 192 189 80 187 184 191 173 28 192 193 136 28 195 226 130 28 198 129 28 28 202 134 28 217 142 145 28 149 28 28 28 154 28 28 160 162 215 29 166 28 218 171 173 219 225 179 220 220 212 187 220 220 215 31 221 217 217 31 221 218 31 31 218 218 31 31 217 32 32 191 215 31 187 187 28 31 182 181 216 218 177 213 212 173 172 209 195 168 205 204 192 28 200 190 190 28 193 189 29 29 223 190 29 29 221 22 29 169 192 20 29 172 17 29 201 176 14 199 180 173 12 197 186 171 194 195 28 171 192 201 28 52 187 28 170 27 5 28 20 174 4 28 20 4 28 22 23 3 28 227 3 3 191 226 4 4 192 28 5 192 193 29 194 193 29 29 195 195 30 27 26 32 32 26 67 34 33 39 66 38 94 84 90 179 198 116 127 221 149 160 210 225 188 195 212 52 210 214 215 54 219 216 55 55 217 218 55 225 219
28 28 216 216 28 29 28 28 28 28 27 28 28 28 27 28 28 28 28 28 28 28 28 28 28 28 216 28 28 28 215 28 28 215 215 28 28 214 28 28 214 213 28 31 213 28 28 54 213 28 114 138 28 28 201 28 28 194 226 28 28 226 134 28 216 225 28 28 217 142 28 217 218 155 28 218 28 28 28 219 28 225 28 163 28 225 220 170 219 225 175 28 220 225 183 221 225 216 190 221 217 28 31 221 219 28 221 219 219 32 221 219 218 32 194 218 31 220 190 215 31 186 28 218 31 180 216 225 175 174 212 225 170 209 208 194 165 204 202 191 199 198 190 190 193 190 190 29 29 191 192 29 166 192 29 29 169 194 29 172 173 29 29 177 178 29 181 182 172 29 188 171 171 195 197 171 170 192 28 170 188 187 28 170 181 28 170 20 171 28 21 163 3 28 228 149 28 192 228 4 28 226 225 4 193 224 174 6 194 223 177 195 222 30 179 197 31 182 26 71 33 186 66 57 36 51 61 28 40 151 102 28 209 216 143 209 224 175 184 212 225 204 214 214 53 216 216 200 55 218 218 56 196 219 219 56
28 28 226 28 28 226 226 213 28 226 225 211 225 225 209 208 224 206 206 225 225 202 201 224 28 198 224 224 28 195 222 28 28 220 220 28 28 215 28 28 209 204 28 205 203 189 28 198 197 190 214 190 191 192 214 181 193 143 175 28 196 138 28 199 139 140 28 203 146 28 28 225 158 28 28 225 28 28 156 183 28 28 163 28 29 220 169 28 220 173 28 220 221 181 221 225 221 28 221 218 221 28 225 219 28 28 225 28 28 225 225 28 28 225 28 28 221 225 28 32 220 28 28 220 182 28 28 219 28 28 218 218 28 217 217 28 28 225 216 28 224 224 28 28 224 191 28 224 224 24 28 222 23 22 221 220 20 19 217 18 17 202 201 15 14 200 28 12 198 198 28 10 196 28 28 195 195 28 79 194 28 28 42 193 28 26 24 4 28 20 20 4 21 22 3 4 24 3 3 193 25 4 4 194 116 5 194 195 29 9 196 29 30 28 197 30 31 199 32 33 28 201 35 34 40 217 39 91 120 214 197 195 125 136 201 222 169 212 225 53 201 214 52 213 28 216 52 220 217 198 53 28 219 57 55 28
216 31 26 26 217 27 27 217 217 28 27 217 28 28 217 218 28 207 217 28 28 28 218 28 28 28 28 28 28 28 28 28 28 28 28 28 28 28 216 28 28 28 216 33 28 215 215 28 28 214 28 28 215 215 28 28 215 28 28 226 216 28 28 225 28 28 225 225 28 225 225 28 28 225 225 28 213 225 28 28 220 225 28 220 220 28 28 220 220 28 221 221 28 28 221 28 28 31 221 28 28 32 195 28 225 225 198 28 225 28 28 222 225 28 222 225 219 28 221 225 28 31 220 213 28 220 218 207 30 219 28 201 30 218 28 30 30 163 28 30 160 160 199 29 159 28 224 160 160 188 223 23 163 184 195 21 180 180 196 29 178 197 198 29 175 199 29 29 199 199 29 197 199 29 29 200 28 29 29 210 170 29 217 218 170 222 223 170 170 226 227 170 165 228 171 171 150 227 171 138 134 28 173 122 28 28 27 106 28 28 95 12 28 222 83 28 28 221 35 28 220 219 188 28 218 192 194 206 215 198 56 209 45 203 53 208 49 224 52 52 208 51 51 54 225 51 28 28 225 222 28 196 225 223 28 197
26 28 227 215 28 217 227 214 28 226 28 211 225 226 209 208 225 28 206 225 225 28 28 224 28 28 28 224 28 28 28 28 28 219 219 28 217 216 28 28 213 28 28 216 208 189 28 216 28 190 216 216 28 192 216 28 28 227 148 28 226 225 28 28 225 151 28 225 225 28 28 225 225 28 220 225 28 28 220 225 28 220 220 28 28 220 28 28 221 221 28 28 221 28 28 225 221 28 28 225 28 28 225 225 28 225 225 28 28 225 225 28 221 225 28 28 221 225 28 221 221 28 28 220 220 28 220 220 28 28 219 28 28 225 218 28 28 225 28 28 225 225 28 28 224 26 28 224 224 25 188 223 23 23 207 222 20 206 205 198 18 203 203 15 29 201 28 12 200 199 28 29 198 28 28 29 203 28 111 99 213 28 66 5 221 170 34 4 28 170 173 3 171 21 3 28 171 148 3 195 195 132 28 196 28 115 28 197 29 28 28 223 30 28 199 221 183 28 220 33 187 219 218 191 41 61 216 197 58 104 202 203 54 146 207 52 52 28 210 51 28 28 51 50 28 28 51 28 28 196 196 28 28 196 221 28
216 217 27 217 217 28 27 217 217 28 218 218 28 28 219 219 28 28 219 28 28 28 219 28 28 28 28 28 28 28 28 193 28 28 28 28 216 28 218 29 28 28 218 198 28 217 217 28 28 216 28 28 28 217 28 225 217 188 28 226 218 28 200 225 173 28 225 161 167 208 225 28 28 211 183 28 220 215 195 28 220 203 205 29 221 211 28 30 175 215 30 221 181 31 30 186 28 222 32 193 222 225 197 198 223 225 201 223 223 222 201 222 221 221 222 222 220 220 32 219 218 32 221 215 214 31 183 210 30 30 175 204 30 169 167 30 30 162 207 30 158 158 201 199 156 196 194 194 157 190 189 195 28 185 196 196 181 221 199 29 178 200 200 29 212 202 29 29 183 202 29 190 193 9 29 200 203 7 196 211 171 29 196 28 170 195 224 28 170 195 28 171 22 166 28 171 155 3 28 24 138 28 25 26 5 28 27 27 9 199 27 13 16 200 221 25 202 220 33 43 204 218 191 205 206 39 197 208 42 44 170 211 47 48 219 49 51 224 225 202 53 225 213 216 225 225 220 219 225 222 223 220 225 223 221 221
26 26 217 227 27 217 218 28 27 218 28 28 218 219 28 28 219 28 28 28 219 28 28 28 28 28 28 28 28 28 28 28 28 28 28 28 219 28 28 28 219 31 28 218 218 28 28 217 218 28 217 218 28 28 217 28 28 226 218 28 28 225 180 28 225 225 28 28 225 28 28 225 225 28 28 225 28 28 221 225 28 221 221 210 28 221 221 215 30 221 28 28 221 221 28 225 221 28 28 225 196 28 225 225 201 28 225 28 203 223 225 28 28 223 221 28 222 225 220 28 221 218 28 32 221 214 31 220 182 208 30 219 28 30 30 166 28 30 30 159 205 29 155 155 199 194 154 194 192 195 156 188 196 196 184 183 198 20 180 200 200 29 178 202 202 29 178 203 29 29 187 29 29 196 198 29 29 207 171 29 214 216 171 29 222 171 171 225 227 171 178 175 171 171 164 161 172 153 148 28 173 136 131 28 25 118 28 28 27 101 28 222 90 20 28 221 184 28 204 219 189 28 218 38 196 208 215 200 202 210 45 207 53 213 49 222 50 28 53 225 49 28 225 225 219 28 225 50 222 220 225 223 28 194 225 224
28 216 225 27 217 225 225 28 218 225 225 28 226 225 28 28 226 207 28 225 225 204 28 225 200 28 224 224 196 28 223 194 193 220 221 191 190 214 28 190 208 204 28 198 195 28 28 185 181 28 207 172 28 28 200 163 28 194 192 28 28 186 201 202 181 178 206 207 174 209 210 183 170 213 214 195 28 216 202 205 28 219 211 29 220 225 216 30 179 218 28 31 185 220 32 221 192 28 32 197 198 28 221 202 223 28 221 28 223 223 221 28 223 222 28 28 225 221 28 222 220 28 28 225 216 31 28 225 28 30 225 225 28 219 170 28 28 218 161 27 217 216 28 27 215 153 28 213 212 28 191 211 28 28 223 208 28 28 222 19 28 220 219 16 28 215 14 13 209 206 11 10 194 9 9 199 170 7 198 198 28 5 197 197 28 197 197 28 28 197 197 28 27 197 28 28 22 28 28 23 23 28 28 25 6 6 26 26 9 11 27 15 18 202 27 28 32 205 42 47 206 206 63 207 209 40 89 210 211 45 168 212 48 49 219 215 52 224 225 200 55 225 216 57 222 225 221 58 225 49 223 221 225 224 224 221
27 27 217 28 27 217 218 28 28 219 28 28 219 219 28 28 28 28 28 28 28 28 28 28 28 28 28 28 28 195 28 28 28 192 219 28 220 28 212 28 220 28 28 28 219 28 28 219 211 28 28 219 28 193 28 201 28 226 28 194 199 225 188 186 204 225 28 207 225 182 28 211 225 28 28 215 201 28 221 208 210 29 221 214 215 30 180 28 30 30 184 28 31 189 190 223 32 196 223 223 200 202 223 225 205 223 223 223 207 223 223 223 34 223 222 222 33 223 221 32 32 219 219 31 197 216 31 31 188 210 30 180 177 28 30 169 166 211 217 159 208 206 154 28 201 195 152 195 194 196 28 190 197 198 28 185 200 29 29 222 202 29 29 204 15 29 177 206 29 202 187 10 29 196 199 8 199 207 172 6 198 217 171 198 197 28 171 190 28 28 44 179 28 172 26 3 28 23 152 4 28 23 5 28 25 25 7 28 223 12 13 203 221 22 204 205 33 39 206 206 36 208 208 39 40 210 211 43 114 54 47 48 203 165 51 221 223 198 54 225 212 215 225 225 219 220 225 222 222 220 225 223 223 221 59 224
28 216 225 28 28 29 225 28 28 227 27 28 227 227 28 220 227 208 28 226 226 204 221 225 201 200 222 225 197 223 222 28 193 220 219 191 28 214 28 190 208 28 28 45 196 28 28 122 28 28 211 196 28 28 205 195 28 220 199 199 220 220 28 203 220 186 28 225 220 28 211 225 221 28 225 202 28 28 225 210 29 225 225 28 30 225 28 28 221 225 28 28 221 28 28 221 196 28 28 221 28 223 221 221 28 225 221 28 28 225 221 28 225 225 28 28 225 225 28 225 225 28 28 225 225 28 221 225 28 28 220 28 28 220 219 28 28 218 28 28 217 217 28 27 216 28 28 214 214 28 224 224 28 28 224 224 28 223 223 19 28 221 221 16 178 218 14 13 215 213 11 201 201 9 9 200 28 7 199 199 28 5 198 28 28 29 198 28 28 198 228 28 41 198 28 173 25 3 28 23 23 4 176 24 6 7 178 26 11 203 181 95 20 205 27 81 28 206 72 51 28 217 39 28 211 214 43 28 210 47 210 28 206 51 218 203 202 219 224 198 221 222 47 219 224 225 47 28 229 47 223 28 235 49 28 221
32 31 28 28 29 29 28 28 28 27 28 28 28 28 210 28 28 28 28 225 28 222 222 28 28 222 28 28 222 222 28 28 222 28 28 28 222 28 28 222 221 28 40 49 28 190 106 28 28 168 184 28 193 222 28 28 196 226 28 220 200 174 28 220 178 181 28 221 28 28 28 182 28 28 221 181 28 29 182 28 219 29 184 221 225 186 187 222 225 189 222 222 222 28 223 223 222 34 223 223 223 34 223 223 35 221 224 224 35 213 223 35 34 213 28 34 212 212 223 32 210 209 223 207 205 222 222 199 221 221 210 188 218 218 204 28 215 200 200 30 209 197 30 30 197 197 29 29 197 29 30 149 199 30 151 153 22 29 157 158 19 206 165 179 178 204 174 176 208 183 28 174 208 28 173 199 208 28 173 205 6 28 154 201 29 29 113 4 29 228 69 4 29 228 3 29 200 227 4 201 226 28 5 202 224 178 202 203 30 181 99 205 31 27 83 33 34 28 48 36 31 34 71 40 48 91 100 91 114 130 28 186 164 173 216 202 197 203 218 56 214 219 220 58 220 220 59 59 221 221 60 225 221 59 59 225
27 28 30 225 28 29 28 27 28 28 28 28 220 28 28 28 221 28 28 222 222 28 28 223 28 28 223 223 28 196 223 28 28 28 223 28 28 29 28 28 33 36 28 53 69 28 28 136 156 28 221 203 28 28 220 28 28 221 221 28 28 221 28 28 221 221 28 28 221 28 28 225 221 28 28 225 28 28 225 225 28 225 225 28 28 225 225 28 222 225 28 28 221 225 28 221 221 28 28 221 28 28 221 221 28 28 221 28 28 35 221 28 28 35 216 28 225 225 214 28 225 28 28 223 225 28 222 225 214 28 221 225 28 30 218 204 28 219 213 200 30 217 28 197 30 149 28 29 214 147 28 30 147 28 188 29 152 28 223 157 159 180 222 17 168 178 208 14 176 175 209 29 174 209 209 29 173 208 29 29 206 205 29 200 200 29 29 227 28 29 228 229 173 29 228 228 174 226 226 175 176 225 224 177 127 223 179 179 108 222 182 95 90 28 187 79 28 28 30 68 28 28 61 80 28 213 55 28 28 208 146 28 204 203 219 217 199 221 222 219 196 224 45 193 59 227 45 191 229 225 46 61 235 48 48 59
32 31 228 28 29 27 228 215 28 28 28 212 225 28 221 28 225 28 222 225 28 28 223 225 28 223 227 224 28 224 28 28 28 225 28 28 28 224 190 31 223 222 190 201 221 190 190 190 218 192 184 182 193 194 179 28 197 178 178 28 221 181 28 28 199 189 28 28 194 28 28 190 190 28 28 189 218 29 190 190 220 29 191 221 221 221 194 222 222 222 28 223 223 223 223 223 223 35 223 224 224 35 225 224 36 36 216 29 36 217 218 29 35 218 224 34 221 218 223 33 217 28 223 221 214 223 222 221 28 221 212 211 28 225 206 30 28 225 201 30 225 225 27 30 225 198 27 215 224 26 29 213 25 24 212 149 28 22 210 28 182 208 207 28 179 206 28 28 219 204 28 175 214 28 28 208 210 7 197 193 6 29 175 168 5 201 141 4 4 201 99 3 201 201 3 3 202 28 4 202 203 29 29 204 29 29 26 205 30 30 27 31 32 28 29 34 35 30 53 38 33 36 76 44 51 99 109 214 115 140 216 216 173 182 218 218 203 218 219 58 216 220 59 59 28 221 61 61 225 61 61 225 225 61 61 225
27 28 30 27 27 29 28 28 219 28 28 28 221 221 28 222 222 28 28 222 223 28 224 223 28 28 224 224 28 28 225 28 28 28 225 28 28 29 28 28 34 28 28 190 80 28 28 149 28 28 222 209 28 222 221 181 28 221 221 28 28 222 28 28 28 221 28 225 222 196 28 225 221 28 217 225 193 28 225 217 194 221 225 28 28 222 221 28 221 223 223 28 221 223 223 34 221 224 35 35 212 224 36 221 216 37 37 218 28 225 36 220 224 225 220 220 224 225 220 223 223 222 219 223 220 219 223 222 216 28 30 212 210 30 220 206 205 30 174 201 30 30 157 30 30 149 147 29 29 144 196 29 144 145 189 188 148 186 185 206 155 181 181 208 28 179 210 211 177 220 212 29 175 212 212 29 209 210 29 29 218 207 29 224 225 4 29 228 173 4 202 229 174 29 202 28 175 203 226 28 177 204 29 178 128 123 29 181 108 28 31 28 90 28 29 30 44 28 32 67 67 213 41 87 28 214 210 124 215 206 51 167 218 54 221 218 219 57 224 219 59 59 225 220 61 61 225 61 61 225 225 224 61 225 224 224
217 217 228 228 216 215 228 215 214 225 228 213 225 225 28 210 225 225 208 28 225 28 204 225 225 28 227 224 28 28 226 28 28 226 225 28 28 225 191 28 225 224 190 28 224 28 190 223 221 28 193 186 28 195 226 183 28 225 185 28 28 225 190 28 225 225 28 28 225 225 28 222 197 28 28 222 28 28 222 198 28 28 222 28 222 222 222 28 223 221 28 28 225 221 28 28 225 28 28 225 225 29 225 225 29 29 225 225 29 221 225 29 29 221 225 29 221 221 29 29 221 28 28 221 221 28 28 221 28 28 225 221 28 28 225 28 28 225 225 28 28 225 27 27 225 225 27 216 225 26 26 214 224 24 212 212 23 22 210 210 20 209 208 28 17 207 28 28 221 205 28 28 218 196 28 214 212 28 28 204 6 28 192 186 5 28 165 4 4 174 129 3 202 203 177 3 203 203 160 29 204 29 6 29 206 29 29 207 222 31 28 221 33 30 30 219 36 32 57 216 200 39 83 212 208 54 118 213 117 49 162 219 46 189 28 222 44 28 219 193 43 28 220 61 28 28 189 62 28 28 188 232 28 189 189 239
228 28 217 225 27 216 28 225 28 214 225 28 221 212 225 28 223 225 225 28 224 224 28 28 227 224 28 226 227 197 28 226 28 193 28 226 191 30 225 225 190 43 224 191 190 199 223 191 192 191 28 193 188 187 28 187 186 28 28 189 190 28 211 195 28 28 206 202 28 203 203 28 28 201 217 218 201 201 220 220 201 221 221 221 203 222 222 223 28 223 223 223 28 225 224 35 223 225 224 36 216 224 29 37 219 224 38 221 221 29 37 223 224 29 221 223 224 34 221 28 224 222 223 28 223 220 28 223 225 216 28 222 212 28 28 225 207 30 225 225 28 30 225 225 27 217 147 27 26 215 142 25 214 213 28 24 212 28 28 210 210 28 182 208 28 28 223 207 28 28 221 11 28 218 217 9 28 212 7 7 205 202 5 203 188 4 4 203 160 3 203 203 28 3 204 204 28 204 205 28 29 205 29 29 34 207 30 30 31 31 32 31 31 34 34 32 48 54 35 36 72 79 45 94 103 215 81 134 216 217 167 176 218 219 198 219 219 58 214 220 220 61 225 220 62 62 225 187 62 225 225 187 62 225 224 61
28 217 217 228 216 29 219 28 215 225 28 28 28 225 28 28 28 28 28 28 28 28 28 28 28 28 226 28 28 28 226 28 28 226 226 28 226 226 28 28 226 226 28 76 225 28 28 160 224 28 203 214 28 28 227 28 28 225 225 28 28 225 28 28 222 225 28 28 222 28 28 222 222 28 28 222 28 28 222 222 28 222 222 28 28 222 222 28 225 225 28 28 225 225 28 225 225 28 28 225 28 28 225 225 29 29 225 29 29 221 225 29 29 221 28 29 221 221 28 33 221 28 28 221 221 28 225 221 28 28 225 221 28 225 225 28 28 225 225 28 215 225 28 27 208 202 27 216 225 203 26 214 204 25 29 213 206 23 211 148 28 30 209 28 181 29 169 28 222 29 184 177 220 196 200 176 216 211 175 175 212 221 174 199 206 29 174 201 4 204 193 190 29 204 179 175 29 226 161 29 29 224 141 29 223 223 183 29 222 186 188 221 220 191 33 218 196 198 67 215 203 205 57 209 210 52 51 215 217 47 28 28 45 45 28 195 43 28 28 191 42 28 189 188 222 28 186 186 28 222 186 231 28 187 62 238
217 217 28 28 218 28 28 28 220 28 28 28 228 28 28 28 228 209 28 28 28 205 28 28 203 28 224 28 198 28 28 28 227 220 28 227 227 215 28 226 28 208 28 225 28 28 28 224 28 28 223 222 195 28 221 28 226 193 218 202 225 28 206 207 202 28 210 212 209 28 215 214 215 29 218 218 29 29 207 221 30 208 208 30 31 210 28 32 211 211 223 34 213 214 223 215 216 224 224 218 219 224 225 225 224 224 225 39 224 224 224 37 224 224 36 35 225 224 34 33 223 29 32 224 221 31 221 224 223 31 222 220 222 221 213 220 219 220 194 216 205 219 28 210 203 153 28 225 204 30 199 205 25 29 224 207 29 29 224 22 30 152 224 18 29 164 16 15 207 180 12 207 206 28 176 205 208 28 216 205 28 175 207 205 28 197 204 28 28 174 194 28 150 141 4 28 111 4 4 207 72 6 7 208 9 11 210 209 18 20 211 33 32 212 213 36 213 214 40 41 43 215 45 56 64 48 49 102 121 53 161 179 191 57 213 218 211 223 224 218 219 225 221 222 221 221 223 223 222 63 224 222 222 62 224 222
28 28 218 218 28 219 220 28 28 28 222 28 28 28 28 28 28 28 28 28 28 28 28 28 28 28 28 28 28 28 28 28 28 227 228 28 28 227 28 28 226 227 28 28 226 28 28 28 225 28 206 224 223 28 226 226 28 200 225 28 28 225 225 28 208 225 28 28 213 213 28 222 217 217 28 222 220 220 29 222 28 28 31 212 28 32 222 213 28 34 214 28 225 36 216 224 225 218 219 224 225 221 224 224 225 28 224 225 225 38 224 224 29 37 224 224 35 221 224 224 33 225 223 32 31 225 28 31 224 224 223 30 221 219 221 213 209 219 218 192 216 214 205 166 209 208 204 28 203 205 205 30 196 207 29 29 208 209 29 145 211 30 30 156 214 29 167 171 14 29 184 188 11 207 201 177 176 206 215 176 213 222 28 176 208 28 176 202 200 28 176 192 29 28 145 176 29 29 106 5 29 223 141 9 210 222 14 29 211 221 26 212 219 35 45 214 216 201 215 215 43 208 55 216 48 77 49 52 53 141 179 56 193 204 205 59 221 214 216 224 224 220 28 225 222 223 221 185 223 222 222 64 224 222 222 62
28 28 229 225 28 28 229 28 28 229 229 28 228 228 212 28 228 228 209 225 228 206 205 225 228 202 224 224 198 197 223 28 195 221 220 28 192 216 28 28 42 209 28 28 114 28 28 225 225 28 28 224 195 28 223 222 199 223 221 202 204 223 219 208 207 222 28 213 213 214 28 225 217 29 219 225 28 29 225 222 28 31 225 28 31 222 225 28 34 216 28 28 221 217 224 28 221 28 224 221 221 28 225 221 28 28 225 221 28 225 225 28 28 225 224 28 225 225 29 34 225 29 29 221 225 29 28 221 28 28 221 221 28 28 221 28 28 220 220 28 216 219 28 28 225 218 28 225 225 28 28 225 225 28 224 224 24 28 224 224 21 224 224 19 18 210 16 15 208 208 13 12 208 28 10 207 207 28 7 206 28 28 206 206 28 28 206 28 28 191 186 28 173 165 4 28 140 131 5 181 101 7 8 75 68 12 211 53 20 24 212 34 36 213 214 38 58 215 41 42 28 216 47 48 28 205 52 107 219 199 56 177 195 58 223 217 213 225 224 41 220 225 225 222 28 226 40 223 222 228 42 28 222 43 43 28
28 28 218 229 28 29 220 28 28 28 229 28 28 28 228 28 28 28 228 208 28 28 227 204 224 28 228 28 224 28 228 223 28 28 229 219 28 228 226 213 28 228 28 28 28 226 28 171 225 225 194 218 224 224 197 198 223 200 202 202 221 206 206 208 209 210 212 28 214 216 217 28 222 219 29 29 215 222 30 30 216 31 31 216 216 32 33 217 223 35 218 218 224 221 219 224 224 225 221 224 225 225 224 224 225 225 224 225 225 39 225 225 38 37 225 224 35 35 225 29 33 225 225 29 31 225 224 30 221 225 223 30 224 28 222 221 217 220 225 220 28 215 207 207 28 225 206 30 28 225 207 30 225 225 25 30 224 24 23 212 224 21 30 154 18 18 210 170 180 14 209 28 179 208 208 28 177 207 28 28 219 207 28 214 213 28 28 205 201 4 193 188 4 29 169 161 4 209 136 6 6 210 8 10 211 211 16 18 212 33 29 213 214 36 38 215 40 41 49 216 45 46 61 49 50 83 95 53 124 142 187 57 190 202 208 216 220 216 218 221 225 221 221 221 222 223 221 65 223 221 222 64 224 221 63 63
28 28 229 225 28 220 229 28 28 229 28 28 223 228 212 211 225 28 209 225 227 28 205 225 28 202 28 225 28 28 223 28 28 28 220 28 229 31 28 28 227 58 28 227 226 28 28 226 226 28 225 224 28 28 224 28 28 224 224 28 205 225 28 28 225 212 28 28 225 28 28 225 225 28 225 225 28 28 225 225 28 222 225 28 28 222 222 28 221 221 28 28 221 221 28 221 221 28 28 220 28 28 225 220 28 28 225 28 28 225 225 29 28 225 29 29 225 225 29 221 225 29 29 221 225 29 221 221 28 28 221 221 28 221 221 28 28 220 220 28 225 220 28 28 225 164 28 225 225 144 28 225 26 28 195 225 24 24 224 214 22 212 224 20 30 211 218 16 210 209 219 29 209 28 219 29 208 28 29 207 222 28 218 207 28 177 211 229 28 203 196 228 179 185 4 225 181 168 5 182 183 146 9 211 128 122 29 213 104 29 29 219 83 29 215 216 29 29 212 44 29 29 207 216 29 202 201 220 126 196 222 223 42 191 224 40 40 225 225 39 220 225 39 39 28 226 40 40 28 225 41 28 28 184 224 28
28 31 28 28 217 29 28 28 28 225 28 223 28 28 28 224 225 28 226 226 225 28 227 28 225 28 229 28 28 28 227 28 28 227 28 193 30 226 28 39 213 226 191 103 28 226 192 203 28 226 195 201 28 225 202 202 28 224 205 28 28 223 210 28 223 222 28 28 220 28 28 29 219 219 225 218 218 221 223 218 222 223 223 219 223 224 224 223 223 224 224 224 225 225 38 224 225 40 40 223 225 41 41 224 29 41 224 224 40 40 225 225 39 225 225 225 36 225 225 224 224 225 224 223 223 28 224 221 220 223 225 218 30 222 215 214 30 225 212 30 30 225 28 30 174 167 27 30 150 204 27 216 138 198 30 215 28 192 214 142 28 187 212 28 185 224 211 28 224 220 14 28 223 220 29 223 223 9 29 221 221 6 208 219 5 5 208 4 4 208 209 4 4 209 28 181 210 210 29 184 211 29 30 119 212 31 32 87 33 34 71 67 36 62 60 61 68 59 60 89 217 66 117 128 218 90 159 220 219 186 193 220 60 208 221 221 62 218 221 64 64 225 221 65 65 225 65 65 225 225 65 65 225 224 64 225
28 28 30 30 28 220 220 28 28 222 222 28 223 224 28 28 225 226 28 227 227 28 28 228 28 28 28 28 28 28 28 28 28 28 29 28 28 32 28 28 49 63 28 28 130 28 28 227 187 28 226 225 28 28 225 225 28 28 224 28 28 223 223 28 225 223 28 28 225 221 28 225 225 220 28 225 28 28 221 225 28 28 225 224 28 222 225 28 28 221 225 28 221 221 225 39 220 28 28 41 220 28 225 42 224 28 225 220 225 225 225 225 28 225 225 225 225 225 224 225 225 224 29 32 224 222 29 221 221 220 30 221 218 217 30 224 214 30 30 214 30 30 194 28 30 30 163 208 225 147 143 201 225 137 197 195 214 138 191 216 217 188 187 219 218 185 219 220 30 30 221 221 30 199 221 29 29 216 219 29 223 225 29 29 228 179 29 229 228 179 29 227 181 181 182 225 183 184 163 29 186 145 139 30 125 120 29 193 94 96 29 78 80 52 29 67 65 28 217 209 102 28 205 203 143 219 198 222 182 220 59 224 220 220 62 225 221 64 225 223 38 65 225 38 223 66 225 39 28 225 225 224 28 225 225 224
218 218 225 28 217 217 225 28 215 225 28 28 225 225 28 225 225 225 28 227 28 28 28 227 28 28 227 227 199 28 227 197 196 227 227 194 193 227 192 192 214 212 192 192 209 28 193 206 205 28 195 204 28 28 205 206 28 225 208 28 28 224 213 28 224 223 213 28 222 222 217 223 221 219 220 222 28 221 224 221 28 223 224 28 223 225 224 28 223 225 28 38 225 225 40 40 225 28 41 224 225 29 220 224 29 42 220 225 30 220 225 28 225 220 225 225 225 221 28 225 224 28 28 225 223 28 28 225 29 28 225 225 28 28 225 28 28 220 225 28 30 220 28 28 219 174 27 218 218 28 27 217 217 28 216 215 28 28 214 214 28 224 224 28 28 224 18 28 224 224 14 28 224 12 11 223 223 9 8 223 7 6 209 209 5 5 209 28 4 210 210 28 211 211 28 29 211 212 29 175 212 30 30 146 213 32 122 115 28 35 95 43 49 81 78 67 74 73 89 98 219 77 128 138 220 45 169 220 220 41 198 220 61 63 28 221 64 219 221 181 65 224 221 66 225 225 178 66 225 225 180 227 225 224 224 232
28 28 218 225 28 220 220 28 28 222 28 28 224 224 28 28 226 28 28 28 228 28 28 28 227 28 28 28 227 199 28 28 28 196 29 28 194 33 217 28 192 68 28 229 228 208 28 227 28 207 28 225 28 28 28 226 28 28 224 225 28 28 224 28 211 28 224 214 225 220 223 218 225 28 220 220 223 28 221 222 224 32 223 224 224 34 223 225 36 36 223 225 38 223 223 40 41 223 28 42 224 224 225 43 225 225 225 225 225 225 225 225 225 225 225 225 225 225 224 34 225 224 224 32 224 223 30 30 225 221 29 30 219 28 30 225 217 30 222 219 218 30 202 194 213 219 169 209 207 218 146 203 214 138 28 196 216 28 193 225 218 30 188 220 20 30 224 222 30 30 224 14 30 201 224 10 29 217 8 8 210 226 6 210 210 28 181 211 228 28 215 211 28 183 206 212 29 194 161 29 30 172 12 31 150 143 22 34 121 35 40 216 97 57 28 217 78 85 219 207 112 123 219 53 155 220 220 58 220 220 61 61 181 221 64 210 215 65 65 223 223 66 224 225 223 67 225 223 223 225 225 224 224 225 224 224
28 218 225 219 28 217 225 28 216 28 225 28 214 225 28 28 28 225 28 28 28 28 28 227 28 28 230 227 28 28 231 227 197 231 231 28 194 231 227 28 54 229 28 192 138 28 28 179 208 28 28 220 28 28 226 226 28 28 225 28 28 224 225 28 28 224 28 28 223 223 28 223 223 28 28 222 222 28 222 222 28 28 225 221 28 225 225 28 28 225 28 28 225 225 28 28 225 28 28 225 225 29 29 220 29 29 220 220 29 30 220 28 30 220 220 28 220 220 28 28 221 221 28 225 221 28 28 225 225 28 225 225 28 28 225 28 28 221 225 28 28 225 215 28 219 225 28 27 218 214 27 217 217 28 26 216 28 28 31 214 28 225 213 153 28 224 212 28 185 224 186 28 224 224 11 182 224 9 9 181 218 7 211 181 212 5 211 206 203 29 212 193 4 29 225 176 29 213 224 29 29 222 31 193 29 220 197 141 219 218 202 114 215 207 209 64 210 213 215 52 217 218 47 150 28 43 42 28 220 39 39 28 184 38 28 28 181 37 28 178 178 28 28 177 177 225 177 177 226 226 178 227 227 40 182 230
225 28 218 217 225 28 217 225 225 28 223 225 28 28 228 225 28 227 227 28 28 227 28 28 227 226 203 28 227 227 199 231 226 196 195 221 227 194 217 217 192 192 213 28 193 210 210 28 194 209 28 28 224 210 28 28 211 28 28 226 226 28 224 226 212 28 225 225 216 223 224 218 219 223 223 220 224 222 28 222 224 224 28 225 225 34 223 225 28 37 225 225 27 40 225 28 42 220 225 28 44 225 29 29 220 225 225 220 220 28 225 220 220 28 225 220 28 225 225 220 28 225 224 28 28 225 223 28 225 225 29 29 225 28 28 221 225 28 28 220 28 28 220 219 28 28 219 28 27 218 218 28 225 217 28 28 225 215 28 225 225 28 28 225 224 28 224 224 17 28 224 14 14 224 224 11 10 211 9 8 211 211 6 6 212 28 5 212 212 28 4 213 28 28 213 213 29 206 214 30 30 189 184 32 172 166 26 35 146 139 45 206 121 63 70 106 59 94 219 96 123 133 220 55 165 220 220 59 195 220 63 63 28 220 65 65 28 178 66 221 220 176 225 224 176 68 225 225 223 226 225 39 224 228 225 224
28 28 31 225 28 29 29 28 28 28 28 28 28 28 28 28 28 28 28 228 28 28 28 230 28 28 231 231 28 28 232 28 28 231 232 28 28 231 28 28 57 230 28 28 141 28 28 180 190 28 212 219 28 28 226 226 28 225 225 28 28 224 225 28 224 224 28 28 223 28 28 223 223 28 28 222 28 28 225 221 28 28 225 223 28 225 225 28 28 225 27 28 225 225 28 220 225 28 28 220 225 28 220 220 225 29 220 220 225 43 220 28 30 40 225 28 38 220 225 28 225 225 28 225 225 225 28 225 29 225 224 225 28 223 223 220 28 221 225 218 31 218 217 28 31 219 216 31 218 157 217 31 217 28 31 31 138 28 31 142 145 192 31 155 159 188 225 173 186 186 225 193 184 224 224 184 183 222 30 183 218 217 29 183 212 29 29 205 202 29 29 226 29 29 224 224 29 29 223 191 29 221 221 196 216 220 200 201 217 216 206 77 213 43 212 60 57 216 52 50 28 220 45 28 28 112 41 28 28 141 206 28 181 37 216 28 177 225 28 220 175 225 28 174 68 225 219 175 226 225 218 67 227 39 217 65
34 28 228 28 29 220 228 217 28 228 28 215 225 28 213 28 225 28 210 226 28 28 207 225 28 231 226 225 28 232 224 28 28 226 222 28 28 226 194 28 226 226 193 28 226 193 194 226 227 195 212 227 198 199 213 227 202 215 216 206 207 218 218 28 220 221 28 28 222 222 29 225 223 29 29 224 28 30 224 224 28 32 224 223 34 224 224 223 223 224 224 224 225 224 224 224 225 28 224 225 225 28 225 225 45 225 225 225 44 225 225 30 42 225 225 39 220 225 30 36 225 28 30 220 225 224 29 221 28 224 221 221 28 223 221 28 28 225 219 28 225 225 28 28 225 218 31 225 225 27 32 225 225 27 217 225 26 25 216 143 24 215 215 28 21 214 28 28 214 213 28 186 213 28 28 224 212 28 28 224 8 28 224 223 6 223 223 5 4 222 222 4 214 219 5 5 215 213 8 215 216 13 16 216 217 34 217 217 38 39 218 41 43 138 219 47 48 119 51 52 111 109 56 57 112 182 60 125 132 204 220 159 213 215 220 199 219 220 220 221 222 219 219 223 219 219 68 223 218 217 68 225 217 66 66 225
28 28 31 28 28 29 29 28 28 28 28 28 28 28 28 28 227 28 28 229 229 28 230 230 28 28 232 232 28 28 232 28 28 232 232 28 31 231 28 28 60 78 28 124 145 28 28 180 28 28 196 219 28 28 200 215 28 225 225 218 28 224 28 28 28 224 28 28 223 225 28 29 223 28 220 30 224 28 225 32 224 223 225 224 224 223 225 28 223 224 225 27 224 225 225 43 224 225 28 220 225 225 46 220 225 225 45 225 225 44 44 225 225 41 225 225 225 38 225 225 225 225 225 225 225 225 224 224 223 225 224 223 222 223 223 221 221 31 220 220 31 32 219 219 32 193 219 31 31 161 219 32 146 144 27 32 141 198 196 216 147 193 192 157 28 190 227 175 188 187 227 28 186 226 225 28 185 223 30 28 224 217 29 228 224 6 29 227 201 4 214 225 5 29 224 224 6 215 222 195 12 216 32 200 217 217 36 205 89 39 41 159 69 45 215 137 99 51 124 47 140 56 115 169 28 118 121 197 220 182 209 212 220 177 217 220 220 68 221 219 219 69 219 219 69 69 218 69 68 224 217 68 67 225 223 65
28 28 228 228 217 28 228 217 217 223 228 215 215 227 28 213 225 226 211 210 226 28 208 225 226 28 28 225 28 28 28 224 28 226 29 28 28 226 219 28 231 226 28 28 229 28 28 228 226 195 28 226 28 199 215 226 28 204 218 28 28 225 220 28 212 225 28 28 225 223 28 225 225 28 30 223 225 28 222 225 28 28 221 224 28 221 221 28 27 221 28 28 220 220 28 28 220 28 28 225 225 28 28 225 29 28 225 225 30 28 225 30 30 225 225 30 220 225 30 30 220 225 30 220 220 28 29 220 221 28 221 221 28 28 221 28 28 225 221 28 28 225 28 28 225 225 28 28 225 28 27 225 225 27 27 225 26 26 216 225 24 216 215 226 22 215 215 20 31 214 28 28 214 213 28 224 213 28 28 224 226 28 224 224 228 28 224 5 226 188 223 5 29 191 177 6 216 218 155 11 216 135 18 217 217 107 29 218 39 81 29 219 44 29 29 205 50 28 220 197 222 123 192 59 223 39 185 224 131 36 179 225 35 216 225 225 35 220 225 35 35 28 218 35 35 29 172 36 30 30 175 31 31 178 179 33
228 28 31 28 228 217 29 28 228 216 28 28 215 214 225 28 213 226 226 28 209 226 28 28 226 226 28 232 226 225 28 225 28 28 28 225 195 28 226 226 194 28 226 194 194 226 226 195 195 226 197 197 216 216 200 201 218 28 204 219 220 28 225 222 28 28 222 223 29 226 224 29 29 225 225 30 225 225 222 32 225 223 223 221 225 223 223 221 28 224 225 225 224 224 225 28 224 225 225 28 225 225 46 46 225 225 46 225 225 30 44 225 225 30 220 225 30 39 220 225 30 220 225 28 224 220 28 224 225 221 28 223 223 28 28 225 222 28 28 225 28 28 225 225 28 28 225 28 28 219 225 27 218 218 27 27 217 145 25 216 216 28 24 215 215 28 215 215 28 28 214 28 28 224 224 28 28 224 10 28 224 224 7 28 224 6 5 224 224 5 5 223 5 5 216 216 7 216 216 31 14 217 217 34 218 218 38 39 218 219 43 176 219 47 49 156 201 53 140 136 150 58 126 177 185 123 124 201 205 136 211 213 220 165 218 219 219 35 221 218 218 35 29 217 70 69 216 216 69 223 215 68 68 224 214 66
28 28 218 228 218 220 221 28 217 223 224 28 28 226 28 28 28 229 28 28 28 28 28 28 28 28 28 28 28 28 28 28 28 233 30 28 28 232 28 28 231 231 28 230 230 28 28 228 228 28 211 227 28 28 225 226 28 225 225 28 28 225 225 28 225 225 28 28 225 28 28 223 225 28 28 223 28 28 222 222 28 28 221 28 28 221 221 28 39 221 28 28 225 220 28 225 225 28 28 225 225 28 225 225 29 28 225 225 30 225 225 30 30 225 225 30 220 220 30 30 220 28 30 220 220 28 29 220 28 28 31 220 28 225 32 225 28 225 225 224 219 225 28 28 216 225 28 212 225 222 27 207 225 27 33 202 224 26 217 226 227 32 216 28 229 32 176 28 31 31 195 28 31 209 28 189 30 222 188 224 226 227 189 224 228 189 190 202 5 191 192 188 29 194 175 170 29 198 152 29 29 131 124 28 217 102 28 28 212 42 28 208 206 217 28 201 199 221 195 193 223 223 188 224 224 38 181 224 225 35 66 225 35 35 28 225 34 28 28 205 34 29 29 35 223 29 170 36 31 214 174 223 33 177 178 223
228 228 218 225 228 217 217 225 227 216 225 225 215 214 225 28 213 226 226 28 210 226 28 28 225 226 28 28 225 28 28 225 225 28 28 225 196 28 232 225 194 231 225 28 194 217 225 195 190 216 28 198 217 218 28 225 219 28 28 225 28 28 225 225 28 28 225 28 29 223 226 28 29 226 28 28 222 225 222 28 222 28 223 221 221 28 225 221 28 28 225 220 28 225 225 28 28 225 225 28 225 225 29 47 225 29 29 219 225 30 30 219 30 30 219 220 28 30 220 28 28 220 220 28 28 220 28 28 225 220 28 225 225 28 28 225 225 28 225 225 28 28 225 225 28 220 225 28 28 219 28 27 219 218 27 27 218 28 26 217 217 28 24 216 28 28 225 215 28 225 225 28 28 225 225 28 225 225 11 28 224 224 8 190 224 6 6 215 224 5 216 216 182 6 216 30 8 29 217 32 15 218 218 36 28 218 39 40 29 210 45 190 185 203 219 171 120 195 222 149 160 223 135 38 190 224 127 204 28 225 35 215 219 225 34 28 218 70 34 29 168 70 29 29 169 70 30 170 171 225 33 174 68 226 178 180
28 28 219 219 28 28 222 28 28 224 225 28 28 227 28 28 28 229 28 28 28 28 28 28 28 28 28 28 28 28 28 28 28 198 30 28 28 232 221 28 231 231 219 28 230 28 28 28 229 28 28 227 226 28 28 226 28 28 225 226 28 225 225 226 213 225 28 226 217 225 28 219 219 225 28 221 225 28 32 223 225 28 221 225 225 37 221 28 225 40 225 28 43 44 225 28 46 225 225 224 47 225 28 225 225 225 225 225 225 225 225 225 30 225 225 225 42 225 225 225 38 224 225 36 35 225 224 34 225 225 33 33 225 225 33 225 225 221 33 224 223 218 220 215 216 215 195 187 212 223 167 208 206 224 33 203 226 226 33 199 228 33 32 225 230 33 32 225 20 32 199 231 31 215 215 14 31 223 225 190 215 227 191 191 215 226 193 200 216 29 195 185 223 30 223 167 31 201 222 14 29 219 119 27 29 213 43 29 219 203 70 28 203 96 106 219 195 135 220 220 60 173 220 220 64 129 219 66 66 128 219 68 140 146 70 70 169 33 70 192 198 222 71 210 223 223 217 218 223 223 212 223 223 211 210 223
28 28 225 225 28 28 225 28 28 227 225 28 28 227 28 28 226 226 28 28 225 209 28 225 225 206 227 225 203 202 226 225 199 225 224 29 196 223 222 195 64 220 28 195 219 28 28 180 218 28 28 226 28 28 226 226 28 28 226 207 28 225 226 212 28 224 28 216 224 226 28 225 225 28 220 225 225 28 225 225 28 28 225 225 36 225 225 28 39 225 27 27 220 225 28 28 220 28 28 219 225 28 29 219 28 225 219 219 28 225 219 28 28 225 219 28 225 225 28 28 225 225 30 225 225 29 29 225 225 29 220 225 29 28 221 28 28 220 220 28 28 220 28 28 220 220 28 28 219 28 28 225 219 28 28 225 28 28 225 225 28 225 225 24 28 225 225 22 216 225 19 18 215 225 15 215 215 12 12 215 28 9 216 216 28 7 216 28 28 29 216 29 30 224 221 31 223 223 32 33 222 21 36 219 217 39 213 212 59 66 218 200 92 219 219 48 131 219 219 40 28 219 63 190 28 177 66 28 219 172 68 28 169 70 225 29 167 71 175 33 167 225 201 222 167 225 35 223 225 225 36 37 226 38 222 43
225 28 218 219 28 28 221 28 28 28 224 28 28 28 227 28 28 226 225 211 28 225 28 208 227 225 205 28 227 28 201 226 28 28 198 224 28 232 222 222 28 231 220 28 28 225 219 28 28 226 198 28 226 28 201 28 226 204 225 226 226 209 224 226 213 214 225 226 217 224 225 219 219 225 224 30 225 225 32 32 225 34 34 225 225 37 38 225 27 40 225 225 43 44 225 224 46 225 225 224 224 225 225 225 225 225 225 225 225 28 225 225 225 28 225 225 43 225 225 225 40 225 225 30 37 225 29 35 220 225 29 34 225 28 28 220 225 221 28 220 28 219 220 220 28 216 224 28 212 225 225 28 225 225 27 28 225 227 34 225 225 25 33 225 225 23 216 225 21 20 216 28 18 216 216 28 14 216 28 28 216 216 28 194 216 28 28 224 217 29 29 224 6 30 224 224 10 223 223 16 19 222 221 31 219 217 48 55 219 210 78 219 219 106 116 219 56 58 219 219 61 63 219 64 65 131 219 67 68 122 69 69 127 131 70 71 149 220 71 172 180 222 213 199 222 222 211 212 222 210 210 222 222 208 209 222
28 28 33 225 28 227 29 28 28 227 28 28 226 226 28 28 229 225 212 231 225 28 209 232 29 207 28 233 29 203 226 29 29 29 225 29 29 36 28 28 64 84 28 230 148 28 28 229 188 28 228 228 28 28 227 226 28 226 226 28 28 225 225 28 225 224 28 28 225 28 28 225 225 28 28 225 28 28 225 225 28 28 225 28 28 225 225 28 220 220 27 27 220 220 28 220 220 28 28 219 219 28 219 219 28 28 219 219 28 225 219 28 28 225 30 28 225 225 30 28 225 30 30 225 225 29 29 225 29 29 220 225 29 220 220 28 28 220 220 28 35 220 28 28 35 220 28 225 219 181 28 225 219 28 225 225 162 28 225 26 26 200 225 25 24 198 234 22 216 225 233 19 216 231 16 31 216 224 31 216 226 215 30 216 28 197 30 224 29 224 29 222 202 224 220 219 205 224 217 208 210 118 213 213 95 88 28 217 70 74 28 56 53 28 219 45 43 28 184 39 28 28 177 28 28 173 172 28 28 168 225 225 166 165 225 132 165 225 225 33 164 225 225 34 71 225 35 35 225 36 36 41 226 38 39 48
225 225 28 28 225 225 28 227 225 28 28 227 28 28 226 226 214 28 225 211 211 231 225 209 208 225 29 205 227 224 202 28 226 29 199 225 224 29 41 223 28 28 106 221 28 225 171 28 28 225 221 28 227 226 28 28 226 29 28 225 226 210 28 225 28 214 224 224 28 218 225 28 28 225 225 28 225 225 28 28 225 225 28 225 225 28 38 220 225 27 220 225 27 28 220 225 28 219 219 28 28 219 28 28 219 219 28 28 219 28 28 225 225 28 28 225 30 28 225 225 30 225 225 30 30 225 225 29 220 225 29 29 220 225 28 220 220 28 28 220 220 28 220 220 28 28 220 28 28 225 219 28 28 225 28 28 225 225 27 28 225 26 25 225 225 24 217 225 22 21 216 225 19 216 216 228 15 216 216 12 31 217 28 28 217 224 28 225 218 29 30 224 221 31 224 224 218 33 224 18 36 213 222 35 41 220 79 62 219 215 87 28 219 48 126 219 219 40 28 219 63 36 28 218 67 28 28 169 69 29 166 165 225 114 164 72 225 33 163 225 156 33 164 225 34 222 225 225 35 222 225 37 38 46 207 40
28 28 34 32 28 28 30 28 28 224 28 28 28 227 28 28 229 229 28 230 231 29 28 233 232 29 233 234 29 29 28 233 29 29 30 29 29 36 28 29 64 83 28 29 146 28 28 196 187 28 28 214 223 28 227 226 28 28 226 29 28 225 225 29 28 224 29 29 29 224 28 225 223 225 28 225 222 28 222 225 28 28 225 225 28 223 225 28 28 224 225 27 220 224 225 28 219 225 225 49 219 28 28 50 225 28 50 218 225 225 49 225 28 225 47 225 224 225 225 225 224 225 225 224 224 225 29 223 225 225 38 223 225 28 36 224 224 36 220 225 224 36 221 224 36 36 205 225 36 187 182 211 36 172 208 207 171 172 204 204 178 202 202 234 191 200 199 236 28 198 235 234 33 225 230 32 32 224 222 31 226 213 31 31 224 201 30 223 222 6 30 220 205 8 219 217 208 210 219 36 213 112 209 41 217 81 45 219 218 60 51 221 49 28 57 200 41 28 184 178 182 28 173 34 202 217 168 210 29 216 164 216 215 163 72 220 213 73 225 211 211 73 225 209 72 72 187 35 71 70 207 222 69 214 216 220
219 219 225 227 218 30 225 217 217 225 28 216 215 225 28 214 226 226 28 212 227 28 28 225 228 28 224 224 28 28 224 224 28 224 224 198 28 224 224 196 232 224 196 196 222 29 196 222 222 198 199 223 28 201 224 224 28 205 224 28 28 225 225 28 28 225 28 29 226 225 28 223 225 221 30 222 225 222 222 225 223 223 221 225 224 225 220 28 223 225 28 28 225 225 46 224 225 28 48 225 225 28 50 225 29 50 218 225 29 50 225 30 30 219 225 224 219 219 28 224 219 219 28 225 219 28 28 225 220 28 225 225 28 28 225 28 28 225 225 28 37 225 28 28 220 225 28 28 219 28 28 219 219 28 218 218 28 27 218 218 28 217 218 28 28 225 217 28 225 225 28 28 225 225 28 225 225 15 28 225 12 11 225 225 9 8 218 7 7 218 218 7 8 219 32 11 219 219 36 29 219 39 40 219 219 45 221 219 49 51 216 215 55 210 207 146 60 193 188 179 224 164 195 199 225 33 208 216 110 33 215 214 33 218 213 212 73 220 210 73 73 34 209 73 160 38 165 71 190 206 170 225 208 174 68 226
28 28 34 33 28 221 30 28 28 224 29 28 226 227 226 28 229 28 227 28 231 29 29 28 224 29 28 233 29 29 28 224 29 29 30 224 199 36 28 224 196 82 28 196 196 223 28 229 186 224 28 228 224 28 28 227 225 28 226 225 226 28 226 29 28 28 225 29 29 225 225 219 225 225 225 221 225 225 222 223 225 223 223 225 225 224 223 225 40 224 225 225 44 219 225 47 48 225 225 49 50 225 50 51 225 225 51 225 225 224 51 225 225 224 219 225 224 224 225 225 224 225 225 224 224 225 41 223 225 225 39 223 225 38 39 225 225 38 38 225 28 38 221 219 28 38 209 215 37 219 189 212 219 182 28 208 218 182 206 225 218 28 203 235 236 28 225 237 35 28 225 21 33 225 225 18 32 225 15 14 218 225 11 31 218 9 8 218 220 206 8 219 31 209 219 219 34 224 219 37 38 224 219 43 223 223 47 49 220 55 53 217 215 131 28 206 159 167 218 183 187 193 217 200 204 216 215 211 212 215 72 216 213 212 73 73 210 73 73 106 208 73 128 136 73 73 162 171 71 186 193 220 69 206 209 218
227 219 218 227 28 218 222 226 217 29 225 28 216 226 28 28 28 226 28 29 28 28 28 28 28 28 28 28 28 28 233 28 28 28 233 29 28 233 224 29 232 232 29 196 231 230 29 177 229 29 29 212 228 29 224 225 29 29 225 28 28 225 225 28 28 225 28 28 224 225 28 28 223 28 28 222 222 28 28 222 29 28 221 221 28 225 221 28 28 225 220 28 225 225 28 28 225 225 28 225 225 28 28 225 29 29 218 225 29 30 218 30 30 219 219 30 30 219 28 30 219 219 28 30 219 28 28 42 219 28 225 225 28 28 225 225 28 225 225 28 28 225 225 28 217 225 28 28 215 225 28 219 225 227 28 218 28 27 37 218 28 27 218 201 28 36 218 28 28 35 218 28 225 33 223 202 225 16 225 202 225 12 203 204 199 9 206 225 184 30 208 172 9 29 156 150 29 219 127 119 29 203 42 29 28 196 48 28 190 188 223 28 182 58 224 177 175 224 193 171 225 225 34 165 225 225 33 29 225 32 32 30 225 32 31 32 32 32 34 159 33 36 37 161 34 41 164 165 225 49 169 170 225 206 175 226
225 227 219 218 225 218 218 225 225 217 217 225 28 28 226 226 28 230 227 28 28 225 228 28 28 224 28 28 224 224 28 224 224 201 28 224 224 199 226 224 197 196 225 224 197 224 224 29 198 225 28 200 218 225 28 203 226 28 28 225 226 28 28 225 28 28 225 225 28 29 225 219 28 223 225 221 222 222 29 223 221 225 29 225 225 28 223 225 225 28 225 225 45 28 225 28 48 225 225 28 51 225 28 28 218 225 29 52 218 28 30 218 225 28 30 219 28 224 219 219 28 225 219 28 28 225 220 28 225 225 28 28 225 225 28 225 225 28 28 225 28 28 220 225 28 28 219 28 28 219 219 28 28 219 28 28 218 219 28 28 218 28 28 225 218 28 225 225 28 28 225 225 28 225 225 19 28 225 225 15 218 225 12 11 218 10 10 219 219 9 9 219 32 11 219 219 35 18 219 39 40 29 219 45 46 223 191 51 222 221 55 223 218 140 60 211 206 173 225 187 191 196 225 146 205 215 214 32 213 212 73 32 31 210 74 219 33 158 74 36 206 74 74 40 161 73 130 47 166 71 171 218 172 226 199 216
28 28 218 219 28 28 31 28 28 29 29 28 28 28 28 28 28 28 28 28 28 28 28 28 28 28 233 233 28 28 234 233 28 234 234 29 28 233 29 29 232 232 29 29 230 29 29 176 229 29 29 210 28 29 224 225 28 225 225 28 28 225 225 28 225 225 28 28 224 225 28 223 223 225 28 223 223 29 33 222 29 29 221 225 29 225 221 28 28 225 225 28 225 225 225 28 225 28 28 224 225 28 219 224 225 29 218 225 29 53 218 225 30 218 218 225 50 219 28 225 48 219 28 225 46 225 28 225 225 225 223 225 225 28 222 225 225 221 225 225 224 220 225 28 218 217 225 40 219 226 226 40 219 227 39 39 197 230 38 38 203 38 38 209 212 37 37 217 204 204 221 222 204 233 224 204 204 222 224 206 211 207 207 207 196 192 209 185 181 30 211 168 30 29 209 144 29 29 203 27 29 197 195 29 29 189 222 28 183 181 223 28 175 224 224 218 169 225 35 34 67 225 33 33 70 122 32 30 225 85 32 31 71 32 217 33 66 219 36 205 158 220 41 160 73 220 203 164 225 218 204 70 225 206 207 67
225 227 219 219 225 28 218 225 225 28 29 225 28 28 28 226 28 225 28 28 28 224 228 28 233 224 28 28 233 29 204 233 224 29 201 233 29 199 40 232 29 198 225 29 29 156 225 29 29 191 28 29 215 221 28 228 225 28 28 226 225 28 225 225 28 28 225 225 28 224 224 29 28 223 29 29 225 223 29 29 225 29 29 225 225 29 29 225 28 28 225 225 27 28 225 28 28 225 225 28 219 219 28 28 219 219 29 218 218 28 29 218 218 28 218 218 28 28 219 28 28 225 219 28 28 225 29 28 225 225 29 28 225 29 28 225 225 28 28 225 28 28 220 225 28 219 219 28 28 219 219 28 40 219 28 28 219 219 28 225 219 28 28 225 215 28 225 225 221 28 225 23 22 206 225 20 19 206 217 16 219 225 201 13 219 191 11 31 219 175 30 219 209 155 29 219 37 218 29 197 42 224 28 189 222 224 183 181 223 47 176 224 224 39 169 224 36 178 28 225 33 198 214 33 32 30 212 32 30 31 155 31 32 33 155 34 35 156 156 39 40 158 225 225 160 161 225 107 165 225 225 38 171 226 41 42
217 28 28 219 28 28 28 226 28 29 225 28 28 28 226 28 28 28 28 29 28 28 28 210 28 28 28 207 228 28 233 28 229 28 233 227 28 28 233 226 28 232 224 29 28 230 29 198 28 224 29 207 225 225 203 225 225 225 207 227 225 211 212 226 28 215 226 226 29 218 226 28 30 225 225 31 223 225 33 33 225 225 36 36 225 38 39 225 225 223 43 225 224 224 225 225 224 225 225 224 224 225 225 224 225 225 224 224 225 225 224 225 225 53 52 225 225 51 225 225 49 49 225 29 47 225 225 29 46 225 223 45 220 225 222 44 225 28 221 225 224 220 225 225 28 218 225 225 28 225 226 41 28 225 228 41 225 225 28 40 213 235 27 219 219 26 38 218 28 25 218 224 207 22 218 28 208 218 219 28 209 219 29 29 225 189 30 225 225 11 32 225 158 14 225 225 20 29 225 224 37 219 224 57 65 219 224 93 218 218 58 133 217 62 63 216 216 66 67 214 68 70 155 212 71 72 103 73 73 75 69 215 60 57 217 217 53 53 218 203 56 218 218 203 69 218 204 204 217 216 205 206 214 208 208 67
225 28 226 225 28 28 226 226 28 224 226 217 28 225 28 215 229 225 214 213 231 29 211 228 232 29 208 228 29 29 28 229 28 203 228 28 28 35 227 28 232 75 28 28 224 153 28 230 224 28 28 229 225 28 228 228 29 206 227 29 29 225 226 29 214 225 29 29 225 226 29 29 225 28 29 225 225 28 33 225 28 28 221 225 28 221 220 28 28 220 220 28 219 219 28 27 219 219 28 218 218 28 28 225 28 28 225 225 28 28 225 29 28 225 225 29 28 225 30 30 225 225 30 29 225 29 29 219 220 29 220 220 28 29 220 220 28 220 220 28 28 220 219 28 225 219 28 28 225 216 28 225 225 28 28 225 28 28 212 225 27 27 225 238 27 219 225 26 25 219 239 24 219 219 28 35 219 28 28 34 219 29 225 32 214 30 225 219 31 215 225 204 34 225 141 197 219 225 29 34 221 81 52 219 223 57 87 218 46 44 28 217 38 155 28 161 34 29 214 158 29 29 156 71 225 30 154 225 78 153 153 225 56 153 225 225 32 154 225 33 33 225 225 34 34 52 35 36 59 205 38 39 66 173 42 71
227 28 28 28 226 218 28 226 226 217 29 225 216 216 226 225 215 28 227 213 213 227 28 210 210 228 28 208 229 229 28 229 229 28 28 223 228 28 223 224 28 28 224 224 28 224 224 199 28 225 200 201 229 225 203 205 228 29 207 228 227 211 212 226 28 215 226 226 29 218 226 30 30 225 225 31 225 225 28 33 225 225 36 221 225 224 39 225 225 223 220 225 224 224 219 28 224 225 218 28 224 225 28 28 225 225 54 224 225 29 54 225 225 29 53 225 29 53 219 225 30 219 225 29 29 219 225 223 219 219 28 223 220 220 28 225 220 28 28 225 28 28 225 225 28 28 225 28 28 225 225 28 43 225 28 28 219 225 28 28 219 27 27 219 219 27 219 219 28 25 219 219 28 219 219 28 28 225 219 28 225 225 29 30 225 15 30 225 225 13 33 225 15 16 225 225 23 26 219 36 41 218 218 64 72 218 54 101 217 217 60 29 216 63 64 214 214 68 198 212 70 70 150 136 72 107 94 211 74 66 214 215 225 48 216 216 44 32 217 202 44 217 216 203 34 216 204 205 72 213 207 70 70 70 211 67
28 28 218 226 28 28 222 28 28 224 225 28 226 227 28 216 229 229 29 28 231 29 29 28 228 29 28 28 28 29 28 28 28 29 30 28 28 35 28 28 232 72 28 28 231 28 28 230 230 29 28 229 29 29 228 228 29 225 227 29 29 225 226 29 225 225 29 29 225 225 28 225 225 28 28 225 225 28 222 225 28 28 221 225 28 220 220 28 28 220 29 28 220 219 29 29 218 28 28 225 218 28 225 225 225 28 225 225 28 224 225 29 28 225 225 29 224 225 30 30 219 225 29 219 219 225 29 219 28 225 49 219 28 29 47 225 28 47 219 225 28 225 225 28 219 225 223 218 225 28 221 216 225 28 215 215 229 28 214 213 235 41 212 239 27 40 219 241 39 219 225 237 37 223 28 36 35 220 28 34 216 215 214 33 210 208 216 205 203 218 218 156 219 219 133 124 221 221 97 29 223 72 66 29 224 51 28 28 43 41 28 29 158 29 29 155 155 29 153 153 225 30 151 151 225 207 151 225 225 205 151 225 31 151 76 225 32 42 225 41 33 49 225 34 55 57 50 37 63 65 82 208 70 173 44 200
226 226 28 28 226 226 28 222 226 217 28 226 225 216 227 225 29 214 230 225 213 28 231 29 210 228 28 29 28 229 28 29 29 28 28 31 32 28 28 45 28 28 231 111 28 231 224 29 28 230 224 201 229 229 29 204 228 228 29 225 227 29 29 225 226 29 225 225 29 29 225 28 28 225 225 28 32 225 28 28 222 225 28 28 221 28 28 220 220 28 220 220 29 28 219 219 29 225 218 28 28 225 218 28 225 225 28 28 225 225 28 225 225 29 28 225 29 29 218 225 30 29 219 29 29 219 219 29 29 219 28 29 219 219 28 49 219 28 28 219 219 28 225 225 28 28 225 225 28 225 225 28 28 225 225 28 215 225 28 28 214 236 27 219 225 241 27 219 28 26 39 219 28 24 219 221 28 36 219 29 215 34 211 30 225 32 204 218 225 16 195 219 225 19 221 221 110 31 222 83 47 29 223 57 79 217 46 43 28 215 38 37 29 154 66 29 29 151 69 30 150 150 225 31 149 225 225 149 149 225 52 149 225 225 31 151 225 225 33 48 225 33 34 55 35 36 61 63 38 38 68 169 42 74 75 177
48 28 218 38 28 28 221 225 28 224 224 28 28 226 28 28 228 229 29 29 230 29 29 28 232 29 29 28 224 29 28 28 224 204 30 28 29 201 38 28 232 68 227 28 231 146 28 28 230 228 28 229 29 229 28 228 29 228 28 225 29 225 226 225 29 225 225 29 217 225 225 29 225 225 225 221 225 28 222 223 225 28 223 223 225 38 221 225 225 42 220 225 45 46 225 225 49 225 225 51 52 225 28 53 225 225 224 55 225 225 224 225 225 224 224 225 225 224 225 225 224 224 225 53 223 225 225 52 223 225 51 51 225 225 50 50 225 28 49 225 225 49 219 225 220 48 225 225 219 219 226 217 217 219 226 216 230 231 28 215 235 236 214 225 241 42 214 242 26 40 225 237 38 38 225 24 37 217 225 22 34 210 216 19 219 202 218 219 219 34 220 218 186 38 225 218 42 223 225 217 47 225 59 73 54 225 101 29 225 225 138 29 225 162 168 211 214 185 189 208 195 198 207 147 205 206 204 75 225 202 201 76 41 201 76 76 36 201 76 35 35 76 75 36 36 74 38 40 207 72 58 201 198 213 116 188
217 226 28 28 220 28 28 222 223 28 28 225 28 28 227 228 29 29 28 29 29 28 228 29 28 28 28 29 28 28 28 28 29 28 28 30 32 28 232 232 28 28 232 29 28 231 231 29 28 230 29 29 229 229 29 29 228 29 29 225 227 30 30 225 28 30 225 225 28 225 225 28 28 225 225 28 223 225 28 28 222 225 28 221 221 225 28 220 29 29 43 219 29 29 219 225 29 225 219 28 28 225 225 28 225 225 225 28 225 29 29 224 225 29 218 225 225 30 218 225 29 55 218 225 29 219 219 225 53 219 28 225 52 225 28 225 51 225 28 225 225 226 221 225 226 28 220 225 227 219 225 226 227 217 228 28 216 216 232 45 219 237 239 43 219 242 42 42 226 241 40 219 223 38 38 219 28 37 214 212 217 225 205 204 218 177 196 219 220 159 186 221 137 128 222 222 99 90 223 74 67 29 224 51 29 29 152 40 29 29 149 148 29 147 147 30 30 146 225 31 145 146 225 204 146 225 225 202 146 225 31 31 76 225 32 32 76 34 33 52 225 33 34 59 34 37 206 67 38 201 72 213 170 190 78 178
225 28 218 218 225 28 221 28 225 28 224 28 28 28 225 28 28 228 225 214 28 225 29 212 28 225 209 28 225 224 207 229 28 205 204 229 28 202 228 228 28 201 228 28 28 228 228 28 230 229 28 28 224 29 28 28 224 207 28 224 224 211 28 225 214 215 225 225 217 218 225 219 220 225 225 221 225 225 33 222 225 225 35 225 225 38 39 225 225 42 225 225 45 46 225 28 48 225 225 28 52 225 224 224 218 225 224 224 218 28 224 225 225 28 224 225 28 224 225 225 28 225 225 55 55 225 225 54 225 225 29 54 225 225 29 219 225 29 52 219 28 28 219 226 28 28 219 28 219 225 219 28 218 227 28 28 225 231 28 28 225 28 28 225 225 27 225 225 27 27 225 225 26 219 219 25 25 219 212 24 219 219 30 22 218 31 33 218 218 35 35 218 38 39 225 225 43 44 225 49 49 225 224 80 55 225 106 115 226 226 142 211 226 163 169 209 213 184 207 206 72 197 204 203 74 202 202 75 76 200 76 76 37 201 76 76 33 149 76 32 32 76 76 32 206 205 32 32 199 197 41 191 188 216 94 174
28 28 45 225 28 219 34 28 28 31 225 28 225 29 28 28 228 28 28 229 225 29 28 231 225 211 232 232 29 208 233 232 29 29 233 29 29 34 29 29 51 63 29 29 121 28 28 165 174 28 28 197 28 28 229 223 28 228 228 28 28 227 227 28 226 226 30 30 225 225 30 225 224 30 30 225 223 30 225 225 30 30 225 28 30 225 225 28 29 225 28 28 219 225 28 28 219 28 28 219 218 28 218 218 28 28 218 218 28 56 217 28 28 218 218 28 225 225 28 28 225 225 28 225 225 29 28 225 29 29 223 225 29 29 222 225 29 219 219 28 28 219 28 28 219 219 28 51 219 28 28 50 219 28 225 49 229 28 225 219 229 217 225 28 28 216 225 27 216 225 238 27 217 228 26 39 217 207 25 218 192 188 35 218 177 173 33 185 34 32 32 174 223 31 164 162 223 30 155 224 224 149 148 224 225 144 225 225 37 134 225 225 34 30 225 32 32 31 31 31 33 33 31 31 36 143 31 38 39 144 31 43 146 146 225 49 148 225 225 150 151 225 225 155 225 225 39 161 225 225 44 70 225 49 52 66
225 225 28 219 225 225 28 34 225 28 28 30 225 28 225 226 28 28 225 214 28 230 225 212 28 224 210 209 232 224 207 207 233 29 204 228 224 29 202 228 29 201 77 228 28 137 229 28 28 180 229 28 230 212 28 28 224 225 28 228 225 28 28 227 30 28 226 226 30 218 225 30 30 225 224 30 222 225 30 30 225 225 30 30 225 28 30 225 225 28 220 225 28 28 219 225 28 219 218 28 28 218 225 28 218 218 28 29 218 28 28 217 217 28 28 225 28 28 225 225 28 28 225 29 28 225 225 29 28 225 29 29 225 225 29 219 225 29 29 219 219 28 219 219 28 28 219 219 28 219 219 28 28 219 28 28 225 219 28 28 225 229 28 225 225 28 28 225 28 28 217 225 27 27 225 27 26 218 225 25 218 218 183 24 218 218 33 33 218 36 37 32 217 41 225 217 154 46 225 148 50 224 225 141 56 225 38 138 225 227 143 150 225 33 168 206 225 31 185 203 31 31 35 201 31 38 38 142 31 42 200 144 46 47 146 77 225 54 149 225 30 152 153 225 38 157 225 225 43 164 225 48 49 225 225 56
217 28 47 44 28 28 36 28 28 32 31 28 28 29 28 28 227 28 28 28 229 28 28 230 231 28 231 232 29 28 232 232 29 29 232 29 29 33 232 29 48 60 29 29 114 133 30 162 171 28 30 194 28 28 205 222 28 28 228 228 28 227 227 227 28 226 30 28 29 225 30 30 225 225 31 31 223 31 222 33 225 30 225 225 225 223 225 28 225 223 225 28 223 224 225 28 224 225 225 51 224 225 28 54 225 225 56 218 28 225 57 225 28 57 57 225 224 58 225 225 224 58 225 223 223 225 225 223 225 225 223 223 225 29 223 223 225 55 222 225 225 55 225 225 55 54 225 225 54 228 226 53 52 229 229 51 229 230 219 49 229 218 218 219 227 218 218 225 28 218 237 221 219 219 220 29 219 202 197 38 220 184 36 36 225 168 35 176 225 27 33 163 115 33 216 151 43 31 215 142 224 214 138 224 225 212 59 225 36 209 64 225 33 67 68 217 31 71 225 171 190 73 114 31 198 39 56 202 42 200 36 204 201 144 205 204 203 148 203 206 207 76 198 210 212 75 214 214 73 72 26 70 69 51 66 66
57 225 28 28 42 28 28 35 33 28 28 225 28 28 226 225 28 28 228 29 28 230 225 29 231 231 29 210 232 232 29 28 232 29 29 30 228 29 36 40 28 29 72 28 28 131 147 28 28 177 28 28 230 209 28 28 229 28 28 228 228 30 28 227 31 31 227 226 31 225 225 31 31 225 224 31 225 225 31 31 225 225 28 225 225 28 28 225 28 28 220 225 28 28 219 28 28 219 218 28 28 218 29 28 218 218 28 28 218 28 28 225 218 28 225 225 225 28 225 225 28 224 225 29 28 225 225 29 223 225 29 29 219 225 29 219 219 225 29 219 28 225 56 219 28 28 55 228 28 54 219 28 28 225 229 28 225 225 229 219 225 28 228 219 225 28 219 219 242 28 219 225 228 42 220 211 27 40 203 190 38 218 189 174 36 179 34 34 34 165 38 33 154 152 224 32 143 141 224 137 136 224 224 41 225 225 37 36 225 225 33 32 225 32 32 33 225 31 35 35 31 31 37 137 137 40 42 140 140 45 141 142 225 51 144 145 225 206 148 225 225 210 76 225 40 157 225 225 45 78 225 52 54 84 225 62
226 28 50 47 28 219 38 28 28 218 31 28 224 216 226 28 227 29 28 28 228 227 28 230 231 29 28 231 29 29 28 225 29 29 28 224 29 33 224 224 203 55 224 30 202 228 224 202 168 229 28 204 229 28 28 206 229 28 229 228 228 28 227 227 28 28 225 226 29 30 225 30 30 225 225 221 225 225 222 225 225 225 223 225 225 223 223 225 225 224 225 225 223 223 225 47 48 225 225 51 52 225 53 54 225 225 56 56 225 28 57 225 225 58 59 225 224 59 225 225 224 225 225 223 223 225 225 223 225 225 28 223 225 225 28 225 225 58 222 225 29 57 225 225 29 57 227 29 56 219 228 28 55 229 28 29 219 228 220 29 218 28 220 218 218 28 225 243 28 28 225 232 28 225 215 28 30 225 192 40 225 225 28 37 225 29 30 217 225 32 34 216 41 39 215 214 46 53 213 50 52 212 211 56 225 209 60 62 227 206 65 229 228 68 69 215 205 177 178 161 186 188 102 84 193 199 49 197 198 201 199 199 203 203 198 198 206 78 77 210 210 76 76 214 75 75 26 218 73 22 21 70 69 39 52 66
60 57 28 28 45 42 28 37 35 28 28 31 28 28 226 29 28 28 228 226 28 229 229 28 28 230 29 29 231 231 29 29 232 29 29 30 232 29 35 39 224 30 67 84 224 202 142 28 30 203 182 28 230 205 28 28 229 229 28 229 228 228 28 227 31 227 29 226 31 28 30 225 31 225 224 225 31 225 225 31 223 225 225 223 225 225 225 224 225 28 224 223 225 28 224 224 225 48 218 225 225 52 225 225 54 55 225 225 57 225 225 58 59 225 28 59 225 225 224 60 225 225 224 225 225 223 223 225 223 223 225 225 223 223 225 59 223 225 225 59 222 225 58 58 226 225 57 227 227 57 56 228 228 55 228 228 220 54 228 228 220 218 227 220 220 218 224 220 241 238 28 221 224 44 221 225 200 41 221 185 29 39 225 169 37 37 225 32 35 155 225 38 215 142 224 48 213 131 224 212 211 54 225 209 123 60 226 206 63 225 33 204 67 226 31 35 71 189 177 37 136 115 187 41 64 192 193 200 37 195 50 203 195 195 206 143 193 209 210 77 225 213 214 76 28 217 74 73 22 221 71 21 26 68 67 63
225 226 219 219 226 225 218 225 225 218 217 225 225 216 226 226 28 215 226 28 28 227 226 28 28 227 28 28 224 227 28 28 224 28 28 224 224 28 28 224 204 203 232 224 203 228 224 30 203 229 225 205 196 229 31 207 229 229 31 226 228 28 31 225 28 28 225 225 28 30 225 28 28 225 225 28 31 225 32 28 223 225 223 28 222 31 223 225 221 31 225 225 31 31 225 225 30 225 225 28 29 225 225 29 225 225 29 56 225 29 29 217 225 29 29 218 28 29 218 218 28 29 218 28 28 218 218 28 28 218 28 28 225 218 28 225 225 29 28 225 225 29 225 225 29 29 225 225 29 218 225 29 29 218 29 29 218 218 28 29 218 28 28 218 218 28 28 218 28 28 225 218 29 29 225 30 30 225 225 31 225 225 31 32 225 225 34 216 225 37 39 214 225 45 213 213 59 59 211 51 74 32 209 56 98 206 119 62 228 203 66 67 228 123 69 210 199 126 72 149 180 130 225 72 187 225 225 31 191 203 32 191 54 206 34 188 209 211 37 67 214 76 41 73 154 75 78 80 162 72 83 169 172 225 41 180
217 28 218 219 28 28 220 28 28 34 223 28 28 30 28 28 29 29 29 29 28 28 29 28 28 28 28 28 28 28 231 28 28 231 231 28 28 232 232 28 232 232 30 28 231 231 30 231 231 30 30 230 31 31 211 217 31 31 226 28 31 226 225 28 31 225 28 28 217 225 28 225 225 225 28 224 225 28 32 223 32 28 222 222 32 37 221 32 32 41 220 31 225 219 225 30 225 225 30 224 225 28 29 225 225 29 224 225 29 29 224 225 29 217 224 225 60 217 225 225 61 218 225 61 61 225 28 62 218 225 223 61 225 28 223 61 225 223 225 225 225 222 225 226 222 222 225 226 222 225 226 59 221 227 228 57 230 231 55 218 237 53 53 225 243 51 51 221 30 48 216 214 222 46 206 222 222 194 190 222 222 178 223 223 157 161 224 132 123 39 224 92 82 224 225 61 34 33 47 44 34 117 38 33 33 116 111 34 116 117 135 35 120 225 155 200 123 225 39 199 74 225 31 130 76 225 31 76 225 32 33 77 30 34 184 78 29 37 66 28 28 169 73 153 27 152 222 160 134 128 225 70 107 227 177 65
217 226 218 219 219 28 218 225 225 28 217 225 28 28 30 226 28 29 29 28 28 28 226 28 229 28 28 28 230 28 28 231 224 29 28 231 224 205 232 232 30 204 231 30 30 112 231 30 30 169 31 31 192 229 31 31 222 28 28 227 226 28 228 225 28 28 227 225 28 226 226 28 28 225 225 28 224 224 33 33 223 223 34 225 222 33 33 225 33 33 225 225 31 31 225 28 31 225 225 28 30 225 28 29 217 225 29 217 217 29 29 217 217 29 217 217 28 29 217 217 28 62 217 28 28 218 218 28 225 225 28 28 225 30 28 225 225 30 28 225 30 30 222 225 29 29 225 225 29 218 218 29 59 218 28 30 218 218 28 56 218 28 28 53 218 28 225 51 219 29 225 217 209 222 225 31 30 222 183 32 223 225 165 35 224 145 38 38 224 105 44 213 77 69 35 210 53 34 34 115 53 34 206 113 225 34 113 62 225 35 115 225 227 118 119 225 191 122 225 225 31 173 225 31 31 47 225 32 32 53 33 33 58 59 35 36 64 144 38 69 71 149 156 76 154 156 225 82 162 225 225 169 172 225 225 181
217 28 28 218 28 28 220 221 28 28 223 28 28 28 225 28 29 28 225 29 29 28 225 213 28 28 29 211 226 28 210 28 227 28 207 226 28 28 205 226 28 231 227 227 28 231 30 28 28 225 31 28 28 225 208 28 225 225 210 28 225 213 226 225 225 216 226 28 217 219 225 28 220 225 225 31 222 225 225 33 225 225 34 35 225 225 38 225 225 40 41 225 223 44 225 225 224 48 225 224 224 225 225 224 224 225 224 224 225 225 224 225 225 28 224 225 225 61 225 225 62 62 225 225 63 225 225 30 63 225 225 63 218 225 30 63 225 28 30 218 225 223 223 218 28 222 225 218 28 222 226 28 28 225 228 28 225 231 30 28 225 239 55 218 225 30 53 220 225 31 218 210 31 31 217 196 33 216 216 32 34 215 34 34 214 214 37 224 225 39 41 225 71 44 46 225 63 49 225 225 79 225 225 93 99 227 228 114 201 230 130 135 199 199 147 199 199 72 161 199 199 74 201 201 76 77 204 77 77 31 208 78 78 29 170 78 28 28 161 78 28 150 145 27 27 129 224 23 110 103 227 16 83 229 229 65
217 217 28 28 219 220 28 43 221 28 28 34 28 28 31 30 29 29 29 28 29 29 28 28 28 28 28 28 230 28 28 28 230 28 28 231 231 28 232 231 30 28 231 231 30 104 231 31 31 165 231 31 189 197 31 31 220 28 32 227 227 28 32 226 28 28 217 225 28 28 227 225 28 226 226 225 28 224 35 28 33 223 35 35 222 225 34 38 221 34 224 42 225 33 225 225 225 224 225 28 225 224 225 28 224 225 225 29 224 225 29 59 224 225 29 217 225 225 61 217 28 225 63 225 28 64 64 225 223 64 225 225 223 64 225 223 223 225 225 223 225 225 223 223 225 30 222 225 225 63 222 226 226 61 228 229 60 59 233 235 58 224 241 56 55 221 220 53 216 214 222 51 205 223 223 216 189 223 224 175 33 223 156 156 224 224 122 38 224 91 82 38 225 60 37 37 225 44 36 109 38 85 36 107 34 36 201 108 118 37 110 111 225 199 114 225 225 199 73 225 31 202 75 225 32 77 77 33 33 78 225 29 166 78 28 38 158 217 28 148 74 221 28 128 223 156 110 104 227 165 84 228 229 67 60 230
225 225 28 28 225 225 28 225 225 28 28 225 28 217 225 225 216 29 225 215 214 226 225 213 213 226 212 211 226 226 210 209 226 28 208 225 225 28 231 225 28 28 225 226 28 225 225 28 28 225 225 28 231 225 208 28 225 225 211 228 225 213 214 227 33 216 226 226 34 219 225 30 220 225 225 31 222 225 28 32 225 225 34 35 225 28 37 225 225 28 220 225 224 28 220 225 224 219 218 32 224 218 225 31 225 218 30 224 225 29 29 225 225 29 28 225 29 62 225 225 29 63 225 30 30 217 225 30 30 217 28 30 217 225 28 217 217 28 223 217 217 28 225 218 28 28 225 218 28 225 225 28 28 225 30 30 225 225 30 30 225 31 31 217 225 31 31 217 32 32 217 216 33 33 216 31 35 215 215 33 225 214 34 35 225 212 38 225 225 41 41 225 225 45 225 225 67 50 225 77 81 225 226 93 98 201 107 111 199 199 123 127 198 69 138 199 200 72 150 201 74 75 48 204 76 37 34 130 78 30 30 78 225 28 153 78 28 28 140 225 28 127 122 225 60 103 226 225 75 79 229 69 92 91 231 64
225 28 218 62 28 28 220 28 28 221 225 28 28 224 28 28 225 225 29 28 226 29 29 228 228 29 28 28 29 29 28 28 29 29 29 28 30 31 33 28 38 44 28 28 77 95 28 231 148 28 28 231 31 28 231 231 32 28 230 33 33 229 229 34 34 228 35 35 225 227 35 225 225 28 36 225 225 28 225 225 28 28 225 225 28 222 225 28 28 221 225 28 220 220 225 28 219 33 33 49 218 31 31 218 225 30 225 217 30 30 225 225 28 225 225 225 224 225 29 225 224 225 30 217 224 225 30 217 225 225 65 217 225 30 66 217 225 66 217 28 225 66 225 28 225 65 225 28 225 226 225 223 225 226 28 223 230 225 223 225 237 223 223 241 31 223 223 235 54 216 218 211 52 215 191 50 49 178 171 47 46 158 45 44 145 140 42 132 128 225 40 118 115 225 49 108 225 225 39 103 225 36 34 225 225 33 39 225 32 32 40 225 31 41 42 112 31 45 46 118 148 49 122 123 153 53 128 225 58 212 133 225 215 137 225 225 219 142 225 49 51 77 225 61 65 74 25 77 87 225 16 57 91 17 109 38
219 72 28 28 225 225 28 28 225 28 28 222 225 28 223 225 28 28 225 225 214 227 227 29 213 228 228 29 28 225 29 210 28 28 30 30 224 28 30 34 28 28 50 60 28 28 109 28 28 231 225 28 28 231 32 28 231 230 33 230 230 34 34 229 229 35 225 228 36 36 225 227 37 225 225 28 38 225 28 28 225 225 28 28 225 28 28 222 225 28 28 220 28 28 220 219 28 28 219 33 33 218 218 31 225 217 30 30 225 217 30 225 225 28 28 225 225 28 225 225 30 30 225 30 30 217 225 30 30 217 225 30 217 217 30 30 217 28 30 218 218 28 30 218 28 28 225 218 28 225 225 225 28 225 225 225 223 225 31 28 223 225 32 223 225 240 32 224 228 34 55 216 200 35 215 31 177 50 214 33 156 47 150 36 44 211 133 39 43 121 42 225 225 110 225 225 41 102 225 225 83 225 225 34 96 225 225 32 41 225 31 31 42 31 31 44 45 113 31 48 118 119 51 53 123 77 56 128 130 225 62 134 135 225 138 139 225 225 143 225 225 59 63 225 225 75 85 225 89 94 90 225 107 93 93 33
78 28 219 66 28 28 54 50 28 221 40 28 28 223 33 28 224 224 29 28 226 29 29 28 228 29 29 28 225 29 28 229 225 30 29 225 30 31 32 225 207 42 28 28 206 86 28 231 207 226 28 231 182 227 28 231 228 28 28 230 227 28 230 225 35 28 225 36 218 29 225 37 225 225 225 221 225 225 225 222 225 225 223 223 225 223 223 225 225 39 224 225 42 43 225 225 46 219 225 49 50 225 225 52 54 225 55 55 225 225 58 225 225 224 224 225 225 224 225 225 224 224 225 225 224 225 225 28 224 225 66 224 225 225 67 67 225 67 67 225 225 67 67 225 31 67 225 225 31 66 225 223 66 217 225 223 217 224 28 223 238 222 223 225 240 29 223 231 224 30 225 203 54 31 225 37 52 225 225 40 48 225 43 45 210 133 49 44 208 41 56 206 110 45 65 203 49 225 202 201 54 226 199 58 59 229 32 63 231 231 113 67 215 31 124 173 153 130 48 88 135 136 208 40 137 137 212 136 135 216 217 78 127 220 78 78 222 223 78 78 226 77 77 27 228 74 25 24 72 71 16 14 68 15 21 26
218 77 28 28 219 60 28 220 220 28 28 222 28 28 223 224 28 28 225 29 29 29 226 29 29 29 29 29 28 28 29 30 28 28 30 30 30 28 32 34 28 28 231 55 28 231 231 28 28 231 231 28 231 231 33 28 231 34 34 231 230 35 36 230 36 37 226 225 37 38 225 28 39 225 225 28 40 225 28 28 223 225 28 224 225 28 28 222 225 28 221 221 40 28 219 219 38 47 219 36 35 50 225 33 225 217 225 31 225 225 30 224 225 30 29 225 225 30 224 225 30 30 224 225 30 217 224 225 67 217 225 225 67 217 225 68 68 225 28 69 217 225 223 68 225 28 225 225 225 223 225 225 225 223 228 225 223 223 234 223 223 239 240 61 223 236 34 59 221 214 57 214 193 55 55 178 170 52 51 158 50 49 144 138 225 47 126 225 225 115 112 225 48 105 225 225 39 98 225 36 35 56 225 33 33 225 231 32 44 44 31 31 45 104 32 48 48 109 126 51 115 116 129 55 121 225 128 215 128 225 64 219 78 225 47 138 78 28 58 78 225 70 75 76 27 90 87 73 21 109 91 14 13 27 95 185
225 28 219 219 225 28 218 225 225 28 221 225 28 223 225 225 28 225 29 28 28 225 29 28 28 225 212 28 225 225 210 28 225 209 209 223 225 208 32 223 207 207 223 28 207 225 224 28 207 225 226 28 226 227 28 28 225 227 28 225 225 28 28 225 216 28 225 225 218 29 225 220 220 227 225 221 222 225 42 222 225 225 223 223 225 36 223 225 225 39 225 225 42 42 225 225 45 225 225 28 49 225 225 28 218 225 224 55 225 31 224 217 225 224 224 216 29 224 225 216 29 224 225 28 28 225 225 67 224 225 31 68 225 225 31 217 225 31 69 217 225 31 217 225 31 32 216 225 32 216 216 28 223 216 28 28 225 216 29 29 225 29 29 225 225 30 30 225 35 30 225 225 37 31 225 39 40 211 225 42 210 210 45 47 208 207 51 206 205 42 59 203 203 46 202 201 49 51 225 53 54 227 227 58 59 231 98 62 232 229 107 67 207 113 115 157 136 119 120 74 121 122 212 213 121 215 216 77 116 219 220 78 68 222 78 78 225 225 78 28 227 77 77 27 154 74 25 23 38 70 16 28 26 225 19 20
28 80 28 28 219 65 28 220 221 225 28 222 222 28 28 223 28 28 224 224 29 28 226 29 29 28 225 29 28 28 225 30 28 28 225 209 30 28 31 208 223 28 207 50 223 28 207 225 28 231 208 226 28 232 227 226 28 231 36 28 28 225 37 28 230 225 217 29 225 40 220 225 225 221 225 225 225 222 225 225 223 223 225 28 223 225 225 37 224 225 225 40 225 225 43 44 225 46 47 225 225 50 50 225 224 54 225 225 224 57 225 224 224 225 225 224 225 225 224 224 225 225 224 225 225 28 224 225 225 67 225 225 69 69 225 225 69 225 225 32 70 225 32 70 225 225 32 69 225 223 33 216 225 223 223 216 29 223 234 222 29 225 238 30 224 225 227 30 225 206 37 31 225 179 57 211 225 42 54 152 225 45 208 133 49 51 205 40 56 203 203 44 63 202 47 48 200 200 52 225 226 55 57 229 33 60 232 232 100 65 223 214 107 187 169 111 112 105 84 114 212 45 114 113 216 121 110 219 220 78 102 222 78 78 224 225 78 78 227 78 77 28 229 76 74 26 38 72 22 19 27 14 13 21 19 28
219 225 28 219 225 225 28 218 225 28 217 225 225 28 36 225 28 28 31 225 28 225 225 28 28 225 225 28 227 225 211 28 228 30 209 229 225 31 208 231 31 208 42 231 32 207 224 28 33 138 225 28 34 181 28 28 205 213 28 231 230 28 28 230 229 28 230 230 28 28 229 225 44 228 227 45 222 226 46 47 225 225 48 48 225 48 49 225 225 48 48 225 28 28 225 225 28 46 225 28 28 218 225 28 218 217 29 29 217 217 29 217 217 31 30 216 216 30 225 216 29 29 225 29 29 225 225 29 29 225 31 28 225 225 32 28 225 32 32 225 225 33 33 216 33 33 216 216 33 216 216 29 33 215 215 29 68 215 29 30 214 214 30 225 213 30 30 225 37 31 225 225 39 33 225 41 41 225 225 44 45 225 101 48 205 225 67 55 203 42 60 48 201 46 47 200 94 51 46 199 54 225 46 91 59 232 47 92 225 226 95 97 225 33 106 225 225 34 108 225 35 36 58 225 38 104 219 42 44 66 222 51 53 71 135 64 75 77 142 225 81 148 150 225 86 157 225 225 165 168 225 13 178 225 225 154
218 28 81 219 28 28 66 220 28 53 49 28 28 39 37 28 34 32 28 28 30 28 28 225 29 28 28 227 223 28 228 228 28 28 229 30 30 229 229 31 34 231 31 32 55 231 32 98 116 225 34 161 170 225 211 195 28 37 213 225 28 231 232 226 28 231 225 28 29 229 225 28 229 225 225 31 227 48 225 32 225 50 33 34 225 223 225 225 225 224 225 225 224 225 225 225 224 225 28 224 224 225 28 224 224 225 54 217 225 225 57 225 225 60 60 225 225 62 225 225 64 64 225 29 66 225 225 224 68 225 224 224 225 225 224 224 225 224 224 225 225 224 224 225 71 224 225 225 71 224 226 71 70 225 229 70 222 222 35 68 219 217 67 213 212 224 64 202 199 224 211 186 224 224 210 33 225 142 208 35 225 103 54 37 225 69 52 225 53 58 50 225 42 49 48 225 72 48 91 226 80 200 89 225 88 202 90 225 204 205 66 225 207 98 70 130 211 72 225 56 74 75 36 38 76 77 30 92 65 28 28 80 71 28 70 66 227 28 55 51 229 44 40 231 231 32 231 231 71 23 232 232 67 13 233 62
89 225 28 28 76 225 28 64 59 28 28 47 28 28 222 36 28 28 223 28 28 225 225 28 28 226 29 28 227 227 30 228 228 30 30 229 229 31 31 32 31 31 40 45 32 63 76 28 33 128 143 28 167 176 28 28 200 28 28 231 229 28 28 231 42 28 230 230 45 28 229 47 47 228 228 50 225 227 51 52 225 226 53 225 225 28 54 225 225 28 225 225 28 28 225 225 28 219 225 28 28 219 225 28 218 218 225 29 217 36 35 57 216 33 32 216 225 31 225 216 30 224 225 225 30 225 225 225 224 225 32 225 224 225 33 216 225 225 33 216 225 33 72 215 225 34 215 225 225 72 215 29 227 71 224 30 225 70 220 30 225 216 214 224 225 207 224 224 200 193 224 225 173 225 225 152 43 225 225 115 57 205 86 79 54 203 59 53 53 106 45 51 99 97 50 50 92 91 49 89 89 225 50 88 88 225 33 90 225 225 33 67 225 34 34 225 225 36 55 225 37 38 59 225 43 62 64 29 51 68 69 129 69 72 135 136 76 229 142 225 82 148 151 225 231 158 225 225 232 169 225 155 157 64 225 164
225 28 86 219 225 28 70 28 28 217 53 28 28 42 225 28 215 34 28 28 214 224 28 225 213 223 28 226 29 222 28 228 30 28 28 225 31 28 225 225 208 28 225 32 209 225 225 209 105 225 225 210 225 28 211 212 225 28 213 226 226 28 216 226 28 28 225 225 29 230 225 30 30 225 225 30 31 225 222 32 225 225 223 225 225 223 223 225 225 224 225 225 224 224 225 225 224 225 225 46 224 225 225 50 225 225 53 54 225 29 57 225 225 59 60 225 30 62 225 225 31 65 225 224 224 216 225 224 225 215 29 224 225 225 29 225 225 29 224 225 225 29 225 225 34 29 225 225 73 224 225 35 72 223 36 36 213 220 36 70 213 30 37 211 208 31 38 210 31 225 225 208 33 225 153 34 34 225 117 36 225 225 49 38 225 225 54 225 225 58 60 225 225 65 200 200 70 72 200 53 78 202 203 57 84 205 61 62 207 208 65 67 211 69 69 111 214 72 58 48 90 75 33 31 84 30 29 78 75 28 28 66 227 28 56 52 229 28 43 230 230 77 32 231 75 73 232 232 71 69 232 67 66 13 232 61
28 219 28 28 81 77 28 69 65 28 28 52 48 28 216 39 28 28 34 32 28 224 30 28 28 225 223 28 226 226 30 28 228 30 30 28 229 31 31 229 225 32 38 231 33 33 68 225 35 116 133 225 211 170 28 28 213 204 28 232 215 225 28 232 233 225 29 231 225 28 30 225 225 30 229 225 56 31 225 58 223 32 225 60 225 225 225 224 225 225 225 224 225 225 224 224 225 224 224 225 225 48 224 225 51 218 225 225 55 217 225 57 58 225 225 60 225 225 63 63 225 225 65 225 225 224 224 225 225 224 225 225 224 224 225 225 224 225 225 224 224 225 73 224 225 225 73 73 225 74 74 224 227 73 73 222 36 72 219 217 37 211 211 224 70 210 200 225 209 188 33 225 162 170 225 225 128 35 225 99 90 37 225 68 58 40 225 55 56 225 225 61 54 225 66 67 201 89 73 52 87 55 79 205 86 225 207 208 63 225 211 212 68 145 215 70 71 65 39 74 38 35 82 76 30 52 74 28 28 66 69 28 57 54 229 28 45 42 230 36 34 231 231 75 26 231 73 72 232 232 68 13 232 64 62 26
30 225 219 30 225 225 218 29 225 217 217 225 225 216 225 225 215 215 224 224 214 224 224 28 213 223 223 28 29 222 28 28 29 28 28 225 220 28 28 225 28 28 230 225 209 28 225 35 209 232 225 211 211 232 38 212 225 232 41 217 225 44 216 235 225 48 231 225 28 29 226 225 30 229 225 28 31 225 28 28 227 225 28 28 225 65 28 224 224 65 224 222 65 65 225 221 62 224 225 59 58 225 225 53 225 225 29 46 225 225 29 225 225 30 30 216 225 30 216 216 31 31 215 31 31 215 215 30 33 215 30 30 215 215 30 30 214 30 30 225 225 30 30 225 35 30 225 225 36 225 225 36 36 225 225 37 212 225 37 37 211 211 38 210 210 31 39 209 32 33 207 207 33 34 206 34 35 225 204 36 37 225 128 38 225 225 54 41 225 58 59 225 225 64 202 226 36 70 203 229 74 53 205 34 80 208 209 34 54 211 65 67 56 93 69 92 218 100 72 41 106 75 225 30 114 77 29 64 122 225 28 55 52 225 103 44 229 225 126 81 231 141 145 86 231 156 90 91 168 165 94 232 182 97 97 192
220 94 225 28 85 28 225 218 70 28 225 217 225 28 216 42 224 28 215 224 28 28 224 223 28 225 225 222 28 226 30 28 28 225 31 28 28 225 209 28 225 225 209 28 225 209 209 220 225 210 222 222 211 212 224 28 213 224 225 28 215 225 225 28 225 225 29 29 225 29 29 225 225 30 30 225 222 31 225 225 223 32 225 223 223 225 225 224 224 225 70 224 225 225 224 225 225 44 224 225 225 48 225 225 50 51 225 225 54 225 225 30 58 225 30 60 216 225 224 63 225 33 224 215 225 224 224 215 31 224 225 215 30 224 225 30 30 225 225 74 225 225 35 74 225 225 36 213 225 36 75 212 225 37 212 220 37 37 211 31 38 210 209 31 225 208 32 33 225 207 33 225 225 34 34 225 112 36 36 225 47 37 225 225 51 225 225 54 56 201 225 60 202 202 64 65 203 204 70 205 205 55 75 208 58 59 210 211 62 64 185 66 67 125 104 70 71 55 78 73 35 33 72 76 30 66 63 28 28 56 228 28 48 45 229 230 38 230 230 77 30 231 231 75 87 231 72 71 232 69 68 14 232 63 62 27
219 225 220 28 219 225 218 220 220 28 217 225 28 28 48 224 28 215 36 28 29 32 224 28 29 30 28 28 29 29 28 226 29 28 28 228 225 28 228 229 32 28 230 225 34 230 230 36 210 231 231 38 146 232 40 41 187 43 44 212 220 28 48 235 28 28 234 232 28 28 228 28 28 230 225 28 230 229 28 28 228 228 71 226 226 73 73 225 224 75 225 223 74 74 225 222 72 225 225 68 67 225 28 61 225 225 29 29 225 29 29 217 225 30 30 216 30 30 215 215 31 215 215 33 32 215 215 31 69 214 31 31 225 214 30 225 225 225 30 225 225 30 224 225 36 30 225 225 36 224 225 37 37 211 229 37 210 210 230 38 210 31 218 73 208 32 72 72 188 33 70 205 171 225 68 157 36 225 225 139 225 225 49 123 225 225 53 225 225 42 58 225 38 38 58 225 36 67 57 36 35 56 209 85 36 56 85 61 56 56 88 225 57 92 94 225 59 98 225 225 104 106 225 225 67 225 225 81 87 225 225 106 72 225 124 129 77 28 144 81 82 155 159 86 158 166 89 91 170 173 94 180 184 225 98 194
100 28 28 219 225 28 219 220 225 30 220 28 225 29 221 28 28 28 225 29 28 223 225 213 31 225 29 212 29 225 211 29 220 225 210 219 28 209 209 218 28 210 218 219 28 210 219 28 28 225 221 28 232 225 28 28 225 44 28 28 225 217 28 225 225 218 29 225 220 220 225 225 221 221 225 222 222 225 225 223 225 225 32 223 225 225 35 225 225 37 38 225 225 40 225 225 42 43 225 224 46 225 225 224 49 225 224 224 217 225 224 224 217 45 224 225 225 39 224 225 64 224 225 225 67 225 225 33 69 225 225 71 225 225 34 73 225 225 35 213 225 36 75 213 30 225 212 223 31 225 211 31 225 225 210 31 225 229 31 31 225 219 32 32 225 40 73 225 225 41 205 225 42 43 204 225 44 203 203 47 47 202 127 49 202 202 41 53 202 43 44 225 204 46 47 227 49 50 230 231 53 55 233 71 58 228 222 74 63 186 75 75 126 105 74 221 222 71 70 224 224 65 225 226 76 57 228 228 77 229 229 78 78 230 78 78 28 28 77 77 28 27 75 27 27 23 72 23 21 21 16 14 20 20 19 20
28 219 28 28 219 219 28 219 220 28 28 220 220 28 52 221 28 28 40 222 29 34 33 29 29 31 28 28 29 29 28 28 30 28 28 227 30 28 28 228 217 28 229 229 28 28 230 36 37 231 231 39 135 232 42 43 180 233 47 206 214 225 51 233 236 225 219 235 28 62 220 225 28 231 226 225 28 230 225 28 229 228 225 28 227 82 225 35 225 83 28 38 225 83 41 222 225 224 225 225 77 224 225 225 224 225 225 225 224 225 30 224 224 225 30 224 225 225 62 215 225 225 65 225 225 68 68 225 225 70 225 225 71 72 225 31 74 225 225 225 75 225 225 225 225 224 225 225 226 225 225 227 227 225 225 228 77 225 226 223 76 225 208 75 75 225 177 74 186 182 41 72 170 166 71 157 152 225 69 139 135 225 202 123 225 225 203 41 225 41 101 44 225 38 60 225 228 37 59 225 37 68 58 233 37 58 216 208 72 58 87 137 71 221 92 225 69 224 99 225 226 226 75 225 227 114 77 28 229 78 225 28 78 78 28 148 78 78 28 29 82 28 28 25 87 26 23 23 231 18 22 231 231 21 21 231
220 225 35 34 225 225 32 219 225 31 30 225 225 30 225 225 215 29 225 225 214 225 225 212 212 225 225 211 221 225 211 210 219 30 210 218 217 31 209 217 28 28 217 217 28 28 218 28 28 225 220 28 28 225 28 28 225 225 28 233 225 217 218 233 225 219 225 225 62 221 225 225 221 227 225 74 222 225 28 79 225 225 32 84 225 28 35 225 225 28 37 225 28 28 223 225 28 43 221 83 28 220 225 76 219 219 69 224 218 217 59 225 225 51 49 225 225 43 225 225 31 37 225 32 32 225 225 33 69 225 34 34 213 225 35 35 212 31 36 212 212 31 36 211 31 31 211 211 31 225 210 31 31 225 209 31 225 225 38 32 225 225 39 225 225 40 40 225 41 41 204 225 42 43 203 44 44 203 202 46 47 202 38 39 203 203 41 41 205 43 44 226 206 46 227 228 49 50 231 232 53 233 233 67 57 222 213 69 219 168 69 69 222 50 67 223 224 61 63 226 74 58 63 228 76 51 229 118 77 28 229 78 78 28 133 78 28 28 143 225 28 27 154 225 27 24 225 225 182 23 225 14 187 96 231 191
219 219 28 28 219 28 28 33 219 28 28 31 225 28 58 221 225 28 43 28 29 213 35 28 212 31 222 28 211 30 28 28 210 218 28 226 209 217 28 227 33 216 28 229 35 28 28 225 38 28 225 225 212 28 225 45 173 225 225 216 207 225 225 218 224 28 220 220 225 29 221 225 225 30 222 225 31 31 225 225 32 229 225 33 34 225 225 35 35 225 224 38 225 225 224 225 225 224 224 225 225 224 225 225 224 224 225 225 224 225 225 56 224 225 58 59 225 225 62 63 225 31 65 225 225 67 68 225 33 70 225 225 34 73 225 225 225 212 225 225 225 211 31 225 225 224 31 225 226 31 225 226 226 32 225 225 79 32 225 38 78 206 225 39 77 196 40 40 205 182 41 75 203 36 43 203 153 37 45 203 38 225 225 204 40 225 45 41 43 226 41 44 227 228 58 48 230 230 62 232 233 64 65 229 65 66 219 220 66 66 222 65 65 223 224 69 62 226 72 73 227 227 75 76 228 77 77 28 229 78 28 28 36 78 28 28 31 28 28 28 28 28 28 26 231 26 24 24 230 23 23 230 230 23 23 230
221 106 28 28 99 225 36 34 87 28 33 225 71 28 30 225 28 28 221 225 28 29 222 29 28 223 225 29 223 224 30 210 30 225 31 30 216 32 32 31 216 33 33 35 28 36 45 28 28 71 84 28 28 231 28 28 232 233 28 28 233 56 28 233 233 62 28 233 68 70 232 232 75 229 231 80 82 226 225 87 225 225 28 92 225 225 28 225 225 28 28 225 28 28 224 225 28 28 223 28 28 221 221 87 29 220 79 76 218 218 67 64 217 58 55 225 216 48 225 225 225 41 225 225 33 225 225 33 34 225 225 34 213 225 35 36 212 225 36 212 212 225 37 211 32 225 78 210 32 32 79 220 32 225 208 216 33 225 212 33 225 225 203 225 225 40 192 225 225 41 225 225 105 42 204 225 76 72 204 62 45 70 129 50 69 206 115 44 66 105 44 65 64 96 47 230 90 89 225 233 86 85 225 43 84 225 225 47 225 225 53 55 225 225 64 60 225 77 82 61 227 100 63 64 111 124 66 118 120 69 70 127 129 73 134 137 225 77 145 147 225 230 156 225 225 184 169 225 189 190 66 225 194 96 225 198
111 28 28 104 28 28 95 92 28 218 82 28 28 216 64 28 220 215 224 28 221 221 223 29 222 29 28 223 223 30 28 224 30 31 28 225 31 30 28 225 33 32 225 225 210 40 28 38 211 218 28 212 108 220 28 215 222 28 28 217 224 28 233 224 224 29 233 69 29 29 225 76 30 30 225 222 31 225 225 223 225 225 223 223 225 225 224 225 225 224 224 225 28 224 225 225 41 224 225 44 45 225 225 47 48 225 50 51 225 225 54 55 225 30 58 225 225 225 62 225 225 225 225 225 225 225 225 225 225 225 225 225 225 225 33 225 225 225 76 225 225 77 77 225 37 78 222 225 37 79 220 37 80 208 217 38 80 213 33 38 206 205 225 225 206 34 225 139 205 35 225 106 36 36 225 79 37 225 225 45 38 225 52 70 225 225 49 68 110 52 52 211 98 55 56 214 49 58 216 216 53 60 219 56 57 221 221 60 225 136 64 65 79 68 68 45 40 55 72 32 30 50 29 29 46 44 28 28 40 229 28 36 35 230 78 31 230 230 77 28 230 75 75 230 230 72 71 230 69 67 16 229 62 60 22 56
113 111 28 28 103 101 28 219 92 28 28 219 77 28 220 220 28 28 220 221 28 221 221 29 29 222 29 29 31 223 30 30 30 31 31 30 30 32 32 31 28 34 33 34 28 229 43 28 28 230 73 28 231 231 28 28 232 233 28 233 233 59 28 233 233 67 29 233 73 75 238 225 81 231 230 87 89 226 28 94 225 225 28 101 225 28 28 224 225 28 226 224 225 28 225 224 225 42 223 103 28 45 222 96 48 220 225 86 52 218 76 225 56 225 63 225 225 225 225 225 31 225 225 225 33 225 225 225 34 225 225 225 72 225 225 74 212 225 225 76 211 33 78 78 223 33 79 79 221 225 80 219 218 225 80 215 225 225 211 209 225 183 203 225 225 149 40 225 124 116 78 225 94 87 76 75 70 74 74 59 73 72 132 49 70 70 117 225 67 107 104 225 65 97 225 225 216 90 225 225 87 53 225 48 84 225 184 56 61 225 65 69 59 58 82 60 61 34 106 61 102 30 46 64 110 42 41 229 120 37 69 127 78 33 229 138 225 225 230 77 225 185 230 74 225 192 71 70 20 198 65 15 15 25 58 34
115 225 221 108 225 225 220 225 28 218 218 225 28 219 225 224 33 220 224 223 31 225 223 30 30 225 221 29 225 225 29 29 225 209 28 225 225 209 31 225 209 209 214 225 210 211 215 211 211 217 218 213 219 219 28 215 221 222 28 225 223 29 29 225 224 29 225 225 28 30 225 225 30 233 225 222 31 225 97 223 231 225 223 224 225 107 224 225 225 111 224 225 38 224 225 225 41 225 225 28 44 225 225 47 221 225 29 50 225 225 30 219 225 225 30 217 225 225 216 216 49 225 215 43 42 225 214 39 225 225 34 36 225 225 35 34 225 36 76 225 225 36 210 225 37 37 209 225 37 209 208 37 37 208 208 33 207 207 34 225 206 206 34 225 205 34 35 225 35 36 225 225 36 36 225 42 37 225 225 44 44 225 45 46 210 226 48 211 212 50 51 214 215 53 216 217 49 55 219 219 52 228 221 56 57 191 223 60 135 115 64 65 65 55 68 40 36 51 72 31 47 46 225 29 42 41 229 161 37 229 229 34 71 229 78 31 229 229 77 79 229 75 75 83 229 72 24 229 180 66 16 15 61 225 24 24
28 115 28 28 220 105 28 28 97 225 28 219 83 28 28 219 224 28 220 220 223 31 220 29 222 30 222 29 29 29 225 30 29 223 31 209 31 225 32 31 214 225 209 34 28 225 211 216 28 212 212 218 28 214 220 220 28 216 222 28 29 225 224 29 234 225 29 29 225 81 30 30 225 222 30 225 225 223 31 225 223 223 225 225 224 225 225 224 224 225 225 224 225 225 39 224 225 225 42 225 225 45 46 225 225 48 225 225 51 52 225 225 55 225 225 225 59 225 225 225 216 225 225 225 215 42 225 225 225 225 225 225 72 225 225 225 74 225 225 77 77 225 225 78 222 225 37 80 220 223 37 208 218 37 81 207 34 225 207 209 34 225 206 34 225 225 206 35 225 104 36 36 225 80 37 225 225 43 75 225 225 44 210 225 46 47 213 227 48 214 215 51 51 217 98 53 219 219 51 55 221 54 55 209 223 58 59 145 61 63 86 71 66 67 43 50 70 33 31 47 30 29 43 42 28 28 38 229 229 35 34 229 229 32 229 229 78 29 229 229 76 229 229 74 73 228 70 69 21 19 65 62 16 26 57 37
86 225 28 220 225 225 220 219 225 28 218 225 225 28 216 224 36 28 59 223 33 213 44 28 31 225 221 28 221 225 28 29 222 225 28 223 225 32 28 225 225 209 226 226 37 210 227 40 42 53 216 46 48 95 28 53 139 152 28 61 183 28 29 209 217 28 29 236 28 28 233 241 28 233 233 97 28 232 232 106 232 231 111 113 230 230 116 225 229 119 120 225 120 120 225 225 119 119 225 28 28 225 225 29 29 225 29 29 221 225 30 30 219 30 30 218 218 31 217 217 54 52 216 215 45 225 215 41 40 225 213 38 225 225 36 36 225 36 35 225 225 36 34 225 36 36 209 225 37 37 209 219 37 208 208 37 37 207 34 37 207 207 35 82 207 35 36 81 207 36 225 225 175 37 225 225 160 225 225 43 39 225 53 45 225 226 49 47 225 48 49 67 218 49 51 219 95 53 63 222 52 60 61 86 57 60 59 86 225 59 87 65 225 59 92 225 34 135 98 225 30 42 225 225 164 39 225 171 173 67 225 179 180 71 184 186 73 75 191 193 78 159 162 82 83 173 70 87 184 187 225 92 197 225 225 206
221 221 225 28 220 220 225 64 219 225 28 50 218 225 43 218 224 224 36 225 223 34 33 225 222 31 225 225 211 30 225 225 209 225 225 209 209 225 209 209 213 225 209 209 213 39 211 214 215 212 212 217 28 28 218 219 28 29 221 29 29 225 223 29 225 225 28 30 225 225 28 233 225 223 223 233 225 223 225 225 111 223 225 116 224 225 225 121 224 225 28 124 225 225 39 124 225 28 42 225 225 28 45 225 29 48 222 225 29 220 225 90 30 219 225 225 218 218 63 225 217 216 51 225 225 45 44 225 33 40 225 225 34 37 225 35 35 225 225 36 78 225 36 36 210 221 36 36 209 34 36 209 208 34 208 208 34 34 208 208 35 225 208 35 36 225 208 36 225 225 39 37 225 40 40 225 225 41 42 225 43 44 213 226 45 45 215 47 47 218 218 49 49 219 47 48 221 222 51 228 223 54 55 194 224 58 142 122 62 63 72 59 66 43 39 47 70 31 44 43 228 29 40 39 229 171 36 228 229 179 33 229 79 31 71 228 78 29 228 154 76 27 228 73 26 25 179 69 21 18 193 225 17 26 205 225
127 217 28 28 116 217 28 107 105 28 28 96 225 28 84 80 28 41 66 61 28 219 49 28 28 220 28 28 220 220 28 28 221 31 28 222 222 32 28 223 34 35 32 225 37 36 37 41 43 48 53 48 71 82 28 55 124 138 28 162 173 28 28 200 209 28 233 233 28 28 233 94 28 233 233 104 28 233 110 113 232 232 118 120 231 123 124 225 225 127 225 225 28 128 225 225 28 224 225 28 28 225 225 29 223 225 225 29 221 225 30 220 220 86 30 219 74 70 60 217 60 56 64 225 49 225 215 225 42 225 225 39 225 225 224 225 225 225 35 225 225 36 78 225 223 36 210 225 220 81 210 213 210 82 209 194 82 82 211 35 82 206 204 225 82 198 36 225 190 187 225 225 178 175 225 69 164 225 225 60 225 225 56 55 71 225 54 69 69 54 55 66 220 57 65 64 98 64 62 62 91 51 60 89 88 59 88 88 225 225 89 90 225 135 93 225 225 154 100 225 164 167 75 225 174 63 225 28 181 66 225 187 31 69 140 194 73 74 153 28 77 162 166 27 82 177 225 27 227 191 225 227 227 57 225 225
216 225 225 106 225 225 90 85 225 28 70 225 225 217 54 225 28 215 225 225 214 56 225 213 212 222 225 211 210 219 31 209 218 217 30 209 215 30 30 214 213 29 29 212 29 29 225 213 29 225 225 28 29 225 225 215 230 225 217 217 225 225 219 223 225 220 221 224 89 222 224 224 99 223 225 31 223 234 225 31 32 225 28 33 225 225 34 35 225 28 37 225 225 28 228 225 224 28 226 225 225 225 225 122 225 225 225 111 225 225 101 225 225 30 86 225 225 31 70 225 31 63 225 225 33 66 225 33 33 214 225 34 34 214 38 34 213 223 36 212 212 36 225 211 211 36 225 210 35 35 225 209 35 225 225 36 35 225 37 37 225 225 37 37 225 37 38 211 225 38 38 212 37 40 212 213 38 41 214 39 40 216 216 41 227 218 42 43 229 220 44 231 232 47 47 233 232 49 226 221 50 50 191 50 50 226 120 49 48 227 130 47 227 228 45 44 228 71 42 228 228 75 75 228 77 77 28 228 78 28 28 133 79 28 28 79 225 28 29 77 28 27 27 227 25 27 27 226 223 27 226 226 226 26 226 52
28 216 28 28 114 216 28 28 111 225 28 101 98 28 28 87 28 29 73 68 28 214 54 28 28 211 41 28 218 36 219 28 220 220 28 30 220 32 28 221 225 35 30 223 39 39 29 225 44 43 29 225 51 70 225 225 216 122 28 67 218 222 28 219 198 223 30 221 224 28 30 222 225 30 233 225 225 31 233 119 32 32 225 127 33 225 225 224 35 225 135 224 225 225 224 225 225 225 224 225 225 225 225 225 29 225 225 225 50 225 225 53 54 225 225 57 58 225 60 60 225 225 63 64 225 33 67 225 225 225 215 225 225 225 224 224 225 224 223 225 225 223 222 225 221 220 36 225 216 213 81 225 201 82 82 225 36 82 211 150 36 82 205 37 82 211 198 38 80 191 37 38 213 179 225 70 215 39 225 64 217 40 227 61 41 225 229 62 44 231 65 47 46 233 72 63 230 228 49 61 95 49 49 226 91 49 48 227 62 47 227 227 66 45 228 70 70 228 228 73 29 29 76 76 28 183 78 28 28 33 79 28 28 30 28 28 29 29 28 28 28 227 27 28 28 226 69 27 226 226 62 27 225 56 54 225
146 225 28 131 225 225 115 110 225 219 93 225 225 217 72 225 216 215 217 225 214 214 223 29 212 222 221 29 39 220 34 210 34 217 31 32 215 31 30 31 213 30 225 33 28 30 225 211 28 224 225 213 29 227 56 215 228 225 66 217 230 74 219 185 231 85 221 223 94 96 237 224 30 244 243 28 31 238 236 28 232 230 28 28 232 226 28 231 231 28 28 229 139 139 228 228 138 224 227 136 135 225 225 129 127 225 122 119 225 225 109 106 225 30 93 225 225 31 219 225 31 31 218 225 32 217 217 33 33 216 215 33 215 214 39 34 214 38 38 213 213 37 37 225 36 36 225 225 36 36 225 36 36 225 225 36 36 225 36 36 225 225 37 212 213 37 37 213 213 38 214 215 38 39 215 216 39 75 217 40 40 72 150 41 228 220 134 43 230 45 45 232 233 47 48 231 48 48 225 211 48 48 225 117 47 227 99 137 57 227 151 44 56 227 69 57 227 100 72 58 228 75 225 60 116 77 28 124 127 225 28 136 139 225 207 29 225 225 216 29 225 222 223 79 225 227 27 84 230 231 88 225 232 91 93 212
141 152 225 28 129 215 225 220 116 225 28 218 104 225 217 93 224 225 215 224 28 214 213 223 28 216 221 221 38 217 219 219 34 225 216 32 32 225 31 31 225 225 30 30 225 209 30 225 225 211 44 225 213 214 216 225 216 216 219 217 218 221 222 219 222 223 30 221 223 223 30 225 224 31 31 225 225 31 225 225 28 33 225 224 33 225 225 224 36 225 224 224 230 225 224 224 225 141 225 225 225 136 225 225 46 225 225 225 49 225 225 30 53 225 225 56 221 225 31 60 225 225 31 218 225 225 33 217 48 225 216 216 42 225 215 40 39 225 214 38 225 225 34 37 225 217 80 36 225 35 81 225 225 35 213 225 36 36 213 225 36 214 213 36 37 214 200 37 215 215 38 225 216 38 38 225 218 40 40 226 40 41 228 228 42 43 230 44 44 232 232 45 46 232 47 47 225 221 47 226 226 47 47 226 226 46 227 227 62 44 227 227 66 35 227 70 71 30 72 74 29 29 76 76 28 34 78 28 28 32 80 28 31 30 28 28 29 29 226 29 28 226 226 27 225 225 69 27 225 225 62 88 224 55 53 93
165 142 139 28 214 129 28 28 215 117 28 215 215 28 28 215 28 29 215 215 29 214 215 29 29 52 216 29 29 40 30 30 35 34 31 31 33 28 28 32 32 28 219 32 28 28 221 36 28 222 223 28 28 224 224 28 226 226 69 28 228 77 80 172 229 89 92 208 98 101 230 236 110 112 244 28 121 242 240 28 130 234 28 28 232 228 28 231 231 225 28 230 229 28 229 228 144 28 228 227 141 44 227 136 134 47 225 126 225 225 225 112 225 30 100 225 225 31 83 225 225 31 225 225 32 32 225 225 33 217 225 224 70 216 42 224 74 215 39 75 76 222 37 78 214 220 225 80 218 37 225 217 216 225 225 35 213 225 143 36 225 225 118 36 225 103 99 79 225 89 38 78 82 80 76 218 76 74 73 166 41 71 70 152 225 68 140 137 225 65 126 225 225 116 113 225 108 106 225 225 126 99 225 140 145 57 225 156 160 56 44 168 56 55 175 177 56 103 182 56 57 111 35 59 119 122 225 60 131 225 225 226 144 225 225 225 79 225 226 167 77 27 231 73 225 24 234 67 21 236 86 87 22 237 91 214
225 170 225 225 28 155 225 225 141 214 225 219 120 225 28 217 225 225 216 215 224 29 214 223 223 29 212 221 46 30 39 219 38 35 34 28 34 225 215 28 217 225 28 31 218 225 28 220 225 211 28 221 54 213 223 224 64 216 225 73 76 142 220 85 220 184 28 97 211 223 28 110 237 28 31 244 244 28 231 240 28 28 231 232 28 231 231 145 28 230 230 148 230 229 149 149 229 147 146 225 227 143 141 225 137 135 225 225 126 123 225 30 30 225 225 30 30 225 31 31 221 225 31 220 219 32 32 218 218 33 218 217 45 43 217 216 41 225 216 39 39 225 38 38 225 225 37 37 225 34 37 225 225 35 37 225 35 35 215 225 36 36 216 111 36 216 216 37 78 218 38 38 218 219 40 74 220 40 40 72 221 41 228 229 151 43 231 43 136 225 233 45 47 225 112 45 225 209 129 46 225 141 45 226 226 157 44 226 62 169 55 226 67 55 55 101 72 56 226 109 225 56 116 77 225 59 127 225 28 213 139 225 220 30 225 225 227 29 225 231 232 74 225 234 235 79 236 237 83 84 238 238 88 213 214 92
28 151 28 28 213 213 28 28 213 28 28 213 213 28 28 213 29 29 213 213 29 78 214 29 29 58 214 29 47 44 28 30 38 36 28 209 34 28 28 33 214 28 216 33 28 28 218 212 28 219 219 52 28 221 60 62 30 223 71 107 30 225 84 157 227 93 221 196 225 106 221 228 225 223 242 28 28 224 244 28 230 224 225 28 231 225 225 36 230 225 28 38 225 225 39 229 225 225 41 225 147 225 44 225 225 225 225 225 225 225 225 225 225 225 225 225 225 225 225 225 225 225 225 225 225 64 65 224 224 67 225 224 70 71 224 223 73 223 223 75 75 222 221 76 221 220 225 225 218 225 225 185 216 225 225 158 37 225 138 131 225 225 116 79 225 104 101 78 225 94 77 76 192 88 74 184 181 40 71 172 169 41 222 158 225 66 224 143 225 224 132 47 225 225 48 225 212 136 52 225 148 45 56 110 161 55 60 58 43 54 40 37 40 54 31 39 38 226 108 36 226 226 77 34 226 126 225 225 226 80 225 225 224 80 28 224 80 79 27 78 77 27 26 28 72 24 28 28 21 20 27 86 24 27 27 223
216 225 183 219 225 225 170 220 225 158 153 225 225 139 134 225 122 116 225 225 98 92 225 214 76 225 225 212 212 225 211 210 225 225 210 217 225 209 208 214 225 208 213 212 33 209 212 32 32 38 213 31 31 48 28 31 225 217 28 31 225 28 31 225 225 220 226 225 105 222 228 225 223 235 229 126 224 224 230 136 242 225 143 145 234 225 150 229 228 28 37 226 28 38 229 225 28 41 225 28 28 227 225 29 29 226 139 29 225 225 127 224 224 115 111 225 223 98 225 225 84 80 225 225 67 225 225 32 55 225 225 33 225 225 33 33 225 33 33 217 217 33 33 217 38 34 217 217 38 34 216 38 38 217 217 38 225 217 38 38 225 225 38 225 225 36 39 225 225 37 226 226 38 38 226 227 39 222 228 40 40 223 98 41 224 224 44 43 224 45 46 225 225 48 49 225 51 51 181 226 54 133 116 104 58 73 62 101 225 43 41 40 225 32 39 226 29 195 36 225 29 35 56 225 212 32 225 134 221 60 224 81 81 63 158 80 28 67 172 78 27 182 75 225 25 196 225 22 239 207 225 21 27 225 225 240
212 212 225 28 212 212 225 175 212 28 28 159 212 28 146 212 225 29 124 225 29 215 81 225 29 66 223 225 212 49 28 225 210 218 28 209 209 216 40 208 214 28 36 213 212 34 214 225 212 33 215 54 31 31 225 65 31 31 225 218 31 225 225 220 225 225 221 222 222 225 222 223 223 223 223 224 28 224 224 224 33 224 225 34 35 225 225 36 36 225 37 38 225 225 39 40 225 225 42 225 225 225 44 225 225 225 226 225 225 225 225 126 225 225 225 225 225 225 57 225 225 225 61 225 224 63 64 225 32 67 225 225 33 69 224 33 72 218 223 225 74 222 40 225 218 220 225 225 218 38 225 179 218 38 225 154 38 38 225 131 38 225 225 36 77 225 106 37 221 226 37 73 221 38 38 222 186 40 40 223 42 41 224 224 44 225 224 45 45 231 225 47 48 221 50 50 197 185 53 155 139 44 57 91 77 43 57 50 42 41 225 35 39 225 225 37 37 225 74 36 225 225 78 33 225 80 81 225 224 82 81 224 82 82 28 28 80 80 27 29 77 26 26 28 25 24 28 28 21 21 27 222 26 27 27 222
213 225 211 28 155 225 28 28 141 225 173 130 126 28 156 116 28 28 210 100 28 119 210 28 28 210 225 28 28 210 30 28 210 209 31 210 210 33 34 34 210 36 33 33 39 42 34 35 47 37 38 28 57 44 48 28 217 65 28 28 219 28 28 221 221 28 28 223 109 28 225 225 122 28 227 131 133 227 227 142 144 244 148 150 239 237 155 233 231 28 159 228 227 28 226 226 28 28 225 225 28 227 225 29 29 226 144 29 225 225 133 30 224 122 118 54 224 105 100 223 225 86 225 221 73 69 225 31 59 225 225 32 225 225 33 33 225 225 33 219 225 214 33 219 225 33 76 218 192 34 218 216 39 77 219 39 39 77 213 39 225 76 210 40 225 207 205 225 226 201 40 225 105 195 225 228 107 68 225 111 40 65 225 119 63 224 128 131 61 225 140 59 58 132 154 57 123 121 225 55 114 112 225 109 108 225 225 106 105 225 190 106 225 225 199 110 225 206 209 225 225 216 54 55 223 225 57 57 230 59 59 154 235 62 62 167 29 66 178 181 69 223 191 225 74 200 204 225 240 211 225 225 240 217 225 240
225 214 225 225 200 218 225 192 189 142 225 178 174 225 28 162 225 225 148 143 225 216 126 225 225 214 101 225 213 212 208 225 211 220 219 31 210 217 216 209 34 214 41 209 213 213 37 34 213 35 34 39 28 33 225 50 28 33 225 217 28 218 225 220 32 220 104 222 222 225 117 222 224 127 223 233 225 139 244 224 147 149 245 224 35 239 237 28 36 231 230 28 228 227 28 28 228 28 28 227 227 28 29 227 152 225 226 226 143 225 225 133 129 225 224 117 113 225 104 99 225 225 85 225 225 31 68 225 225 32 221 225 32 32 220 225 33 220 220 33 33 219 41 33 219 219 40 33 219 40 40 220 220 40 40 225 40 40 225 225 40 40 225 36 40 225 226 37 225 226 37 37 227 228 38 223 223 40 40 224 224 41 224 224 45 42 224 46 47 59 225 48 49 225 132 51 178 225 54 54 116 43 58 75 65 42 62 45 41 40 225 33 39 224 225 207 36 224 29 217 53 224 223 33 55 223 82 56 223 150 83 60 160 83 225 63 175 81 27 184 188 225 26 197 200 225 240 28 225 225 240 28 225 240 28 89
28 174 28 28 164 161 28 28 150 28 28 139 135 28 208 124 28 28 208 108 28 208 207 28 28 207 207 29 206 207 30 30 206 206 31 40 206 33 34 35 225 37 34 34 40 42 34 28 28 36 37 28 28 41 28 28 212 57 28 214 214 218 28 217 217 28 33 219 112 28 221 221 126 213 223 135 138 238 225 147 245 246 225 155 244 28 225 224 235 28 164 224 225 28 225 227 225 28 227 225 28 43 226 225 45 226 225 225 48 225 139 51 52 225 125 54 55 225 225 225 225 93 225 225 225 225 225 223 225 225 222 32 225 225 220 32 225 217 216 71 225 211 209 72 221 201 73 74 219 74 74 217 216 74 74 215 225 74 213 213 225 73 210 225 225 209 207 225 225 119 225 225 120 121 225 123 124 65 225 129 132 63 232 139 61 60 231 150 58 153 150 43 56 140 225 55 225 127 225 53 120 57 225 225 114 225 225 224 65 225 201 224 70 225 211 51 225 29 220 52 28 226 33 54 28 232 55 223 28 31 58 160 28 29 222 174 29 29 222 79 225 222 221 74 225 221 69 66 22 221 59 225 29 51 49 62
28 28 175 225 214 212 162 28 204 225 148 28 207 225 28 181 207 225 28 206 225 29 28 206 225 215 78 205 29 213 222 30 30 47 220 31 32 39 28 34 36 35 28 39 34 28 28 35 35 28 39 207 28 28 208 225 28 210 211 81 28 213 213 96 215 216 107 110 217 218 121 188 220 131 134 222 28 143 238 242 28 154 246 28 28 244 242 28 28 236 28 28 226 230 28 226 226 167 28 226 226 163 226 226 158 156 225 225 148 225 225 139 136 225 224 124 225 225 111 106 225 31 31 225 225 31 31 225 31 31 221 225 32 32 221 218 32 221 221 214 70 221 43 33 72 220 41 225 220 218 41 225 221 40 225 225 215 41 225 225 212 225 226 36 41 225 127 37 223 227 127 38 223 129 38 65 224 135 40 224 186 143 61 224 46 59 59 164 48 57 56 150 225 194 140 137 225 141 128 225 225 187 119 225 55 196 225 225 203 39 225 210 212 50 225 219 221 51 124 227 52 52 133 232 54 143 146 55 56 157 225 58 167 171 225 62 181 225 225 239 194 225 225 239 73 225 239 239 225 225 238 82 225 238 238 88
29 182 206 29 214 171 225 29 161 225 225 219 146 28 225 218 225 28 205 217 225 28 204 224 28 146 203 223 28 202 225 222 104 202 31 87 81 225 34 37 63 225 210 35 225 225 211 35 225 212 212 214 225 213 214 215 215 216 216 28 217 217 218 35 212 219 220 34 225 221 34 34 225 223 34 225 225 35 35 225 224 36 225 225 225 36 225 224 224 224 225 224 225 225 170 225 225 225 225 226 225 43 225 225 225 46 225 225 48 49 225 224 51 225 225 30 54 225 225 56 223 225 225 59 225 82 225 222 225 225 225 222 57 225 218 217 49 225 215 69 45 225 208 70 225 225 33 71 225 187 34 221 225 34 71 221 225 34 221 213 41 36 222 211 225 223 223 42 225 223 43 43 228 223 43 44 230 44 44 231 149 41 45 231 42 58 228 226 43 224 212 43 43 225 173 43 224 224 43 42 224 224 42 224 223 63 64 223 223 68 32 223 72 73 30 75 76 28 29 79 80 28 33 83 28 28 31 85 28 31 30 221 28 30 221 221 29 29 221 221 29 220 220 75 28 220 220 66 77 220 59 56 32 219 48 64
233 225 225 28 205 225 215 217 204 225 218 225 205 29 218 225 29 29 126 225 29 217 109 28 29 94 224 28 30 72 28 123 200 53 28 99 225 28 28 199 225 28 199 199 40 28 199 225 49 200 200 56 213 39 202 69 45 216 79 83 61 28 95 84 94 28 110 128 28 28 161 171 28 28 199 28 28 219 219 28 28 220 161 28 222 222 167 222 223 171 172 223 223 173 232 224 173 172 228 225 170 226 226 29 164 225 29 29 225 225 30 30 225 30 30 223 225 30 30 223 223 30 223 223 90 31 222 77 73 222 222 62 225 222 55 53 225 221 48 225 225 222 45 225 225 43 225 225 33 33 225 181 34 221 225 34 34 222 156 35 222 222 146 36 223 43 142 66 223 43 38 65 203 44 230 223 198 225 232 192 45 225 231 183 225 228 43 171 225 212 43 225 225 183 43 223 189 191 51 223 197 42 50 125 206 49 223 121 214 49 120 71 49 49 123 76 49 128 130 225 28 137 225 225 236 150 225 225 237 225 225 238 238 225 225 238 61 225 238 238 66 26 237 70 71 212 237 75 217 218 79 81 220 222 85 222
29 205 225 225 212 181 225 216 217 225 28 218 218 225 209 219 225 225 196 218 225 185 181 225 224 168 163 224 153 148 225 225 130 225 225 212 105 225 225 211 196 225 211 211 225 225 211 215 225 212 212 215 59 213 215 215 41 216 217 39 38 63 218 37 37 96 28 37 225 221 28 36 225 28 36 214 225 224 216 225 224 224 219 225 225 224 220 171 224 224 225 175 238 224 175 225 231 28 174 228 224 28 44 226 29 47 223 225 29 49 225 30 30 223 225 30 30 223 123 30 223 223 104 223 223 90 85 225 222 73 225 225 62 59 225 217 53 225 225 33 48 225 33 33 225 225 33 33 225 33 34 221 221 34 34 222 43 35 222 222 43 36 223 43 43 223 223 44 228 223 44 44 230 230 45 231 231 40 46 232 232 41 230 229 42 43 222 43 43 224 198 43 43 223 190 43 223 223 57 42 223 60 61 222 223 65 66 222 68 70 32 222 74 30 29 127 78 28 28 135 225 28 33 32 225 28 31 221 28 237 30 220 237 30 220 220 237 29 220 82 237 66 219 75 74 72 215 66 24 219 220 56 33 222 47 225
28 202 29 29 202 202 29 214 202 29 29 166 201 29 154 150 29 29 138 133 28 124 119 28 28 104 99 28 198 82 28 28 196 61 28 195 195 28 28 194 36 28 193 193 40 42 193 46 49 36 194 57 60 38 66 70 42 44 81 50 53 28 97 71 78 28 221 107 28 28 208 150 28 210 211 28 28 213 214 28 215 216 165 28 218 170 172 38 219 176 176 243 225 178 237 235 178 177 231 28 175 228 227 29 225 226 29 29 225 225 29 223 225 224 30 223 223 223 54 223 118 30 57 222 99 59 222 225 80 61 225 68 225 63 224 57 225 223 223 225 225 33 222 225 205 33 225 225 196 68 225 188 184 67 225 176 67 66 168 166 66 222 161 65 64 211 44 63 63 208 225 61 205 205 225 202 201 225 225 196 194 225 176 188 225 225 182 43 225 187 189 52 225 195 50 50 200 202 49 49 209 49 49 131 217 48 48 127 39 48 126 127 225 48 129 225 225 221 136 225 235 143 86 225 236 156 225 28 236 89 225 236 236 88 27 236 60 61 27 29 65 207 26 28 70 215 28 28 219 220 28 80 219 50 28 218
225 201 201 225 29 210 201 225 214 179 201 29 217 225 200 29 152 225 29 29 134 225 199 120 115 28 183 99 28 28 195 76 28 149 193 28 28 192 225 28 28 191 37 28 191 191 44 36 191 51 54 36 192 64 38 40 74 78 45 217 90 55 59 28 107 79 88 28 203 118 28 28 206 28 28 209 210 28 28 212 163 28 214 215 171 28 216 176 177 217 218 180 243 241 180 180 236 235 179 232 230 28 176 228 227 29 227 226 29 29 226 30 30 222 225 30 30 222 131 30 222 222 112 31 222 98 93 59 222 80 75 222 225 65 225 222 57 225 225 33 50 225 225 33 225 225 33 33 225 225 34 222 226 186 34 222 179 35 65 222 171 36 222 212 44 62 222 45 45 61 208 45 231 59 204 47 232 201 199 225 230 194 225 225 185 185 225 206 192 51 225 197 43 50 225 205 49 222 210 212 49 138 218 48 48 131 224 47 129 129 225 47 130 77 225 133 135 225 28 141 144 225 235 153 225 225 236 225 225 236 236 225 225 236 58 58 235 235 62 63 235 66 67 213 235 71 218 219 28 76 222 222 80 218 223 225
29 199 199 28 199 199 29 28 199 29 29 177 198 29 29 162 225 29 149 144 225 29 130 28 29 217 110 28 30 93 224 28 215 70 28 150 190 221 28 189 189 220 108 188 40 219 86 188 49 73 69 225 60 60 225 225 216 51 225 87 218 218 225 219 66 28 225 221 221 28 222 223 221 40 223 222 223 39 224 223 39 39 225 223 40 213 225 40 40 225 181 41 42 225 225 42 225 225 225 225 225 225 225 225 225 225 224 224 225 225 224 224 225 223 223 52 225 223 54 55 225 223 56 56 222 31 58 225 221 59 60 225 225 61 224 224 225 63 223 225 225 221 222 225 208 221 47 225 201 219 45 226 193 64 225 226 186 64 227 180 63 62 228 37 62 211 229 38 60 209 38 39 222 206 40 56 222 48 225 222 197 50 225 222 51 225 205 222 53 179 201 55 55 129 208 58 91 81 42 61 56 51 41 221 39 39 39 221 38 38 220 220 36 36 220 81 35 220 220 86 33 220 88 89 28 219 91 91 28 91 91 27 27 90 27 27 30 87 27 26 29 26 25 28 28 24 24 28 218 218 28 28 218 49 28 217
193 225 225 244 225 225 242 241 225 225 238 225 225 28 232 225 218 28 195 225 218 217 194 29 217 225 225 216 216 224 30 216 223 223 31 214 223 150 34 49 221 126 42 40 28 103 38 219 28 185 225 28 70 186 225 28 187 225 83 28 190 96 219 192 192 114 221 195 126 130 107 199 142 145 148 28 156 177 186 28 204 212 28 28 231 236 28 212 245 28 28 214 246 28 216 216 185 28 217 217 183 218 219 180 179 219 175 174 228 220 166 164 226 158 154 226 226 143 139 225 30 30 225 225 31 221 225 31 31 221 225 31 221 221 32 32 221 221 32 221 221 52 33 221 221 49 226 221 47 47 226 218 46 226 227 46 45 227 36 45 228 228 37 46 229 37 38 221 231 38 222 222 184 40 222 222 41 54 222 50 42 222 222 51 51 222 53 53 50 222 55 143 131 166 58 94 43 154 225 58 41 65 225 226 40 225 34 230 38 225 232 37 47 225 233 47 219 142 234 48 219 89 49 50 162 92 51 52 175 225 54 186 189 225 57 199 225 225 233 209 225 233 29 225 225 233 28 225 233 233 77 225 233 233 82 233
29 247 225 29 245 196 225 209 242 225 29 215 239 225 217 174 225 225 218 157 225 218 218 225 225 218 217 225 202 216 224 224 186 223 223 172 167 223 222 151 225 221 133 127 225 220 109 225 225 93 88 225 215 216 225 225 216 217 225 218 218 219 225 219 220 220 119 221 221 221 222 223 222 43 43 222 223 42 225 223 42 41 225 223 41 225 225 28 42 225 225 28 212 225 225 43 214 187 225 224 225 185 225 224 182 225 230 224 175 225 224 30 165 227 223 52 152 226 30 53 226 226 30 220 225 31 31 220 225 31 220 220 79 32 220 224 225 220 220 58 225 220 53 52 226 211 49 49 226 34 47 226 227 35 47 227 36 36 228 228 37 60 229 37 38 221 230 38 222 222 48 40 222 222 50 221 222 50 51 221 221 51 215 221 53 54 188 54 55 156 144 57 58 107 43 43 76 67 42 42 49 41 41 220 36 39 39 219 38 38 219 219 36 219 219 84 86 219 219 89 28 219 91 93 28 218 94 28 27 94 94 27 30 93 27 27 30 90 26 29 29 217 25 28 28 217 232 28 217 217 232 28 217 48 28 83
29 211 210 29 29 206 28 28 200 198 28 194 190 28 28 193 225 28 192 191 29 28 190 190 29 189 188 30 30 187 30 30 93 185 32 32 69 33 34 55 52 28 38 44 28 28 40 39 28 28 37 28 28 180 38 28 181 181 28 28 183 184 28 185 186 116 120 189 190 133 87 192 145 149 125 225 159 155 164 169 171 192 28 178 216 223 28 28 237 28 28 209 246 28 28 211 224 28 213 214 224 46 215 186 29 47 216 180 48 217 225 171 228 218 163 225 227 225 148 226 223 225 225 226 31 225 225 221 31 225 225 221 31 225 219 219 59 220 218 33 60 223 215 60 220 52 60 60 221 49 60 60 218 225 60 217 216 225 229 215 225 225 197 213 225 197 197 225 225 196 40 225 198 198 54 225 201 201 51 203 204 51 50 196 209 49 190 187 49 48 179 225 47 171 168 225 46 158 225 225 220 149 225 225 143 73 225 231 231 225 30 232 46 225 233 233 47 28 233 47 47 28 233 49 167 28 32 51 181 184 30 218 194 225 56 217 92 225 217 212 225 225 216 79 225 232 216 68 225 232 57 54 38 232 81 68
225 248 225 225 29 247 225 225 246 193 225 28 244 225 225 28 191 225 217 218 190 29 218 225 188 29 218 225 30 30 112 224 31 216 224 28 32 69 223 173 35 52 28 152 225 43 28 177 225 28 28 177 225 28 177 178 76 28 179 225 94 180 181 108 220 53 121 126 66 221 139 143 95 28 154 123 132 28 168 161 28 28 189 198 28 28 220 28 28 205 206 28 207 208 192 28 209 211 192 212 212 190 190 213 214 187 235 214 181 180 231 175 172 229 228 30 160 227 30 30 227 226 30 31 226 31 31 218 226 31 31 218 32 32 219 219 72 219 219 63 61 219 219 56 227 220 53 52 227 220 50 228 228 218 49 228 36 49 225 229 37 37 230 203 38 220 231 40 40 220 203 41 220 220 205 42 220 53 208 50 220 54 49 49 195 56 167 220 58 225 120 178 61 88 79 166 225 57 42 155 225 228 41 225 225 230 39 218 231 231 45 218 232 36 46 146 232 47 218 154 232 47 163 96 49 50 176 225 51 186 190 225 27 199 225 225 231 210 225 225 231 225 225 231 231 225 231 231 72 225 231 231 78 46 231 82
29 215 215 29 213 212 28 28 192 28 28 191 191 28 28 190 29 28 189 188 29 28 187 29 29 230 185 30 131 183 225 30 106 100 32 216 80 28 34 64 59 28 215 49 28 28 215 41 28 175 216 221 28 175 220 28 91 176 86 28 177 225 104 66 180 118 123 58 225 136 71 52 225 223 101 225 225 223 139 28 224 224 223 28 224 203 223 45 225 224 28 46 224 224 46 207 224 224 46 225 224 47 48 225 190 48 225 225 225 49 225 225 225 225 225 225 229 225 225 225 223 225 225 225 222 127 225 222 222 55 225 221 56 56 220 220 57 57 219 57 58 223 218 58 223 222 34 58 221 221 225 219 219 225 225 217 217 225 210 215 225 225 208 50 225 208 208 51 225 208 52 52 229 210 51 51 222 43 50 203 214 44 49 197 44 47 219 189 44 219 182 61 44 219 170 225 219 219 68 225 229 218 72 35 230 76 78 31 38 82 29 231 36 87 29 35 46 28 28 33 47 161 32 32 217 174 32 31 217 99 30 216 217 98 217 217 95 93 216 216 88 26 216 80 77 25 230 68 26 28 28 54 39 28 28 68
30 29 191 216 29 29 191 28 28 190 225 29 28 189 29 215 188 188 29 217 186 29 29 164 185 29 149 144 30 30 126 120 28 107 100 28 28 81 74 28 175 59 28 28 174 28 28 173 172 28 28 172 61 28 173 172 77 81 174 91 95 41 175 110 114 48 124 128 57 61 142 71 77 28 158 100 108 28 224 136 28 28 194 173 28 196 197 28 28 200 194 28 203 203 197 28 205 197 197 47 208 196 195 243 225 193 240 239 188 225 235 30 180 232 232 30 225 230 30 30 225 228 31 215 225 222 31 216 216 222 55 216 97 32 56 225 81 56 218 224 67 56 223 60 225 56 222 55 228 221 221 225 229 36 225 225 214 37 225 225 213 54 225 212 40 53 225 212 52 219 213 213 50 219 214 50 49 205 55 49 202 201 225 47 196 194 225 190 188 225 225 180 177 225 226 169 225 225 228 44 225 229 229 44 226 230 44 44 230 230 44 44 231 45 45 149 231 45 46 157 33 47 165 169 225 217 179 225 225 216 194 225 230 203 99 225 230 213 225 26 230 87 225 230 66 75 26 230 71 73 31 28 77 225 56 28
225 179 218 29 190 193 225 29 202 204 225 248 210 225 225 246 215 225 245 185 225 225 241 225 29 238 237 225 30 231 225 225 217 222 225 225 217 225 225 217 217 225 225 217 223 223 216 217 222 152 217 221 221 129 218 221 111 107 221 221 92 88 221 81 78 225 222 69 225 225 222 61 225 225 223 184 225 224 224 188 225 224 223 225 188 224 224 225 225 211 224 198 225 224 28 47 242 224 48 48 246 29 48 225 244 29 49 225 29 29 210 225 30 211 225 176 225 213 225 225 230 214 151 225 223 214 133 228 222 118 113 228 222 98 228 228 33 81 228 33 33 217 229 34 56 217 35 35 217 221 36 36 218 53 37 218 218 53 218 218 53 53 218 218 53 232 232 54 54 229 229 55 225 222 43 56 212 207 44 195 188 44 44 162 45 45 218 218 44 44 218 65 44 218 218 68 42 217 71 72 217 217 76 33 217 80 82 31 217 86 29 28 36 92 28 28 35 28 28 33 33 28 28 32 216 27 32 31 216 230 30 216 216 229 30 215 98 96 58 216 90 88 215 222 79 25 215 69 225 29 224 54 40 47 225 225
173 189 189 29 186 189 29 29 216 188 29 212 211 28 29 205 225 28 197 194 28 245 182 177 28 181 163 28 28 179 28 28 176 175 28 28 174 33 34 172 172 36 217 170 41 43 49 169 49 52 43 58 61 40 39 73 39 39 28 28 40 40 28 171 43 28 28 174 50 28 176 177 28 28 180 165 28 183 184 179 28 186 186 188 156 191 194 195 191 198 199 214 221 201 201 235 28 202 243 243 28 225 245 29 29 225 244 29 208 208 224 30 209 210 30 51 211 175 30 212 164 161 52 213 148 143 53 225 129 229 229 225 109 229 33 95 225 229 33 78 229 221 34 225 230 35 54 225 220 36 216 225 219 53 217 55 219 52 218 54 52 52 214 55 51 212 212 225 50 210 56 225 209 208 225 210 206 205 225 222 45 225 225 223 45 225 224 225 44 225 226 44 44 227 227 44 217 228 43 43 158 77 43 43 150 226 44 147 146 226 216 146 225 225 149 150 225 229 156 225 225 230 168 225 229 229 49 225 229 229 51 27 229 53 54 229 30 57 216 229 60 62 221 29 65 224 224 28 71 224 225 225 214 225 225 229
225 174 225 225 30 187 225 225 197 217 225 249 207 225 225 249 225 225 248 247 225 28 246 225 225 28 242 225 219 239 176 225 219 232 225 32 218 224 225 218 218 224 38 218 223 223 45 50 223 174 55 42 223 151 40 40 28 128 39 222 28 168 225 28 94 170 127 28 172 225 146 28 175 159 223 178 179 174 224 182 183 186 123 186 192 194 159 28 198 186 224 28 210 216 28 50 231 235 28 200 242 29 29 203 245 29 204 205 198 29 207 193 191 208 208 185 182 209 176 173 234 210 162 158 232 150 145 231 231 131 125 231 33 33 230 230 33 214 230 34 34 215 231 35 215 215 36 36 216 216 37 216 216 57 38 217 56 56 233 217 56 56 232 213 56 230 229 57 57 224 43 58 216 212 44 59 196 45 45 217 166 45 217 217 225 45 217 217 45 44 217 68 44 217 217 72 43 217 75 77 43 156 80 32 32 149 86 30 38 147 226 28 36 96 225 229 35 225 28 229 33 225 229 32 47 225 229 49 215 107 229 52 215 105 54 55 214 99 57 215 220 225 62 223 80 225 224 224 225 30 229 225 225 229 29 225
30 187 188 30 220 221 30 30 220 29 29 218 216 28 29 212 28 28 206 203 28 28 194 28 28 178 177 28 176 176 30 28 173 173 32 172 171 33 34 170 169 37 75 168 41 42 56 165 49 48 46 28 62 42 28 28 219 40 28 28 39 223 28 167 41 28 28 169 223 28 172 173 223 73 175 168 172 65 179 182 95 59 225 192 128 185 225 225 163 225 203 225 197 225 225 218 28 225 225 224 28 199 225 224 29 202 224 224 51 204 224 30 51 225 224 51 207 225 51 52 225 171 225 52 225 225 233 225 225 225 232 225 225 225 223 225 225 225 223 225 225 223 223 225 223 222 52 52 222 222 51 221 222 51 51 219 221 50 217 216 50 49 215 225 49 213 212 225 48 211 225 225 223 208 225 225 223 61 225 224 224 63 225 225 44 225 95 226 43 73 227 43 43 176 227 43 168 165 42 42 158 155 40 216 150 226 43 215 91 226 216 147 96 225 215 101 225 28 229 105 225 228 33 108 28 229 48 109 27 31 51 27 27 30 215 26 30 30 214 26 29 214 214 84 29 214 224 69 214 214 57 225 214 47 44 65
187 30 171 186 30 30 221 225 30 30 220 29 30 218 217 28 214 212 28 28 205 202 28 178 192 28 28 176 225 28 173 173 31 28 171 170 33 170 169 35 36 167 38 39 70 165 44 47 53 52 55 46 45 28 69 42 28 28 40 40 28 165 40 28 28 166 42 28 168 169 28 28 171 172 28 173 174 178 180 177 178 190 98 181 196 198 131 225 203 156 165 206 206 190 28 208 212 218 28 28 232 29 29 199 241 29 201 201 225 30 203 203 224 51 205 193 30 51 207 182 51 208 225 169 237 225 157 225 235 225 138 234 33 225 225 233 34 225 225 224 34 225 234 224 36 225 223 37 51 214 223 51 214 221 223 50 215 60 49 49 216 59 48 48 213 225 47 212 211 225 223 209 225 225 224 206 225 224 225 225 225 225 46 225 225 226 43 225 226 226 43 227 227 42 43 170 43 42 162 159 42 42 153 226 42 148 147 226 43 146 226 226 215 148 225 228 152 105 225 228 228 225 28 228 47 225 228 228 49 27 228 51 52 26 228 54 215 228 30 58 221 225 62 214 224 225 67 225 65 225 214 225 225 225 213 41
30 248 186 30 222 249 225 30 222 184 225 198 220 225 30 208 217 225 213 211 225 28 217 225 28 248 219 225 28 174 225 225 243 171 225 225 238 225 225 233 231 225 38 223 225 225 219 209 225 220 220 225 225 220 44 225 221 220 223 225 221 221 223 221 222 223 223 108 223 223 95 91 223 224 82 225 224 74 72 225 224 66 225 225 28 61 225 225 59 185 225 225 225 225 225 225 225 225 225 225 225 211 225 225 225 209 225 225 51 225 243 225 51 225 225 30 51 225 224 51 206 225 31 51 225 225 32 209 225 225 33 210 135 225 210 210 114 225 224 100 95 235 223 84 225 234 37 73 234 223 38 66 234 39 49 233 233 41 214 231 41 42 215 215 43 215 215 62 44 215 210 63 215 215 64 225 215 65 65 135 215 67 67 99 46 70 77 70 45 72 55 44 44 45 42 43 42 36 42 41 215 32 40 215 215 39 38 215 215 97 215 215 101 103 214 214 106 28 214 110 110 28 111 112 27 27 113 113 27 31 112 27 27 30 30 26 30 30 214 26 30 29 214 29 29 213 213 29 213 213 56 29 213 213 43 63
186 31 222 222 30 30 223 223 30 223 223 29 30 221 28 28 219 217 28 28 178 28 28 176 175 28 28 174 30 28 171 172 31 28 169 32 33 240 167 35 111 165 38 39 83 76 44 66 61 28 55 52 49 28 220 44 28 28 221 223 28 162 40 223 28 164 223 28 112 166 151 28 168 225 170 85 171 181 184 75 225 193 78 67 225 224 103 225 225 225 134 28 225 225 225 28 225 191 225 54 225 225 29 53 225 225 52 197 225 225 52 225 225 51 51 225 199 51 225 225 225 51 225 180 225 225 225 225 238 225 225 225 224 225 225 225 224 225 225 224 224 50 225 224 50 50 224 224 49 223 224 49 48 221 224 48 219 219 41 47 217 216 225 214 214 225 225 212 211 225 224 209 225 225 225 66 225 225 225 68 225 225 43 70 82 226 43 43 59 45 42 179 227 44 215 168 42 42 215 157 41 215 151 226 39 214 145 226 214 214 101 226 228 145 106 28 228 109 225 28 33 113 27 228 32 115 27 31 49 27 27 31 51 207 30 30 213 217 30 213 213 93 29 213 213 78 213 213 64 60 213 213 49 46 213 40
32 247 226 226 169 248 226 225 183 225 225 193 196 225 225 204 225 225 210 212 225 250 215 225 225 249 218 225 248 248 185 225 246 246 225 28 243 225 225 239 238 225 220 232 225 225 220 162 225 220 221 161 225 221 224 160 78 221 224 224 98 41 224 149 222 224 28 127 41 224 112 107 45 28 95 225 51 28 83 225 28 28 174 225 225 68 178 207 225 181 225 212 135 184 214 225 166 188 215 190 225 215 215 215 225 53 228 231 30 53 237 30 30 200 241 30 30 202 31 31 203 204 31 31 205 179 32 206 206 163 225 207 149 144 238 208 129 237 237 113 108 236 236 94 236 236 38 81 234 234 39 233 232 40 41 213 41 42 213 213 43 43 213 65 44 214 214 65 45 214 66 66 214 214 67 68 134 68 69 109 101 71 86 80 47 73 62 58 45 226 47 45 44 40 38 43 214 34 42 41 215 90 40 214 214 95 38 214 99 101 42 214 105 107 43 147 110 28 214 113 114 27 166 116 27 27 32 225 27 31 31 225 26 30 213 225 228 30 213 26 228 60 213 228 29 65 225 69 69 212 225 52 75 225 43 225
33 184 227 32 184 183 31 30 182 30 30 181 180 30 30 179 30 30 221 176 30 30 216 28 30 209 207 28 200 195 28 28 182 176 28 167 158 28 28 165 128 28 164 163 28 28 161 162 49 161 160 57 61 160 69 73 46 160 88 93 42 225 109 41 41 126 131 41 28 148 42 42 28 166 46 28 28 169 52 28 172 173 225 28 175 176 28 69 179 211 28 182 183 215 134 185 217 217 165 225 218 188 195 225 217 212 29 225 225 228 30 213 225 225 30 225 239 225 51 201 225 31 51 203 225 51 204 225 225 51 206 161 50 50 225 141 49 49 225 225 49 225 225 225 224 224 225 234 224 223 225 224 41 225 225 224 42 225 224 224 46 225 225 45 45 224 224 44 44 211 43 43 208 207 43 43 204 225 43 201 200 225 42 194 225 225 189 186 226 226 226 226 226 226 226 226 227 227 41 226 227 227 41 30 227 41 41 29 38 42 141 227 36 43 144 225 44 213 152 225 45 161 117 225 213 176 225 225 213 117 225 227 213 113 26 227 109 106 25 227 59 25 227 29 63 26 227 67 212 30 29 73 225 29 29 212
227 34 246 226 32 31 182 226 177 30 181 30 191 180 179 30 224 177 30 30 221 175 30 217 216 28 31 208 225 28 198 193 28 248 178 28 28 166 153 28 28 164 28 28 162 162 28 28 161 51 54 160 160 65 222 159 77 83 45 160 98 42 42 115 120 41 41 138 41 41 28 28 42 43 28 167 46 28 28 170 28 28 172 173 28 28 176 210 28 178 179 215 28 182 218 218 132 185 219 220 163 220 220 185 191 219 203 209 30 217 221 224 30 225 232 30 30 225 237 31 200 201 31 32 202 190 33 204 205 176 34 205 164 159 49 207 144 139 49 225 123 235 235 225 104 233 39 92 225 229 41 225 226 224 42 225 218 43 45 225 224 45 212 225 225 44 212 70 225 43 210 70 43 43 206 72 42 203 201 225 42 197 76 63 192 190 226 48 183 181 226 226 44 226 226 227 41 226 227 227 41 226 227 41 41 227 227 41 213 227 42 42 140 111 43 144 145 225 44 153 156 225 163 166 225 225 179 183 225 227 196 225 225 227 210 225 227 227 57 225 227 60 61 26 227 65 66 227 29 70 225 227 75 76 225 29
35 184 222 33 183 182 225 31 182 181 225 248 180 31 30 249 178 30 224 176 225 31 221 225 31 216 214 225 31 207 225 225 220 190 28 225 221 225 28 164 221 225 243 163 225 225 237 161 225 231 160 225 225 220 159 73 210 206 225 92 193 188 225 223 41 225 225 224 224 225 224 224 225 225 224 225 225 224 224 225 28 225 225 225 83 174 225 76 74 225 225 69 68 225 65 64 225 225 61 60 225 225 58 225 225 225 56 225 225 225 225 225 225 225 225 214 225 225 225 225 233 225 51 225 225 225 50 236 225 50 50 236 34 49 225 225 36 48 225 225 37 208 225 225 47 224 102 225 209 223 225 225 210 82 225 224 224 76 204 225 44 73 186 225 43 170 164 47 43 144 225 48 212 115 48 42 213 48 48 213 199 77 47 213 79 226 213 213 82 226 213 85 86 35 213 89 90 32 92 93 31 30 98 29 29 39 38 29 28 37 213 28 36 35 213 28 34 212 212 33 33 212 121 33 212 212 121 121 212 120 119 27 212 116 114 26 110 108 26 25 98 94 25 29 82 26 26 29 28 30 29 29 211 43 29 211
185 36 184 183 33 33 183 182 32 181 181 32 32 179 31 31 225 225 31 31 225 28 31 222 221 28 31 216 28 28 208 204 28 28 192 28 28 165 170 28 164 163 38 28 162 161 44 161 161 51 54 160 160 65 60 160 77 82 49 225 98 45 43 28 121 41 28 28 223 41 28 28 41 225 28 165 43 28 28 169 225 28 171 171 225 86 174 213 215 76 178 218 80 180 225 221 101 183 223 225 127 225 223 148 225 225 225 175 30 225 225 225 30 195 225 225 31 198 225 225 51 200 225 32 51 225 225 50 203 225 49 49 225 174 225 48 225 225 230 225 225 225 227 225 225 225 225 224 225 225 225 225 225 225 225 225 225 224 44 210 225 225 43 217 225 43 43 214 48 43 211 210 42 42 206 225 41 203 201 225 41 196 226 226 226 188 226 226 226 85 226 226 226 226 33 226 41 226 226 226 41 30 226 41 41 137 226 41 136 135 36 42 136 226 35 212 142 225 44 212 121 225 212 164 122 225 212 122 225 27 227 119 225 227 30 113 26 227 56 26 25 30 61 25 26 29 211 27 29 29 211 34 29 211 225 39
39 243 225 225 245 183 227 225 246 226 32 247 248 226 32 248 225 225 201 249 225 208 210 225 225 215 221 225 218 219 225 28 220 220 225 250 221 225 225 248 222 225 246 245 225 225 242 225 225 238 236 225 225 230 225 225 223 218 225 225 223 159 225 224 224 225 133 224 225 225 224 224 225 171 224 225 225 122 224 225 109 104 47 225 94 91 53 28 83 225 225 28 178 225 28 69 182 225 29 184 225 225 225 187 225 225 148 190 224 225 225 223 223 190 225 221 219 206 31 216 214 225 32 210 221 33 50 201 225 34 203 225 35 36 204 225 37 205 205 153 38 206 206 132 207 207 117 112 210 208 101 203 200 92 89 191 45 84 178 173 46 80 157 47 47 139 133 48 48 114 48 48 211 212 48 212 212 79 48 212 212 81 212 212 83 84 212 213 86 37 212 89 90 33 213 93 31 31 42 98 30 40 40 29 29 38 38 28 37 37 212 28 36 35 212 227 34 212 212 122 44 212 124 124 212 212 124 26 211 123 122 26 211 117 26 26 213 109 26 26 220 225 25 30 29 225 227 29 211 30 227 29 210 227 29 79
36 222 222 35 35 223 35 33 224 224 31 32 225 30 30 226 226 30 29 176 29 29 174 173 28 172 171 32 28 170 169 32 168 168 33 34 166 166 35 180 164 37 39 151 28 43 127 118 28 51 94 28 28 75 70 28 28 58 28 28 160 48 28 28 161 225 28 161 162 150 166 163 167 172 165 165 185 41 167 196 200 43 170 208 47 48 225 216 53 28 28 225 63 28 28 225 225 28 182 91 225 29 186 225 29 60 189 225 30 191 225 225 56 193 224 225 54 225 221 197 52 225 225 207 225 225 225 213 225 225 215 225 225 225 225 37 225 225 225 38 205 225 225 46 206 225 225 46 224 225 45 45 223 225 44 223 222 44 44 221 225 225 219 219 225 123 216 225 225 225 212 225 225 225 225 225 225 225 225 225 225 41 226 226 226 40 184 226 40 40 172 226 40 163 159 43 40 150 148 40 212 140 226 41 135 107 226 212 131 226 226 226 116 226 226 226 121 225 226 44 123 27 226 45 27 227 32 48 27 227 50 211 201 31 53 210 213 30 211 218 225 30 211 222 225 211 211 66 225 210 53 50 36 210 41 225
225 242 145 225 38 243 223 225 245 245 224 32 246 226 226 30 178 226 30 30 176 225 207 173 225 32 214 171 225 218 220 169 33 220 225 34 34 197 225 36 37 175 28 40 153 145 28 244 119 28 28 161 88 28 235 161 28 28 160 225 28 160 161 114 28 161 161 139 42 162 156 162 40 164 177 41 41 190 194 41 28 204 43 43 28 213 47 28 28 51 53 28 28 178 28 28 180 181 29 29 183 228 29 186 186 228 188 188 228 228 191 191 227 150 193 226 225 169 174 222 181 185 33 217 193 33 34 198 199 35 35 202 36 36 203 203 38 38 204 170 40 205 205 149 41 206 134 129 45 207 114 175 208 223 101 159 208 93 225 140 221 87 124 118 48 225 102 49 49 225 225 49 211 68 225 49 211 225 48 41 211 225 48 212 189 226 40 212 91 91 40 168 94 32 40 155 226 30 146 143 226 29 136 226 226 226 131 226 28 226 41 226 226 35 42 226 226 43 212 226 226 44 155 226 46 47 173 226 48 187 191 51 51 203 207 225 212 215 225 25 219 225 225 227 223 225 225 227 61 225 227 227 225 225 227 79
39 222 222 37 223 223 37 35 224 224 33 181 225 32 31 178 226 30 177 176 225 29 174 32 29 249 172 32 28 170 33 33 250 168 34 34 208 225 36 194 189 225 222 170 28 43 223 138 28 224 112 225 28 223 83 28 234 224 225 28 161 161 225 214 161 126 225 197 225 150 183 178 225 173 162 225 225 225 141 225 202 225 225 225 225 43 225 225 225 225 28 225 225 225 81 225 225 225 73 225 225 69 67 225 225 64 187 225 61 60 225 229 57 225 225 225 55 225 225 225 196 225 225 225 225 225 225 225 225 225 225 225 49 225 225 225 47 225 225 47 46 182 225 46 46 225 43 45 225 225 44 44 224 225 44 223 223 225 208 222 225 225 209 220 225 225 210 87 225 225 214 86 64 225 86 225 52 49 41 45 225 48 40 39 47 40 184 35 45 40 170 44 44 212 157 42 40 211 103 41 212 137 107 29 211 111 226 28 211 116 28 226 120 120 27 226 123 27 27 33 126 27 33 33 211 26 32 32 211 32 31 211 211 31 30 210 112 30 210 210 97 30 210 84 79 210 210 65 27 28 52 48 35 38 40 47
225 48 222 223 42 242 223 223 37 182 224 34 33 180 34 32 178 178 33 30 176 33 33 174 174 33 33 172 33 33 224 169 34 220 218 28 35 208 205 28 196 190 28 28 171 164 28 163 139 28 28 162 105 28 162 162 28 28 161 90 96 162 162 113 120 163 132 138 44 164 156 162 41 173 178 40 40 192 40 40 28 205 41 41 28 173 42 28 28 175 46 28 178 178 225 28 181 181 29 74 183 230 29 185 225 231 64 188 231 231 98 225 230 111 115 225 229 128 32 225 225 143 33 225 225 225 34 225 162 225 49 201 225 37 48 202 225 47 203 186 225 46 204 168 45 45 225 146 44 225 224 225 44 224 115 225 225 223 225 106 225 222 225 225 50 225 225 225 41 225 225 225 41 225 225 41 41 225 225 40 40 197 40 40 190 187 40 40 177 226 40 166 163 226 211 152 226 226 143 140 226 226 226 226 226 226 226 226 226 226 41 226 226 42 42 27 226 43 43 27 33 45 152 226 32 47 171 225 48 210 189 225 51 202 225 225 210 214 225 226 210 93 225 226 222 73 25 226 59 225 30 226 74 37 227 29
232 139 222 231 39 146 225 229 154 224 225 227 168 225 33 179 182 225 246 192 225 225 248 204 225 249 249 225 225 250 250 225 250 250 225 225 250 225 225 222 250 225 225 223 165 225 224 223 225 225 224 225 225 224 224 225 225 224 225 225 231 224 225 223 221 50 225 210 206 44 28 193 225 225 28 172 225 225 157 169 225 225 171 225 214 225 173 225 225 225 176 225 225 225 179 228 50 225 79 225 57 225 72 63 225 30 66 74 30 62 189 87 31 59 225 31 31 193 225 225 33 196 227 225 197 198 224 138 199 219 218 145 201 211 147 147 204 200 146 225 189 144 142 43 45 136 44 44 205 126 45 46 207 47 47 207 207 48 48 208 104 49 208 208 97 50 209 94 94 58 209 92 50 48 92 92 43 42 92 39 38 48 94 35 34 47 34 33 45 45 31 44 44 211 211 42 42 211 106 41 211 211 111 39 211 114 116 211 211 119 120 211 122 123 27 27 126 27 27 33 128 27 27 33 225 27 32 32 225 26 32 210 26 226 31 210 226 30 57 210 96 30 210 82 77 65 210 63 58 71 223 47 33 209 224 37
222 44 43 223 48 46 223 223 40 184 224 37 35 181 225 33 180 179 225 31 177 177 225 247 174 34 34 249 226 34 227 171 225 35 224 225 36 221 215 225 38 203 28 225 223 182 28 225 224 225 28 164 125 225 244 163 225 28 238 164 225 233 164 225 225 222 164 137 212 208 225 162 195 225 225 225 40 225 225 225 225 225 225 225 225 225 225 225 225 225 225 225 28 225 225 225 88 181 225 81 78 225 225 72 71 225 68 66 225 225 63 62 225 225 59 225 225 225 194 225 225 225 225 225 225 225 225 225 225 225 225 225 124 225 48 225 225 225 47 125 225 46 46 120 44 45 225 225 45 44 225 225 43 206 224 225 42 223 116 225 208 222 225 66 208 101 225 225 225 97 49 225 41 95 43 225 40 39 38 48 40 35 225 47 210 33 46 39 211 45 44 211 162 103 42 211 106 226 210 211 110 226 211 114 115 28 211 118 28 28 122 122 28 226 125 27 27 34 44 27 27 33 210 26 32 32 210 26 32 210 210 31 31 210 117 30 210 210 103 100 210 90 86 25 210 71 66 26 57 53 28 30 43 34 37 29
234 137 138 233 140 142 225 231 150 152 225 38 162 225 225 36 226 225 245 245 227 225 246 226 225 30 248 226 225 249 172 225 29 250 225 36 28 169 225 222 223 167 40 223 225 165 45 224 225 51 53 144 225 62 224 109 28 78 87 225 28 71 66 28 228 225 53 28 166 225 28 28 167 225 28 168 169 192 28 170 204 208 172 172 216 225 174 222 223 40 225 227 228 42 29 230 44 44 29 232 47 29 29 51 52 30 187 57 30 30 190 190 31 192 192 234 32 194 194 233 195 196 232 231 197 230 229 99 199 226 225 104 222 221 106 106 40 212 106 41 42 104 103 44 44 98 45 45 205 91 47 206 206 48 48 206 207 49 207 207 117 114 208 208 108 53 208 104 103 46 217 100 42 41 213 98 38 49 99 226 35 48 47 33 225 46 210 31 45 45 210 225 43 210 210 226 40 210 110 226 40 211 114 40 41 126 118 28 210 124 226 28 126 126 27 226 131 225 27 33 143 225 226 33 225 225 226 32 225 226 226 51 210 226 31 54 210 226 57 210 218 60 61 221 75 65 66 223 225 70 223 223 225 33 223 225
71 190 190 46 188 188 43 42 223 186 40 224 224 38 38 225 225 36 226 226 32 36 227 31 31 229 229 30 30 229 29 29 172 171 29 29 170 37 28 169 168 39 250 167 43 44 249 166 49 170 165 225 59 137 128 69 225 103 28 87 82 77 28 225 63 28 28 225 225 28 168 225 225 28 169 225 225 184 171 201 28 172 225 214 148 175 221 225 128 225 226 39 111 225 225 41 225 225 225 43 225 225 225 225 30 225 50 225 69 225 225 31 64 225 225 60 193 225 225 57 225 225 54 54 225 232 52 225 225 225 50 225 225 225 225 225 225 225 225 225 225 225 225 225 225 225 188 225 225 225 43 225 225 43 42 225 225 42 224 225 41 41 223 225 41 222 221 50 41 219 219 50 209 215 226 226 211 102 226 225 204 226 226 225 102 226 225 225 104 226 225 39 107 29 225 40 40 29 41 40 136 226 39 210 128 38 41 210 125 36 210 125 126 35 210 129 226 210 210 130 225 226 131 131 26 226 130 128 26 32 125 25 25 31 116 25 30 30 24 24 30 60 23 30 30 209 222 29 209 209 48 29 208 208 38 208
191 51 70 190 48 46 188 188 43 42 224 41 40 224 225 39 38 226 34 37 226 227 32 36 228 31 30 229 229 30 174 173 29 29 172 171 29 170 170 39 28 169 168 42 168 168 45 47 167 51 53 164 166 62 65 129 28 77 104 97 28 98 77 28 28 64 60 28 28 52 28 28 169 45 28 170 171 225 28 172 173 208 165 174 217 219 176 176 225 38 178 228 229 38 225 232 40 40 225 234 41 30 30 225 44 30 30 225 225 30 190 51 225 31 192 225 32 194 194 225 57 196 235 225 54 197 233 70 51 225 230 73 200 225 225 75 225 222 225 225 225 225 73 225 225 225 225 47 225 225 225 48 205 225 225 42 206 225 225 41 223 225 41 41 223 41 41 222 221 41 41 219 226 226 215 214 226 34 210 226 226 225 201 226 225 225 226 226 225 225 226 225 225 40 226 225 225 40 143 226 40 40 132 226 41 127 126 37 41 124 226 42 126 127 226 43 132 225 225 210 143 225 225 226 131 225 226 226 127 26 226 51 225 25 226 54 24 226 30 58 24 226 62 209 221 30 67 222 223 29 208 223 225 29 208 36
225 236 192 51 69 238 234 47 239 188 232 151 240 230 41 164 242 229 175 226 228 228 189 227 32 199 202 225 30 209 211 225 248 215 225 225 249 225 225 250 250 225 225 250 225 225 250 250 225 51 249 225 225 225 248 225 225 225 225 225 225 226 225 225 226 225 225 225 226 225 223 225 225 225 209 225 225 197 192 225 225 178 225 225 162 156 225 225 141 225 225 28 122 225 225 225 182 225 226 225 184 236 225 225 225 236 225 225 237 225 45 225 237 225 225 32 62 51 225 59 58 55 34 55 225 58 36 198 225 38 38 200 225 40 200 201 227 42 202 225 220 62 203 213 225 225 204 200 57 225 187 182 53 49 168 50 49 50 149 46 51 51 42 41 51 41 208 51 51 208 220 50 208 208 111 49 209 209 109 209 209 109 108 209 209 109 30 30 110 110 29 43 112 29 29 41 114 28 40 40 28 28 39 38 28 38 37 210 28 36 36 210 128 35 210 210 131 209 209 132 132 209 209 131 27 209 130 129 26 209 124 25 25 117 114 25 30 30 24 24 30 30 23 30 30 208 23 30 29 208 226 29 208 208 226 29
194 58 56 193 53 51 224 190 48 224 224 45 44 225 224 42 225 225 38 40 226 226 34 180 227 32 32 178 225 31 175 175 30 30 174 39 29 172 172 40 29 171 43 43 250 170 47 48 201 225 54 182 175 225 225 150 28 77 225 115 28 226 92 225 28 226 70 28 232 226 225 28 172 225 225 211 173 192 225 193 225 209 179 174 225 220 158 225 225 225 138 225 230 37 225 225 225 37 29 226 225 225 30 225 225 225 80 225 225 225 72 225 225 68 66 225 225 62 225 225 59 58 225 237 55 225 225 225 53 225 225 225 225 225 225 225 225 225 225 225 225 225 225 225 45 225 225 225 44 225 225 43 43 47 225 42 42 225 50 41 224 225 41 207 223 226 41 222 222 226 208 220 226 226 208 217 226 225 209 113 226 225 112 112 30 225 112 226 225 44 39 29 225 40 40 28 41 40 146 28 39 40 135 38 38 209 129 37 209 209 128 36 209 128 131 27 209 132 225 27 209 133 26 226 131 131 26 32 127 25 25 31 119 25 31 31 208 23 30 30 208 30 30 208 208 30 30 208 52 29 208 208 41 207 207 35
225 235 235 237 236 236 236 235 237 238 233 146 148 232 231 158 225 230 168 172 225 229 183 225 225 39 197 225 225 205 229 225 247 213 225 30 248 226 225 249 249 226 29 250 225 225 28 250 225 225 28 170 225 225 249 225 72 226 169 225 226 109 225 107 226 225 225 132 66 225 230 157 53 225 218 48 46 28 203 42 28 28 176 39 28 170 178 224 28 180 225 230 29 182 233 225 184 184 236 226 186 236 237 37 187 237 38 39 31 238 40 40 31 41 41 33 65 43 43 34 195 44 35 36 197 37 37 198 199 38 39 200 236 235 200 201 233 232 202 230 228 48 203 224 221 46 217 214 45 44 204 43 42 50 186 41 40 50 206 38 51 51 206 36 51 207 207 51 50 207 127 50 208 208 121 49 208 118 118 30 208 116 116 30 202 115 30 30 116 226 29 43 117 29 28 41 226 28 40 39 226 28 38 209 209 226 37 209 209 36 42 209 130 35 209 133 132 44 209 133 133 45 153 132 26 48 171 128 25 32 189 225 25 31 225 225 226 30 225 23 226 61 225 226 30 66 225 226 70 207 222 226 77 207 37 81
197 64 225 235 238 58 236 237 235 53 238 234 233 149 225 232 45 162 225 230 173 226 225 184 187 225 33 197 201 225 246 208 225 225 247 215 225 248 248 226 225 249 226 226 250 250 225 225 250 225 225 225 249 225 225 226 171 225 226 226 225 225 226 225 225 226 226 225 237 226 225 225 228 226 225 220 216 46 225 205 200 41 28 187 225 225 28 180 225 225 151 225 225 225 183 225 226 226 185 225 226 225 187 237 225 225 225 238 37 225 77 225 38 32 70 39 225 33 64 40 34 60 196 41 36 56 225 38 38 199 225 225 200 200 236 225 201 202 234 43 202 230 229 43 203 224 42 41 217 214 40 225 203 39 38 50 42 37 51 51 206 35 51 51 207 51 51 207 207 50 50 207 129 49 208 208 124 208 208 121 121 30 208 119 30 30 119 119 29 29 119 29 29 42 121 28 28 40 28 28 39 39 28 38 38 209 209 36 36 209 130 35 209 209 133 35 209 134 134 209 209 133 26 208 132 131 26 26 126 25 25 31 118 24 24 31 225 23 30 30 22 22 30 207 22 30 30 207 226 29 207 207 40 29 207 35
224 115 235 239 101 96 194 237 82 77 192 53 65 189 190 48 51 187 46 167 185 184 43 181 183 42 42 228 225 41 229 230 31 41 231 231 30 231 231 30 30 230 229 29 173 225 29 29 173 29 29 172 172 62 28 172 72 76 172 172 89 94 173 105 111 96 173 129 136 73 148 155 61 58 28 52 50 28 28 45 44 28 178 40 28 28 180 38 29 181 182 29 29 183 234 29 185 185 236 236 187 237 238 36 188 238 239 36 225 239 36 36 239 239 37 33 239 37 38 35 225 38 36 36 197 39 38 198 199 225 40 200 200 225 50 201 237 44 49 225 234 47 203 225 230 38 225 225 225 37 225 214 37 225 225 225 35 51 225 225 225 51 226 226 225 41 226 225 225 41 207 225 40 207 221 225 40 208 127 40 40 214 124 40 208 206 226 40 197 193 226 185 182 226 226 225 164 226 225 225 226 226 226 38 226 226 226 41 226 226 42 43 226 226 44 44 226 44 44 147 150 46 47 161 225 48 173 178 225 208 191 225 225 208 205 225 226 212 93 225 226 226 225 21 226 67 225 226 226 73 22 226 77 79 25 29
127 133 224 115 110 132 225 96 194 224 225 237 192 225 64 238 189 49 239 187 231 46 241 184 44 226 243 229 43 228 244 228 207 230 227 42 215 225 227 219 231 225 30 222 225 29 250 224 225 29 174 225 225 250 174 225 249 249 225 225 248 247 225 246 245 225 225 226 241 225 226 226 225 225 226 55 225 226 226 225 225 226 225 225 226 226 225 225 174 225 225 158 153 225 225 138 225 225 125 120 225 30 108 225 225 31 94 225 225 86 191 225 225 225 225 239 225 225 225 225 225 225 240 225 225 225 239 37 225 55 225 37 225 52 37 225 43 49 225 225 48 202 225 47 46 225 230 48 204 225 225 50 205 214 225 205 206 199 225 225 186 181 32 225 168 226 32 50 154 31 225 50 31 30 48 40 30 30 47 208 30 46 45 208 210 44 208 208 126 43 208 125 126 208 208 126 226 208 127 128 28 208 129 130 28 131 131 28 28 36 133 28 35 35 27 27 34 208 27 33 33 208 26 33 208 208 32 32 208 208 32 207 207 112 108 207 101 96 22 207 82 77 21 67 63 21 21 51 48 21 29 40 22 23 29 29
223 133 200 199 120 115 197 196 100 195 194 59 80 192 192 54 191 190 51 50 225 187 48 226 226 46 46 227 37 45 228 229 33 44 230 32 31 231 231 31 30 231 30 30 176 175 30 176 176 55 29 175 175 64 250 174 73 76 249 175 89 150 175 225 109 115 107 127 226 86 28 152 71 28 28 226 56 28 28 226 225 28 180 43 225 29 182 225 29 175 184 231 159 185 225 235 139 187 237 226 121 225 238 34 105 225 225 34 225 225 225 34 225 225 225 225 34 225 225 225 66 225 225 37 61 225 225 58 199 225 225 54 225 225 52 51 225 225 49 225 225 225 48 225 225 225 225 225 225 34 225 225 225 225 225 225 225 225 203 225 225 225 41 225 225 41 41 225 225 41 223 225 41 41 222 225 40 221 220 47 40 217 226 40 208 211 226 226 204 130 226 225 190 226 226 225 129 226 225 225 131 226 225 41 132 28 226 42 142 28 35 43 141 226 35 208 146 34 45 208 156 33 208 166 131 32 207 127 225 207 207 117 225 226 107 103 22 226 90 225 21 30 70 20 226 30 53 20 30 74 20 20 29 206 22 29
145 133 132 225 234 131 225 225 235 238 225 236 236 236 225 237 235 234 238 238 233 51 240 232 231 180 241 230 230 193 229 229 202 205 225 210 212 225 225 217 218 225 248 221 225 225 249 224 225 250 249 219 225 250 225 225 29 249 225 225 249 176 225 226 247 225 225 226 177 225 226 226 178 225 226 225 179 187 226 225 218 207 46 225 204 226 41 29 185 38 225 29 166 36 30 151 225 35 30 188 225 31 31 190 225 226 191 192 240 225 193 225 240 33 194 240 225 34 195 240 34 225 240 240 34 38 240 34 34 40 56 34 42 43 201 33 44 45 202 46 46 203 203 48 203 203 236 49 204 204 231 32 204 226 223 32 205 214 32 31 203 199 31 31 186 30 30 50 170 30 49 49 30 30 48 48 207 47 47 207 207 45 45 207 137 44 208 208 134 208 208 133 133 208 208 133 29 208 133 133 28 28 133 28 28 37 135 28 28 36 226 28 35 35 27 226 34 208 27 33 33 207 134 33 207 207 129 32 207 122 119 53 207 110 23 56 211 92 22 206 217 225 20 219 60 20 19 30 225 19 29 29 225 21 29 205
224 150 146 131 225 133 200 130 225 114 197 67 225 236 195 61 78 237 235 56 238 190 233 169 240 232 50 184 241 230 194 228 229 229 205 230 33 212 214 225 31 218 225 225 248 222 225 30 249 225 225 249 177 225 225 250 225 77 249 249 225 93 248 225 225 226 246 225 226 226 225 225 227 226 225 226 226 225 225 226 226 225 216 226 225 225 200 41 225 186 181 225 225 167 225 225 151 146 225 225 132 225 225 31 115 225 225 226 192 225 225 225 193 240 225 225 225 240 225 225 240 225 33 225 240 225 225 40 59 33 225 56 225 33 43 53 225 33 46 202 225 47 48 203 225 49 203 225 236 50 204 225 225 31 205 226 225 225 217 214 31 225 203 199 30 50 186 30 30 49 171 29 48 48 29 29 47 207 207 46 45 207 219 44 207 207 139 43 207 207 137 207 208 136 136 208 208 136 28 28 136 136 28 37 137 28 28 36 138 28 35 35 28 28 34 34 27 33 33 207 26 33 207 207 131 32 207 207 124 207 207 116 112 206 206 100 22 206 86 81 21 206 67 19 19 55 51 18 30 29 19 19 29 29 20 29
225 86 132 225 233 80 224 225 234 130 224 113 235 224 225 92 236 225 77 237 192 225 60 239 232 54 48 188 232 188 185 185 50 200 183 183 50 231 182 50 51 232 180 52 232 232 55 56 231 30 30 226 224 30 250 214 30 29 179 193 29 29 179 29 29 179 179 29 29 180 142 149 180 181 167 74 181 185 191 58 182 205 50 48 216 219 43 42 226 40 39 30 233 37 30 30 188 35 31 31 190 31 31 191 191 32 32 192 240 32 193 194 240 33 194 240 240 195 196 240 32 32 240 240 32 32 240 32 32 41 240 32 32 43 225 32 45 45 225 225 47 202 203 225 48 203 239 49 204 204 237 50 205 234 232 44 205 226 223 43 225 214 30 205 225 226 29 50 187 226 29 48 226 29 225 47 226 29 46 41 226 225 44 207 225 225 40 207 225 225 40 207 140 41 41 195 139 41 184 180 226 41 170 139 226 162 161 226 27 157 226 226 226 35 226 226 226 46 225 226 226 47 225 226 49 50 226 226 51 195 226 54 54 207 226 57 213 214 225 62 217 218 225 219 220 225 225 220 220 225 226 221 225 225 226 33
136 225 232 233 225 225 233 202 225 234 234 239 225 235 235 238 236 236 236 235 237 234 234 163 166 233 232 178 225 232 188 192 225 230 201 225 225 52 211 225 245 216 225 225 247 221 225 248 248 227 225 249 249 226 30 250 226 225 30 249 225 226 249 180 225 226 180 225 129 227 181 225 226 92 225 172 226 225 225 194 58 225 223 212 49 29 209 44 42 30 193 39 30 30 188 36 31 158 190 238 31 191 225 240 32 192 240 226 193 193 240 32 194 240 240 32 195 240 32 32 37 240 32 225 39 32 32 40 62 31 42 42 200 31 44 45 201 46 46 202 202 48 48 203 241 241 204 204 240 240 204 238 238 30 204 234 30 30 228 226 30 30 218 29 29 50 203 29 29 48 206 29 48 47 206 47 47 206 207 45 45 207 156 44 207 207 150 42 207 147 146 28 207 144 144 28 143 143 28 28 142 28 28 37 142 28 28 36 226 27 35 35 226 28 34 207 207 226 33 207 137 33 48 206 132 32 206 192 123 52 206 113 109 56 210 97 22 60 216 78 20 30 219 225 18 30 225 225 226 29 225 17 226 82 225 226
225 92 224 224 163 87 224 224 148 224 224 133 128 224 225 112 197 197 95 89 195 194 74 193 192 60 59 190 58 57 188 188 56 55 186 55 55 230 230 54 55 232 33 56 233 233 32 233 232 31 31 230 229 31 181 223 30 30 181 207 30 181 181 102 30 181 181 122 182 182 140 146 182 158 164 87 183 182 188 67 225 203 56 53 225 218 47 30 30 226 41 30 188 38 225 31 189 36 31 154 191 225 31 192 192 225 121 193 240 225 105 194 240 32 92 225 240 32 225 225 225 31 225 240 31 225 225 225 31 42 225 225 225 44 201 225 225 54 202 225 225 51 203 225 49 48 225 225 47 204 225 46 46 225 238 45 44 225 226 29 225 225 226 225 225 226 226 225 225 226 225 225 226 226 225 225 226 225 225 41 226 225 41 41 221 225 41 41 217 41 41 214 211 41 41 204 226 41 196 193 226 42 184 226 226 226 174 226 226 226 144 226 226 226 143 27 226 46 225 226 226 48 26 226 49 50 25 32 52 201 203 31 55 209 225 31 206 215 225 62 205 67 225 205 220 51 225 205 43 225 17 205 36 17 226 29
243 232 232 243 92 129 243 242 128 224 241 241 130 225 239 134 136 225 238 144 225 225 154 157 225 238 168 225 225 239 240 225 241 241 232 225 242 243 230 37 244 230 230 245 246 228 221 247 228 228 224 225 227 225 225 225 226 226 225 225 90 226 225 225 107 177 225 248 227 143 30 246 117 225 243 242 225 29 237 225 225 29 229 225 226 30 187 225 226 206 188 232 226 189 225 236 37 191 238 226 35 225 240 33 225 33 240 33 225 114 32 32 34 99 32 36 36 196 31 37 38 197 240 39 198 199 240 41 199 240 240 200 200 241 225 201 241 241 31 202 242 30 30 242 242 30 30 49 30 30 50 50 30 29 50 204 29 50 50 205 50 50 205 205 49 49 205 214 48 205 206 201 197 206 190 187 28 206 178 175 28 170 168 28 28 163 28 28 41 157 28 28 40 226 28 39 39 207 28 38 207 207 37 36 207 147 36 207 206 146 35 206 145 145 46 206 143 142 27 180 139 26 26 188 132 25 32 125 24 24 32 225 23 31 31 225 21 30 205 225 226 30 205 205 226 70 205 45 30 76 220 37 82 205 220 33
209 98 97 224 243 94 224 224 165 88 225 153 148 130 224 132 126 136 225 109 198 225 225 237 195 225 72 193 192 64 239 191 62 62 241 188 61 229 243 231 60 231 230 230 217 233 229 64 221 225 228 224 232 225 31 225 225 31 249 226 225 31 183 225 225 249 183 225 248 247 225 225 245 245 225 242 241 225 225 227 235 225 226 226 225 225 226 225 225 226 226 225 225 226 225 225 225 225 225 225 160 225 225 145 141 225 225 127 225 225 115 110 225 35 100 225 225 37 87 225 225 80 225 225 225 225 225 225 225 225 225 225 225 225 241 225 225 225 241 30 225 52 225 30 225 50 30 225 49 48 225 225 46 204 225 50 45 225 238 50 205 225 226 49 205 227 226 205 205 215 226 225 205 202 28 225 192 28 28 44 180 28 225 41 28 28 42 41 28 28 41 206 28 39 39 206 211 38 206 206 153 37 206 152 151 206 206 150 226 206 149 148 27 206 146 145 27 144 142 27 26 33 26 26 32 32 24 24 32 206 23 31 31 206 21 31 205 205 30 30 205 64 30 205 205 49 47 205 42 40 15 205 36 34 15 33
243 136 231 243 130 129 207 243 127 126 205 90 127 225 240 84 133 225 81 139 225 225 236 151 225 85 237 226 225 238 193 227 57 240 233 228 47 188 232 42 40 187 231 214 186 186 66 220 185 69 223 233 184 75 225 225 82 84 224 225 93 96 210 31 108 194 187 31 248 164 30 30 185 130 30 186 186 30 30 187 225 30 187 188 212 30 188 189 225 189 190 231 233 42 235 236 38 38 239 239 36 32 240 34 33 33 241 33 34 34 32 32 35 36 196 36 37 197 197 38 198 198 240 40 199 199 240 199 200 240 240 200 201 240 30 201 241 241 30 47 241 30 30 48 242 29 49 49 29 29 50 50 29 50 50 204 29 50 50 204 225 49 205 205 233 43 205 227 224 43 205 215 28 205 225 203 28 206 193 226 28 224 183 28 225 42 226 28 41 41 226 225 39 206 226 225 38 206 225 225 43 206 225 43 206 196 226 44 206 152 226 45 188 149 27 46 188 226 26 191 193 225 26 198 225 225 226 204 225 226 226 225 225 226 31 60 226 226 63 205 226 226 68 220 226 72 73 220 76 78 220 219 82 84 219 225
224 243 135 224 225 243 128 224 179 126 126 225 166 127 128 225 234 133 225 225 235 238 225 236 236 237 225 237 236 236 238 238 235 70 240 234 234 197 241 233 206 208 232 231 214 216 225 219 220 225 225 223 224 225 248 225 225 225 249 226 225 249 249 211 225 249 225 225 31 248 225 225 247 186 225 227 243 225 225 226 188 225 226 226 189 215 226 225 190 226 226 225 207 226 42 225 190 226 225 32 172 36 225 156 152 33 34 137 225 32 35 196 225 36 36 197 225 225 197 198 240 225 198 225 240 30 199 239 225 30 240 240 30 225 240 241 30 47 241 30 29 48 54 29 49 49 203 29 49 49 203 50 50 204 204 50 204 204 241 49 204 204 239 28 205 235 233 28 205 227 28 28 219 216 28 45 207 28 28 44 195 28 42 42 28 28 41 41 206 40 40 206 206 39 39 206 165 38 206 206 162 206 206 160 159 206 206 157 28 206 154 154 27 27 151 27 27 33 145 26 33 32 225 26 32 32 24 226 32 205 23 31 31 205 95 30 205 205 76 31 205 62 58 70 205 47 15 204 220 39 14 204 35 225 14 218
