P2
256 256
255
52 197 85 146 196 141 145 145 196 166 144 196 196 93 233 195 195 104 76 194 112 115 74 193 122 74 73 128 130 73 127 136 72 72 119 144 72 112 110 188 72 101 98 187 92 89 185 185 79 184 184 167 67 182 182 171 180 180 174 175 67 177 177 66 66 180 180 65 65 182 64 63 32 184 63 30 30 63 63 29 29 65 29 29 159 158 30 30 155 191 32 152 151 192 166 149 193 193 146 145 194 126 142 195 195 140 139 196 148 150 62 197 156 158 73 67 162 83 87 59 119 98 130 167 114 112 128 110 123 173 127 200 134 126 109 200 173 125 198 166 173 93 196 161 174 88 27 155 85 84 27 146 83 27 136 91 162 29 121 163 182 33 90 164 129 89 89 180 130 89 90 175 89 90 169 166 95 91 159 99 101 64 149 106 66 66 111 112 67 50 114 67 67 95 115 66 66 97 65 65 98 98 64 63 99 111 111 100 100 108 104 101 106 106 103 102 105 103 103 202 103 103 103 101 167 103 45 44 103 211 40 106 103 37 36 107 225 34 107 107 230 32 107 95 31 91 107 95 31 107 143 95 101 108 95 204
237 84 146 236 236 118 145 235 115 144 50 234 112 143 195 109 108 49 194 107 106 48 215 104 48 48 217 225 48 218 218 222 49 217 219 218 216 216 216 71 214 213 213 103 212 211 210 105 209 209 106 107 66 108 108 73 75 111 112 82 200 114 91 95 197 118 104 194 194 34 118 192 195 192 168 189 186 183 187 187 175 133 185 165 162 136 190 151 138 138 191 136 139 166 192 109 140 168 175 125 42 170 172 137 171 140 169 55 172 165 164 65 134 160 68 77 132 198 59 131 130 198 52 114 199 199 170 109 200 41 170 132 200 170 102 142 199 169 148 174 167 167 153 125 90 157 157 125 85 159 126 126 182 161 126 127 175 127 127 170 169 128 166 165 105 129 161 160 92 165 158 85 83 167 156 78 169 170 72 70 172 173 65 175 176 137 58 181 138 139 185 187 140 141 154 142 142 154 154 144 145 155 38 147 157 157 37 158 159 37 37 162 164 39 207 206 41 42 204 202 46 200 199 166 53 194 192 171 106 187 176 178 181 98 182 223 172 187 188 229 84 192 230 231 88 197 230 91 92 103 225 95 139 218 34 98
147 84 84 146 145 196 145 145 196 196 144 144 196 99 143 195 195 110 140 194 116 119 49 193 126 73 193 218 134 72 72 140 219 71 119 147 71 71 109 213 70 100 98 211 104 88 185 209 105 76 184 168 66 68 181 172 56 180 201 175 85 177 178 204 97 195 180 63 111 193 196 61 190 190 189 62 30 182 180 132 29 170 70 135 155 157 137 30 161 138 139 164 151 139 140 167 176 139 169 170 175 194 171 172 171 87 172 169 79 77 165 164 71 68 160 64 62 122 154 57 55 117 174 50 113 111 174 44 108 174 174 104 103 174 112 100 174 174 102 97 175 95 93 155 175 89 88 25 125 85 25 25 83 180 25 91 82 26 26 90 168 28 90 90 163 33 90 182 159 94 90 178 176 84 167 169 97 91 170 134 104 173 152 136 112 177 137 116 153 183 139 120 66 48 141 154 65 98 154 154 40 99 155 156 38 206 157 37 37 208 160 37 208 106 39 39 206 104 103 202 201 164 103 197 167 169 199 191 174 175 212 178 179 219 221 184 186 226 79 190 229 230 84 156 230 87 89 148 228 92 142 140 94 95 134 133
237 122 121 236 236 118 52 235 115 114 51 233 112 50 50 75 108 50 50 214 139 49 217 217 49 49 218 222 49 218 218 218 190 217 215 214 189 216 212 103 187 157 210 104 104 162 68 105 60 207 67 69 66 67 109 58 75 65 51 83 178 64 43 95 196 180 37 173 193 197 171 171 183 190 168 167 186 64 165 187 171 70 161 189 78 137 189 190 92 138 163 105 109 34 167 122 37 38 146 137 42 43 142 47 49 139 139 55 57 136 195 65 134 133 196 169 132 197 197 171 130 198 172 172 198 198 173 173 198 173 173 132 198 173 173 142 125 173 149 150 124 154 154 124 125 157 158 125 187 160 125 126 181 162 126 176 174 127 127 169 132 128 165 163 116 112 160 105 101 165 157 93 90 167 47 84 168 169 78 77 171 135 71 174 175 137 153 180 138 139 153 186 141 153 153 124 143 154 154 118 118 154 40 147 112 60 38 207 158 57 37 208 55 37 104 206 52 40 203 161 50 106 198 166 46 107 101 172 107 186 99 104 216 98 183 104 224 97 104 227 32 96 105 230 84 106 107 31 88 107 31 32 108 106 33 34
147 197 82 120 53 197 117 145 52 196 113 51 195 204 110 51 195 114 50 50 216 123 72 218 218 222 71 218 137 218 103 218 215 70 102 216 212 103 109 210 210 103 54 186 104 104 58 185 105 61 63 206 108 69 70 203 75 77 200 199 86 88 197 202 98 195 195 199 122 193 194 193 125 190 186 128 130 179 176 132 133 166 135 135 155 151 137 160 161 102 139 165 165 179 35 167 178 177 39 170 176 95 171 141 173 84 173 171 194 74 136 167 68 127 125 196 60 121 120 196 173 116 174 48 174 111 175 174 107 126 174 175 135 174 124 174 145 175 104 196 152 124 95 26 157 125 190 24 124 125 184 23 126 178 177 155 127 171 146 142 167 165 130 90 164 118 114 165 184 103 100 166 132 92 167 168 133 169 170 134 135 172 173 136 153 153 137 138 153 64 140 153 153 53 142 153 153 47 153 154 43 42 154 40 39 206 156 38 38 207 152 37 207 207 156 38 205 160 160 202 201 164 183 196 168 169 196 190 173 206 209 178 179 217 219 65 223 224 72 74 228 229 79 155 230 83 84 146 31 87 141 138 32 92 133 204
71 82 197 80 82 79 196 91 77 76 144 101 74 111 143 73 72 141 51 71 139 138 193 70 135 134 192 131 130 191 191 124 122 190 149 150 189 188 154 156 187 158 160 67 186 164 66 66 167 167 65 65 170 64 64 57 55 63 63 48 177 62 42 41 176 38 37 173 173 33 32 171 183 30 168 167 186 29 165 186 187 78 161 188 188 92 189 189 104 109 190 117 122 34 191 134 138 38 102 148 42 43 90 158 49 140 139 133 58 136 195 65 174 133 195 77 131 161 196 175 129 196 197 175 147 197 175 175 136 198 175 133 197 33 175 143 31 175 98 151 27 174 155 176 25 94 159 124 23 92 178 125 179 91 180 83 172 182 182 83 166 185 83 84 25 186 86 158 29 88 90 34 99 94 96 43 92 169 49 52 93 159 57 94 94 148 61 96 140 137 97 98 131 129 99 125 124 127 153 119 123 121 61 115 117 115 59 150 110 56 55 108 107 52 105 105 50 49 106 104 48 107 107 102 45 108 101 101 47 108 99 99 108 177 98 105 109 97 97 106 161 96 107 108 152 197 109 31 30 201 110 31 108 203 220 34
54 197 80 79 197 178 91 76 193 98 232 74 207 109 72 109 214 227 71 140 218 223 105 136 193 218 104 51 192 103 103 51 190 103 51 52 215 103 52 188 213 54 55 211 163 58 58 208 205 64 206 205 204 109 202 204 204 112 199 203 114 115 202 201 118 38 198 121 122 115 171 125 125 128 190 129 137 140 187 29 148 186 185 154 156 184 143 160 183 182 128 165 181 117 113 140 179 103 139 138 192 91 137 136 83 164 134 173 74 131 130 174 172 126 174 175 174 84 175 159 157 98 175 151 45 113 126 141 39 175 125 197 34 124 119 197 30 124 195 27 175 95 193 175 94 176 189 173 92 177 170 169 162 180 165 90 163 127 156 163 184 128 164 164 129 85 158 165 130 156 30 132 132 154 37 133 154 153 89 135 153 152 82 152 152 77 75 152 71 69 183 184 62 61 190 143 54 195 196 145 47 200 147 148 204 205 150 155 207 152 153 159 159 156 162 163 37 160 169 172 39 177 180 40 41 189 193 44 187 203 46 47 178 50 52 172 170 187 62 163 191 193 156 153 196 197 147 199 200 228 139 202 225 223 96 204
76 79 78 85 88 76 146 96 75 74 144 106 73 143 143 71 71 141 195 70 138 138 193 193 135 193 192 140 130 191 191 147 190 190 151 152 189 188 156 66 188 160 161 65 209 164 64 64 77 169 64 68 65 204 63 57 54 61 113 48 178 61 42 95 175 119 36 173 172 123 119 170 183 184 132 167 185 75 143 187 186 87 161 185 149 103 184 189 133 139 182 122 133 140 180 108 139 38 146 95 138 43 142 137 136 173 138 133 173 174 171 129 174 133 167 175 175 164 195 52 175 157 47 176 150 148 41 176 140 37 36 103 128 32 100 100 30 28 97 97 26 95 95 176 176 94 93 177 88 92 178 178 85 163 180 84 83 182 183 83 21 185 84 85 22 186 87 24 25 90 91 29 31 91 154 37 93 93 153 91 94 162 52 84 96 150 79 97 179 139 134 99 132 135 135 190 125 133 62 198 146 127 60 116 148 154 57 151 113 156 53 154 159 50 37 107 164 47 107 201 173 38 108 103 40 41 191 101 43 43 182 178 45 176 174 184 51 167 188 190 225 158 194 228 229 197 198 229 30 201 227 227 84 203 222 219
54 165 171 235 54 188 233 233 201 204 230 229 212 227 226 109 109 223 222 107 51 219 106 105 51 67 104 52 51 103 103 52 217 103 52 52 215 214 53 213 212 204 55 210 209 204 185 207 204 204 183 170 204 109 202 203 203 112 176 202 115 115 92 199 118 101 105 62 123 115 192 67 31 128 190 130 29 165 187 29 148 162 185 29 159 185 188 134 156 183 124 135 151 190 109 140 191 191 157 138 192 192 165 47 192 169 170 56 193 172 63 65 134 174 74 131 131 84 88 129 161 99 128 127 195 114 126 125 195 125 124 196 196 177 124 195 176 177 194 194 177 155 191 176 176 160 187 175 161 161 174 173 163 163 171 163 163 127 127 164 127 128 162 164 129 129 157 130 131 155 155 132 132 154 108 133 153 153 98 135 152 92 89 173 152 84 176 177 79 77 181 183 71 186 188 143 61 193 195 145 103 200 147 148 154 114 150 155 155 152 153 157 38 156 160 162 37 160 167 37 37 105 177 38 39 105 42 40 186 184 39 109 178 181 44 109 169 187 109 161 97 193 109 152 196 113 109 96 200 228 96 95 116 224 84 96
83 77 76 183 233 74 146 101 72 71 144 228 70 143 143 195 69 141 195 194 106 138 193 135 105 52 192 142 129 52 218 148 52 190 216 154 53 214 158 205 64 211 204 64 105 208 203 63 76 203 204 108 64 203 203 111 76 203 113 114 86 200 117 95 98 195 121 108 192 182 118 121 190 184 132 189 188 170 143 187 187 156 186 185 144 140 138 133 129 140 140 118 114 140 168 104 140 139 171 93 139 172 172 137 136 173 176 133 174 174 173 173 175 171 170 57 175 166 165 50 128 161 45 44 127 152 40 107 144 195 35 103 195 32 177 99 176 28 97 153 176 177 95 176 177 176 160 178 89 175 162 125 86 163 164 126 84 19 127 127 164 20 129 85 20 150 130 156 22 91 131 154 121 92 153 153 107 168 152 99 98 171 162 92 173 175 139 85 178 141 141 183 184 142 143 190 144 145 152 196 146 147 153 148 149 154 154 43 152 155 40 39 158 159 38 37 162 37 37 201 170 37 197 195 38 38 190 188 39 184 182 178 180 175 172 184 217 166 189 190 224 193 194 227 227 197 198 229 71 201 228 227 79 80 223 83
146 197 183 146 146 197 201 230 196 196 110 226 195 217 119 68 195 126 218 67 131 133 66 105 138 140 66 130 52 65 65 123 53 64 117 115 189 64 106 55 187 98 95 186 208 85 184 184 168 72 182 182 172 62 181 174 175 62 178 176 62 62 178 179 64 37 180 66 67 32 182 72 31 30 79 81 29 29 164 28 28 162 161 29 29 158 187 30 155 154 188 152 151 189 189 148 148 190 164 165 191 191 169 171 191 172 173 56 192 175 63 66 176 176 75 78 177 84 88 129 177 99 102 127 194 114 125 125 194 128 124 195 195 176 123 194 177 123 114 192 177 123 190 23 177 95 186 176 176 162 20 175 163 163 19 90 164 127 19 90 164 128 90 90 187 130 91 165 188 92 154 186 133 153 153 181 108 152 106 171 120 40 97 130 133 49 90 139 54 55 100 146 58 77 102 129 60 104 194 122 105 105 118 149 106 107 114 122 108 111 111 114 108 108 110 109 106 106 107 107 42 106 106 42 42 106 42 41 110 106 39 38 110 209 36 110 110 34 33 110 97 97 110 110 96 116 110 96 96 119 109 96 120 120 129 96
177 234 55 193 198 231 117 208 228 227 113 225 223 111 110 220 219 108 53 215 106 106 53 211 105 53 53 64 104 53 53 217 121 53 215 215 54 188 213 203 55 211 210 203 185 207 203 203 184 204 202 109 181 172 202 111 76 175 62 115 85 199 64 39 98 66 122 108 112 72 32 122 190 80 30 135 188 166 29 163 186 151 160 159 187 136 157 184 187 142 153 188 110 155 149 189 162 140 189 190 168 44 173 172 173 52 174 175 58 61 134 177 69 72 132 78 81 130 129 91 95 128 193 107 126 125 193 178 125 193 194 178 124 194 178 177 193 193 177 177 191 177 177 159 188 177 161 162 124 176 163 163 125 164 164 126 126 164 164 127 162 164 128 129 158 165 130 155 155 131 132 153 134 129 153 152 118 115 152 109 106 170 151 99 97 174 48 92 177 178 87 102 183 143 79 188 189 144 152 195 147 147 152 201 150 153 153 113 153 155 155 110 114 157 39 158 109 42 37 201 168 37 37 195 41 37 189 187 40 37 181 178 38 111 171 184 111 110 98 190 110 154 97 115 226 97 198 119 228 96 122 227 31 96 122 223
146 197 197 98 146 197 105 108 196 196 114 116 195 120 122 66 195 128 65 65 138 135 64 64 134 63 64 130 128 63 63 123 190 63 116 114 189 63 106 187 187 96 94 186 165 166 184 184 169 169 182 171 172 62 180 174 174 63 198 176 64 65 177 197 68 36 180 71 73 32 170 79 30 30 167 90 29 165 164 135 28 161 160 28 157 158 187 30 155 183 188 153 151 188 188 162 182 189 168 170 180 190 173 48 179 74 175 56 68 65 130 66 60 178 124 175 130 120 88 176 128 115 176 126 161 109 176 125 193 176 176 142 192 176 132 129 27 176 118 115 25 95 105 22 22 93 95 20 92 163 20 19 91 180 18 90 90 182 18 90 185 185 86 90 188 188 89 189 189 93 95 187 187 102 23 183 112 115 28 136 125 34 36 136 139 43 99 100 49 51 102 102 55 103 104 130 57 106 125 123 68 107 119 117 57 203 114 128 109 205 111 117 47 109 157 111 42 106 109 165 40 165 107 40 36 169 183 40 111 175 196 37 111 99 208 35 111 98 33 34 156 97 38 149 97 197 49 140 96 122 134 133 203 124 127 126
197 122 121 56 197 118 56 56 214 114 55 55 219 218 55 221 128 214 54 221 211 63 221 220 208 105 219 205 205 104 217 203 103 103 55 202 104 104 55 104 104 57 57 105 105 60 206 107 63 64 203 65 68 201 200 74 76 198 200 200 197 196 198 196 194 194 192 124 192 187 127 128 182 176 131 132 183 103 135 146 151 119 138 155 186 140 30 161 184 141 166 152 183 34 169 182 95 39 145 182 84 45 141 189 75 135 138 190 67 131 190 61 178 126 191 178 121 85 191 179 116 176 179 178 111 176 178 178 125 124 148 135 138 123 135 146 122 123 191 154 123 189 188 123 123 185 21 124 181 179 177 124 174 172 177 164 167 176 176 164 174 174 165 165 170 168 165 131 161 165 165 133 147 166 134 134 152 167 135 136 151 137 137 151 151 139 151 151 97 141 151 151 91 151 151 85 83 151 151 76 196 197 67 64 201 150 56 204 205 153 46 206 156 157 205 204 160 161 201 163 164 167 196 167 168 178 36 173 188 191 36 108 201 35 35 110 212 33 161 218 32 32 151 223 37 110 142 199 48 136 201 202 109 129 203 203
146 197 197 120 146 197 197 116 56 196 118 120 55 221 125 63 195 221 132 63 221 137 208 63 220 144 62 104 218 203 62 122 216 202 104 113 189 201 104 56 187 105 105 59 184 107 61 62 204 108 66 181 172 70 72 200 174 78 197 197 199 69 195 194 194 122 193 190 187 127 191 180 130 131 171 168 133 28 157 136 137 151 161 139 157 159 185 141 163 164 184 167 167 183 183 169 171 182 88 172 181 181 78 141 180 71 70 134 179 64 130 129 190 57 124 123 52 179 119 176 45 115 104 176 179 109 176 176 178 130 176 147 144 142 177 134 27 151 122 119 24 177 123 187 21 123 97 20 177 124 177 19 91 91 170 177 91 183 163 176 90 185 175 174 165 188 170 165 165 131 160 165 188 133 166 166 135 120 151 168 136 151 31 138 138 151 39 140 151 151 98 142 151 93 91 151 151 85 82 151 78 75 198 200 66 63 203 152 54 205 205 156 205 205 158 159 203 202 161 163 198 165 166 171 174 170 180 183 35 176 193 196 35 202 205 34 33 212 30 29 155 220 28 30 146 33 36 139 137 200 46 132 202 202 126 124
97 69 121 57 56 66 117 56 218 65 144 56 221 111 56 195 221 140 55 221 137 137 193 220 205 204 192 147 203 104 191 153 201 104 156 157 62 104 160 200 62 95 164 63 106 82 63 63 73 64 182 64 61 180 199 54 51 178 197 44 176 175 177 38 173 178 179 172 171 180 180 168 181 181 100 133 182 182 116 28 183 129 133 29 141 145 30 31 155 158 33 151 166 35 36 148 147 39 145 144 188 45 141 140 188 139 138 188 188 135 188 189 180 132 189 189 179 190 190 179 179 100 190 179 111 115 179 179 126 123 179 136 139 123 178 147 122 122 96 155 122 122 159 178 123 183 182 123 124 178 177 124 173 171 177 87 166 177 177 86 160 177 165 157 17 174 165 165 169 92 165 133 158 166 187 135 95 167 136 137 97 173 138 151 100 161 140 151 152 149 164 151 97 143 167 52 90 165 151 54 110 158 54 73 111 146 51 112 204 49 47 112 205 44 112 113 107 161 112 106 105 109 113 104 103 108 103 102 108 188 101 101 109 37 100 111 112 34 30 115 32 32 111 120 31 111 111 31 30 110 110 30 109 109 96 32
123 57 197 211 119 57 217 115 56 56 220 215 56 222 222 211 56 222 208 207 221 221 205 204 220 203 203 104 127 202 201 104 56 201 104 105 57 62 105 58 58 105 106 59 206 107 62 63 204 203 66 202 201 201 73 199 200 200 177 196 198 197 195 177 193 123 192 187 185 128 180 177 131 132 132 164 135 141 144 126 139 151 186 142 29 159 184 142 31 153 184 33 168 150 183 37 147 182 186 83 143 186 77 179 139 187 68 134 188 188 180 129 188 188 180 79 189 180 180 93 189 180 104 176 126 179 119 124 160 130 133 123 149 142 123 122 189 152 122 122 187 122 122 185 184 177 182 180 177 177 176 174 177 165 168 178 177 166 162 177 165 165 177 177 165 165 175 165 165 132 132 165 134 134 151 166 135 136 151 136 137 151 151 139 139 150 112 141 151 151 104 169 151 99 97 185 151 93 190 192 86 84 197 199 75 201 202 153 62 204 204 155 114 204 158 159 157 107 162 161 162 165 166 168 36 170 176 179 35 176 189 34 34 110 201 33 164 114 34 28 154 151 32 111 144 197 25 111 136 200 110 130 97 202 110 123
58 67 66 146 57 64 145 145 196 62 144 143 195 143 142 195 195 134 194 194 139 140 193 193 145 61 192 148 150 62 191 153 61 61 156 158 62 63 161 63 63 94 91 64 84 81 183 65 72 68 181 63 60 180 179 52 50 177 174 44 176 175 176 79 173 177 177 88 171 178 96 99 179 180 110 114 180 122 127 28 182 139 142 29 128 153 30 30 154 144 33 151 150 35 36 148 185 40 145 144 185 45 141 185 186 175 138 186 181 175 180 187 180 181 179 52 180 86 188 45 180 100 41 180 110 115 36 180 126 123 32 102 139 123 99 98 177 122 187 156 177 119 185 177 123 105 181 178 97 176 18 179 91 17 177 88 87 17 178 165 16 16 91 165 16 16 92 189 15 92 93 190 16 94 189 187 95 96 182 136 98 175 172 153 150 164 164 166 35 151 172 174 43 175 175 48 49 174 51 51 112 167 52 52 113 152 50 114 114 113 46 114 111 110 49 114 107 107 114 199 105 111 114 104 109 109 187 103 109 109 38 178 110 37 36 184 113 34 112 116 214 32 112 219 31 21 111 223 30 110 131 225 32 110 96 96
123 146 58 64 118 57 197 62 144 57 222 61 143 195 223 141 140 194 222 205 193 221 142 202 192 147 201 61 191 151 200 105 155 156 63 105 159 159 63 100 59 64 65 87 62 66 78 74 182 67 65 181 180 57 54 178 197 47 176 176 174 40 174 173 176 87 171 177 177 98 178 178 107 111 179 179 123 28 180 135 139 28 181 150 30 30 160 163 31 32 152 34 34 149 149 38 147 145 184 43 143 142 184 140 139 185 185 137 136 185 182 182 186 186 181 79 186 181 181 93 187 180 104 108 180 180 120 123 179 130 133 123 179 143 146 122 187 152 122 122 185 177 122 183 182 178 123 179 177 124 95 172 177 125 167 17 177 88 161 178 91 165 16 179 165 165 15 92 165 132 15 93 165 134 95 166 187 136 97 167 137 149 150 171 140 150 28 158 172 150 110 146 178 42 103 179 179 48 97 177 50 50 114 167 50 115 115 115 47 115 204 111 115 115 109 159 115 115 107 114 115 105 105 110 114 103 110 110 102 102 110 37 37 111 112 36 35 115 34 33 112 120 32 31 111 219 30 111 111 30 22 110 97 31 110 110
106 64 63 146 113 62 62 144 196 61 144 143 195 111 141 195 194 108 139 194 140 136 57 193 145 131 191 149 150 57 190 153 62 62 213 158 63 64 210 199 65 93 164 200 66 80 201 68 110 67 200 71 59 72 179 116 49 177 196 120 87 175 174 124 98 191 176 108 111 189 177 122 188 187 162 135 186 151 147 141 184 135 151 143 124 121 145 31 111 107 146 167 98 146 145 170 87 144 172 173 142 142 173 181 181 175 175 181 184 175 181 181 55 176 180 180 49 129 178 45 43 177 40 39 110 109 35 35 105 177 31 101 101 177 27 98 177 177 178 95 178 178 94 162 178 109 92 179 123 98 18 180 93 91 17 126 89 16 16 128 89 16 91 129 155 15 92 153 152 179 93 152 15 173 166 189 164 97 166 183 148 168 175 139 130 170 163 174 173 175 143 182 178 145 145 150 45 147 182 150 96 149 151 49 88 152 151 79 116 152 152 65 204 154 54 52 202 156 45 199 197 166 38 192 190 170 186 184 174 176 176 174 180 193 166 184 186 204 188 190 211 213 193 194 217 17 17 220 221 17 18 223 21 22 122 223
221 122 217 217 216 118 222 212 115 114 126 208 112 111 206 59 109 58 203 108 137 58 220 106 58 58 218 128 58 216 215 120 58 214 199 110 187 210 199 186 185 162 200 184 205 165 69 110 167 200 72 113 169 74 116 76 171 79 119 85 83 85 38 96 92 34 34 170 189 31 119 168 176 29 165 185 177 28 162 177 138 160 159 178 162 156 178 179 172 153 180 177 178 36 180 181 182 40 183 183 45 46 183 184 52 138 184 58 60 135 65 68 132 131 77 80 130 184 184 128 127 184 185 125 185 185 180 123 185 180 180 185 185 179 179 184 178 179 155 157 178 178 161 122 177 164 165 123 177 166 124 124 166 167 126 164 167 127 127 159 166 129 155 155 180 131 153 153 181 102 152 179 178 151 15 172 166 151 161 157 167 18 144 169 169 22 127 172 142 143 108 176 144 145 111 137 147 150 188 128 184 151 123 151 151 151 117 162 152 77 73 144 153 62 203 127 36 49 199 33 32 116 193 32 37 115 103 35 114 178 101 37 114 101 183 114 113 99 188 207 99 98 124 215 98 130 131 30 97 136 137 31 139 140 31 31
146 218 62 146 146 213 117 144 196 209 113 58 195 111 111 58 194 109 58 58 220 107 58 193 219 200 58 217 151 199 59 214 198 64 212 212 199 106 209 199 199 107 206 200 109 110 65 200 111 112 68 114 114 73 75 117 78 80 194 121 88 90 192 37 99 190 189 109 112 187 174 170 186 186 159 155 184 148 144 143 183 132 145 145 176 118 147 147 177 176 148 167 96 181 147 171 180 146 173 173 180 47 174 181 181 54 175 181 61 63 134 181 55 176 131 182 48 121 180 182 182 114 183 38 181 108 183 180 105 131 184 180 101 177 179 179 151 178 178 178 159 121 125 163 164 122 177 166 123 123 172 167 125 167 165 126 126 161 16 128 157 156 180 130 154 181 181 166 152 182 182 165 181 179 165 165 173 170 166 138 158 167 168 140 140 170 141 142 150 174 144 150 150 145 146 150 150 147 150 150 101 150 151 151 95 151 151 87 84 152 78 74 203 203 62 59 201 162 49 198 196 166 40 191 169 170 184 182 174 176 175 178 180 189 165 184 198 201 30 190 207 210 25 127 214 18 16 135 219 13 127 221 14 14 121 31
110 146 197 116 118 197 196 123 208 196 127 129 59 111 134 60 60 139 139 60 61 135 61 61 131 130 63 63 125 190 64 119 116 189 112 109 187 187 160 97 186 162 162 184 184 164 165 182 166 166 75 180 168 168 80 169 169 84 85 42 89 91 37 36 98 101 33 170 110 30 30 167 125 29 165 164 28 28 162 174 28 159 158 174 174 156 174 175 178 153 175 175 183 180 176 185 186 180 176 186 45 177 71 186 52 66 186 58 61 135 184 68 133 131 126 80 130 129 120 176 127 181 105 177 177 182 177 124 173 182 180 167 182 27 179 156 182 178 95 141 23 178 162 123 20 93 166 19 19 91 179 18 91 91 180 126 91 182 183 90 91 185 129 92 187 188 96 152 190 104 107 14 192 121 126 14 136 142 15 15 100 163 17 103 104 19 20 107 172 25 110 110 147 32 113 139 137 108 116 129 127 191 124 122 185 181 118 117 169 43 113 153 148 39 159 133 35 34 163 121 31 117 115 162 30 116 116 33 35 115 102 36 114 114 100 32 113 100 99 29 149 98 126 23 139 98 134 133 131 200 141 30 97 202 221 31
219 214 213 120 223 210 116 116 125 206 113 113 132 59 111 59 59 61 109 59 220 107 134 60 218 130 59 191 216 123 60 214 155 113 188 210 198 198 186 160 199 109 184 163 200 111 164 165 76 113 166 79 79 54 167 83 120 45 88 90 40 91 172 99 35 171 187 32 31 168 170 29 166 165 171 29 163 171 171 160 160 171 125 157 171 172 176 150 172 172 183 35 173 185 186 39 187 187 43 44 188 187 49 140 187 55 57 136 135 64 134 133 177 75 131 178 178 129 128 178 179 126 179 179 182 124 180 179 181 180 180 180 180 145 180 179 152 155 178 178 160 121 178 163 165 122 177 166 123 124 167 168 125 125 168 126 127 160 159 128 157 156 179 130 154 153 182 100 152 184 185 113 151 184 165 150 14 178 166 167 168 102 167 140 150 169 168 142 108 173 144 144 113 146 146 150 116 134 149 150 128 126 194 151 100 186 183 43 92 169 151 40 120 148 37 67 200 129 32 118 196 30 29 117 188 30 117 116 103 176 115 101 101 114 114 100 186 119 99 99 124 207 98 98 132 31 97 138 140 30 111 144 30 30 110 146
113 197 197 118 120 60 196 125 60 59 129 131 60 141 134 60 61 139 140 62 136 135 63 63 131 130 64 126 125 190 189 118 189 188 156 108 187 186 159 63 185 161 161 65 183 163 76 181 199 164 79 81 165 199 84 49 167 89 123 41 193 97 37 35 186 132 32 169 175 137 30 166 140 141 132 163 168 141 144 180 168 152 158 169 117 160 178 169 183 165 177 95 187 177 177 85 188 178 78 76 147 48 71 144 143 175 63 138 61 176 134 132 176 131 127 126 176 180 120 177 177 180 39 177 179 178 34 177 175 31 30 171 168 27 26 161 25 24 95 147 23 22 93 176 20 92 92 179 176 91 179 179 91 91 180 94 91 182 182 92 91 184 93 94 166 188 98 14 166 134 111 14 13 136 150 13 98 148 14 14 101 150 15 104 105 150 17 108 163 150 130 113 150 202 118 181 138 203 118 187 150 200 193 123 152 191 199 154 180 151 201 157 152 37 160 161 153 33 119 155 156 48 118 160 162 39 183 167 35 35 173 177 33 166 163 32 31 155 188 30 147 144 193 131 137 196 197 214 129 199 200 218 201 202 219 220
198 116 210 61 145 122 60 116 144 128 60 143 60 61 61 140 60 62 138 137 193 63 133 192 191 129 127 191 190 152 189 189 154 155 187 187 157 71 186 159 160 74 184 161 76 77 162 162 80 64 164 83 84 53 50 88 46 44 175 96 39 38 172 35 34 170 170 32 168 167 165 29 165 164 165 149 162 165 165 164 159 165 173 175 165 165 182 184 165 186 187 35 165 189 38 39 82 190 43 45 142 147 50 139 139 55 57 136 169 64 134 133 171 176 130 171 172 176 128 173 183 177 180 174 183 182 175 33 181 132 176 181 181 145 26 180 153 155 24 95 161 121 21 93 165 122 92 91 179 123 168 168 180 98 163 181 127 94 16 183 93 155 15 185 96 14 182 102 105 14 186 165 14 13 97 165 13 13 100 188 14 103 104 179 106 107 171 167 111 111 157 203 115 148 145 206 150 137 206 205 37 127 202 40 40 196 193 41 41 181 39 39 122 159 36 35 121 154 31 120 120 106 28 118 104 105 117 117 103 115 116 102 101 116 115 100 119 121 151 99 127 128 32 194 135 31 31 198 213 31 111 148 217 30 110 219
115 146 61 224 122 61 196 225 203 61 224 132 201 60 223 200 63 110 221 198 64 134 198 198 108 129 197 107 107 62 197 107 107 62 108 108 63 64 109 109 65 203 203 66 67 200 161 69 197 196 199 72 193 198 198 191 190 196 195 188 192 190 130 185 184 182 135 109 173 139 140 122 140 144 132 136 157 148 144 178 150 152 154 177 153 160 177 176 102 166 176 176 91 148 176 84 81 145 162 75 149 177 163 68 145 164 62 189 139 165 55 134 73 176 186 127 176 128 184 95 177 180 184 110 125 179 121 125 123 176 136 122 122 174 148 121 174 174 179 121 174 21 93 173 172 177 92 170 169 176 169 166 176 176 169 161 176 168 168 129 177 167 130 131 167 166 133 103 166 134 135 151 165 136 137 150 138 138 150 150 140 150 150 170 166 149 149 151 170 150 138 134 175 150 124 179 181 117 115 186 188 110 191 193 153 105 198 155 155 151 201 158 158 152 160 160 153 153 163 165 155 54 167 158 160 42 117 165 37 36 172 174 33 164 161 31 31 153 151 30 145 143 193 26 135 134 197 112 127 199 200 111 97 202 217 218
146 61 61 145 145 196 62 144 61 224 131 142 195 224 200 194 194 140 198 193 193 144 66 192 147 148 68 190 150 70 71 116 153 72 108 105 74 75 96 65 77 86 83 183 80 74 70 181 65 62 179 178 54 51 177 160 160 175 174 160 104 172 160 160 115 169 160 125 128 159 159 140 144 159 152 156 28 158 167 29 29 158 179 30 31 154 32 33 152 151 35 36 149 157 39 146 145 157 44 142 158 158 191 139 159 190 190 160 160 188 187 162 187 187 79 163 185 185 92 42 185 103 107 37 111 118 124 123 105 133 122 170 143 178 122 171 154 121 158 172 178 122 172 20 178 129 169 176 179 113 18 176 169 101 17 176 169 16 16 91 168 15 178 167 186 14 93 166 134 94 94 191 136 150 97 192 151 150 190 189 175 150 184 189 193 14 173 202 16 17 208 209 20 131 212 24 26 121 184 31 32 124 126 36 125 125 120 38 125 116 115 125 125 112 164 123 110 109 140 121 107 128 125 27 105 119 118 28 174 117 32 33 118 178 35 115 122 35 34 114 197 33 113 113 205 31 112 98 98 15 111 97 97 111 116 97
224 62 61 225 225 61 225 225 202 201 224 224 199 112 223 198 198 110 220 197 109 108 145 197 108 62 196 70 108 63 197 108 113 64 208 109 65 65 204 92 66 202 201 79 68 198 199 67 180 194 199 178 191 159 197 176 188 194 102 129 157 188 133 135 157 121 139 110 156 135 29 123 148 152 28 136 163 29 29 159 176 29 155 156 153 31 153 175 152 34 150 153 89 147 146 153 194 144 153 153 192 140 154 192 191 57 155 189 189 66 188 188 73 76 187 83 85 129 185 96 99 126 107 111 125 125 122 126 123 166 167 122 122 168 168 122 169 169 179 122 170 179 178 169 168 177 177 167 176 176 170 170 176 176 170 127 176 169 169 129 168 168 131 131 167 166 133 151 166 135 135 150 165 137 150 150 192 139 150 150 187 183 149 178 174 149 14 161 170 149 147 143 174 20 131 179 180 26 120 185 151 152 126 192 154 150 197 119 156 150 200 158 182 151 112 161 152 152 109 140 154 60 56 125 158 45 181 119 28 37 170 32 33 116 159 35 31 115 100 34 114 141 99 32 113 98 197 148 112 98 154 212 97 97 158 216
146 197 197 145 145 196 196 144 195 195 132 142 195 136 137 194 193 140 141 193 143 144 69 70 147 147 71 124 150 73 73 115 75 75 107 104 77 78 95 184 80 85 82 183 83 72 181 180 156 60 178 178 156 77 176 156 155 174 155 155 109 171 154 154 121 181 153 132 135 179 151 147 29 29 147 163 29 160 173 155 29 157 184 31 158 153 159 33 151 150 159 168 147 148 148 172 144 148 194 174 175 149 192 175 176 63 190 176 151 56 138 177 52 187 131 178 46 125 93 177 40 117 177 125 112 110 177 124 106 177 177 176 101 178 122 170 178 178 162 167 178 178 148 20 178 135 130 19 91 117 18 17 91 105 17 90 90 16 16 91 91 15 92 92 185 186 93 188 189 114 95 191 192 136 165 192 156 163 191 190 181 12 186 195 199 13 175 207 14 15 116 214 17 120 121 150 22 124 125 150 118 127 128 32 111 128 121 107 127 199 116 101 200 113 161 170 199 110 151 28 193 166 131 26 185 171 160 27 174 120 167 32 180 174 34 32 115 185 30 114 142 195 28 114 98 25 24 126 98 17 15 119 201 8 114 113
226 146 146 196 225 144 144 195 130 143 195 195 134 141 194 138 139 193 193 142 70 192 145 145 72 109 148 73 74 119 150 76 76 109 77 78 100 97 81 91 87 183 83 77 74 181 68 65 179 179 154 54 177 153 153 175 175 152 152 172 151 151 117 169 150 127 131 149 148 142 146 29 154 158 29 28 169 173 29 158 182 30 31 155 160 32 152 152 35 35 149 144 38 147 146 144 144 144 144 144 194 140 144 145 192 175 145 190 190 146 55 188 74 148 187 186 86 44 186 96 100 126 184 111 125 124 109 126 123 158 103 177 122 160 149 178 169 162 178 122 158 164 178 146 164 20 177 128 163 176 91 112 17 176 170 16 16 91 169 15 15 91 184 14 93 93 187 134 94 189 136 125 97 192 144 149 193 192 172 150 190 189 194 12 182 205 207 13 212 214 14 15 120 218 18 123 124 22 23 127 133 28 128 129 125 33 129 120 118 129 129 115 114 188 112 111 169 163 109 150 144 26 106 131 128 25 172 123 27 28 177 121 32 117 122 178 34 115 115 34 29 114 99 32 113 129 98 23 112 98 98 14 117 97 163 6
146 197 203 119 145 196 67 116 62 195 114 141 63 194 137 63 193 220 140 64 192 143 196 64 215 146 74 212 211 196 77 209 208 197 111 204 198 82 112 89 199 114 80 70 199 117 72 179 120 121 75 177 125 79 80 185 130 85 87 183 91 94 180 180 179 105 179 170 167 177 177 155 152 176 144 140 157 175 129 159 160 118 115 162 162 161 163 163 165 166 164 169 170 174 162 172 173 174 46 174 175 175 52 176 175 62 176 135 176 56 55 176 143 50 133 178 45 186 124 146 40 118 116 149 184 111 178 152 182 105 178 182 101 147 178 172 155 178 122 162 163 178 153 161 168 123 135 19 170 124 160 17 126 126 157 16 91 155 155 176 91 153 178 178 167 151 181 94 166 185 187 165 191 191 193 165 139 195 165 165 141 149 166 143 143 149 168 145 149 149 147 147 149 149 149 149 149 131 151 149 149 120 149 150 114 113 195 110 109 198 199 105 103 199 161 95 197 196 164 81 192 167 168 186 184 171 158 159 174 176 165 166 180 171 173 32 185 181 184 30 188 191 29 28 197 199 25 125 204 20 18 117 200 10 113 111
120 202 120 124 201 68 117 63 68 115 142 63 70 112 64 193 71 137 64 219 73 132 192 216 127 126 190 211 196 189 188 148 197 187 149 150 82 185 149 198 85 150 150 88 118 149 149 92 60 148 96 97 50 175 102 44 42 173 111 38 171 171 34 33 168 179 31 166 166 142 29 163 162 141 161 160 139 139 181 139 139 189 190 138 138 195 34 138 197 198 37 138 198 40 42 197 196 45 142 141 50 51 139 138 57 137 136 138 65 134 133 139 132 131 140 140 129 129 141 185 127 143 144 184 115 146 183 183 130 149 182 141 144 27 181 153 156 180 160 162 122 179 166 123 123 92 170 124 124 159 179 125 158 157 180 128 155 175 129 100 153 177 131 152 14 180 107 151 184 95 166 13 190 166 165 12 101 165 141 11 105 165 143 109 111 181 145 115 172 169 220 121 159 149 223 17 146 224 149 21 134 223 26 118 222 220 30 112 216 32 32 130 203 31 129 129 29 29 127 194 108 125 124 106 170 122 121 104 125 119 103 103 124 102 102 127 128 100 100 134 34 33 143 146 32 32 156 31 30 112 165 30 30 111 209 31
122 63 201 119 118 63 225 116 63 64 224 114 64 222 222 64 64 219 140 64 217 216 196 65 213 196 196 190 210 196 196 111 197 197 112 112 197 198 114 69 199 116 117 72 199 120 74 74 95 124 77 186 128 47 82 183 183 86 172 181 187 95 179 179 177 167 178 168 164 164 138 153 156 161 137 137 161 143 137 186 164 152 113 194 32 161 197 168 36 167 198 39 170 145 198 43 143 175 47 49 140 176 67 138 137 136 60 135 177 136 189 132 136 50 187 137 137 186 126 139 139 184 108 140 184 183 123 178 182 134 138 123 181 148 150 122 156 158 122 122 164 123 123 155 169 123 123 157 177 125 157 157 175 127 155 175 175 154 153 176 169 152 177 178 168 151 180 167 167 185 186 165 166 138 165 165 140 140 165 142 142 149 165 144 144 149 145 145 149 149 147 148 149 156 149 149 149 139 136 149 128 126 188 149 119 193 194 29 112 197 198 108 131 198 161 100 197 196 164 152 191 167 168 154 106 171 157 157 104 176 162 38 103 126 170 32 185 131 34 30 139 187 33 28 129 32 26 123 121 30 112 116 200 31 111 110
121 72 72 145 126 72 72 143 72 73 142 141 73 140 139 194 75 136 135 192 141 132 191 191 143 125 190 145 145 188 188 146 83 187 146 146 85 185 146 88 89 146 146 91 92 67 94 95 59 56 99 101 49 175 106 43 42 173 38 37 170 169 33 32 167 138 137 165 165 136 136 162 136 136 173 159 135 183 185 175 135 193 194 134 106 198 34 134 199 199 38 147 199 42 43 143 197 47 141 140 163 53 138 134 157 176 135 134 67 176 178 134 177 130 135 135 186 179 135 185 185 180 38 184 116 180 34 182 131 30 30 103 145 27 181 98 178 24 96 162 178 161 93 178 123 146 92 179 133 154 179 179 116 154 180 107 106 16 181 101 102 15 92 103 14 14 94 14 14 96 96 13 13 98 192 12 102 103 193 11 106 191 189 111 112 183 216 218 174 171 223 224 161 225 226 15 148 227 227 19 153 227 22 24 155 225 27 134 221 29 29 133 115 29 131 130 111 27 128 109 108 82 125 106 106 62 176 104 130 120 166 178 127 30 102 184 131 34 188 138 182 33 193 150 32 27 196 196 31 112 199 203 17 111 206 207
122 63 124 74 119 64 128 74 143 65 74 114 140 64 76 138 65 193 77 134 192 214 141 128 190 211 195 189 188 144 196 187 187 144 85 185 144 144 88 143 143 91 92 72 142 94 63 60 98 99 52 80 104 46 44 173 112 39 38 171 35 35 168 168 32 167 165 135 135 163 163 134 168 160 134 134 182 157 134 190 193 134 134 197 33 133 199 200 37 133 200 39 41 144 198 44 46 142 49 50 139 138 55 57 136 133 63 135 134 133 177 131 133 133 187 130 133 185 185 133 134 184 184 134 183 183 124 136 182 135 138 29 181 148 151 25 97 159 122 122 95 166 123 149 170 178 124 151 172 126 152 153 179 127 153 175 180 105 152 175 131 102 15 177 168 150 14 181 167 13 186 97 166 13 100 165 193 12 104 165 142 108 110 188 145 149 116 178 221 149 169 166 226 149 155 228 228 15 143 229 18 20 228 228 23 121 226 26 27 135 197 28 28 133 113 28 131 130 110 128 127 108 107 125 124 106 138 122 104 104 129 119 103 129 130 32 101 134 137 34 190 146 33 33 156 32 31 113 169 30 31 111 201 31 111 110
121 76 76 226 126 76 76 225 197 77 141 141 196 77 139 193 78 136 135 192 79 130 191 191 111 124 189 142 112 68 187 142 106 69 199 142 88 184 195 142 91 192 140 198 95 189 199 98 128 186 198 104 48 196 194 137 40 171 188 144 94 169 149 151 104 166 155 112 116 177 161 125 176 176 134 137 176 133 146 176 176 113 197 176 176 102 175 177 94 92 175 87 85 174 174 78 77 171 175 71 168 166 176 64 162 176 176 180 153 177 177 181 177 177 181 181 178 181 182 41 177 182 182 36 125 182 34 32 108 181 30 103 102 136 26 99 178 24 179 95 178 22 94 169 178 178 92 179 179 177 173 179 120 116 173 180 108 16 171 131 103 15 133 134 150 14 136 113 149 184 138 150 13 99 140 149 196 104 193 149 200 165 190 199 198 166 182 192 168 168 148 178 171 160 150 174 175 152 229 149 182 154 149 21 156 156 149 119 158 150 150 112 160 150 107 105 150 150 98 96 151 88 84 183 181 68 175 173 174 48 164 161 180 155 152 183 185 143 141 189 178 133 193 194 187 124 196 192 194 24 199 198 19 18 202 203
78 145 124 78 78 144 78 78 143 142 78 78 140 194 194 138 136 192 138 133 192 191 139 127 190 140 141 188 188 141 141 187 140 140 88 89 140 91 91 83 139 94 94 70 96 97 61 59 101 102 51 175 107 45 43 173 116 38 170 170 133 34 168 133 133 165 165 132 132 162 132 132 172 159 132 132 186 177 132 193 195 177 110 199 34 35 98 201 38 146 201 177 42 144 198 46 173 140 173 52 139 138 167 176 136 132 131 177 181 132 188 177 182 131 186 183 183 44 184 183 131 39 121 183 35 182 125 32 31 107 139 123 28 101 178 122 98 97 178 123 95 178 178 160 92 178 125 143 179 179 130 149 179 118 114 17 175 107 105 16 92 104 15 15 93 108 14 94 95 14 13 98 190 13 101 101 192 193 105 193 193 203 111 189 188 217 166 181 224 225 171 168 228 12 157 230 230 14 153 231 16 17 138 230 21 139 139 149 24 138 137 150 112 135 114 26 105 194 110 98 129 108 107 82 180 106 145 141 168 104 134 25 156 181 133 31 102 186 172 34 190 150 180 28 195 186 32 27 113 193 24 112 111 199 17 110
227 198 80 144 225 197 118 143 196 196 115 140 195 114 113 66 195 112 134 67 112 112 68 190 112 68 68 205 139 70 70 200 196 71 197 196 197 72 193 198 198 190 190 198 126 187 198 198 131 132 197 135 137 85 194 142 144 91 123 149 96 99 154 156 105 178 160 113 116 178 30 126 178 178 136 138 178 125 121 154 178 112 109 179 132 100 180 179 93 201 180 132 84 179 179 132 196 176 174 175 193 171 176 182 190 63 177 183 158 72 132 184 79 177 129 131 90 128 185 130 40 126 130 36 182 125 130 32 109 130 131 181 103 131 180 180 157 133 179 179 166 179 179 170 171 124 178 173 126 136 174 174 127 119 173 130 130 150 172 132 150 150 134 134 150 149 136 149 149 183 185 149 149 190 165 149 196 198 164 201 202 164 165 202 202 165 147 197 167 168 149 149 170 150 151 149 175 153 153 149 154 155 149 149 156 149 149 123 158 149 149 115 223 150 110 108 195 150 102 190 189 93 89 182 170 75 174 171 175 53 162 179 179 119 150 183 185 141 101 189 174 176 192 193 182 28 196 188 189 25 183 194 22 20 188 199
145 145 196 125 144 196 195 128 142 194 131 132 194 194 134 134 83 135 135 84 84 136 137 86 124 137 87 87 114 88 89 106 103 91 91 94 184 93 84 81 182 181 71 180 179 133 59 178 133 132 175 175 132 132 173 131 132 121 170 131 131 134 33 131 145 149 30 131 161 30 30 173 177 30 157 187 31 31 154 196 33 152 151 182 36 149 148 132 167 146 132 132 143 182 132 197 140 132 132 193 183 132 191 190 184 131 188 69 185 55 186 77 80 49 144 88 129 184 133 178 127 125 110 178 125 116 178 125 186 108 178 124 130 27 178 181 131 180 176 174 23 179 167 163 20 92 151 19 19 91 133 18 91 91 17 17 91 180 132 92 92 182 134 93 184 184 112 95 186 187 129 189 190 150 158 192 192 182 12 193 201 205 11 115 217 11 11 122 225 11 127 129 11 11 134 135 12 137 139 143 14 141 135 132 232 142 126 123 230 194 119 227 225 196 114 217 25 112 165 198 23 109 178 151 22 172 153 21 61 122 156 24 120 119 161 35 118 101 168 30 116 100 29 28 123 99 27 117 115 197 25 111 98 190 196 105
226 197 197 196 225 196 196 195 129 195 116 220 132 195 114 133 195 85 113 68 86 113 127 69 88 114 70 188 89 111 71 198 91 99 185 194 90 86 183 133 198 180 180 132 198 178 131 131 104 176 131 196 141 131 131 118 149 131 131 130 34 131 139 143 31 164 155 30 30 161 171 30 159 158 31 31 156 180 32 153 152 132 34 149 132 132 147 146 133 133 200 133 132 198 197 132 132 194 53 132 192 191 60 132 189 65 67 187 187 74 131 130 81 83 130 129 91 128 128 130 104 126 126 130 126 125 129 129 125 129 129 180 124 129 129 180 158 130 179 179 167 132 178 171 172 178 178 174 174 177 175 174 128 176 174 130 131 91 172 132 133 148 182 135 149 149 184 138 149 183 139 136 149 190 158 149 12 198 189 149 202 112 164 11 204 165 165 10 125 167 150 10 132 170 152 136 138 150 154 141 141 155 232 143 130 158 149 20 122 230 149 119 117 224 24 111 216 212 24 132 196 22 22 128 169 21 125 125 21 22 122 157 104 120 119 102 184 118 117 101 152 116 100 100 169 99 99 180 184 98 98 191 30 30 194 195
145 196 196 124 144 195 195 128 85 194 130 130 85 193 132 86 86 133 133 87 88 134 88 89 122 134 89 115 113 196 91 104 101 185 119 92 183 183 123 79 181 131 69 78 179 130 81 176 184 130 84 174 130 194 117 182 130 125 128 181 181 137 32 181 169 153 31 159 165 174 30 144 179 30 136 129 183 32 153 182 186 155 149 133 188 163 184 132 167 168 185 85 172 185 186 77 174 187 72 71 187 187 66 189 174 61 59 168 72 55 53 157 178 49 149 146 178 139 137 178 178 128 125 178 190 190 178 178 190 189 178 188 188 27 178 185 25 25 124 179 23 23 171 132 21 93 156 20 19 91 179 18 91 91 179 17 91 180 181 176 92 182 105 93 169 184 112 95 185 140 129 166 189 151 159 12 143 183 12 12 145 149 11 116 147 149 10 124 149 149 196 131 149 11 184 172 155 172 142 178 141 154 183 133 157 138 189 158 231 193 194 161 227 195 162 163 150 192 165 166 150 99 169 151 151 84 151 152 67 123 154 155 46 149 159 37 35 138 165 31 130 128 29 29 121 119 195 115 113 197 198 109 198 199 191 104
196 122 196 196 195 126 87 117 128 128 86 115 130 87 87 136 131 88 132 130 88 89 125 124 90 119 117 187 91 109 106 186 131 97 184 184 130 183 182 130 130 180 179 130 102 178 129 129 106 175 130 112 114 130 129 120 123 37 129 132 34 33 143 32 31 163 159 30 31 160 30 31 157 156 31 31 154 132 33 152 151 132 202 149 132 132 202 145 132 200 199 187 133 197 195 133 76 193 55 132 190 190 62 134 187 67 69 132 168 75 130 130 157 85 129 131 93 178 128 130 105 126 193 129 178 125 129 33 180 191 128 180 180 189 27 179 159 184 24 179 168 23 22 93 173 20 178 92 178 19 91 175 179 125 91 180 132 111 92 181 106 147 182 182 107 148 184 114 118 14 187 136 13 13 102 167 12 198 108 12 12 113 164 11 11 121 187 10 127 129 176 10 134 167 163 139 141 152 233 233 142 139 234 233 131 233 233 18 123 231 231 21 162 227 23 23 221 150 22 134 203 22 21 129 107 21 126 125 105 21 123 104 104 44 120 102 102 34 134 101 155 116 125 193 172 33 99 196 189 31 198 197 185 30 199 202
122 144 66 225 119 67 194 221 117 67 219 129 68 68 214 194 69 211 210 195 90 206 194 194 115 201 195 195 118 196 196 119 120 197 197 123 75 198 126 127 78 100 131 80 80 186 138 83 185 184 86 87 184 184 91 183 184 186 97 183 179 176 165 183 167 163 183 131 153 181 182 142 138 186 137 127 189 190 149 115 193 156 158 202 195 164 187 201 42 169 188 188 48 140 189 77 176 137 191 70 135 191 132 64 133 132 59 185 131 131 54 163 131 130 182 150 178 130 181 103 178 181 181 116 178 180 126 178 125 180 141 125 192 151 154 124 188 161 124 125 128 23 125 126 130 178 127 132 134 177 136 137 177 176 141 142 176 174 145 176 176 171 147 177 170 170 138 179 168 167 141 167 166 143 143 165 144 144 149 164 146 146 149 148 148 149 149 206 150 149 201 199 149 149 190 171 149 179 174 176 149 162 181 183 149 145 188 189 134 192 193 161 161 194 193 163 149 191 165 166 150 109 168 150 151 171 172 151 73 176 152 153 50 181 156 39 36 136 162 31 128 125 33 29 119 117 32 113 112 197 26 112 106 198 111 102
196 122 123 195 195 125 125 194 126 127 89 193 128 90 89 212 129 90 90 129 195 91 124 122 92 92 115 187 94 107 104 185 121 94 184 183 125 81 181 128 130 79 179 128 60 82 186 128 109 174 185 129 115 184 130 190 126 184 183 135 167 184 173 150 32 163 159 180 31 159 145 187 132 155 191 191 143 187 195 151 149 188 198 160 189 132 166 168 190 133 171 191 191 81 194 192 192 74 193 193 68 67 187 64 63 181 179 59 57 171 178 53 162 159 178 47 149 178 178 198 136 178 198 197 178 178 197 197 178 196 196 30 178 194 193 26 125 189 25 24 96 182 23 94 93 130 20 92 179 19 177 91 179 18 91 175 180 176 92 180 181 176 172 182 106 108 169 139 117 14 167 142 142 13 144 166 149 12 146 197 12 204 147 149 11 123 149 149 206 131 178 149 199 168 164 189 186 173 151 174 177 179 157 157 184 130 159 189 190 160 231 149 162 162 149 21 164 164 149 108 167 150 150 98 171 151 86 81 151 152 64 152 154 48 43 140 102 35 132 129 189 30 122 120 193 116 114 196 196 109 107 197 181 103 199 198
122 66 66 223 119 67 67 220 141 68 216 215 194 69 212 194 194 191 207 195 116 204 128 194 117 200 195 119 120 127 196 122 122 127 96 126 77 77 99 74 79 188 136 61 82 187 54 84 175 186 46 89 186 130 39 169 185 185 35 167 131 175 175 163 131 160 182 132 132 176 188 132 187 190 33 132 197 197 35 201 201 38 159 147 40 42 144 191 45 46 141 133 50 139 138 133 56 136 133 133 134 134 132 64 132 132 132 184 177 131 182 182 85 131 181 181 95 181 180 104 107 180 180 117 126 180 127 130 125 138 141 125 125 127 154 125 127 127 125 125 127 128 126 128 129 178 128 131 131 177 133 135 177 177 176 177 176 175 174 176 176 172 137 177 170 170 139 180 168 142 142 99 166 144 149 165 191 145 149 149 147 149 149 207 149 149 149 208 227 149 204 203 231 10 195 170 149 10 181 176 11 169 150 182 158 152 187 126 160 148 192 161 162 144 116 164 149 139 112 216 150 109 109 195 150 93 176 170 20 73 155 152 22 121 147 26 38 119 30 31 117 124 33 33 115 100 32 113 113 99 197 112 99 99 209 111
144 95 94 144 143 194 93 141 194 193 139 138 192 192 135 192 191 127 130 190 190 127 189 189 126 126 95 126 126 95 96 126 126 97 89 126 98 99 76 127 101 67 63 198 104 56 176 108 49 47 173 172 42 171 169 130 36 168 167 131 103 164 131 131 112 161 132 170 158 189 132 184 189 132 129 195 34 133 200 202 38 107 202 40 41 97 205 45 142 88 205 173 139 204 203 176 136 133 177 178 197 132 178 132 198 61 179 199 131 182 178 200 51 181 201 201 46 151 202 42 41 137 114 38 127 124 178 34 116 138 178 109 107 178 125 102 178 178 193 97 178 178 185 178 178 175 171 20 179 156 19 19 139 134 18 17 119 17 17 92 107 16 93 94 146 15 95 96 185 181 99 187 187 102 104 190 173 108 192 193 203 163 193 217 220 164 189 226 11 165 152 231 10 10 154 149 10 148 233 149 177 151 149 12 152 152 149 148 151 123 149 133 147 117 124 121 190 113 220 137 183 168 204 175 108 171 150 163 175 162 151 150 179 153 24 183 184 156 29 117 159 160 30 115 164 28 28 110 169 27 27 105 25 25 101 100
97 96 144 195 94 142 68 194 141 139 193 213 137 136 192 125 133 191 191 125 125 190 125 125 188 187 126 125 96 125 125 97 97 126 98 98 81 126 100 101 69 102 103 59 57 106 108 50 174 112 44 43 171 129 38 169 168 131 35 165 131 131 163 162 132 132 160 132 132 178 157 133 133 191 34 133 198 199 37 112 202 39 40 201 201 43 143 198 47 48 140 194 52 138 137 206 58 135 133 133 178 132 132 132 131 199 132 182 129 132 132 181 202 131 180 180 203 130 180 105 204 41 179 118 126 36 122 132 125 179 112 178 126 106 155 178 126 100 178 126 193 95 178 185 128 178 179 170 130 177 154 148 18 177 131 125 17 91 113 17 176 93 105 15 94 170 15 14 97 185 143 100 101 188 145 105 191 192 189 112 193 193 212 192 192 222 224 188 227 229 11 177 231 232 10 146 233 10 10 152 233 11 153 153 12 13 153 152 15 151 150 121 18 146 116 115 226 141 112 112 215 180 109 201 195 168 107 176 19 105 177 156 21 181 150 153 26 185 153 30 117 117 159 32 115 114 164 28 113 99 169 26 111 99 24 110
144 119 195 121 142 194 95 119 140 194 118 138 192 194 117 70 191 124 118 71 190 124 72 73 199 124 74 186 196 195 75 194 125 196 77 192 197 100 190 190 198 141 61 198 198 148 52 197 155 157 90 193 164 166 95 170 172 99 101 179 105 107 190 187 114 116 191 152 124 192 191 138 135 192 127 124 193 194 115 112 194 107 104 211 195 97 211 211 171 88 211 211 175 191 209 177 177 188 206 178 199 202 69 179 201 75 179 202 202 82 179 203 52 50 127 204 46 45 126 130 41 142 207 129 37 127 128 34 179 115 127 178 109 152 127 178 102 178 126 178 170 178 191 178 175 128 178 177 178 131 131 178 132 133 136 177 135 139 141 176 137 144 16 177 146 147 178 96 148 148 182 167 148 188 189 165 194 196 164 164 202 205 163 149 150 163 164 152 227 165 153 153 149 167 155 149 149 156 157 149 149 158 149 149 168 159 149 149 151 189 149 139 135 191 149 125 189 187 117 115 181 168 107 174 171 172 95 161 175 176 150 148 179 180 152 183 184 153 154 188 155 156 30 192 159 160 28 195 164 27 27 210 169 25 99 98
99 144 144 195 96 142 194 193 140 139 193 193 136 192 191 122 131 190 190 123 96 189 123 123 97 187 124 97 97 124 124 98 91 125 99 99 78 126 101 69 66 198 104 57 55 175 153 48 173 173 162 92 170 130 38 168 167 130 102 164 131 131 110 162 132 165 170 192 133 181 185 193 133 193 36 133 121 210 39 112 201 213 42 102 214 46 169 92 214 51 138 197 213 177 136 133 178 179 200 133 179 179 200 65 180 202 202 59 179 203 55 53 205 205 50 179 164 46 44 152 110 41 140 136 179 37 126 123 178 117 114 178 178 108 106 178 205 204 178 178 199 24 178 192 189 21 179 177 20 20 161 155 19 18 136 18 17 91 115 17 17 93 181 16 94 95 183 179 97 185 185 184 102 188 150 106 165 191 186 113 193 149 211 163 192 221 149 11 152 229 11 10 154 149 10 150 156 149 10 154 149 149 179 156 149 12 163 186 126 150 152 190 162 134 189 116 226 122 185 166 217 178 175 170 199 166 173 174 150 153 177 150 150 58 182 151 25 40 153 153 32 117 155 156 29 111 159 28 28 104 163 27 101 100 25 24
123 195 195 121 121 194 194 120 69 69 119 119 70 207 119 71 72 203 119 72 201 200 73 74 198 197 75 196 196 196 77 194 193 196 133 192 197 198 140 127 198 145 148 128 197 154 88 197 112 163 92 193 170 38 97 128 179 101 165 193 33 109 193 194 33 159 194 150 34 156 194 136 153 152 133 123 149 196 134 201 215 134 103 216 46 134 197 217 173 134 193 55 177 190 188 61 179 186 66 67 131 183 72 130 129 132 79 128 204 131 127 127 131 51 126 126 130 179 125 130 130 179 126 129 178 178 128 128 178 139 143 178 178 153 156 178 162 164 127 178 170 172 129 175 176 130 130 179 131 132 130 131 134 134 134 177 136 138 139 177 139 143 177 177 145 146 178 179 147 181 182 167 148 187 166 165 147 195 164 163 149 163 163 151 151 163 163 152 149 164 153 154 149 173 155 149 149 159 157 149 189 186 232 149 174 170 149 13 158 188 149 145 141 190 17 130 188 186 19 141 180 169 169 134 169 171 149 129 106 176 149 146 179 155 151 103 184 151 27 102 161 153 30 101 180 32 28 107 202 31 27 101 31 31 111 97
117 117 195 194 118 98 193 119 119 97 192 120 97 97 120 120 97 128 121 97 97 120 118 97 113 110 186 98 102 98 184 92 88 182 182 79 76 180 126 66 178 177 127 85 175 129 129 110 172 129 116 118 193 130 126 129 131 181 139 34 132 151 195 33 160 167 34 34 146 207 35 154 152 212 38 150 134 216 154 147 134 44 163 198 134 170 140 198 90 175 199 133 189 189 199 78 186 66 201 71 183 72 66 65 207 79 61 200 197 180 55 188 92 180 178 174 180 126 209 158 179 210 129 179 179 212 128 179 212 212 32 178 212 29 29 211 210 26 26 207 25 24 96 95 23 22 93 179 20 92 92 179 177 91 179 179 92 92 180 115 92 181 181 105 104 182 105 107 15 184 117 123 14 147 145 13 13 148 149 13 117 204 149 12 127 149 11 134 137 185 11 144 178 174 208 153 164 231 198 172 150 231 159 179 160 231 183 129 161 230 188 162 229 149 17 165 149 18 122 167 149 19 137 149 149 102 131 149 149 86 148 149 69 63 135 103 45 127 124 187 33 117 190 191 111 109 194 197 104 195 195 158 99 196 196 163
123 219 117 100 121 118 194 98 139 119 98 120 135 119 97 131 72 97 98 123 73 98 117 114 186 197 106 103 185 123 94 183 182 125 181 180 126 126 179 178 127 103 176 128 128 108 162 129 113 115 42 130 121 39 37 129 133 35 35 144 34 34 160 160 34 34 157 34 35 155 154 133 37 151 133 133 148 148 134 201 145 134 134 199 142 134 196 194 134 133 191 190 133 188 187 64 66 184 69 70 130 182 76 77 128 208 82 127 127 88 90 126 131 96 125 125 130 130 125 130 129 178 125 128 178 178 213 128 178 178 214 31 178 153 126 178 178 164 26 178 171 173 130 95 177 131 131 93 179 133 129 92 179 135 133 178 179 127 138 180 140 109 142 181 104 145 15 179 108 15 182 101 127 14 188 165 13 13 113 163 13 12 122 193 12 130 133 190 138 141 184 182 229 150 172 230 230 161 158 231 149 148 230 230 11 135 230 230 12 230 229 14 15 152 16 17 147 145 18 18 141 111 18 135 134 108 19 130 107 106 126 125 104 157 122 103 103 153 155 102 160 164 31 101 179 185 32 194 202 31 32 195 217 31 111 223
115 115 194 216 117 100 193 117 118 98 208 118 98 98 131 194 98 127 125 194 98 118 187 195 126 108 185 98 131 77 183 135 86 79 181 142 81 179 194 127 84 194 128 198 87 194 129 111 195 194 193 119 196 196 187 187 196 180 178 196 109 168 202 204 118 155 209 125 155 214 214 136 151 218 145 148 198 221 156 159 199 163 166 199 199 96 199 199 90 89 200 200 83 224 201 78 76 222 202 72 219 218 67 65 213 181 61 207 205 181 181 196 180 181 208 181 180 180 210 111 179 212 212 122 179 214 36 179 126 215 33 117 215 126 29 107 214 27 178 100 124 25 97 96 125 178 94 179 127 178 180 179 177 178 179 179 136 178 180 140 114 175 181 105 144 172 144 105 15 168 147 148 14 148 148 148 193 150 148 149 202 120 149 209 211 162 149 214 139 164 214 214 164 176 210 167 167 157 202 171 172 159 176 177 160 160 149 183 162 149 149 163 163 149 149 164 149 149 127 167 149 117 114 149 149 105 102 155 94 90 145 141 73 66 132 183 49 124 121 187 117 115 190 191 109 107 193 149 103 194 195 152 153 195 155 157
103 114 115 101 101 116 99 100 138 116 99 98 134 99 98 129 128 189 99 122 188 188 115 112 186 186 103 185 184 123 91 182 124 125 180 180 126 126 101 127 127 103 104 129 129 108 47 129 113 115 41 191 122 38 38 131 134 36 163 145 35 35 160 159 35 157 156 133 37 154 152 133 140 150 133 134 151 199 134 200 144 199 134 198 199 134 94 193 58 133 190 227 64 82 185 68 182 75 223 74 129 68 219 183 127 214 213 182 126 131 181 125 207 130 181 125 130 47 180 211 129 178 213 213 39 178 215 215 34 125 216 32 31 113 157 29 106 104 178 26 100 178 178 96 96 179 133 93 179 179 182 92 179 179 155 179 179 133 127 17 180 112 17 17 105 104 16 97 106 15 15 102 122 14 106 108 148 13 114 117 192 204 124 193 192 132 162 191 224 143 185 183 228 165 174 229 228 168 159 229 10 174 160 228 10 11 228 149 12 160 227 13 155 155 149 16 149 147 149 126 142 111 148 113 135 109 104 100 150 106 171 140 137 180 155 128 103 184 147 118 187 162 147 110 191 147 32 193 194 147 32 112 150 151 26 110
217 123 69 70 213 194 70 210 209 194 207 206 194 194 204 203 194 124 201 194 194 127 199 195 130 130 122 195 134 78 78 98 141 80 81 146 70 83 196 155 84 85 197 52 88 197 197 45 92 197 192 191 168 198 186 194 164 131 176 203 199 168 158 211 133 154 215 217 133 186 220 138 133 196 42 149 199 200 46 160 199 50 51 141 200 55 175 137 133 61 135 201 133 67 132 133 77 130 129 132 181 223 132 132 180 218 132 179 179 92 131 179 179 100 178 178 106 109 178 113 115 124 125 123 126 125 127 135 126 126 126 148 127 125 125 128 128 124 124 130 123 123 178 132 124 178 177 181 125 178 178 181 177 178 180 180 178 178 178 141 178 175 175 144 173 172 146 146 170 169 148 148 148 149 150 148 148 151 148 148 202 152 149 149 211 216 149 215 215 149 11 215 164 165 213 211 167 158 206 170 171 159 196 176 161 161 164 182 162 149 160 123 163 149 186 165 223 149 132 167 148 148 118 209 148 108 105 189 148 93 142 166 19 71 129 22 23 120 119 26 36 117 101 190 115 105 100 193 113 100 195 215 111 99 224 150
69 215 113 102 70 211 114 100 137 207 193 99 133 116 99 124 126 194 99 120 117 194 129 110 186 195 133 78 183 123 139 80 181 125 81 82 197 127 84 177 197 198 87 198 129 197 198 199 195 115 199 199 189 194 37 183 181 202 36 173 208 210 115 160 216 216 124 220 221 133 135 224 141 144 200 227 152 155 199 110 164 200 200 101 173 200 95 93 200 201 87 231 201 81 80 229 202 75 228 227 185 69 224 223 184 179 219 184 183 212 209 182 208 200 182 181 210 110 181 212 213 119 180 214 39 38 125 216 35 34 126 125 32 116 218 124 178 106 123 26 178 99 123 178 96 180 123 178 94 179 136 178 182 179 164 178 180 141 133 177 177 144 141 174 146 146 145 170 148 147 15 182 150 148 14 109 148 148 197 117 148 204 207 162 149 213 214 162 216 216 163 164 216 215 165 158 158 168 168 159 226 173 160 160 149 178 161 149 149 162 163 149 149 164 149 149 143 166 148 148 127 171 148 116 113 158 106 103 148 144 90 84 134 179 66 125 123 184 43 115 187 188 144 108 190 142 142 192 193 142 142 194 144 144 26 195
215 214 141 193 211 193 71 192 114 193 191 205 116 194 190 117 194 99 188 119 194 129 111 121 98 134 77 123 98 90 79 98 98 77 179 99 68 84 177 101 57 175 199 129 49 172 200 195 170 169 131 190 166 131 131 132 163 132 132 147 132 132 159 164 133 133 176 39 40 187 189 42 141 196 45 47 146 199 50 143 142 54 55 139 138 59 137 136 133 65 134 133 133 184 131 133 133 182 132 132 181 180 132 132 180 90 132 179 179 96 131 178 101 103 123 178 109 111 123 116 117 124 124 125 124 124 127 136 126 126 126 179 128 125 124 128 129 124 178 178 123 123 178 178 123 178 177 182 124 178 183 183 20 178 181 181 19 92 178 143 178 94 176 146 143 173 182 148 146 183 149 112 148 186 151 148 191 189 164 148 201 192 197 13 211 162 216 12 144 163 11 217 154 164 11 161 166 165 10 166 171 160 168 168 141 161 167 132 131 223 149 124 122 222 14 118 220 219 16 113 215 17 17 207 204 18 107 190 18 18 127 167 19 124 123 104 22 120 119 102 118 117 101 101 115 115 100 191 113 100 100 214 95 100 225 227
142 142 194 124 140 192 192 137 136 191 115 115 190 190 116 99 188 118 119 98 187 120 98 98 199 122 98 98 199 197 98 82 125 197 99 70 178 100 161 59 175 169 52 173 172 180 45 170 130 191 96 167 131 39 101 201 132 139 161 201 168 155 201 132 155 173 201 145 184 227 201 132 195 46 124 120 232 51 112 110 233 167 140 233 234 176 200 234 181 183 201 233 186 202 202 187 188 202 133 188 203 204 68 187 205 63 62 222 206 58 56 214 54 52 204 200 49 47 188 182 44 173 168 180 39 153 180 180 217 134 180 219 220 155 179 220 220 179 220 220 26 179 219 218 24 134 213 23 22 137 124 21 92 92 128 19 92 179 18 178 93 181 17 94 174 181 179 97 183 183 181 168 185 120 186 165 152 151 14 163 153 187 13 154 154 149 12 155 219 149 218 157 149 11 217 149 149 212 167 169 149 205 173 145 197 194 179 134 184 183 183 164 168 184 165 165 181 179 166 215 172 168 169 148 17 171 172 148 101 175 148 148 82 179 147 63 57 145 145 41 111 142 33 32 104 139 29 100 98 193 28 96 94 194 92 92
194 111 141 193 193 112 192 192 113 114 101 190 115 99 99 117 118 99 129 119 99 98 109 121 98 98 97 98 98 87 84 98 77 75 179 178 66 63 176 128 56 174 173 129 48 171 130 130 169 168 131 120 166 132 132 132 162 132 143 148 38 132 161 165 39 173 177 41 42 188 190 45 148 196 49 50 145 234 53 142 141 234 59 139 134 134 136 135 133 133 132 133 133 184 130 133 182 181 202 133 180 180 204 66 179 94 95 61 179 100 122 178 214 107 122 178 112 183 122 187 120 123 214 167 181 124 127 146 180 218 125 178 179 220 124 177 221 221 28 177 221 25 25 98 218 24 178 95 23 22 93 183 20 20 92 180 143 92 92 180 145 94 180 181 108 96 181 103 103 183 183 109 147 185 124 131 14 192 157 165 14 124 191 13 13 137 12 12 146 149 11 11 157 180 11 164 165 167 11 169 156 153 222 171 143 140 221 180 131 220 220 124 164 218 14 119 217 216 16 167 212 17 17 169 202 17 134 132 148 18 128 106 147 78 123 104 22 52 115 102 39 117 107 101 31 102 100 187 194 97 100 212 32 93 193 226
125 142 70 193 125 71 192 125 125 72 205 126 73 74 203 128 75 202 202 75 76 201 121 195 200 201 196 97 201 197 197 151 201 197 198 160 127 198 168 170 198 198 178 89 197 187 189 93 94 197 96 98 203 207 102 203 203 38 109 203 202 114 156 202 154 123 201 201 141 150 201 132 129 234 133 120 234 235 134 110 235 168 134 194 235 178 95 189 71 185 186 235 77 189 183 81 190 127 202 87 126 204 133 94 124 205 63 123 123 131 57 122 122 130 178 122 130 48 178 120 129 178 176 128 127 178 136 180 178 178 146 180 178 155 159 129 178 167 169 132 174 176 133 134 121 135 136 121 122 138 139 123 178 141 126 127 178 144 133 178 178 137 139 178 174 143 179 179 170 169 181 168 167 152 186 165 164 153 163 163 154 154 162 162 156 149 162 156 157 149 220 158 149 149 218 159 149 215 214 149 149 209 206 149 201 199 177 149 189 181 182 13 174 182 181 165 154 177 167 167 170 166 169 148 156 171 172 148 142 175 148 148 105 179 146 67 104 148 144 43 40 152 28 32 102 135 31 29 97 32 28 112 93 31 110 91
193 110 140 192 192 111 137 191 113 113 73 190 115 116 188 203 118 98 187 119 195 97 202 121 97 97 94 196 97 84 81 197 98 72 178 198 166 61 175 101 176 88 172 185 47 91 204 196 94 167 204 131 100 203 132 132 106 203 132 148 203 202 160 165 202 150 147 231 201 137 190 234 142 125 235 53 154 115 236 163 140 236 236 174 136 236 181 183 200 235 187 201 201 191 191 202 202 76 202 203 72 70 204 204 65 231 205 62 59 225 131 55 219 217 52 50 208 184 47 195 190 182 182 175 181 181 217 153 180 180 219 150 180 221 221 161 130 222 28 179 132 222 25 100 221 121 24 96 214 23 94 93 123 20 93 180 128 178 92 180 18 178 176 180 178 96 173 182 103 169 183 152 110 167 185 126 148 164 154 158 14 155 155 148 13 156 156 149 219 158 149 149 220 162 149 219 217 166 149 214 169 170 208 206 174 141 198 178 179 163 185 181 181 164 181 180 166 166 148 171 168 148 148 170 170 148 114 172 148 147 97 177 147 81 74 146 145 55 49 110 41 38 104 103 31 100 99 191 28 95 94 193 92 91 192 193
126 126 71 102 126 72 72 101 134 73 205 128 128 74 203 194 75 203 202 194 77 202 195 196 184 202 196 148 181 125 197 156 203 126 98 166 127 198 99 177 88 102 185 48 91 107 196 94 168 115 41 99 204 40 40 162 204 40 40 158 132 41 156 155 133 150 152 133 133 188 149 133 194 196 134 134 198 236 134 197 197 64 134 193 192 71 134 189 76 78 131 184 82 129 128 87 88 126 133 93 124 124 133 99 123 132 132 122 122 131 131 178 131 130 178 178 130 178 178 123 128 178 178 130 178 178 137 140 178 178 148 127 178 156 159 129 130 167 131 132 121 176 134 120 120 136 137 120 120 139 121 122 178 143 125 126 178 182 130 178 178 178 18 178 175 173 179 179 171 152 180 168 167 154 185 165 154 155 118 163 156 156 148 192 156 148 148 192 212 149 221 159 219 149 221 219 149 11 216 218 148 211 175 216 11 203 177 136 11 170 180 164 13 162 121 165 156 153 116 167 147 112 111 201 138 109 172 187 107 107 172 147 88 157 153 20 63 146 145 24 118 148 27 28 115 165 30 114 113 32 32 112 100 100 110 110
193 210 127 72 192 110 72 72 206 113 74 74 205 194 74 204 204 194 98 203 195 195 141 203 196 146 148 197 197 155 79 198 162 164 83 198 172 175 86 181 183 88 89 206 91 92 205 206 95 96 205 188 100 205 204 180 106 203 171 168 203 203 159 155 232 149 146 234 235 137 236 236 142 125 237 236 155 198 236 163 166 195 236 175 200 235 75 184 200 90 189 130 201 84 193 201 133 77 125 202 72 71 123 133 66 232 121 132 60 229 131 131 178 222 187 178 178 121 185 178 198 128 122 178 134 182 217 178 143 125 219 151 153 128 124 31 130 131 122 28 133 121 120 178 136 119 24 177 119 120 177 94 122 122 178 184 126 178 178 181 148 178 177 176 151 178 173 152 153 170 169 153 154 167 154 155 148 164 156 148 148 156 157 148 148 214 148 148 219 221 148 148 222 162 148 221 220 165 148 216 168 169 211 210 173 163 163 177 178 164 164 180 164 165 148 178 166 166 148 167 167 148 148 170 148 148 117 173 148 147 100 128 147 84 77 117 144 58 110 108 25 39 102 188 32 115 97 191 29 94 100 192 111 90 192 192
104 127 109 102 102 136 73 100 100 131 189 99 127 125 188 98 118 187 186 110 108 185 121 99 183 183 124 86 181 125 125 96 178 126 127 97 128 128 99 99 129 129 103 47 130 107 108 43 112 114 42 42 122 125 41 161 160 42 42 157 157 44 155 154 133 47 151 133 133 148 148 133 133 145 134 134 198 198 134 134 196 70 134 193 192 76 134 188 82 83 89 184 88 128 182 232 94 125 180 99 196 123 133 104 122 121 132 193 121 132 131 191 207 131 178 187 210 130 178 212 213 43 178 214 127 39 170 141 36 178 147 151 33 133 159 129 30 117 180 133 109 106 179 136 101 179 179 220 119 179 142 212 22 179 197 124 20 175 165 19 178 138 129 18 96 112 17 17 100 104 17 104 105 184 16 111 114 187 119 122 190 191 131 192 192 194 145 193 191 211 161 188 216 216 181 178 217 11 11 215 215 11 177 213 11 11 175 211 12 172 170 148 13 164 162 148 169 155 116 114 149 145 112 198 139 147 109 185 136 107 171 165 124 105 152 20 113 183 143 23 103 186 137 27 115 160 128 29 113 122 32 27 111 117 27 110
210 108 102 102 208 193 100 133 206 194 131 127 194 194 134 120 194 137 139 77 185 143 101 78 205 151 79 181 206 81 82 207 126 83 84 207 199 86 207 207 198 89 207 197 196 204 207 194 192 214 189 188 220 222 181 225 227 108 170 231 232 115 161 234 121 123 236 237 131 201 201 139 142 201 122 150 200 200 113 163 200 106 104 135 200 98 96 132 134 91 231 231 86 84 231 197 79 230 231 198 180 231 198 197 179 232 196 205 178 114 193 207 228 120 120 209 49 187 121 129 44 121 214 128 40 123 127 37 178 125 125 34 140 124 124 178 122 122 121 178 175 179 178 178 182 138 178 185 186 142 177 186 144 144 185 185 147 179 182 149 150 134 19 152 140 141 178 154 145 146 180 147 148 182 183 148 148 189 163 149 197 200 161 148 210 161 161 159 220 161 159 159 161 162 160 160 163 161 161 148 167 162 163 148 163 163 148 148 164 148 148 192 188 148 148 176 174 148 162 158 163 148 141 153 149 126 122 139 135 108 128 125 177 178 117 181 182 144 108 184 185 138 102 188 132 130 190 190 122 28 190 117 115 27 216 114
103 139 138 101 101 135 134 99 131 130 189 98 125 123 188 137 115 186 186 108 78 184 122 123 183 182 124 95 180 125 126 95 178 127 95 96 208 128 98 98 208 198 102 47 130 106 210 43 166 113 43 43 162 224 43 160 159 230 45 156 132 234 117 153 133 123 126 202 133 187 147 201 127 195 200 134 117 198 200 111 196 232 200 103 192 82 97 95 229 90 90 228 228 195 126 228 229 199 202 229 200 200 202 230 199 204 133 197 196 205 57 194 207 207 52 190 209 48 47 213 212 43 42 195 40 39 179 173 36 36 154 181 33 138 133 180 178 121 180 180 225 109 179 225 224 179 179 223 221 179 218 215 23 179 203 21 21 148 174 20 20 151 135 19 96 97 142 18 100 182 17 179 105 184 16 112 165 187 191 123 189 158 203 161 192 187 215 161 159 205 13 161 160 213 12 161 161 148 12 162 148 12 215 163 148 12 178 148 148 200 172 128 148 187 176 120 175 171 168 115 155 158 156 169 134 144 171 172 133 130 175 164 121 178 179 145 21 182 183 141 44 186 136 134 33 128 126 29 29 118 116 27 90 111 27 26
209 209 193 130 208 194 194 131 113 194 133 134 75 195 137 76 76 141 142 77 78 148 78 79 208 156 80 208 208 76 82 209 209 65 176 209 199 199 173 209 198 199 209 130 196 210 208 193 111 219 131 187 225 44 132 131 231 108 132 147 47 115 203 164 51 123 202 55 130 147 201 61 144 200 134 68 140 200 113 137 137 134 105 229 133 134 190 227 134 134 186 225 134 183 182 102 133 181 107 108 179 180 112 201 179 116 117 120 204 120 121 119 131 124 119 119 131 119 120 129 129 120 121 128 178 122 127 127 178 125 125 178 178 157 124 178 178 168 178 178 175 178 178 181 182 139 178 186 187 142 187 187 145 146 120 186 149 124 125 151 152 131 177 153 138 140 178 155 145 178 179 147 148 181 182 149 185 187 163 162 195 199 161 159 209 160 160 159 155 161 160 160 167 161 161 148 163 173 162 148 166 162 208 148 213 163 148 207 205 204 148 196 194 201 14 182 172 198 15 164 161 16 148 142 147 171 126 136 108 174 129 123 177 154 124 105 181 144 120 103 139 138 102 102 147 128 101 162 169 31 28 192 31 31 110 217
194 101 209 193 194 131 207 194 98 128 194 194 136 121 187 140 141 77 185 146 148 78 208 154 80 80 209 164 81 210 209 83 84 210 127 199 210 210 199 98 210 198 198 208 209 195 194 218 192 190 224 226 184 182 230 105 175 234 235 111 203 237 116 118 202 238 125 202 201 61 135 201 200 143 142 200 117 155 200 200 109 136 199 103 101 225 134 95 223 223 134 89 222 197 134 182 222 201 77 180 113 203 179 225 202 120 179 121 200 204 205 125 118 207 52 129 119 209 47 120 120 129 42 121 214 128 178 123 127 35 178 154 124 178 140 163 122 178 170 180 178 178 179 180 178 184 185 141 178 188 144 145 188 187 147 148 121 150 151 126 128 153 154 135 178 155 141 143 178 157 147 179 180 148 149 183 164 149 189 192 162 161 201 161 160 160 214 160 160 160 161 160 161 161 162 161 162 148 164 162 163 148 217 163 148 148 211 164 148 204 202 148 148 192 189 148 181 177 166 148 161 156 152 17 139 141 137 172 132 127 175 176 118 115 179 145 109 182 183 141 102 185 136 133 102 188 124 30 101 173 113 28 27 203 31 27
191 209 108 99 190 111 194 98 189 114 97 137 116 117 95 142 119 94 94 103 121 93 95 91 93 92 82 79 179 74 70 177 177 63 61 174 128 55 172 171 129 49 169 130 130 167 166 131 110 112 131 131 120 123 132 130 133 48 133 146 150 52 159 163 56 57 176 60 61 146 189 67 68 142 134 73 139 139 134 81 136 134 134 133 133 134 134 130 134 134 186 127 134 184 183 200 134 181 181 116 74 179 120 120 179 179 124 119 178 126 127 118 227 130 119 119 225 134 119 130 136 189 120 129 128 122 215 127 178 124 125 125 178 220 124 178 178 223 29 178 175 225 27 178 183 140 26 100 187 143 178 96 179 147 95 187 180 193 94 180 153 156 95 181 129 139 181 181 108 145 178 105 105 17 181 113 117 16 122 136 16 15 135 15 15 146 160 14 14 161 191 14 170 172 184 162 179 175 171 207 183 160 204 204 150 146 201 201 137 199 199 13 127 196 195 14 160 194 16 16 150 190 17 143 140 17 17 134 108 18 129 127 106 19 124 105 104 65 120 103 103 136 97 102 142 145 93 188 162 31 101 189 192 31 189 212
194 132 209 194 194 133 134 194 135 136 75 195 139 76 76 94 145 77 78 150 99 79 210 159 80 80 211 198 82 212 211 199 84 211 200 200 173 211 200 204 170 129 197 214 209 131 106 223 131 189 114 230 101 122 234 48 106 137 50 110 153 154 56 118 202 59 61 147 201 66 67 144 134 73 141 140 134 116 137 134 110 196 134 134 193 218 134 134 189 215 134 186 185 110 134 183 182 117 122 180 121 122 121 124 125 120 119 128 129 118 132 131 118 118 131 135 119 131 131 120 120 129 129 178 129 128 178 178 127 178 178 154 125 178 178 164 178 178 171 173 178 178 180 137 178 185 186 142 116 189 145 146 116 188 149 118 119 152 152 124 126 154 131 133 177 157 140 142 178 171 146 178 179 167 17 181 164 164 187 189 162 160 199 161 161 160 213 160 161 161 165 160 162 148 148 182 162 148 148 168 204 148 219 164 200 148 213 198 148 13 205 195 148 197 166 192 15 182 163 167 16 148 149 169 17 138 110 172 132 124 107 176 126 106 178 144 122 104 136 141 103 103 136 133 34 143 147 29 29 165 172 31 110 196 31 32
191 108 109 98 190 111 112 97 113 114 95 95 116 117 94 112 119 93 93 101 183 92 92 89 181 91 79 179 179 71 68 176 175 61 174 174 128 54 171 171 129 97 168 130 130 103 208 131 109 110 131 131 118 48 132 128 132 51 133 144 55 56 155 162 60 149 148 236 67 145 144 231 138 142 134 80 149 138 134 158 135 199 134 170 132 134 191 182 198 134 187 111 198 86 184 118 134 80 211 123 74 180 213 128 68 216 130 206 61 220 203 118 205 223 200 118 131 196 195 209 130 191 190 212 39 188 214 215 36 185 217 33 33 219 220 31 138 133 29 29 120 178 28 111 108 180 26 102 101 180 98 98 180 180 95 180 180 199 95 180 180 164 20 180 134 126 19 181 110 19 18 159 105 18 17 111 149 17 122 132 16 132 136 191 15 148 152 193 218 163 191 190 225 175 184 204 181 162 172 203 164 162 163 200 168 147 197 148 13 164 193 14 14 165 148 15 162 166 148 16 151 148 148 154 140 148 136 131 126 147 113 128 114 177 88 107 104 181 61 100 183 133 96 94 186 126 91 188 188 111 88 188 103 100 188 188
133 133 73 74 134 74 74 209 209 75 75 210 195 76 210 211 195 78 212 196 197 182 212 197 167 213 125 199 178 213 200 92 190 85 200 199 202 87 95 210 90 90 98 48 92 209 104 47 96 208 48 100 160 206 178 104 205 133 166 153 203 158 154 150 133 146 235 146 133 185 230 134 134 194 224 134 198 198 89 157 198 214 97 132 194 104 178 129 110 112 127 198 117 119 124 134 123 123 122 134 129 120 133 133 180 119 133 133 179 132 132 178 219 132 178 178 141 131 178 178 143 178 178 145 146 122 178 150 123 124 154 156 127 125 162 129 131 122 171 134 121 119 137 138 118 117 141 116 116 178 178 115 115 178 189 116 178 178 186 178 178 182 181 177 177 177 159 177 173 171 160 178 168 161 160 150 164 161 150 149 188 161 149 149 161 171 149 215 162 148 148 223 198 148 226 226 161 148 224 163 164 13 220 167 164 217 184 171 164 210 172 130 165 170 170 166 166 159 118 167 148 148 113 180 148 145 110 171 147 120 162 158 19 96 146 145 21 121 135 23 50 117 132 26 115 91 102 29 112 101 188 111 110 101 187 109
72 190 109 74 190 210 112 74 188 115 195 93 211 117 92 149 212 196 91 98 212 197 165 86 198 199 176 74 199 184 187 84 175 196 86 87 212 207 89 170 211 90 91 210 131 93 94 208 190 97 207 207 182 101 205 174 172 239 204 163 238 238 154 151 236 67 143 232 230 129 132 226 224 139 196 219 147 149 215 95 158 198 198 167 171 198 99 179 198 198 93 190 198 87 86 124 199 80 78 199 134 73 204 204 68 180 207 209 61 211 212 206 178 217 203 202 178 221 198 208 178 146 193 211 148 149 122 214 35 186 125 126 32 127 220 124 30 132 122 29 178 136 119 27 111 117 116 178 102 115 178 178 191 180 178 178 188 154 178 185 180 157 177 180 158 132 175 175 160 144 170 161 161 149 18 161 150 150 184 162 149 150 195 149 149 206 210 149 148 219 160 148 224 225 160 226 226 161 162 163 223 165 164 164 168 168 164 165 171 164 165 148 171 165 148 148 166 166 148 148 167 148 148 161 155 148 147 136 123 147 116 111 111 146 91 105 103 69 62 98 183 45 94 93 185 186 90 186 186 111 87 187 187 97 101 186
210 135 134 190 210 130 74 188 211 122 186 211 195 114 185 212 196 184 183 121 197 181 123 123 90 176 125 199 90 68 126 90 196 59 128 91 55 88 93 94 51 168 97 49 49 164 209 49 162 162 131 51 159 158 132 156 155 133 133 153 152 133 155 149 133 133 172 134 134 183 186 81 134 194 87 89 198 199 96 99 199 103 105 132 196 112 129 129 118 120 126 126 125 125 124 134 134 122 122 134 182 121 134 134 180 119 133 180 179 133 133 179 146 132 178 178 147 147 178 148 148 119 178 150 150 121 208 153 124 124 157 186 127 125 163 129 130 123 182 134 121 120 178 139 118 178 178 226 115 178 178 224 24 178 190 115 23 95 187 22 178 96 182 21 97 177 160 160 101 172 161 146 108 183 162 150 185 186 122 150 188 162 148 17 191 166 149 16 216 184 15 222 175 195 15 226 161 14 14 188 163 14 188 188 152 14 185 184 139 181 178 131 129 184 168 123 182 181 118 116 179 17 114 175 174 18 110 168 18 18 159 156 19 19 145 20 21 121 119 23 23 117 102 26 115 114 102 30 112 102 101 28 110 101 188 108
73 210 211 194 74 211 211 195 211 212 195 195 213 195 196 154 214 197 197 163 122 197 170 173 81 199 181 82 83 190 193 85 85 202 86 87 213 213 88 212 211 51 91 210 210 50 163 208 190 188 160 206 181 239 205 173 171 239 133 162 237 236 133 150 232 119 133 175 225 127 132 188 86 136 199 212 95 147 198 102 155 133 197 111 130 197 134 121 128 196 93 126 125 134 87 194 122 134 184 195 134 134 181 145 134 180 179 148 133 179 149 149 179 178 150 206 178 150 150 119 207 151 151 120 130 153 122 123 128 124 125 127 126 128 129 124 178 132 122 122 178 136 119 178 178 186 116 178 189 191 178 178 192 191 178 190 189 155 178 186 185 158 182 181 160 161 136 175 161 143 144 162 162 148 178 162 150 150 182 163 150 189 192 150 149 204 208 149 215 218 159 159 224 160 160 164 226 161 162 164 189 164 164 164 188 167 165 148 170 165 165 148 168 165 148 148 198 166 148 187 183 176 148 167 161 170 18 142 120 147 19 114 109 19 93 123 101 180 119 96 103 183 116 92 185 133 113 101 186 109 111 101 168 94 101 101
95 94 132 131 93 128 126 187 92 120 118 185 117 111 184 183 119 183 182 121 122 180 180 123 88 178 125 125 88 176 126 89 89 127 128 90 54 53 92 93 51 51 96 51 51 164 101 51 52 160 238 54 158 157 239 58 154 133 62 109 151 133 152 148 133 133 170 145 134 181 185 199 134 193 195 198 119 199 104 135 111 199 114 106 199 196 123 128 193 129 182 125 192 137 123 197 191 199 122 134 192 206 198 134 210 210 199 63 180 200 201 56 179 202 51 50 208 205 45 178 215 41 40 216 155 37 212 209 190 34 195 189 186 218 169 184 184 221 143 183 224 224 182 181 226 117 181 227 226 25 180 225 24 24 152 217 23 23 96 23 22 96 96 21 21 98 180 20 101 102 182 177 108 183 184 178 118 186 120 125 162 188 144 151 191 163 168 17 193 180 183 16 163 191 15 15 164 148 15 190 164 148 15 190 154 148 219 186 140 15 213 168 129 208 170 163 165 197 154 117 167 181 140 168 169 128 125 171 162 19 173 174 146 20 177 140 144 72 180 141 23 47 135 133 36 114 122 118 30 86 101 28 28 84 101 27
138 211 194 195 141 74 195 144 146 76 195 150 77 77 156 158 78 182 165 80 80 216 176 81 216 217 200 83 216 216 201 215 215 201 201 213 213 201 220 212 199 198 229 130 195 234 235 131 189 238 98 100 113 239 103 103 239 64 107 203 235 111 113 202 76 118 200 200 84 142 199 129 93 139 198 121 203 136 135 113 197 196 134 201 193 134 101 198 132 134 195 189 185 134 190 145 195 187 186 150 203 197 153 154 119 198 156 211 118 134 157 118 201 133 119 118 133 47 119 119 132 178 214 130 130 178 212 129 178 178 160 127 178 163 165 178 178 170 172 178 176 179 138 178 185 186 143 116 190 147 148 114 192 152 113 113 155 156 116 178 159 121 123 177 162 131 177 177 139 142 177 177 169 177 177 166 165 179 163 162 163 186 161 160 163 159 159 163 163 159 159 164 148 148 164 164 148 148 164 148 148 223 164 148 221 221 186 148 217 216 148 16 211 165 148 205 202 156 166 192 145 142 167 144 130 169 170 135 117 172 146 128 107 175 145 100 105 134 142 104 181 138 135 39 128 126 32 31 138 30 29 85 160 31 27 84
194 92 131 188 188 144 124 187 186 118 76 185 117 108 183 216 120 79 182 122 122 80 217 124 87 82 217 125 87 65 216 202 88 58 201 201 218 54 201 92 52 91 198 232 53 163 192 238 96 159 240 240 100 156 132 103 104 204 133 108 203 202 152 114 201 134 141 200 199 134 183 199 198 125 203 104 119 117 197 147 112 193 192 158 105 190 166 169 188 188 177 180 187 185 188 196 186 195 198 196 76 203 196 196 69 119 198 63 61 199 199 56 193 201 51 49 199 203 45 204 206 132 39 211 199 198 178 210 193 192 178 162 189 217 177 186 185 220 173 183 223 224 180 182 226 26 26 144 227 25 104 150 113 24 99 219 113 178 96 116 23 177 96 124 177 98 177 136 177 173 182 164 177 168 184 107 165 164 164 123 162 161 164 151 160 164 164 149 159 164 149 148 164 164 148 225 226 148 148 225 192 148 223 223 165 148 220 219 167 217 216 166 165 210 162 160 166 201 151 147 166 148 136 168 169 147 122 171 147 146 173 173 146 146 176 145 144 74 179 141 53 48 90 133 36 34 87 31 30 85 85 28 28 84 184 27
140 141 195 91 144 75 195 148 149 76 89 155 77 77 88 163 78 218 217 89 80 218 200 78 178 217 201 83 175 126 202 173 215 128 202 170 128 201 90 167 129 93 233 53 131 97 238 96 102 104 58 99 111 114 64 154 124 68 69 150 139 76 148 201 81 84 145 134 136 142 141 135 127 139 135 135 198 135 134 134 202 134 135 203 202 135 202 201 141 143 199 198 149 124 194 155 156 122 190 160 121 120 162 163 120 119 165 119 119 134 165 119 134 134 180 119 133 133 179 132 132 178 178 131 131 178 161 130 178 178 163 31 178 165 166 178 178 170 133 134 176 178 138 140 184 142 144 116 190 148 149 114 180 153 113 113 156 215 115 178 177 119 121 177 181 129 177 177 175 140 176 170 169 20 177 166 165 19 126 162 164 184 142 190 164 150 159 193 164 149 193 164 183 148 188 164 148 17 177 190 148 224 188 187 16 221 183 182 17 184 166 17 18 174 161 18 165 152 119 19 152 115 167 144 142 111 169 135 109 109 154 128 107 106 142 21 105 134 131 23 104 127 25 26 126 127 28 112 134 29 31 110 153 31 108 107
195 195 143 128 195 147 148 76 196 153 77 77 159 161 78 78 168 79 80 218 218 81 81 218 200 82 217 217 202 174 216 202 202 171 215 202 223 213 201 201 231 212 198 236 237 94 192 239 240 97 105 240 100 100 116 67 104 203 233 74 109 202 80 113 146 200 140 119 199 134 131 140 197 125 193 137 135 118 191 133 135 203 188 135 135 204 185 135 203 202 150 174 199 183 158 123 194 162 192 121 165 167 120 195 169 169 120 134 170 119 119 134 169 119 134 134 180 120 133 179 179 132 132 178 205 131 178 178 164 129 178 178 165 178 178 168 170 133 178 174 136 137 180 182 141 119 188 145 147 115 193 151 113 113 155 155 113 113 159 115 116 177 177 122 177 177 178 134 177 176 172 176 176 168 167 177 177 164 165 179 161 161 164 188 159 164 164 150 159 164 149 149 165 164 148 148 165 148 148 225 165 148 148 222 184 148 221 220 165 18 217 164 163 19 211 156 165 205 159 144 166 192 132 113 168 139 119 170 171 131 108 173 146 146 106 139 144 76 104 129 140 49 126 125 26 35 127 119 29 111 139 31 28 84 31 31
89 188 110 110 89 112 113 88 88 114 116 87 107 104 86 86 95 181 86 86 83 179 86 75 177 176 69 66 174 174 61 172 172 128 128 169 129 129 89 166 129 130 92 130 131 96 97 131 131 102 62 132 109 112 68 132 121 73 75 150 136 81 147 146 88 90 144 143 98 141 140 135 108 138 137 135 135 134 135 135 203 194 135 206 206 193 135 205 151 135 96 202 159 135 200 182 165 83 195 169 170 76 182 172 120 120 182 208 120 134 183 212 120 134 213 213 200 133 211 121 132 40 207 205 132 178 208 209 33 178 166 213 29 194 168 28 27 169 173 26 148 142 183 25 127 186 182 115 112 181 150 227 181 181 224 112 180 180 213 24 180 194 185 23 181 154 22 22 126 119 21 107 108 21 21 117 119 20 127 131 188 19 143 148 191 194 161 193 193 173 177 192 179 185 189 187 185 159 179 187 187 17 165 185 17 18 165 179 18 18 165 148 19 175 171 20 209 162 148 20 152 149 114 186 142 112 111 161 133 109 151 129 102 107 141 122 95 178 131 92 104 181 136 88 182 126 123 29 183 110 31 28 183 91 31 108
108 195 146 75 111 88 152 77 87 87 111 77 219 165 79 181 219 91 80 219 219 79 178 219 202 70 175 126 203 173 172 127 203 170 128 128 88 229 129 200 90 56 130 93 239 58 131 98 61 97 104 106 67 154 114 72 74 151 203 80 149 148 134 88 145 144 134 142 141 135 135 139 135 135 191 136 135 135 201 135 135 205 206 143 135 207 151 153 207 206 160 162 205 165 167 124 201 171 122 122 175 176 121 121 177 121 120 135 135 120 120 135 184 120 135 134 181 134 134 180 180 133 132 179 170 132 178 178 168 168 178 168 168 129 178 170 171 133 165 175 137 138 180 183 142 119 188 146 148 116 181 152 113 113 178 156 112 178 178 210 115 177 186 121 23 176 179 132 176 104 172 22 176 168 167 21 120 164 166 166 136 161 165 152 153 191 165 150 193 193 174 149 192 165 182 18 185 185 148 18 224 185 18 223 194 181 18 189 164 19 19 180 160 20 172 168 123 21 159 156 117 150 147 114 113 158 137 110 154 146 108 108 146 21 106 138 136 22 105 129 24 24 125 124 26 27 126 28 29 110 110 31 108 108 102 31
88 88 110 87 87 121 113 87 87 112 197 86 103 101 86 173 92 180 85 84 81 178 193 74 176 175 125 65 173 126 126 86 171 128 86 168 214 129 88 165 129 198 91 210 131 95 96 208 187 101 66 67 177 109 72 152 166 228 80 149 220 217 110 145 208 97 115 198 199 120 140 196 135 126 196 135 120 134 194 115 204 193 193 109 208 193 104 102 181 192 97 95 181 92 90 181 174 180 82 180 188 122 180 180 196 193 180 202 205 195 181 208 196 196 211 212 198 199 212 200 201 40 39 203 36 35 196 207 32 31 202 130 29 197 194 27 26 177 187 26 156 149 184 184 132 182 182 227 116 182 228 227 195 181 226 224 194 160 216 24 180 163 191 23 165 160 128 23 102 138 22 176 109 147 21 117 185 151 176 132 187 152 182 160 191 191 163 158 193 208 157 193 165 178 158 165 183 148 159 165 184 18 165 165 148 19 165 165 148 220 165 148 148 216 155 148 212 210 142 148 202 131 127 191 186 117 111 168 109 106 171 136 100 98 175 95 93 177 178 141 179 180 136 134 181 181 124 32 181 111 105 29 181 91 27 27
216 216 196 186 217 196 197 219 219 197 164 220 198 198 173 176 200 181 184 81 201 193 82 82 84 204 83 83 85 62 85 216 223 58 87 214 57 89 165 212 200 163 210 195 194 160 209 188 240 157 132 179 235 205 132 114 228 133 159 127 217 134 139 208 98 113 157 106 117 140 175 117 123 195 126 130 134 194 139 142 132 135 150 130 129 136 210 128 136 136 211 125 136 209 209 136 136 207 180 136 203 203 185 136 199 198 186 194 193 186 186 121 185 185 122 122 183 182 122 134 179 123 124 133 176 126 133 132 127 128 131 178 130 129 129 178 178 127 178 178 177 124 178 178 184 178 178 190 191 178 178 195 154 178 195 196 159 112 193 162 163 115 186 165 121 124 166 167 134 136 168 142 144 175 168 149 176 176 114 152 177 179 160 20 186 159 158 20 202 158 165 213 185 157 165 221 158 165 165 197 159 165 148 195 158 165 148 148 144 173 148 219 164 168 148 215 164 148 22 207 161 22 198 144 157 22 178 110 110 21 129 101 173 21 123 106 176 120 119 104 179 116 104 103 123 113 102 125 127 102 102 135 96 31 150 157
196 75 217 196 86 219 219 197 85 220 198 198 171 221 199 200 181 80 201 190 193 82 202 201 83 83 210 212 84 217 220 86 86 215 229 88 214 213 202 90 212 211 197 210 209 192 190 208 185 183 237 205 176 173 230 132 164 222 219 133 153 210 109 110 146 200 114 115 193 115 119 196 188 123 136 194 137 130 193 193 149 131 192 109 160 129 191 103 180 190 136 96 180 136 91 212 179 136 83 179 187 136 205 179 189 136 200 190 197 196 195 189 205 194 188 187 123 197 185 124 124 134 181 125 202 133 127 127 132 30 129 130 131 178 195 129 128 178 175 126 178 178 181 123 178 186 188 178 178 193 194 178 195 196 157 178 195 194 161 113 191 165 165 118 167 167 126 129 168 168 139 175 168 146 148 175 168 152 175 176 153 153 179 160 159 188 193 158 158 205 157 157 166 217 158 158 166 158 158 166 166 159 160 165 148 148 165 165 148 220 165 148 148 218 164 148 214 213 162 148 206 203 147 23 192 114 147 175 133 103 171 142 98 96 174 122 92 176 177 118 88 179 137 86 103 180 125 84 180 128 107 102 180 92 31 27
187 218 123 122 185 112 197 184 184 115 85 182 117 118 84 180 120 84 84 122 122 84 201 124 83 84 66 126 83 84 61 170 84 59 59 167 59 59 165 163 60 61 161 131 64 159 158 131 69 156 132 132 104 153 132 112 114 133 133 124 128 134 136 140 104 135 153 158 116 166 170 125 128 182 186 138 134 134 148 151 132 136 159 130 129 136 169 128 136 136 153 126 136 137 125 137 137 215 124 136 212 211 192 137 208 207 193 65 202 194 193 57 197 192 124 192 179 189 124 186 186 210 126 181 182 127 203 133 205 129 132 131 199 211 130 178 192 215 128 178 219 220 24 178 223 24 24 125 191 24 178 112 181 24 106 196 181 24 100 180 164 99 99 181 167 100 181 181 136 104 182 115 111 23 184 107 150 22 113 117 22 177 134 139 21 160 156 21 21 178 21 20 187 190 21 20 195 184 181 198 198 171 167 197 159 155 176 191 144 141 170 156 133 166 165 126 164 162 24 24 159 158 24 144 156 23 23 134 151 22 129 127 146 22 123 106 144 84 119 104 25 52 86 103 123 113 84 102 125 83 102 179 135 82 102 151
196 75 219 197 197 184 221 198 166 168 116 199 175 178 200 84 186 81 202 195 198 82 84 206 83 83 84 64 85 217 217 61 87 215 204 60 166 213 201 90 162 130 196 160 209 131 189 157 131 182 99 154 132 105 225 101 133 116 213 105 126 130 102 109 142 195 114 141 160 123 117 138 133 136 136 193 146 149 133 136 114 131 131 136 109 129 136 136 215 127 137 137 217 137 137 218 218 137 217 217 194 195 215 214 196 124 211 196 196 124 205 196 125 124 195 194 125 135 192 126 126 135 187 128 134 134 182 129 133 133 180 132 131 179 178 130 129 178 176 128 178 178 180 178 178 186 188 178 178 193 152 153 196 197 157 159 196 161 163 112 192 165 115 117 181 168 124 128 169 129 137 175 175 145 147 174 165 151 174 175 161 154 178 159 159 22 189 158 166 21 182 157 166 215 193 189 165 148 158 178 166 148 167 166 148 148 152 174 148 220 138 168 148 219 164 163 25 215 160 148 25 149 120 24 197 139 108 23 132 101 108 23 125 107 173 122 120 105 177 118 104 104 125 114 103 103 123 29 102 126 128 30 134 138 31 31
186 186 110 185 184 112 113 183 182 115 84 181 117 118 83 119 120 83 84 122 122 83 72 70 83 83 65 64 83 62 61 169 84 60 167 166 237 61 164 163 63 91 161 131 131 158 157 131 95 155 132 132 102 152 132 109 112 201 133 121 99 199 146 136 111 135 137 189 123 139 166 134 137 137 183 147 134 133 181 128 131 136 180 134 130 136 139 140 189 137 146 126 188 94 220 188 137 86 220 188 80 220 178 189 72 178 200 66 64 178 199 58 178 178 198 126 178 178 204 195 178 208 208 199 209 209 201 202 207 205 206 28 202 210 210 25 195 214 24 24 173 219 23 23 146 23 23 130 125 23 118 115 182 24 107 106 181 177 102 181 181 177 100 181 186 175 182 181 141 24 182 117 113 24 184 107 24 23 169 116 23 23 168 153 22 162 167 152 22 179 194 22 211 191 191 218 197 158 182 221 199 172 165 221 159 156 175 221 158 165 169 25 152 164 148 26 164 164 148 26 165 147 147 203 166 147 24 184 146 146 161 127 146 146 121 91 106 88 78 87 177 54 85 84 178 37 83 178 178 82 82 178 132 82 177 176
108 122 185 111 112 184 183 114 199 182 116 117 83 180 119 119 83 121 121 83 83 73 83 83 67 66 83 83 63 170 84 62 61 167 85 62 165 164 63 63 162 130 67 160 158 131 131 156 132 132 97 153 132 132 105 133 133 114 117 134 134 127 108 135 138 143 121 134 155 131 134 138 172 144 136 135 154 157 133 132 166 131 131 136 177 129 137 137 139 128 137 137 220 187 137 222 223 187 137 223 200 137 77 223 202 137 220 202 202 62 216 202 127 54 177 200 128 128 177 202 129 136 193 206 130 135 207 132 202 134 205 206 133 27 199 211 131 179 215 216 23 178 181 221 23 143 188 23 23 123 194 24 113 111 181 24 105 181 181 102 101 181 167 198 181 181 167 126 182 182 125 25 183 110 108 24 108 110 24 24 121 126 23 154 144 23 23 172 157 23 184 187 193 22 194 196 187 219 199 179 176 200 168 165 177 196 153 149 172 156 140 167 165 26 128 162 27 27 164 158 27 149 156 147 25 139 152 25 181 130 146 24 125 124 107 112 120 105 105 70 116 104 125 44 84 103 123 82 82 178 126 82 102 177 89 82
75 185 159 76 184 222 168 77 182 116 78 79 223 118 83 80 223 203 83 222 221 204 82 221 206 206 221 219 206 228 230 206 206 235 62 88 239 240 90 162 241 241 92 209 240 94 94 206 96 97 205 204 99 100 202 162 102 200 200 151 121 198 144 142 190 196 136 134 185 130 129 183 182 124 181 181 121 119 180 180 125 200 179 129 130 188 178 135 187 187 193 141 187 94 146 127 187 87 153 187 138 79 127 186 73 71 178 137 65 178 178 138 57 178 188 137 212 177 196 206 203 197 203 196 177 192 133 189 188 206 135 204 182 136 209 25 179 139 130 23 141 143 127 22 146 124 124 178 151 120 23 178 117 116 177 108 198 113 177 196 181 177 176 188 169 176 182 180 171 175 174 171 171 169 168 171 170 151 169 170 153 154 168 154 154 182 168 153 152 197 151 150 209 212 149 149 217 157 148 219 220 157 158 220 158 158 165 221 155 164 164 151 149 164 164 140 164 164 148 126 164 165 147 165 166 147 147 190 146 146 169 159 146 146 127 89 144 92 81 86 141 55 84 84 27 38 82 82 177 109 82 177 176 82 102 175
83 160 76 77 84 110 77 223 84 100 181 223 92 89 179 223 82 177 176 122 73 174 221 124 173 172 125 207 83 169 127 83 235 128 128 84 64 129 86 86 68 130 88 72 73 90 91 78 80 154 84 86 151 151 93 149 148 133 103 146 145 134 143 143 134 134 141 140 135 155 138 135 136 171 175 136 182 186 169 136 196 177 180 204 206 186 189 213 193 194 128 219 198 200 128 202 203 127 127 138 128 128 138 137 128 128 138 228 129 138 138 225 130 138 221 220 190 137 214 213 201 41 205 198 196 198 176 192 135 189 187 186 137 179 182 139 140 184 180 142 129 175 189 146 126 178 185 225 122 178 154 119 24 177 228 114 177 177 224 25 177 193 210 26 176 184 26 26 104 176 171 109 111 183 171 120 165 186 112 136 188 169 131 155 191 150 154 193 194 166 24 204 172 173 24 215 175 24 24 201 177 25 25 199 26 26 194 193 28 28 185 137 29 175 172 127 160 162 121 119 156 149 116 154 153 113 112 150 149 110 147 145 24 107 140 24 25 174 133 25 26 115 138 27 113 111 29 29 110 103 30 108 108 102 31 106
75 76 163 77 77 223 224 78 224 224 201 79 224 224 203 177 223 204 205 222 222 206 216 221 206 207 225 85 207 231 233 87 206 237 88 88 84 241 90 91 86 70 92 208 238 94 156 206 82 97 204 203 168 150 202 159 157 147 199 149 194 144 134 139 187 195 135 144 183 135 128 161 153 136 172 180 166 119 187 176 122 131 199 186 126 187 192 194 129 186 198 128 129 137 203 129 128 138 227 129 138 138 230 129 138 230 178 138 138 230 177 138 229 228 208 138 224 206 205 219 217 202 201 135 199 198 136 136 193 191 138 135 186 139 139 133 141 141 131 131 144 145 129 179 147 126 125 178 178 122 178 177 197 117 177 177 199 177 177 197 195 176 192 190 170 176 183 181 172 131 175 172 172 143 167 171 149 151 170 170 154 172 169 154 154 179 168 153 191 195 168 151 206 209 156 25 215 157 156 218 219 157 166 220 156 156 165 193 154 164 164 182 145 164 148 168 125 164 148 147 118 155 147 211 165 152 27 196 149 146 26 166 144 25 133 121 138 25 85 85 104 27 114 83 176 28 111 102 176 109 108 102 128 107 103 103
83 83 115 111 83 107 105 83 83 97 95 83 89 87 177 82 80 78 176 122 72 173 172 124 67 171 125 126 169 168 127 83 166 128 128 84 163 129 85 85 71 130 87 87 77 186 90 82 84 175 221 91 151 100 98 100 147 199 109 145 144 190 122 142 134 135 108 139 135 135 111 191 136 166 135 190 119 181 189 137 115 194 187 111 203 178 186 105 212 200 130 99 178 204 129 178 178 139 129 178 178 144 184 178 149 152 185 178 157 185 185 61 166 186 139 230 188 188 48 225 190 43 42 176 194 37 35 176 32 31 174 174 28 27 175 200 199 178 179 195 214 177 191 190 220 155 186 224 225 184 184 227 228 182 228 228 25 182 226 224 26 102 213 27 27 102 121 27 105 106 133 27 111 183 27 173 124 185 26 137 161 188 131 156 191 169 154 157 194 166 168 156 167 173 25 156 166 175 26 166 166 148 27 165 176 148 220 193 148 30 185 146 148 222 172 127 148 221 123 120 219 217 110 115 211 102 100 167 193 94 169 169 146 89 171 140 144 173 174 142 26 175 175 137 42 176 129 125 33 175 112 29 29 81 91 28
118 76 83 111 109 182 83 101 78 224 93 91 179 224 84 81 176 121 206 174 174 122 82 171 124 124 82 169 126 83 83 127 128 84 240 129 84 84 70 130 86 74 75 157 88 80 82 154 86 88 152 151 95 98 148 133 106 146 146 134 118 143 134 134 129 140 135 140 144 136 136 156 159 136 167 171 174 136 182 185 185 192 194 192 194 202 198 199 130 130 203 204 130 138 208 130 130 138 210 131 138 138 132 132 139 139 132 139 139 234 134 139 234 234 211 139 233 232 210 47 228 207 206 41 220 202 140 212 175 196 141 174 191 201 142 174 185 144 210 132 194 146 130 129 189 221 126 178 186 226 122 178 228 228 23 177 229 25 25 105 196 26 177 191 182 27 104 181 173 27 108 183 172 115 118 184 109 128 186 187 119 147 189 136 143 27 193 159 153 27 169 171 26 206 174 175 27 201 175 28 28 202 29 29 199 197 31 31 191 144 140 182 178 132 130 168 125 123 158 155 119 155 154 105 114 152 151 111 167 148 27 27 145 144 26 120 138 26 26 116 131 27 114 113 135 29 111 103 122 31 108 103 31 29 81 102
199 83 112 200 83 177 102 180 83 94 79 179 196 85 177 176 206 81 174 122 217 83 172 124 84 170 219 126 86 217 127 207 83 215 128 84 241 212 200 85 74 209 191 235 81 184 181 225 96 172 215 212 98 160 202 100 101 199 193 103 143 196 104 105 194 135 107 108 192 127 110 190 190 122 189 189 119 118 178 187 114 178 178 110 110 178 178 105 178 178 124 100 178 127 128 220 178 131 131 178 212 135 182 182 139 141 182 72 146 183 183 64 154 185 58 56 139 186 51 177 188 139 43 176 192 39 222 175 194 33 174 174 199 199 172 199 199 189 184 195 213 182 183 191 219 185 187 154 224 192 184 158 121 23 162 228 116 25 166 113 26 177 170 115 176 103 119 122 175 107 132 173 173 169 184 172 171 164 172 171 161 160 170 159 159 169 154 157 157 168 152 156 168 167 150 156 167 149 149 215 166 148 148 218 148 148 220 220 148 221 222 143 148 223 223 130 223 222 119 116 221 220 106 164 164 99 97 166 146 92 168 169 146 88 170 145 145 172 173 142 141 174 139 137 43 40 130 127 33 81 114 30 29 81 32 28
167 225 200 200 177 113 202 184 187 116 83 195 80 118 83 206 81 82 82 72 83 221 224 68 170 219 66 86 167 217 67 165 215 128 69 162 129 201 160 159 130 193 157 131 131 88 226 132 132 92 96 133 96 203 106 101 103 114 102 110 113 128 142 122 139 143 139 136 154 137 137 136 168 135 135 136 134 134 137 137 132 137 137 191 132 137 137 202 138 138 208 211 209 138 216 211 212 221 222 213 134 226 214 214 135 231 215 136 137 215 215 138 139 215 139 140 140 140 141 141 139 235 142 139 139 230 139 139 222 219 138 138 209 193 136 199 196 187 134 188 184 183 150 182 184 152 153 151 189 156 158 195 183 161 119 200 164 166 114 181 169 113 114 182 172 117 176 175 163 128 174 174 122 28 172 166 148 28 133 162 28 170 153 159 28 168 157 194 169 185 195 168 151 197 193 167 149 187 185 175 149 175 166 176 32 159 175 148 34 144 169 35 222 175 163 36 164 121 36 36 151 108 34 142 140 113 31 133 131 110 127 125 108 107 121 107 106 138 137 105 105 131 28 104 126 125 30 103 124 31 31 125 126 32 32 133
199 200 174 226 201 181 184 203 203 192 194 205 200 203 81 206 211 213 82 82 221 84 84 221 67 85 219 218 86 86 216 208 88 215 214 203 90 212 198 196 158 209 189 232 155 131 178 220 217 133 93 206 98 157 99 196 100 105 189 125 102 114 135 104 140 127 150 106 191 136 165 136 189 120 178 134 137 116 133 133 137 112 132 137 137 194 132 138 201 178 138 138 210 178 122 215 217 213 124 221 223 215 136 227 216 216 138 216 216 140 140 216 216 141 140 216 143 143 140 53 144 140 140 236 145 140 139 230 139 139 223 219 138 213 209 192 136 198 195 186 150 187 184 184 152 181 187 155 156 191 193 159 122 198 163 164 117 200 168 114 114 170 171 115 115 176 119 121 175 174 131 134 173 170 143 171 171 164 29 169 161 160 170 171 159 170 178 157 157 168 168 156 168 168 151 155 167 149 149 182 166 148 148 168 176 148 219 164 173 148 222 140 148 37 224 126 148 224 157 112 36 222 104 115 34 136 95 165 31 129 109 168 124 122 107 170 145 106 172 136 142 104 130 137 30 103 126 127 33 124 125 31 29 128 129 32
183 182 109 111 181 112 113 83 179 115 116 82 83 118 83 83 75 121 83 71 71 83 82 68 169 82 67 67 166 82 68 164 163 70 71 161 161 129 159 158 130 131 156 155 131 88 153 132 133 91 202 133 94 97 134 134 102 120 134 108 111 135 138 119 146 149 139 131 161 137 137 179 175 135 135 178 111 134 137 193 113 133 137 186 132 182 138 196 133 138 101 205 180 139 210 214 180 90 217 216 179 85 178 217 80 227 178 217 140 178 217 133 142 177 139 144 182 177 148 146 141 156 160 187 141 169 173 192 39 182 195 196 33 220 201 28 27 169 207 24 169 169 23 22 169 186 21 155 150 186 22 133 128 184 229 117 183 182 229 182 182 224 220 182 182 202 28 182 169 157 29 183 126 30 30 173 110 30 30 139 153 30 155 160 30 174 175 194 30 187 190 195 198 198 193 192 209 203 185 175 203 154 171 176 35 160 164 175 37 145 171 148 39 162 164 39 39 162 147 38 150 163 147 36 139 113 146 210 130 110 194 186 87 108 155 120 84 171 101 83 105 172 58 81 172 127 81 81 171 120 31 171 170 101 32 169
108 201 178 111 203 83 189 114 204 196 87 117 83 207 81 81 82 74 83 222 82 69 170 220 68 68 168 218 68 165 164 127 71 162 214 129 160 159 129 194 85 130 131 86 225 132 132 89 97 133 92 93 108 133 97 117 120 103 105 131 134 141 141 145 140 192 157 138 138 136 171 136 136 137 135 135 137 137 134 133 137 177 133 138 138 187 207 138 195 197 211 139 204 214 215 209 211 216 216 216 217 217 139 222 218 218 141 218 218 143 144 141 145 145 142 142 147 147 142 237 149 142 141 239 150 141 238 237 192 140 233 203 201 32 222 195 193 211 190 188 153 196 185 185 155 166 187 157 158 146 193 161 124 198 183 165 119 177 168 228 115 176 172 115 28 175 195 121 174 174 147 30 172 170 115 31 127 164 31 31 145 160 171 161 166 193 170 180 157 195 170 194 195 168 175 201 191 176 149 183 179 176 36 216 176 176 38 219 174 39 40 181 168 41 224 167 41 40 157 109 39 147 144 116 36 136 134 111 151 128 110 109 148 122 107 144 143 106 106 138 136 104 132 131 30 104 126 31 31 171 125 32 32 106 97 32
77 181 109 83 83 112 113 83 83 115 83 83 81 118 83 82 74 210 82 71 70 211 82 68 168 82 237 69 165 126 70 88 163 128 74 160 212 129 91 157 130 130 93 207 131 87 95 204 165 90 202 201 153 95 116 144 142 187 130 135 109 183 103 128 181 156 105 123 179 106 136 179 178 107 186 137 109 109 184 137 110 183 182 108 111 181 138 103 180 179 100 198 179 96 95 178 178 91 90 178 115 86 178 178 117 81 178 119 120 178 178 123 124 177 127 129 181 177 134 182 183 216 145 185 187 50 152 190 44 42 194 195 37 173 199 32 30 168 137 26 165 165 135 23 166 190 189 185 154 186 185 180 196 184 229 120 201 183 229 201 182 172 222 195 174 206 29 185 175 162 31 112 175 139 31 124 111 149 168 140 153 32 168 159 156 173 176 157 155 185 156 196 196 200 155 192 176 154 154 166 176 152 152 165 148 149 164 163 148 163 163 148 148 162 162 148 226 226 147 147 226 146 147 223 222 93 146 214 89 88 200 192 85 85 162 83 83 170 107 82 81 171 140 81 171 171 132 81 170 121 118 169 169 103 28 167
108 109 180 180 111 83 83 114 115 84 85 117 83 83 77 119 83 73 72 83 82 69 69 83 69 68 166 82 70 70 163 127 73 161 160 129 90 158 130 130 156 155 131 86 153 132 132 88 150 133 91 92 113 134 96 122 126 137 103 137 140 110 181 152 140 121 163 166 137 179 177 136 136 178 189 135 137 137 108 134 138 171 109 181 138 181 134 179 101 190 179 139 97 199 177 93 204 178 177 89 178 219 113 84 178 219 145 178 178 117 148 178 178 120 179 177 125 152 181 177 132 183 142 58 144 187 52 239 190 191 43 237 195 37 35 171 201 30 29 166 27 25 163 164 23 165 163 188 188 150 144 185 227 129 184 184 230 116 183 229 227 183 182 219 214 182 199 189 31 183 152 31 31 117 117 32 32 132 151 33 146 151 155 33 167 193 33 177 185 196 188 195 155 195 176 203 191 167 176 153 180 177 177 150 165 177 41 144 163 174 43 162 169 148 44 161 147 43 227 152 147 41 143 96 147 221 133 112 146 208 86 109 187 177 84 169 140 82 82 170 84 81 170 170 137 81 170 128 126 169 168 114 32 167 167 94
77 77 227 110 78 227 227 206 79 226 226 208 225 225 210 210 224 211 212 228 229 212 212 235 85 212 238 240 87 209 241 89 89 241 241 90 91 237 92 92 208 228 94 206 205 171 95 203 202 157 148 200 148 145 145 197 137 185 195 135 128 182 135 124 180 180 104 119 179 105 106 138 178 106 106 150 196 107 183 178 204 108 181 208 108 134 179 213 135 178 140 97 137 177 94 199 139 141 89 178 142 141 210 178 142 142 216 220 142 220 221 220 143 226 220 220 154 231 219 124 156 218 218 157 185 215 215 157 142 211 157 157 141 157 157 140 140 228 157 138 218 213 136 136 201 163 132 191 189 190 128 183 195 198 180 180 201 202 178 202 201 172 173 196 194 175 118 185 176 176 129 175 176 138 141 175 174 149 168 173 153 154 167 171 156 172 174 157 156 183 187 155 194 197 154 154 205 153 153 166 211 151 150 165 199 146 164 164 148 137 162 148 148 133 161 147 147 161 147 147 228 162 147 226 224 155 146 218 214 152 34 198 84 84 32 157 82 169 114 114 81 170 112 80 104 169 109 80 169 127 106 103 167 105 105 104
180 84 100 98 179 93 91 177 176 115 82 175 118 118 173 173 120 212 170 122 122 82 168 124 82 82 125 126 83 83 127 83 83 77 78 83 83 83 156 84 88 90 153 85 96 151 151 103 106 149 133 114 146 146 134 128 144 134 134 104 141 135 135 113 136 136 121 124 137 129 133 185 137 142 145 196 110 153 202 204 134 165 208 135 135 212 213 136 136 215 137 137 140 217 139 141 141 107 142 141 141 107 175 142 209 210 175 143 215 220 143 77 220 221 74 225 177 220 70 230 219 122 65 176 217 159 58 176 144 160 143 175 161 159 141 174 177 201 139 186 207 208 27 189 214 134 199 219 221 23 187 193 227 23 128 200 24 25 115 183 27 110 109 183 30 107 183 183 109 110 183 176 116 184 185 116 146 187 187 116 35 190 130 137 35 150 157 35 36 170 173 37 199 177 38 38 204 178 39 205 204 177 42 201 165 161 217 192 149 146 183 128 136 169 168 129 127 162 105 121 159 158 44 116 156 41 40 164 153 36 125 166 146 33 119 148 145 132 115 143 32 113 111 138 51 109 104 104 35 81 103 128 30 81 104 131
103 77 228 205 79 177 227 208 80 226 116 210 216 225 212 212 224 121 213 230 232 122 83 237 86 125 82 241 88 83 83 76 89 213 239 80 158 210 86 93 208 131 93 152 205 165 103 150 133 151 148 147 134 139 145 134 134 99 183 135 105 107 157 136 114 179 172 122 125 181 104 134 137 193 135 146 200 202 135 157 207 135 135 139 212 136 139 139 137 137 140 140 139 141 141 191 142 141 141 197 142 142 202 204 221 207 208 221 221 213 214 221 156 218 221 221 159 225 220 160 160 219 219 161 161 217 162 162 144 144 162 144 143 240 161 142 141 236 140 139 228 225 138 137 213 187 134 200 197 190 23 189 195 197 167 182 201 170 171 114 202 174 174 197 183 176 118 186 177 177 128 184 176 138 141 186 114 148 167 167 120 154 167 159 144 36 173 157 156 37 194 155 38 195 155 193 40 205 153 166 165 203 173 164 148 197 157 163 148 146 143 173 148 133 160 167 49 124 162 147 47 159 158 44 226 134 156 40 129 85 37 36 122 83 34 118 117 106 32 114 105 104 111 110 104 104 108 103 104 129 129 104 103 129 32 104
180 179 97 178 177 112 88 176 176 115 175 174 118 118 172 172 120 83 170 122 122 83 167 124 83 83 72 126 82 75 76 205 83 79 80 83 235 86 156 84 91 93 153 214 100 151 150 133 96 148 133 134 98 145 134 96 143 194 135 103 141 136 119 111 189 136 119 179 187 112 129 190 193 110 178 200 135 106 178 207 135 178 178 104 136 178 215 104 177 178 103 139 175 103 103 174 141 89 102 174 87 197 174 174 84 202 174 81 80 178 174 78 178 178 76 75 177 177 107 177 177 111 164 177 176 120 184 176 130 133 189 175 147 193 194 162 167 200 39 178 205 207 31 29 213 26 26 159 220 24 24 147 128 24 131 127 25 181 117 183 28 112 110 183 177 108 183 183 187 111 184 150 139 171 186 118 115 164 174 117 37 190 172 156 38 171 158 157 38 169 155 39 191 202 152 41 205 152 150 206 204 177 211 212 145 161 216 218 135 162 222 124 121 161 169 110 160 164 147 99 160 160 47 161 161 146 42 163 146 146 210 164 146 145 178 145 144 140 126 81 142 84 81 80 54 48 81 167 36 81 81 165 30 81 163 163
100 98 178 228 91 177 176 113 83 175 116 116 173 172 119 119 170 121 121 83 168 123 123 83 72 125 83 83 74 127 83 78 79 83 83 83 156 84 89 91 154 85 97 152 151 104 107 149 148 133 146 146 134 134 144 135 135 98 142 135 135 106 190 136 113 115 137 137 123 186 137 131 133 197 199 142 203 205 135 153 209 135 136 178 214 137 137 178 103 139 141 218 141 142 141 184 144 142 142 190 173 143 194 195 173 143 199 222 173 80 205 222 145 78 177 221 76 216 177 221 165 177 220 110 166 176 116 166 185 176 131 165 145 145 151 195 143 166 170 202 37 180 208 210 29 156 216 26 26 156 223 25 142 137 25 25 125 203 27 116 114 183 30 110 109 183 209 109 183 184 165 185 185 131 124 186 186 115 38 188 121 125 39 192 145 39 39 164 169 40 195 198 41 42 204 204 43 206 205 184 46 204 202 169 213 196 157 154 219 185 143 175 174 115 132 168 52 125 160 163 50 118 160 146 46 161 157 42 41 163 146 38 121 166 145 170 117 106 144 115 112 105 75 65 80 104 44 108 81 165 33 81 104 130 29 80
78 207 196 92 177 204 206 81 175 214 216 82 225 223 83 83 224 214 84 222 222 214 86 220 213 83 217 217 208 83 215 202 200 238 212 191 189 229 93 178 220 216 94 209 206 96 96 197 195 97 199 189 98 99 196 183 100 193 193 101 101 190 115 113 188 188 111 110 186 109 108 178 183 106 106 178 138 104 178 178 139 101 178 102 99 164 178 102 175 178 218 100 174 178 100 145 173 221 99 172 172 221 152 172 83 222 156 144 81 178 160 145 78 178 146 146 210 177 147 74 177 221 147 223 176 108 147 231 218 120 236 237 213 167 193 208 206 166 200 199 165 165 140 191 165 214 137 166 166 133 25 168 130 129 191 170 125 124 184 204 120 180 180 199 117 178 191 188 175 174 179 176 172 172 169 176 169 165 174 174 153 160 173 172 156 171 170 157 157 169 169 155 190 168 153 152 200 151 150 205 206 149 148 211 142 140 215 217 131 127 222 120 117 160 227 106 103 159 98 96 160 160 91 160 161 146 86 162 162 146 214 164 145 145 184 166 144 147 133 149 142 91 80 139 34 51 80 131 37 107 81 164 31 80 80 161
98 95 178 110 89 176 175 113 81 174 116 116 172 172 119 83 83 121 121 83 83 123 83 83 73 125 83 83 77 205 83 80 82 195 235 86 156 83 224 94 152 131 100 95 150 133 110 148 201 133 98 145 134 127 99 195 135 98 101 192 115 104 189 189 111 113 181 108 120 178 193 106 131 200 103 103 178 207 136 178 178 102 137 178 178 101 175 141 100 100 174 141 99 173 173 89 98 172 87 86 172 171 85 187 171 82 82 178 172 80 80 178 95 78 177 177 95 76 177 96 98 177 177 100 179 176 106 108 184 176 117 188 190 213 136 193 196 52 167 201 44 41 207 141 34 155 215 29 29 155 133 26 145 141 128 26 127 184 184 184 115 183 184 111 197 183 211 110 184 178 170 176 185 135 127 168 176 116 40 162 174 127 41 167 172 157 42 186 157 156 183 199 155 45 194 153 152 200 205 150 150 207 146 170 212 213 136 154 180 125 122 160 176 111 159 160 147 99 159 159 147 160 160 146 146 161 161 146 223 125 146 146 204 81 145 176 164 80 144 123 80 80 82 70 80 80 46 81 81 164 33 81 80 162 105 79
78 208 200 79 80 85 210 81 81 227 77 82 225 225 84 170 224 216 85 222 221 215 165 220 212 211 162 217 206 241 239 127 196 235 234 187 84 226 93 171 215 100 95 85 202 96 96 87 118 98 199 90 132 99 195 120 147 141 192 114 140 139 136 109 138 187 137 117 136 137 105 127 136 138 135 178 138 138 144 178 101 151 153 215 101 159 217 218 141 166 219 219 144 220 220 148 172 221 221 152 144 85 155 157 145 186 160 145 146 190 165 146 193 195 147 147 200 202 148 205 207 221 149 214 217 221 172 224 219 219 171 216 215 171 170 210 209 169 145 202 168 167 142 193 167 139 138 167 168 135 213 209 132 130 198 195 126 190 188 204 121 183 182 200 33 179 192 189 176 176 179 177 177 172 170 176 146 165 175 174 153 160 173 156 157 194 171 157 157 169 178 155 188 168 153 48 198 151 151 203 205 146 52 209 140 137 55 216 127 161 56 176 112 159 228 161 127 159 151 93 120 163 146 116 160 160 146 112 159 146 43 109 157 145 188 155 154 37 141 152 36 36 110 80 35 54 108 104 35 107 81 104 34 106 104 159
85 85 109 110 85 85 113 85 84 78 116 84 84 74 216 84 72 72 83 237 72 165 165 74 75 162 126 78 161 160 127 83 158 129 129 92 155 130 131 153 206 131 85 85 132 144 87 117 133 89 89 130 123 92 141 145 116 97 157 140 111 179 172 138 179 178 102 136 137 194 102 182 138 102 136 180 138 102 178 139 98 100 176 96 155 175 175 94 162 173 91 90 178 221 88 88 178 94 86 178 178 94 83 178 92 161 178 178 91 171 178 91 91 171 148 90 173 173 76 91 175 176 74 177 178 73 72 181 71 70 176 186 67 66 175 147 61 172 171 153 51 166 169 173 158 155 181 182 153 184 184 224 148 184 228 229 201 184 231 231 204 175 229 33 33 177 214 36 112 186 127 39 119 137 40 171 133 148 42 148 161 154 167 169 194 195 172 156 197 176 182 155 198 184 153 194 167 184 150 166 183 149 144 163 183 56 162 161 148 57 179 159 147 226 164 147 147 231 94 147 233 233 88 146 232 84 83 228 225 82 110 213 81 81 164 156 80 80 165 143 80 165 164 139 164 164 134 132 163 162 123 32 161 112 107 29
93 108 86 207 80 85 85 80 82 85 76 75 170 84 73 72 168 72 73 166 165 123 74 163 124 125 161 161 126 201 158 128 128 83 155 129 84 84 131 131 85 84 132 85 86 113 117 87 88 125 145 90 136 140 142 148 151 141 140 163 166 139 137 177 138 137 137 190 136 138 138 125 136 138 138 135 139 139 142 144 140 148 150 216 141 156 157 218 91 162 220 220 147 167 221 150 151 221 221 155 144 222 159 160 145 222 164 146 147 89 168 147 148 89 171 149 189 191 173 149 197 222 150 74 206 222 73 215 176 220 71 227 217 112 67 174 211 171 59 171 153 170 143 162 174 211 140 181 169 219 135 183 225 132 28 184 230 126 194 231 231 32 186 201 224 35 112 189 37 38 116 185 40 123 126 187 42 139 189 190 154 159 193 172 175 195 196 169 157 198 180 183 49 197 185 185 52 185 185 54 55 184 184 56 197 184 58 58 185 182 59 175 171 134 60 160 127 124 232 146 120 118 138 86 115 162 129 112 111 160 81 109 159 159 42 164 157 39 39 164 153 37 110 147 138 36 107 140 36 37 106 120 35 106 106 104
86 86 229 110 85 82 228 214 85 77 75 216 228 73 169 84 235 85 166 239 73 87 164 241 88 162 217 241 90 159 127 91 91 212 129 83 93 208 164 84 206 205 148 200 202 136 133 190 199 124 186 184 117 115 182 150 110 180 180 101 139 179 102 102 186 178 102 102 183 102 102 182 181 102 101 179 97 101 177 177 95 100 175 94 93 178 173 91 178 178 142 89 178 178 87 178 178 92 85 178 178 91 172 178 90 90 168 223 88 169 169 223 87 170 77 87 175 171 76 87 174 150 75 177 177 74 74 177 151 72 176 176 150 229 175 115 148 237 172 140 240 240 198 166 239 156 190 170 232 190 182 171 193 195 173 229 128 203 175 125 32 176 177 120 35 178 121 122 180 178 128 41 175 136 140 172 134 165 169 168 161 192 168 168 158 171 173 156 156 170 181 154 168 168 152 152 167 152 148 165 165 149 149 163 148 148 214 161 148 148 221 148 147 226 228 147 147 232 91 147 234 234 85 234 233 83 82 160 227 81 162 162 80 80 162 163 80 163 163 143 80 163 140 139 104 163 134 132 42 127 124 33 32 113 109 30
90 108 86 84 82 85 85 78 172 85 75 74 170 169 73 167 167 121 73 165 165 123 163 162 125 125 160 159 127 83 158 128 128 83 210 129 84 84 99 131 84 106 109 140 85 117 120 87 127 130 144 90 140 142 142 181 156 140 139 136 102 138 136 137 102 137 137 115 136 182 138 124 136 138 97 133 177 140 140 178 175 93 147 217 218 91 178 219 144 89 178 221 149 178 178 93 154 178 91 90 168 178 90 163 168 88 88 168 148 173 87 169 78 176 170 170 77 180 172 76 76 177 175 75 176 176 74 74 176 220 94 176 176 102 175 175 174 121 196 171 142 148 204 161 167 210 213 177 179 219 35 182 225 226 31 31 230 32 32 122 231 34 35 115 120 37 113 113 40 180 116 186 43 124 127 188 172 140 190 190 125 161 193 143 150 157 197 171 51 155 169 185 53 198 167 153 55 166 186 151 58 164 149 59 196 193 148 61 184 146 148 223 169 134 228 230 94 124 233 145 87 158 235 84 115 159 163 82 160 161 146 80 162 145 44 162 163 144 41 163 142 141 100 162 138 136 55 132 130 39 36 80 117 31 77 76
212 212 229 229 214 215 228 216 216 226 226 218 231 233 119 218 237 238 216 84 241 87 211 241 241 89 217 239 91 91 214 88 92 211 210 95 94 208 156 103 150 204 140 97 148 132 125 145 198 134 116 183 134 110 92 181 135 96 180 169 136 102 179 102 108 110 192 102 117 119 202 136 179 207 101 136 140 213 137 175 140 216 140 141 91 142 143 142 89 146 143 143 160 151 143 144 163 222 145 165 165 222 166 167 223 223 168 169 223 172 170 223 223 176 172 223 178 178 223 223 180 152 152 180 180 153 153 179 153 152 210 178 152 152 226 151 150 234 236 148 148 240 199 197 240 239 191 172 235 190 190 172 225 195 173 174 202 203 176 176 205 177 178 122 200 179 121 122 184 179 128 131 178 145 140 174 173 147 149 170 161 154 169 170 158 157 173 156 156 53 181 154 168 167 205 151 166 166 205 185 164 149 138 170 162 148 157 160 185 148 143 183 147 227 229 177 147 232 89 170 62 235 84 166 58 130 82 55 228 123 80 49 119 79 108 44 114 106 162 158 111 105 162 139 105 104 146 133 104 104 140 36 105 138 137 34
229 108 214 215 81 216 86 223 76 217 229 74 169 218 235 73 166 238 239 87 163 241 77 89 218 240 90 158 215 190 92 213 129 174 94 209 161 84 206 206 143 85 203 132 129 191 200 120 186 185 100 111 182 181 101 181 180 101 102 179 179 102 186 178 102 102 184 178 102 182 181 101 101 179 94 94 177 176 93 92 175 91 91 178 172 90 89 178 142 88 178 178 143 159 178 91 84 161 178 89 167 178 223 87 167 178 86 167 167 223 85 168 78 223 178 169 77 83 180 152 76 177 174 153 75 176 154 74 196 176 153 73 176 218 152 226 175 110 235 237 205 138 240 240 195 172 211 190 189 172 220 192 173 173 134 199 175 129 128 177 177 124 37 178 122 122 189 179 124 126 183 177 134 178 177 168 145 173 164 162 170 170 160 172 171 157 157 171 177 155 169 169 156 152 167 167 153 166 165 151 150 164 149 149 208 161 148 148 217 148 148 223 225 147 147 230 91 89 234 234 85 84 236 83 82 158 233 80 159 160 80 80 160 161 79 161 161 144 79 162 162 141 108 161 138 137 60 146 130 41 37 140 118 31 76 107
107 214 174 229 216 86 172 113 218 228 116 116 85 235 119 119 84 74 87 84 84 77 89 84 80 81 159 84 85 92 156 89 91 154 210 97 152 151 131 106 149 149 132 85 146 133 133 87 144 134 89 89 134 135 92 158 136 96 98 173 137 102 183 186 136 110 195 197 136 202 204 136 136 209 210 137 140 213 138 138 141 140 140 141 142 143 144 143 153 154 143 143 157 157 145 159 159 222 146 161 223 223 162 162 223 223 162 223 223 175 163 223 223 178 152 223 180 181 153 82 182 153 154 181 181 154 182 181 154 154 199 179 154 214 219 216 152 230 233 209 66 239 201 198 58 159 192 173 238 147 190 173 149 194 182 175 136 203 176 232 126 184 178 122 39 185 219 123 188 186 184 45 181 148 138 48 176 124 50 50 159 133 52 171 180 197 54 191 155 169 200 202 199 167 205 206 193 190 205 185 181 189 198 169 188 188 65 153 187 66 66 185 184 66 229 179 66 66 146 172 64 64 135 62 62 129 127 58 57 122 110 109 118 117 108 163 113 107 106 161 110 105 157 155 81 104 149 147 105 157 143 37 105 140 112 35
175 174 108 80 173 111 112 86 170 115 116 85 225 118 85 85 223 216 85 76 122 209 84 79 202 84 238 85 188 84 89 93 154 222 97 152 151 208 96 149 131 197 98 202 133 99 99 198 134 100 196 195 104 101 192 135 94 179 189 97 100 182 96 95 178 193 94 94 178 101 93 178 178 101 92 178 99 99 175 178 97 173 172 96 96 171 143 94 170 169 86 92 168 167 84 167 167 82 82 166 166 81 178 178 80 80 178 84 78 177 177 83 78 177 82 82 160 177 81 81 177 223 81 173 176 81 182 178 74 83 181 183 73 179 187 72 72 176 193 69 171 175 148 63 162 208 145 239 148 176 45 148 193 181 228 140 183 184 216 206 184 233 205 203 185 224 195 191 179 197 181 178 178 137 49 177 127 147 175 175 153 53 172 172 157 173 189 158 158 179 200 157 184 185 150 154 191 146 145 164 199 137 134 162 127 122 160 159 110 106 158 147 97 157 156 147 156 156 147 146 236 156 146 236 236 146 146 233 230 146 224 219 79 145 201 193 79 175 165 79 80 130 80 80 159 158 81 80 157 128 79 156 155 116 75 154
107 81 173 173 110 172 171 113 114 86 169 116 85 85 119 119 85 85 121 85 84 78 124 84 82 82 84 84 87 89 84 92 94 153 152 100 102 150 131 109 148 148 132 120 145 133 133 100 143 134 88 141 193 135 92 93 136 97 97 177 137 102 104 189 94 109 197 199 93 178 205 136 91 178 211 137 178 178 98 139 141 217 96 172 142 95 146 170 143 92 169 144 155 90 167 83 157 166 166 81 158 166 80 80 178 223 79 157 177 83 78 177 223 82 177 177 81 182 177 177 80 171 176 80 80 175 156 81 178 180 74 84 184 185 72 188 189 72 71 195 69 68 168 203 62 60 155 144 53 146 146 179 43 148 182 182 137 133 184 232 123 185 185 230 117 185 221 215 187 187 186 174 175 178 141 51 51 176 125 53 161 135 155 55 181 157 57 193 196 158 60 202 199 155 186 205 193 191 194 141 181 190 197 128 160 190 116 153 159 189 101 157 185 147 90 156 179 68 156 156 146 67 134 156 146 236 126 146 146 228 79 145 215 209 79 144 186 79 79 157 146 80 105 106 80 80 157 150 80 156 155 123 77 154 153 110
80 80 229 222 82 82 228 83 84 227 226 85 225 224 219 87 222 222 213 163 220 207 203 239 217 193 235 234 180 176 226 94 161 217 214 96 142 204 97 98 84 194 99 99 86 127 100 198 197 141 102 194 100 103 191 190 97 138 188 94 94 137 185 93 178 135 138 92 178 178 139 122 178 101 90 131 214 99 137 178 217 97 143 219 95 145 148 221 92 168 221 221 154 167 83 222 160 146 81 165 167 148 156 171 149 149 156 176 151 155 154 152 152 153 177 153 152 152 223 80 153 223 223 182 157 223 223 181 222 222 180 180 220 220 178 155 216 177 176 152 69 175 150 149 240 174 145 240 240 142 141 237 236 137 232 229 201 131 222 220 206 214 212 204 201 179 195 191 179 179 181 178 178 137 170 177 176 148 163 175 153 154 173 172 157 157 171 158 158 178 179 157 182 184 150 154 190 191 143 66 198 134 131 204 207 118 159 214 106 102 157 147 93 156 156 147 86 155 146 146 119 156 146 146 115 168 146 233 158 167 145 221 166 145 53 196 79 49 170 110 80 44 124 80 105 41 107 80 156 39 106 105 154 107 107 106
107 108 173 229 110 87 170 113 114 86 226 116 86 86 224 119 85 76 222 209 85 79 159 197 237 85 156 84 229 94 154 222 96 96 152 208 97 149 206 198 99 146 133 100 100 199 133 86 196 196 101 89 193 192 96 180 189 94 94 179 186 92 178 178 91 91 178 102 90 178 178 102 136 178 100 100 175 178 98 98 172 97 96 171 170 94 93 168 84 92 167 167 83 156 166 82 82 178 165 81 178 178 79 79 178 178 79 177 177 82 77 177 81 81 150 177 80 80 169 223 79 171 172 223 79 175 74 79 180 179 74 81 183 157 73 178 189 72 225 176 152 69 169 167 148 240 156 162 144 239 144 177 237 235 197 182 230 203 205 178 220 206 186 231 202 199 180 216 48 184 179 132 52 178 177 143 54 176 149 151 176 173 156 174 175 157 158 176 197 154 179 180 151 199 185 187 146 165 193 139 136 162 129 125 160 160 112 108 158 147 97 156 156 147 147 155 147 147 236 155 146 146 238 146 146 236 235 146 231 229 79 145 216 210 79 196 188 79 80 158 152 80 158 157 80 80 156 133 79 154 154 124 76 152 115 111
80 81 229 224 82 170 228 74 84 227 116 73 166 224 217 215 163 121 210 241 161 123 197 238 125 185 84 230 127 84 222 95 129 84 210 98 149 84 111 99 203 84 122 145 200 131 134 143 196 145 140 140 135 160 139 136 136 137 137 137 91 102 137 138 108 178 139 139 116 206 139 123 125 211 129 131 215 216 137 139 217 141 144 219 219 146 147 221 150 152 145 221 156 157 146 160 162 147 148 167 148 149 154 173 150 150 152 151 151 151 150 224 153 148 224 224 147 145 224 183 145 223 223 182 146 223 180 180 223 222 179 179 158 178 178 157 156 177 176 154 231 176 151 150 239 207 147 241 240 216 142 239 192 138 46 233 201 203 227 128 207 179 217 204 186 180 118 192 180 179 122 188 178 138 134 190 176 148 192 175 134 154 176 172 157 61 175 180 158 177 202 193 65 183 148 195 67 203 141 68 68 197 127 161 189 186 156 158 176 145 142 189 162 133 155 183 126 124 178 146 119 118 172 70 114 170 169 66 231 168 63 61 116 168 56 113 112 51 50 110 80 46 108 107 105 43 107 106 105 49 107 105 106 145 72 106
107 88 77 75 221 87 74 73 86 235 73 166 86 74 88 163 240 76 161 161 239 91 159 124 235 93 156 127 84 95 212 129 84 209 130 134 84 206 131 84 193 202 111 85 129 198 103 183 143 141 97 181 158 139 180 179 104 137 179 105 104 184 178 104 135 181 103 103 179 139 102 102 176 87 130 174 174 86 178 172 86 86 178 170 85 178 178 84 83 178 178 82 178 178 88 81 178 87 86 164 178 85 84 163 223 83 163 163 82 81 163 77 81 164 165 76 79 166 75 75 176 170 75 176 176 159 74 176 176 73 160 176 80 73 175 175 86 214 174 97 103 233 204 124 204 206 193 157 213 58 190 176 223 50 180 177 135 45 178 233 128 45 179 125 47 213 180 125 205 121 181 132 195 132 190 188 186 164 193 180 179 160 173 176 158 157 171 155 155 169 168 152 151 167 155 67 165 164 152 69 162 150 149 203 160 149 148 214 148 147 222 224 147 228 230 84 83 235 236 81 154 238 79 79 155 237 79 156 156 78 78 157 145 79 157 158 144 79 157 142 142 146 156 140 138 95 135 133 59 51 127 125 37 72 116 31
78 76 88 88 74 169 169 73 73 167 166 73 165 164 119 75 162 162 122 160 159 123 124 158 125 126 84 84 127 127 84 97 129 84 84 106 130 84 113 116 84 84 124 128 85 134 137 141 87 148 140 139 135 163 138 137 136 105 136 137 137 135 135 138 108 135 139 139 117 178 140 124 126 175 140 132 216 216 86 140 218 219 144 178 220 147 149 221 221 153 178 221 157 159 178 87 164 148 148 85 170 149 153 83 162 151 150 179 162 77 147 163 154 76 177 165 76 141 176 168 75 176 223 77 74 176 223 177 176 176 78 177 176 175 82 186 175 87 91 193 101 107 199 151 131 140 208 64 241 216 218 56 239 224 50 49 140 231 47 129 126 46 47 121 120 49 119 120 188 188 124 126 189 155 137 191 191 131 156 194 136 141 197 197 163 64 200 182 188 66 201 195 67 68 204 197 69 69 202 151 70 196 193 149 206 184 156 72 216 170 141 224 159 85 130 232 146 124 154 178 79 118 174 173 78 155 171 70 78 156 145 65 157 157 145 57 157 144 53 168 108 141 47 107 80 137 84 106 105 53 46 75 106 35 33 68
220 221 226 74 222 222 233 85 221 237 73 87 239 239 89 162 240 240 90 220 123 92 93 217 125 94 215 214 156 96 212 142 137 209 208 125 122 205 116 113 190 189 106 104 185 103 99 183 182 105 95 180 105 106 179 179 106 187 179 105 106 184 178 105 181 181 87 104 179 178 86 135 176 86 86 137 141 86 178 172 142 84 178 143 84 149 178 144 83 178 221 90 153 178 88 87 154 223 85 163 153 223 174 162 223 82 179 162 223 182 162 154 76 183 164 76 140 183 157 75 176 158 159 133 176 161 161 135 223 161 147 154 222 160 182 219 218 176 216 212 98 175 204 201 175 206 193 175 175 145 190 176 176 139 177 177 136 134 179 179 130 226 224 126 125 218 196 126 210 208 181 133 200 172 170 192 189 165 163 183 161 160 173 172 157 157 170 158 154 169 168 157 167 166 155 154 165 164 152 193 161 150 149 203 159 149 211 214 95 148 222 88 86 229 231 82 81 235 80 79 153 239 78 78 154 125 78 155 155 118 78 156 145 145 108 156 144 185 156 172 142 152 155 140 116 102 161 134 63 54 153 40 38 71 69 37
76 74 171 230 73 169 168 72 72 166 116 73 164 163 119 76 161 121 122 85 159 124 84 84 216 126 84 84 213 146 84 99 129 129 83 108 118 84 193 118 107 84 127 143 143 184 140 141 135 181 106 138 135 165 107 189 136 107 135 185 137 106 183 138 87 105 179 86 118 178 177 86 128 213 85 85 178 216 85 84 178 96 84 178 178 94 82 178 92 91 165 178 89 164 164 87 87 163 148 85 162 162 79 83 162 161 78 161 161 77 77 162 76 76 177 177 75 75 176 78 75 176 176 77 74 176 77 77 133 176 77 78 176 221 80 185 175 86 190 192 72 103 198 200 69 175 207 66 64 175 217 59 145 224 138 53 140 134 50 232 127 186 50 122 202 187 217 121 188 189 207 177 190 156 196 168 192 133 163 162 174 144 159 172 171 158 67 170 189 158 178 167 157 70 182 165 154 188 200 151 150 197 118 149 205 209 101 148 216 91 89 154 227 84 130 153 81 80 153 180 79 78 153 146 78 155 155 146 155 155 145 145 216 156 144 198 192 144 143 171 163 141 144 132 80 137 92 78 77 57 49 73 71 36 68 66
106 222 229 170 110 222 235 113 220 87 238 88 214 240 76 90 85 239 92 92 85 83 94 217 84 90 154 214 95 97 151 210 128 149 148 131 115 146 204 132 84 143 132 100 85 134 134 86 181 135 135 89 163 136 92 93 177 107 98 186 190 134 105 197 200 134 203 205 134 135 210 136 136 141 214 137 138 142 140 141 142 143 147 145 144 150 151 145 145 153 221 146 154 155 222 148 155 223 223 154 154 223 223 176 223 223 179 181 223 224 183 154 224 184 184 156 183 183 157 158 180 179 160 129 175 162 162 126 128 162 137 145 222 161 175 219 218 73 213 212 209 229 169 200 175 238 193 191 175 143 190 176 177 140 197 178 136 135 184 179 131 229 180 231 127 221 180 127 56 212 190 134 203 200 169 62 192 165 163 64 170 160 173 67 188 156 170 197 199 202 168 203 149 199 199 203 192 163 199 151 179 197 150 73 162 197 74 214 196 195 75 225 192 76 76 146 185 77 77 136 77 78 129 78 115 123 122 112 155 118 116 109 173 113 107 107 174 110 106 174 174 106 106 170 168 47 163 162 44 43 156 41 40 109 150 38
227 73 223 223 233 85 221 236 238 87 165 239 89 89 223 240 91 222 221 93 93 218 124 95 216 215 151 98 213 212 132 150 209 121 118 197 206 110 191 189 103 102 186 106 97 183 182 107 93 181 108 108 90 179 108 108 179 181 108 184 184 108 134 182 85 107 179 178 85 134 176 85 85 136 174 84 178 139 142 83 178 178 143 149 178 94 82 153 221 91 155 178 222 88 156 222 86 168 155 223 84 160 223 223 178 160 77 181 182 154 76 184 184 155 140 183 157 75 135 181 159 130 176 161 162 125 176 163 124 127 223 77 151 221 220 174 194 216 214 174 209 206 174 174 197 195 175 149 190 176 176 143 240 177 139 138 237 178 133 234 232 129 128 227 225 127 221 218 188 130 210 177 174 202 199 168 166 176 164 162 174 173 159 158 171 158 155 169 169 158 151 167 157 156 165 164 154 187 162 151 151 196 199 149 205 208 96 148 217 219 85 76 228 81 80 233 142 79 152 238 78 78 153 146 77 154 154 146 78 155 145 145 108 155 144 144 107 176 143 174 153 174 51 139 169 137 46 85 76 43 52 108 70 40 35 64
106 107 88 233 110 88 88 72 114 87 87 74 86 86 76 77 85 85 81 157 85 85 86 155 125 91 153 152 127 98 150 129 129 148 147 131 131 145 131 132 84 143 133 133 85 134 134 86 87 155 88 89 165 169 93 94 180 135 99 188 191 134 107 198 134 133 204 206 134 140 210 135 135 141 141 137 142 142 143 141 143 143 149 168 144 152 153 145 146 156 221 147 157 157 222 165 157 223 223 171 155 223 176 177 177 223 180 181 177 80 183 155 224 79 162 157 78 182 165 159 131 168 160 127 125 173 163 121 223 178 73 140 222 74 74 175 217 73 212 173 95 72 168 200 123 175 155 149 175 215 141 172 177 141 179 181 229 135 184 232 233 55 187 231 229 57 123 216 59 60 129 179 62 139 143 64 65 157 195 67 172 177 199 69 189 201 202 198 200 203 202 200 200 199 201 201 192 189 200 74 178 199 199 75 157 198 75 75 154 197 76 157 193 147 78 144 141 79 136 134 119 80 127 115 114 238 121 112 111 228 78 109 175 112 79 107 176 61 106 153 176 54 106 173 138 48 150 165 45 64 148 126 41 110 146 116
89 83 229 109 88 167 228 218 87 226 116 210 239 75 200 86 237 80 182 233 84 96 161 225 90 153 217 214 100 150 206 102 102 208 196 104 104 204 103 106 201 200 98 108 198 94 93 195 193 91 89 191 89 88 179 187 87 178 178 86 85 178 178 109 178 178 108 107 178 178 105 175 178 104 103 172 216 100 171 170 219 98 168 82 95 166 166 81 81 164 80 80 178 163 79 79 178 149 78 178 178 150 155 177 82 77 151 177 81 160 177 223 79 161 176 78 182 164 223 77 167 160 223 174 172 73 223 166 164 73 167 169 162 74 175 161 160 203 173 158 224 229 202 154 237 159 140 240 240 190 168 241 240 195 178 239 202 205 179 232 208 180 180 128 202 180 127 128 179 179 133 63 178 140 143 198 176 149 150 187 161 155 180 179 157 177 176 154 153 176 176 148 166 179 142 139 163 186 128 161 160 114 109 157 156 149 156 155 148 148 153 147 147 230 152 147 147 237 147 147 239 240 146 146 239 77 146 234 231 78 154 220 78 79 154 199 79 153 153 80 80 152 152 79 150 150 136 75 148 148 129 49 146 122 120 34
106 107 89 71 110 88 88 71 114 87 74 74 86 86 77 78 159 81 82 157 156 86 155 154 125 93 152 151 127 102 149 129 129 147 146 131 84 145 132 132 84 84 133 85 85 144 134 86 154 157 89 89 168 171 87 179 181 134 100 178 193 133 138 200 109 133 139 108 133 176 141 106 135 141 83 103 171 142 146 99 169 82 152 167 166 81 157 221 80 80 178 221 80 178 178 87 79 178 223 172 178 177 83 178 177 177 81 159 177 80 80 160 76 79 161 162 76 78 164 75 74 167 169 74 127 172 73 73 175 177 73 74 175 74 74 175 174 84 173 172 95 100 168 165 122 204 154 149 157 215 140 172 222 224 198 181 229 59 58 179 233 58 58 230 128 59 125 216 62 62 131 135 65 141 145 145 67 160 196 153 184 179 200 166 178 155 203 191 200 151 167 201 146 198 203 202 134 162 202 75 117 159 150 76 156 156 148 77 165 148 148 226 151 147 80 234 77 147 238 132 77 146 240 77 114 237 236 78 153 177 78 78 153 177 79 153 153 143 80 152 152 141 150 150 138 137 149 134 133 69 146 126 125 39 63 118
71 84 229 228 220 86 227 215 213 163 225 203 200 224 119 186 235 221 171 166 228 124 150 221 219 126 84 210 102 103 83 200 105 208 83 115 107 204 187 126 142 200 135 110 139 134 148 138 193 90 163 136 136 87 179 135 137 86 178 138 138 107 178 139 84 117 205 140 125 178 211 133 135 214 104 137 144 217 139 169 219 219 144 167 220 149 150 146 221 156 147 147 161 163 148 149 168 150 150 160 159 151 152 157 223 153 154 152 223 154 148 223 223 144 143 223 182 138 223 223 178 132 223 174 172 162 223 168 167 163 169 169 162 162 171 160 160 205 173 158 157 229 155 154 237 239 192 150 240 190 190 240 241 196 198 240 203 205 179 236 208 179 180 125 201 180 180 190 190 179 134 136 177 177 143 199 175 149 151 187 147 155 180 178 175 158 175 153 196 73 175 147 157 74 201 136 162 186 195 119 159 187 105 157 156 174 152 154 148 160 138 152 147 130 129 191 147 122 151 184 84 240 180 146 84 121 178 83 231 116 177 78 112 79 72 70 109 80 63 108 107 106 150 107 107 106 170 108 106 106 162 107 107 157 156 107
230 107 89 86 228 217 88 71 226 207 87 74 196 191 236 79 176 232 230 97 155 224 89 100 216 213 101 151 205 202 104 209 129 106 107 206 102 109 203 202 97 110 199 93 93 196 195 90 90 192 89 88 179 179 87 87 178 114 86 178 178 113 110 178 112 111 178 178 110 176 178 108 107 173 178 104 171 170 82 101 168 81 81 146 166 80 80 152 147 80 178 163 80 79 178 149 79 178 178 150 78 177 83 83 158 177 81 158 153 223 80 159 176 223 183 161 223 78 180 164 223 177 168 161 74 171 162 73 136 169 163 73 175 162 161 189 174 159 159 221 206 156 233 236 195 152 239 190 190 176 241 192 177 177 199 201 179 231 207 179 180 131 206 180 180 129 180 179 130 132 178 136 138 206 202 146 147 193 163 153 185 182 158 157 177 155 154 174 174 150 148 176 144 141 164 163 130 161 161 151 111 158 157 149 156 155 148 148 153 153 148 226 151 147 147 235 190 147 238 239 76 146 240 77 77 237 235 77 78 227 78 79 152 208 79 79 151 109 80 150 150 107 106 149 138 137 147 146 133 74 145 127 125 41 143 119
106 69 168 228 217 166 165 113 207 163 162 117 86 160 119 120 85 157 122 85 85 89 124 84 93 102 84 84 101 105 83 107 110 145 83 117 120 143 125 128 141 140 137 139 139 134 134 137 137 136 89 135 136 136 94 133 137 100 102 138 138 109 112 139 117 120 206 207 128 210 211 134 139 214 215 136 216 217 139 140 219 219 145 145 220 149 151 146 94 156 147 148 166 163 148 166 166 150 150 164 164 151 162 161 223 153 157 156 223 76 152 223 223 148 176 223 182 181 223 223 178 160 223 174 173 161 222 170 162 162 77 170 162 174 80 182 160 209 216 189 73 231 199 154 72 239 191 71 241 140 191 67 240 196 180 64 139 206 179 131 129 188 180 129 126 190 220 130 191 192 188 136 193 157 143 70 195 141 71 187 149 156 73 178 178 74 74 198 151 75 75 201 200 76 200 198 190 76 192 179 175 184 181 162 201 171 150 147 200 148 137 197 197 82 128 192 191 84 187 186 86 87 182 87 87 120 179 86 85 115 145 81 112 111 107 72 109 107 107 179 107 106 106 107 76 106 172 108 106 145 164 66 107 159 158 58
230 229 219 237 228 213 210 238 226 199 238 237 186 180 234 96 165 229 227 98 144 219 101 101 215 209 104 105 211 104 107 209 208 113 110 205 100 111 142 201 95 140 198 134 92 181 195 90 87 180 136 88 179 179 137 97 178 117 138 105 195 116 113 116 203 114 125 207 112 132 174 212 109 172 143 216 137 170 81 218 141 145 80 146 147 145 166 152 147 147 168 159 148 168 169 222 150 168 178 222 166 165 223 83 162 223 223 182 157 223 223 183 223 223 183 182 158 223 180 159 159 177 176 161 161 173 161 161 147 170 161 163 170 161 160 197 205 159 219 224 204 201 234 236 194 174 240 190 189 176 191 193 177 177 199 202 178 136 207 179 180 131 206 180 129 129 225 179 131 218 215 137 139 206 202 146 195 192 162 153 184 181 158 74 176 155 153 168 174 149 166 165 201 138 163 154 126 186 160 151 106 157 202 149 157 154 148 148 143 200 148 227 229 195 84 235 76 190 86 239 76 88 240 122 77 88 235 77 111 85 113 78 151 78 110 108 151 143 108 106 183 141 106 106 177 137 106 171 169 47 107 164 126 43 158 157
69 69 167 166 70 70 165 113 73 162 162 117 118 159 119 120 85 156 122 85 85 124 124 84 84 126 84 83 102 128 83 83 112 103 83 119 122 142 185 130 140 140 182 143 138 134 153 118 136 136 166 134 189 137 119 132 138 138 104 183 138 111 114 179 83 123 206 176 82 135 211 82 82 178 215 81 153 217 104 81 178 219 144 166 178 97 150 147 178 94 162 148 91 90 161 150 88 159 159 78 85 158 152 77 157 157 76 162 177 76 76 176 223 76 75 176 79 75 176 176 78 75 176 77 77 176 175 78 172 174 78 79 177 179 82 182 184 74 90 189 191 73 173 198 72 72 207 209 70 140 217 68 68 145 181 66 139 137 187 65 130 189 189 232 128 191 191 224 184 193 186 140 194 177 150 166 197 142 144 74 172 160 75 75 170 187 75 198 167 158 76 200 205 156 179 196 153 78 187 109 173 196 178 90 157 209 82 146 151 221 77 134 197 76 76 150 191 76 149 150 146 76 150 150 145 236 150 145 145 225 151 145 212 207 144 144 193 108 143 180 176 78 140 158 75 74 127 112 69 67 143 64 62 142 141 56
85 86 237 237 88 89 238 91 91 226 236 94 95 223 80 97 221 220 100 101 218 131 103 216 215 118 202 212 110 108 194 209 103 189 188 131 98 185 184 95 83 182 118 92 181 150 119 87 180 120 121 189 174 120 186 186 186 120 183 84 196 130 180 83 118 131 140 82 131 175 141 144 178 142 81 154 178 143 160 178 218 145 167 178 99 170 171 221 96 173 221 222 161 174 222 222 168 150 222 172 158 151 222 178 153 77 180 181 154 76 182 156 156 157 182 157 153 152 158 159 149 149 222 149 150 222 222 156 159 220 171 176 218 216 171 214 211 171 171 205 201 172 155 154 174 174 150 149 175 147 146 241 177 141 140 240 137 136 238 237 132 234 233 203 129 228 226 187 179 217 177 174 177 205 167 175 175 163 162 173 154 159 171 170 158 154 168 158 158 203 165 157 156 177 206 154 183 185 152 151 193 96 150 202 206 83 81 216 78 77 83 227 76 149 149 136 76 149 149 127 117 149 146 76 113 182 145 111 150 182 145 109 183 144 79 107 185 143 184 108 185 62 166 75 179 55 109 70 50 49 111 108 45 113 57 108
236 68 167 166 110 90 164 113 114 93 161 117 86 96 223 120 85 220 220 134 84 217 124 120 205 214 112 83 197 107 105 191 113 113 99 186 116 142 184 183 118 139 182 120 120 195 180 122 122 191 88 123 189 137 86 123 185 85 106 182 182 84 178 179 83 82 178 176 82 178 178 82 81 178 178 111 178 178 107 106 178 104 103 166 178 99 98 163 221 95 162 161 92 91 160 78 89 159 158 78 78 157 77 77 177 157 76 177 177 155 76 176 176 156 160 176 79 75 156 176 79 164 176 222 78 168 221 78 172 173 219 80 177 160 214 171 183 74 206 172 156 73 173 173 153 72 145 149 71 241 141 144 241 145 201 138 239 136 187 237 236 207 190 232 230 195 179 223 183 180 178 138 171 176 176 147 164 174 152 154 172 171 156 76 170 158 158 173 166 158 157 174 137 155 179 181 120 185 187 104 99 196 199 87 153 209 79 78 151 222 76 150 149 75 75 149 147 146 149 149 146 146 150 145 145 236 150 145 145 224 145 145 210 206 144 144 193 79 143 181 177 77 146 162 74 72 144 118 67 143 142 62 60 140 140 55
86 87 89 237 89 227 88 72 93 226 87 77 159 223 80 99 156 220 134 154 218 124 120 151 126 112 83 148 128 105 192 130 130 83 187 131 131 83 130 120 84 84 143 137 85 153 156 135 88 166 133 133 175 178 132 186 187 131 131 139 196 130 130 140 127 130 140 141 140 142 142 150 152 143 143 160 216 144 166 168 218 145 173 220 220 176 177 220 153 155 221 221 161 162 222 166 167 151 222 172 173 152 176 177 153 153 180 181 154 169 182 156 156 165 223 157 162 161 222 158 160 222 222 161 162 221 220 170 219 219 171 190 216 171 171 159 209 171 171 156 106 172 154 153 136 174 150 241 175 214 145 241 177 141 240 240 229 136 238 208 208 68 233 201 198 69 132 186 178 217 141 173 176 153 167 197 175 171 200 173 158 187 203 170 158 77 205 200 158 173 202 207 78 177 207 207 79 185 206 80 80 177 205 81 167 163 146 83 153 75 134 144 141 128 149 134 132 121 190 126 117 116 186 114 113 184 183 111 110 183 89 87 185 185 81 196 187 74 72 108 186 65 62 108 138 57 109 110 51 111 112 108 46 114 114 109
236 237 88 89 237 237 92 226 235 94 96 224 78 98 222 222 138 102 220 126 123 152 216 114 112 214 127 107 194 210 103 83 188 130 98 185 184 132 83 183 122 123 84 181 125 195 87 160 126 191 179 127 132 187 182 127 184 138 192 130 181 83 201 130 140 82 178 130 142 82 178 142 142 158 178 143 166 168 217 144 173 178 219 177 179 220 100 151 182 221 156 161 221 221 164 159 222 169 170 151 222 174 152 153 178 179 154 154 181 155 155 172 176 156 156 168 222 157 166 166 222 166 167 221 220 172 175 219 173 186 217 216 171 207 211 171 171 158 203 172 172 154 173 173 152 151 174 149 147 241 176 144 142 240 139 138 239 238 208 133 235 206 204 231 229 193 178 222 182 178 178 210 170 176 175 164 164 173 173 160 202 171 157 157 169 193 158 172 166 158 157 174 207 155 178 180 207 152 187 99 151 81 200 83 149 210 158 77 150 223 75 131 148 138 75 148 149 129 119 148 146 122 114 149 146 112 111 184 145 110 185 185 87 205 187 143 78 108 188 70 178 108 185 61 109 70 56 54 111 64 49 113 113 108 139 116
66 107 89 88 69 111 88 72 73 161 87 77 78 157 81 83 156 155 88 153 152 124 95 150 149 126 148 147 128 128 83 144 130 83 83 131 132 83 133 133 84 84 145 134 85 155 158 89 89 168 171 93 179 180 131 131 187 190 130 139 197 129 129 140 126 129 141 141 123 130 142 156 132 172 143 166 135 144 80 175 218 145 179 178 220 79 184 220 220 78 178 221 160 78 178 222 167 177 177 89 173 152 222 86 156 154 84 179 156 76 82 156 156 76 81 158 75 173 160 161 75 173 163 75 75 175 219 74 175 174 82 74 173 212 88 171 170 97 171 165 163 120 196 152 143 150 207 139 168 215 218 71 181 224 70 70 229 230 69 69 231 70 70 131 223 71 72 136 133 73 145 148 196 202 161 199 200 174 178 202 161 188 204 205 189 196 205 202 204 142 201 208 80 127 161 208 80 80 157 151 82 173 206 149 83 160 148 85 220 147 147 88 139 127 147 236 130 120 239 240 76 116 187 118 77 149 185 78 110 149 186 79 148 187 144 79 147 143 74 145 145 140 64 144 138 137 139 110 134 132 82 59 127 51 45 52
203 199 236 229 186 88 234 170 165 230 76 150 145 223 101 132 216 213 105 120 206 108 109 215 197 112 213 211 116 117 209 208 120 206 205 97 123 202 201 94 138 198 93 92 180 135 90 179 179 88 88 179 132 86 178 178 132 85 178 131 131 124 178 130 129 139 207 127 175 174 211 131 172 80 119 133 169 80 137 167 79 79 142 165 79 178 148 147 78 178 149 149 190 178 94 77 191 222 91 190 177 222 87 188 222 85 178 185 222 83 156 222 222 181 157 75 180 179 157 75 178 177 158 183 175 159 159 193 173 159 204 209 159 159 221 207 157 230 232 197 117 238 192 190 173 240 189 190 175 192 194 176 177 201 178 178 136 208 179 179 132 179 179 131 130 226 179 133 218 215 138 140 205 201 146 194 191 162 153 183 159 157 176 175 152 151 167 146 144 165 164 133 129 161 154 114 158 157 152 171 154 150 149 152 151 148 214 149 148 147 226 229 147 233 235 75 146 239 239 75 95 240 76 77 96 115 78 148 225 111 79 148 110 79 147 147 143 78 145 142 141 107 144 139 160 107 179 135 115 140 172 49 60 167 124 42
66 66 89 88 69 163 87 73 74 160 86 78 158 157 218 84 155 121 208 107 152 124 125 112 214 126 83 146 128 129 83 208 130 83 83 204 96 83 135 200 94 84 147 92 91 180 160 134 90 179 135 132 179 180 135 129 178 135 128 182 178 133 179 140 132 131 176 142 128 174 173 81 166 172 171 80 178 169 80 80 178 79 79 178 178 79 79 178 102 78 178 178 97 160 177 95 93 158 177 90 90 156 88 88 156 156 86 155 156 76 84 156 156 75 180 157 75 75 176 160 75 175 175 75 75 175 83 75 174 173 85 74 172 90 93 227 168 104 109 236 194 129 196 199 189 157 207 73 172 175 218 72 176 224 139 70 178 230 70 236 179 131 72 132 133 131 223 139 195 136 211 171 197 200 197 164 200 187 160 159 171 177 155 205 168 150 148 166 206 80 135 163 155 81 160 159 153 186 156 151 151 197 152 149 207 211 148 148 221 144 147 229 231 74 124 237 75 75 147 240 76 76 148 77 77 148 148 78 78 148 144 79 147 147 144 143 145 143 142 182 144 141 172 167 138 137 143 131 134 102 87 57 128 53 47 50
229 189 165 229 110 168 162 226 153 87 159 117 135 218 83 120 85 208 108 123 84 95 112 83 83 103 117 83 110 112 144 82 119 125 141 132 130 139 201 133 137 136 134 92 135 134 135 90 132 136 136 97 130 137 104 107 138 138 118 195 197 130 134 203 135 146 206 208 128 161 211 212 130 213 214 132 133 216 216 136 146 218 140 142 147 193 147 147 148 196 154 149 198 198 150 150 198 198 151 198 198 221 153 196 221 221 177 195 222 222 179 221 221 180 179 221 220 179 157 220 177 177 158 218 175 158 158 84 173 158 216 218 158 157 227 230 156 234 236 195 154 239 240 189 73 241 189 190 73 144 195 176 241 143 204 178 136 208 191 178 132 204 179 224 131 194 178 133 135 196 176 141 203 198 150 78 189 161 155 79 179 156 79 79 195 149 80 171 196 202 81 193 124 192 188 185 182 156 177 174 165 207 149 154 150 206 148 140 204 203 91 130 200 147 94 196 195 96 239 192 97 97 118 188 97 97 113 110 95 111 110 108 90 109 108 107 108 108 107 192 109 107 107 186 110 108 180 178 55 108 173 171 48 137 166 43
235 229 177 173 233 162 157 228 227 142 138 220 102 103 213 210 106 153 203 110 112 216 195 115 116 213 119 120 211 209 123 208 206 98 128 204 203 95 181 200 93 93 180 196 92 180 179 136 89 179 140 88 101 178 141 86 178 191 141 125 178 140 139 178 204 137 176 175 209 134 173 80 213 130 171 80 132 134 145 79 137 166 146 195 178 147 78 199 178 149 201 178 101 150 202 221 96 202 202 221 92 201 221 221 175 200 221 87 178 155 221 179 156 155 220 179 156 75 178 177 157 200 175 158 158 207 173 158 214 217 158 158 225 228 204 232 234 197 195 238 192 190 172 241 188 189 174 191 192 175 175 198 201 177 138 137 178 178 134 133 178 131 131 229 178 132 221 218 135 137 209 205 143 198 195 163 150 185 182 158 171 176 154 152 168 148 145 165 164 136 132 162 155 116 159 158 153 95 155 151 151 160 151 149 149 212 206 148 221 224 147 93 232 74 146 237 238 75 97 239 76 76 98 236 78 147 147 112 79 146 144 110 108 145 143 78 108 193 142 107 143 140 140 107 184 137 147 108 177 132 92 55 170 47 49 48
106 107 165 164 110 111 87 113 114 87 86 117 86 85 84 120 85 85 91 84 84 96 99 83 83 105 146 146 111 114 143 143 121 141 141 132 132 138 132 133 137 136 134 135 134 135 136 91 132 137 137 100 179 137 108 112 189 120 124 196 198 137 141 203 127 154 206 208 127 168 211 128 129 178 214 131 132 145 125 135 145 146 139 165 147 200 145 148 148 203 161 149 205 205 159 150 206 221 221 77 206 221 171 77 176 221 175 204 221 88 178 176 220 178 178 176 85 177 156 175 85 176 157 209 86 166 157 217 169 171 75 226 175 156 75 166 183 74 238 156 193 74 146 188 74 73 140 174 175 145 146 184 176 142 188 190 229 135 192 193 229 194 194 222 218 195 195 198 76 77 172 165 78 165 150 79 79 180 157 80 188 190 80 81 194 195 81 195 194 201 82 191 194 190 210 182 179 175 209 85 163 208 207 151 147 206 90 138 205 204 93 128 200 95 96 146 196 97 122 121 146 99 117 116 146 231 112 110 97 217 110 108 204 108 78 108 190 76 107 143 192 71 107 187 138 65 139 179 56 57 137 130 49 136 136 125
234 229 165 159 229 95 145 224 222 100 86 215 104 105 85 206 109 219 84 93 115 216 192 102 147 213 108 124 145 129 99 142 206 131 97 139 132 95 83 137 133 94 180 135 135 89 179 136 137 96 174 137 104 107 185 128 119 191 194 127 136 199 127 126 204 205 126 175 208 127 127 143 212 129 144 144 191 132 145 145 197 147 147 202 203 147 148 205 219 148 207 208 220 150 209 220 220 209 209 220 168 170 220 220 173 174 220 175 176 154 220 177 177 155 177 177 156 156 176 156 157 212 175 157 157 218 213 157 223 225 207 156 231 202 200 236 237 195 193 240 190 189 172 241 189 173 174 146 193 175 176 141 187 176 138 137 177 178 133 234 178 131 131 228 216 132 219 216 188 138 206 169 167 79 192 162 161 80 183 157 170 175 191 150 167 194 142 203 164 192 198 161 210 185 185 157 152 85 170 209 150 199 154 208 89 213 206 205 92 139 203 95 96 130 199 97 124 75 117 99 118 76 146 115 114 112 146 111 110 109 191 109 108 108 194 107 107 195 194 107 107 190 70 68 185 183 62 139 178 55 53 116 172 48 119 120
166 107 92 164 110 111 97 226 114 87 159 117 118 85 222 120 85 84 92 123 84 98 100 104 83 107 108 101 185 115 143 83 183 134 140 181 134 139 137 180 142 135 196 135 146 133 136 90 149 190 137 103 187 186 87 117 184 183 85 178 181 84 83 178 203 82 178 178 145 81 178 211 140 178 178 137 131 178 132 130 166 178 125 124 164 120 118 162 161 78 112 160 77 77 159 158 77 177 157 77 77 177 156 77 176 176 76 76 176 176 76 176 176 89 89 175 175 89 159 175 89 89 162 214 91 165 167 210 95 171 75 102 171 178 75 117 183 154 75 152 193 74 242 140 149 73 142 144 145 241 146 187 140 239 140 191 237 237 206 194 227 135 196 178 214 185 196 177 137 173 175 162 79 165 174 150 80 172 171 155 81 169 157 157 171 193 157 171 172 129 156 174 186 108 180 182 92 172 190 193 78 151 204 73 73 148 217 72 146 147 147 73 146 146 146 146 145 146 146 146 146 146 236 146 145 145 226 145 144 214 210 79 202 199 77 77 190 187 74 142 180 70 68 140 167 62 138 138 57 55 136 136 50 135 135 126
232 91 229 228 70 96 227 226 100 159 225 120 106 223 119 112 153 219 108 107 150 125 104 188 147 127 101 185 129 129 83 183 135 97 181 132 140 83 180 143 135 86 153 148 195 90 164 131 191 172 175 129 187 183 128 127 139 85 127 140 140 149 125 141 83 166 142 142 177 178 143 143 189 212 144 196 198 215 136 203 216 216 137 208 217 141 143 218 218 148 150 219 153 155 150 219 160 162 151 165 166 152 153 217 153 153 217 216 154 154 217 219 154 217 218 217 155 219 216 216 221 221 213 213 225 210 209 171 171 205 171 171 156 199 170 170 154 171 171 152 152 172 172 149 242 173 147 145 241 217 142 241 240 205 137 238 208 207 74 233 201 199 228 138 187 178 217 177 174 176 158 168 175 174 148 202 172 153 154 205 170 156 173 206 198 157 171 163 157 84 173 211 154 178 179 211 86 188 82 79 89 159 74 149 91 146 72 147 139 136 128 146 130 74 121 198 123 118 145 194 115 114 192 145 100 111 192 99 217 193 193 96 202 196 91 89 109 196 82 110 110 75 72 111 112 108 113 114 109 136 116 118 110 172 120 110
230 106 93 94 228 134 98 226 226 122 86 224 115 113 200 221 109 84 193 106 105 189 101 102 102 185 128 100 183 183 135 182 182 139 140 203 180 144 201 199 148 149 196 196 152 193 193 91 155 190 89 89 128 186 87 87 178 139 85 178 178 84 83 178 157 82 178 178 154 81 178 150 149 195 178 145 169 203 215 138 166 166 133 137 164 78 126 162 161 78 149 160 77 77 156 151 77 177 162 151 76 176 152 153 220 176 98 76 221 219 95 221 175 217 93 222 216 94 174 224 214 173 162 211 210 172 167 75 171 171 156 75 170 170 154 239 171 153 152 241 151 150 242 140 148 147 241 194 144 241 241 202 190 239 207 208 177 236 206 204 177 197 193 177 177 182 177 177 138 171 175 175 145 174 173 150 151 181 171 155 175 174 157 157 171 140 157 171 172 123 155 175 107 102 181 183 88 84 152 78 76 150 149 72 72 147 148 72 146 146 147 126 145 147 146 145 145 146 238 145 146 146 234 232 145 227 224 78 145 213 79 78 95 198 76 76 189 109 72 140 181 67 66 139 112 60 137 137 133 53 136 131 130 110 134 127
65 66 164 228 70 71 161 113 76 159 225 117 156 156 119 109 153 153 123 84 150 125 125 83 185 127 83 83 116 129 83 83 126 83 83 134 137 84 143 145 135 87 154 157 133 163 165 130 130 137 176 128 138 138 127 127 139 138 126 140 140 158 124 142 171 175 142 142 186 189 209 194 197 211 212 203 204 214 130 209 215 215 135 178 217 139 141 217 217 146 149 218 151 153 150 151 158 151 151 222 164 152 223 223 156 153 223 224 154 76 224 217 154 225 225 216 76 226 214 213 173 229 211 172 172 171 207 171 155 167 114 170 154 195 131 183 153 146 170 192 151 242 200 148 74 242 211 74 241 199 220 74 240 206 74 74 137 206 75 75 137 196 77 141 185 197 177 151 199 176 165 165 201 152 149 203 204 160 154 206 178 185 83 206 200 204 84 209 210 85 86 183 86 87 175 173 88 89 164 160 90 155 151 146 93 144 137 134 136 134 128 126 202 123 121 199 198 117 196 195 101 113 194 194 101 145 194 100 99 144 195 96 109 197 144 90 109 108 84 183 110 108 74 112 108 108 156 115 109 109 104 49 110 173 122 45
230 230 67 95 228 228 73 160 226 116 106 157 223 110 155 221 121 106 152 218 104 84 149 126 102 184 112 128 83 182 139 130 83 129 145 84 84 140 151 86 149 152 134 90 160 131 193 136 171 129 189 89 128 127 139 87 126 126 140 153 125 141 141 171 124 142 183 186 143 143 195 210 210 202 204 212 152 209 214 214 132 214 216 216 136 216 217 141 143 217 147 148 149 218 153 155 151 224 160 152 152 226 165 152 226 227 153 153 227 227 154 227 228 216 155 228 214 213 172 231 211 210 172 208 207 171 171 203 201 170 154 197 170 170 153 142 170 152 151 170 171 149 242 242 147 146 241 241 143 241 240 204 138 238 238 207 75 234 203 201 77 139 190 177 220 147 177 176 139 170 200 174 146 163 173 153 152 205 170 155 83 206 192 157 170 204 207 85 172 118 212 87 177 96 88 88 168 80 90 158 74 151 93 147 72 146 139 137 131 145 130 129 123 201 147 119 118 197 146 115 195 195 101 112 194 101 101 195 195 99 206 197 96 94 109 199 89 87 110 108 80 111 112 108 113 114 109 109 116 118 110 176 120 111 111 171
89 66 164 88 70 71 161 208 76 158 158 82 83 156 120 120 153 152 123 123 150 125 125 83 147 127 128 83 210 129 83 83 207 98 84 135 132 96 86 147 135 88 179 158 132 96 167 165 129 178 177 127 138 178 170 126 139 178 171 181 141 167 124 178 142 184 176 143 82 196 173 144 203 178 170 79 210 213 79 79 178 215 78 78 177 141 139 177 177 134 145 177 128 126 159 177 121 158 158 117 115 157 152 112 156 156 76 107 156 156 76 175 157 76 76 174 158 76 173 173 76 76 171 110 75 169 168 118 75 165 127 132 178 157 144 149 186 188 162 193 195 173 172 204 74 184 211 214 74 174 221 74 75 176 226 75 138 137 132 76 139 140 78 222 146 198 79 155 171 200 199 168 202 203 186 159 205 163 177 152 207 188 84 142 164 205 86 162 161 155 87 158 212 153 182 153 152 91 194 150 150 203 148 71 148 216 71 133 225 228 73 124 234 74 74 144 238 76 76 145 77 77 144 195 78 78 144 145 100 143 142 144 198 141 143 143 188 140 141 183 181 140 139 174 170 137 158 149 52 133 108 48 46 133 59 43
166 230 67 69 163 111 74 160 160 115 80 157 118 119 154 154 121 122 84 124 124 84 184 126 83 83 114 128 83 83 124 83 83 131 134 84 85 142 136 135 150 154 133 136 162 131 130 136 172 129 138 138 127 126 139 139 125 140 140 162 124 141 141 181 202 142 191 194 206 200 202 209 210 208 210 212 126 214 213 213 130 219 214 134 135 177 216 139 149 149 137 146 149 150 150 159 151 228 157 152 152 230 157 152 230 231 157 153 232 215 214 76 233 213 170 234 173 210 171 235 208 113 170 170 204 170 170 166 128 169 154 159 142 180 152 242 159 189 151 242 196 199 74 242 207 145 74 147 216 75 240 142 224 75 139 206 76 76 139 196 177 141 143 197 177 150 199 199 173 163 201 174 153 203 204 156 152 206 171 177 84 172 195 199 86 187 208 87 87 181 212 88 174 172 90 90 163 160 92 155 152 148 95 144 139 136 207 134 130 127 204 73 122 201 201 119 117 198 102 115 196 196 102 144 196 101 101 143 197 100 109 109 144 95 109 109 143 186 110 108 82 180 113 108 171 115 54 109 139 50 110 133 175 45 111 172
220 66 164 121 209 100 161 113 200 107 158 117 112 113 222 120 119 152 219 103 127 217 125 102 135 213 101 83 210 209 99 180 130 98 97 180 140 96 179 179 164 95 179 160 169 179 178 173 129 178 175 176 187 139 178 178 184 87 179 181 180 85 180 178 84 83 176 175 82 82 173 81 81 178 170 80 178 178 165 79 178 177 158 222 177 152 150 177 177 145 161 177 139 137 159 216 132 159 158 216 125 157 76 76 163 157 76 76 166 153 76 175 157 153 76 173 154 75 237 172 154 238 170 122 124 239 166 132 171 241 193 145 179 152 189 169 187 187 171 170 148 189 171 205 145 195 173 142 75 240 175 138 75 140 135 134 234 139 132 132 227 190 132 219 216 177 209 207 169 167 196 193 162 173 172 158 156 170 172 149 167 166 157 138 163 156 156 161 160 155 155 156 154 153 184 186 151 151 195 72 150 205 208 71 148 217 71 72 226 228 73 144 233 74 75 144 237 76 144 144 145 77 144 144 145 143 143 145 145 142 144 144 197 141 143 143 188 198 142 183 182 139 139 175 57 55 160 151 50 49 111 46 45 132 62 42
92 106 89 209 99 115 87 76 106 87 194 83 156 85 89 119 153 85 97 150 217 125 107 147 214 101 145 144 129 99 142 141 131 84 139 133 133 86 133 134 90 91 135 136 99 165 168 109 113 175 179 128 182 184 126 151 190 124 124 195 196 123 123 200 123 123 143 143 123 123 144 210 124 145 145 216 125 146 220 221 147 147 223 214 148 226 227 214 149 228 215 215 145 230 215 215 151 215 215 156 157 215 159 160 152 214 163 164 153 122 166 153 153 168 168 153 238 238 154 154 239 239 154 240 240 198 153 241 194 193 75 242 190 189 75 145 187 169 170 188 188 171 146 192 172 172 143 191 174 139 139 195 175 135 236 196 225 132 230 177 218 79 220 182 135 81 208 171 82 199 169 163 83 177 159 205 84 184 151 168 186 187 205 164 185 184 199 211 155 191 187 213 90 177 213 213 93 160 212 95 95 210 210 97 215 208 99 99 129 73 101 101 123 120 102 119 118 115 115 114 113 112 112 111 110 197 110 109 109 199 109 108 201 201 95 108 199 90 88 195 194 81 79 188 74 71 117 183 64 62 121 132 54 123 124 129
214 212 96 116 205 202 103 87 195 108 110 86 189 116 222 186 94 124 219 103 130 149 216 101 139 213 100 100 143 209 99 98 140 131 98 179 202 133 96 179 134 95 96 179 176 104 178 171 181 122 178 183 126 145 186 186 184 167 193 123 180 197 198 123 143 202 122 122 143 82 122 144 145 216 124 145 80 221 146 147 223 177 147 147 226 214 148 228 229 214 140 230 214 215 146 233 215 151 153 214 214 157 157 214 160 161 152 212 163 153 153 165 166 153 153 239 153 153 240 240 153 153 241 199 153 241 241 194 153 242 190 189 242 243 187 169 243 187 187 170 170 190 171 172 144 196 173 174 140 174 175 137 136 176 134 134 232 177 132 132 224 212 133 216 214 174 138 204 168 166 83 191 161 159 182 156 154 170 174 147 167 166 185 133 163 162 156 195 158 155 154 182 154 153 185 151 212 150 197 211 150 97 209 209 148 218 132 207 100 229 73 74 102 120 75 144 102 116 77 143 113 112 112 142 111 110 109 199 109 109 141 201 108 108 201 143 92 108 196 86 182 192 190 77 116 186 70 67 119 180 60 122 123 52 50 126
166 106 89 88 110 111 88 77 114 87 86 84 86 86 90 92 153 85 99 101 150 106 108 147 146 115 145 144 129 125 142 141 131 85 139 133 133 88 136 134 93 95 135 135 104 107 137 116 121 176 138 138 182 184 89 162 190 191 124 178 196 123 122 178 200 122 143 203 191 122 144 189 123 171 145 186 124 146 80 180 167 147 227 227 164 78 229 213 162 78 231 213 77 77 176 213 77 176 176 146 77 176 212 140 158 175 137 161 153 174 134 158 153 134 134 160 75 136 162 163 75 141 166 75 75 169 171 75 242 155 75 75 148 187 75 75 142 180 75 143 145 187 146 147 191 192 146 146 194 220 142 195 196 224 225 197 224 223 79 198 215 80 80 176 193 82 82 171 141 83 171 154 84 85 180 152 86 184 185 207 87 185 204 203 171 181 197 211 174 99 184 214 166 81 151 213 74 157 148 212 97 146 210 98 99 144 148 100 127 144 147 102 121 146 146 235 116 146 103 233 78 145 227 111 78 110 213 77 109 140 200 74 139 202 71 69 138 198 64 136 136 140 57 135 135 137 133 133 134 134 116 132 132 75 67 130
89 206 97 108 88 73 104 87 87 81 112 224 86 89 154 222 96 127 152 124 104 149 216 127 146 146 128 100 143 142 130 85 140 131 132 87 179 134 91 92 154 135 100 162 165 111 116 172 174 131 178 180 126 155 186 188 124 191 193 123 123 142 198 122 142 143 122 122 143 215 122 145 145 220 122 146 223 224 146 147 226 227 211 228 229 212 212 231 213 213 137 233 213 213 143 213 212 148 149 212 212 154 151 211 157 158 152 152 161 153 153 240 163 153 240 241 161 153 241 242 153 75 242 195 152 243 243 191 75 243 188 187 167 145 187 168 168 142 188 169 146 147 191 171 143 198 194 217 139 195 175 136 135 235 224 133 231 229 219 80 222 184 203 81 210 172 83 83 167 164 84 189 176 205 86 181 151 207 179 184 206 165 200 182 200 209 156 192 189 213 154 179 214 214 94 163 213 213 96 212 211 98 99 135 100 100 130 128 101 102 123 121 102 119 118 116 103 114 114 113 112 111 111 199 200 110 110 201 201 109 203 202 99 108 202 200 93 136 196 88 86 135 139 79 117 185 71 69 121 111 61 123 124 112 50 127
231 106 89 89 72 109 88 77 79 106 87 86 156 104 184 94 153 85 100 133 150 181 110 147 147 127 150 144 129 130 159 207 132 86 167 204 133 90 200 199 96 99 196 136 94 178 193 93 131 178 193 92 178 184 197 90 178 198 123 178 178 199 122 178 200 200 176 178 199 199 173 198 197 171 171 81 169 169 80 227 167 167 79 177 165 79 78 177 163 78 177 177 78 78 177 166 164 176 176 160 158 176 155 154 158 174 151 151 159 207 149 159 160 149 149 162 75 151 163 164 75 165 167 75 75 159 172 75 153 151 151 75 145 144 149 243 142 186 75 243 191 191 242 148 197 194 215 202 196 174 222 205 197 224 133 200 176 220 80 188 177 133 82 176 176 138 203 165 143 144 190 175 149 182 180 152 153 175 183 206 172 172 129 201 172 114 108 157 175 93 88 153 153 77 150 149 151 71 147 150 149 145 145 148 100 144 147 147 228 143 147 233 233 146 146 235 234 77 233 231 78 78 224 221 78 141 211 76 75 140 74 73 139 138 68 67 137 141 141 136 135 139 139 134 137 137 164 132 135 133 118 133 133 78 69 132
90 89 69 108 88 88 76 88 87 82 84 87 88 90 155 86 97 99 152 181 106 149 148 113 115 146 128 129 143 143 130 131 140 132 133 89 137 133 94 96 199 135 105 109 194 94 124 172 138 93 148 180 126 167 186 187 124 178 192 123 123 178 197 122 143 178 203 121 144 203 203 173 145 223 121 170 146 227 169 146 79 229 166 79 231 177 164 78 233 211 78 78 177 210 77 77 176 169 146 176 176 164 159 175 161 159 159 174 158 160 159 157 157 161 152 157 163 163 75 161 166 167 75 161 170 75 75 153 75 75 147 146 75 75 143 186 75 144 146 191 75 148 194 194 212 146 196 218 219 197 197 223 223 197 223 222 79 198 216 213 81 176 198 82 83 175 171 84 168 171 146 86 177 206 87 177 181 207 88 181 135 204 172 178 198 195 173 99 186 214 179 82 152 214 96 73 148 213 98 146 145 149 100 144 209 147 224 143 147 102 121 143 146 234 116 116 146 233 77 113 228 225 78 110 216 77 76 140 203 74 108 139 71 69 138 200 64 136 136 140 87 134 134 138 174 133 136 136 146 131 134 105 91 133 132 65
231 231 109 109 229 229 106 188 227 105 105 184 224 103 182 181 129 102 181 136 139 180 180 146 149 179 154 156 210 179 163 165 206 139 172 203 202 149 180 199 97 96 133 196 95 178 193 138 94 178 189 92 166 178 140 90 178 178 141 199 178 206 142 210 198 207 176 217 202 207 174 204 205 121 171 206 203 169 146 208 124 167 79 209 127 148 78 177 132 149 235 177 149 149 236 176 151 238 238 208 151 239 175 207 240 240 205 166 241 204 202 158 161 200 200 161 152 197 162 162 152 192 164 152 151 164 164 151 150 165 150 149 243 166 148 243 243 188 146 242 242 194 242 241 198 200 239 239 204 174 237 204 203 176 200 197 176 177 131 185 176 133 134 176 175 138 140 175 143 145 188 172 150 151 179 153 153 175 173 155 172 172 123 118 173 173 101 156 177 87 83 152 184 74 149 148 146 70 146 149 70 138 144 148 71 143 208 147 228 143 146 146 233 203 146 234 233 202 146 229 78 201 103 218 77 103 102 110 74 139 196 71 108 137 111 65 136 136 114 109 134 139 117 109 186 137 110 111 182 135 111 179 177 54 73 174
166 67 165 164 110 74 162 113 114 87 159 117 118 86 120 121 86 85 123 123 85 110 126 85 85 120 85 85 127 130 142 87 137 140 139 144 147 136 136 155 134 134 136 164 131 131 137 129 129 138 139 127 139 140 184 188 140 141 200 192 142 209 211 197 143 216 200 201 85 222 203 121 225 177 205 121 228 206 206 123 147 208 125 125 148 200 128 149 149 195 133 149 236 137 162 150 237 161 151 77 239 207 151 240 174 204 76 241 202 202 76 171 199 159 76 168 173 161 165 163 175 162 159 178 179 173 151 183 165 179 76 188 185 148 76 192 194 76 242 201 204 76 148 211 77 77 145 219 78 143 142 197 79 142 144 198 145 146 198 176 152 200 200 186 161 202 203 162 162 204 153 154 87 206 163 88 89 179 185 90 90 200 91 92 173 210 93 167 164 154 95 157 154 96 190 147 152 148 140 138 140 211 131 132 130 209 72 125 207 206 74 119 205 103 76 142 202 103 113 141 146 104 110 202 145 103 110 145 102 198 110 144 191 111 65 142 186 114 109 184 183 53 109 187 175 48 132 183 45 43 130 134 41 130 175 134
166 231 108 107 163 110 105 185 184 115 104 182 121 119 86 181 131 86 85 106 141 85 179 116 147 85 123 160 144 87 132 142 207 132 143 138 202 98 136 135 135 97 133 136 137 134 130 138 138 160 139 139 178 178 140 140 197 190 209 206 209 194 122 215 197 199 121 221 201 120 120 203 203 120 120 204 121 122 147 147 123 124 147 232 126 148 149 234 149 149 236 236 149 149 237 206 150 238 239 205 150 239 204 204 149 241 202 152 153 200 199 156 156 197 158 158 151 193 160 160 151 182 162 151 151 163 163 149 243 243 149 148 243 186 147 243 243 189 145 242 194 195 76 240 200 201 239 144 203 174 175 202 197 176 132 194 176 176 132 199 176 134 135 201 175 139 197 204 156 146 186 171 156 88 178 145 153 90 178 131 91 172 174 111 93 169 96 184 94 159 79 151 152 150 157 147 143 147 144 212 149 135 144 210 102 127 208 147 103 121 206 103 232 204 204 104 231 202 103 104 111 78 103 109 110 109 103 110 110 109 110 111 109 108 112 113 109 196 115 109 109 189 51 110 186 184 75 111 181 67 64 178 177 55 52 174
166 67 100 164 109 75 162 161 114 115 159 117 118 125 156 121 86 135 219 124 86 112 216 101 86 121 129 101 179 132 100 89 178 141 99 178 149 184 98 178 158 134 178 178 196 131 137 201 202 190 139 206 207 187 92 209 184 183 91 212 181 89 216 179 178 87 178 199 86 85 177 202 84 177 177 215 82 177 177 213 177 177 211 210 177 177 207 165 177 205 204 164 78 200 162 162 77 196 162 77 77 161 161 77 77 162 77 77 171 162 76 169 168 151 76 165 164 185 243 160 187 187 243 154 189 176 149 184 192 182 144 194 165 190 187 195 196 145 192 169 206 77 77 172 139 78 144 174 136 79 143 134 132 230 145 131 224 149 183 132 214 156 201 175 202 166 203 159 191 158 172 154 151 149 168 171 140 166 165 155 123 161 155 155 158 157 154 95 179 153 152 185 150 151 151 195 69 149 204 206 70 212 215 71 72 223 225 73 142 230 75 75 142 142 77 141 141 146 77 141 140 145 140 139 145 145 139 144 144 196 137 144 143 189 63 142 186 185 56 140 183 52 50 179 177 46 131 159 43 43 130 110 40 129 128 39
166 165 107 108 163 163 112 88 160 115 116 87 118 119 87 86 121 123 86 107 125 86 86 117 120 86 125 127 144 88 135 137 141 142 145 139 138 152 136 135 135 161 133 133 137 147 130 138 138 172 127 139 189 193 141 141 204 189 142 212 214 194 142 219 196 197 87 224 199 200 120 177 201 120 120 177 203 121 147 204 215 123 147 213 125 166 148 210 128 149 79 207 163 149 238 238 163 78 239 202 162 77 173 200 77 241 171 198 77 169 196 190 76 166 192 156 166 161 190 159 151 155 191 174 150 193 193 179 76 195 185 187 76 196 193 76 77 200 202 77 241 147 78 78 145 202 79 144 143 198 80 143 144 198 146 147 199 199 152 154 200 190 160 202 202 166 161 204 154 153 88 206 158 90 90 167 178 91 91 194 155 93 170 208 94 94 162 154 96 155 152 165 188 146 153 150 199 137 141 213 131 71 131 210 125 126 142 208 75 120 206 206 103 141 204 104 104 141 146 104 110 140 145 103 110 145 145 200 110 144 101 191 65 143 187 114 58 134 184 54 110 133 181 48 131 184 45 44 130 180 41 129 129 135 39 128
232 188 101 104 230 184 110 228 227 117 119 225 118 103 223 222 102 86 219 102 102 179 216 101 101 178 100 100 178 178 100 100 178 178 99 178 178 187 136 178 192 194 197 178 199 194 193 173 205 190 189 209 126 187 93 212 185 184 92 178 181 90 90 178 143 88 177 177 144 87 177 219 85 228 177 219 83 177 203 218 232 177 217 216 167 204 214 166 165 203 129 164 79 203 134 163 78 137 139 150 77 142 163 151 241 146 151 77 242 194 151 242 166 191 151 243 189 194 243 243 186 195 243 184 184 161 243 184 184 164 147 185 165 192 145 167 168 144 77 169 170 141 240 172 138 137 237 174 134 234 233 133 132 228 191 188 221 219 180 177 211 172 169 175 200 163 161 173 158 155 171 170 148 145 167 153 135 164 163 154 174 159 155 155 176 155 154 179 181 152 152 187 189 151 194 197 70 149 205 70 71 102 216 72 73 142 74 74 142 142 75 76 141 146 77 141 140 146 77 140 145 145 110 138 145 204 201 205 144 194 193 143 100 188 61 142 185 185 54 92 183 50 49 84 122 45 131 75 125 42 129 135 129 113 128 135
188 69 165 90 75 109 162 81 83 160 226 90 92 157 120 100 155 154 123 109 151 126 126 149 148 128 89 89 130 130 92 94 132 97 100 148 134 111 116 158 127 132 164 166 152 159 172 130 178 177 178 128 140 183 125 125 141 188 123 142 142 122 121 143 143 120 144 144 225 120 145 227 228 200 146 230 230 202 231 231 202 202 233 233 202 124 234 202 202 128 236 201 131 132 175 200 135 150 150 207 140 150 150 143 164 151 241 148 151 151 242 166 151 243 243 168 77 243 186 172 77 243 183 159 77 147 183 162 243 145 199 164 147 187 198 167 149 198 169 141 147 198 212 138 238 198 218 135 235 220 220 82 229 217 131 83 150 206 85 213 157 86 86 163 164 87 88 170 205 171 173 173 206 168 173 205 204 187 171 199 197 204 192 188 211 212 179 214 215 97 163 215 215 99 139 215 101 101 131 213 102 126 125 103 103 121 122 103 117 117 118 104 114 115 114 205 111 112 112 204 76 110 205 205 74 109 206 103 109 136 204 101 135 200 99 98 134 193 94 118 119 139 87 121 122 138 169 125 112 69 127 40 113 91 131 38
106 91 71 105 230 182 79 114 227 86 121 158 225 96 156 222 122 105 153 219 102 150 150 127 101 148 147 129 91 178 131 100 97 145 133 106 178 154 135 126 160 196 146 153 168 202 172 174 175 129 190 180 181 126 141 185 125 124 142 123 122 143 143 122 121 144 225 120 144 144 227 120 146 229 229 200 146 230 201 201 232 232 201 201 233 201 201 126 235 200 200 129 200 199 132 133 198 198 136 150 150 140 141 150 241 144 151 151 242 148 150 242 242 150 150 242 242 150 243 243 183 183 243 182 182 161 243 183 184 163 146 186 165 166 189 190 168 143 194 170 170 139 199 172 137 136 235 175 133 232 231 219 131 226 223 211 84 217 176 133 86 206 167 87 197 167 158 89 170 152 206 169 173 140 166 153 171 201 162 154 166 193 208 154 183 153 214 153 168 215 152 99 191 215 100 199 134 213 102 210 71 102 103 123 73 103 103 117 119 103 115 114 115 113 112 113 112 205 110 111 205 205 110 109 206 144 109 206 205 102 109 202 200 100 197 196 97 96 191 93 91 120 121 85 83 124 112 76 127 128 113 64 130 114 114 79
91 69 105 90 75 77 89 89 84 160 88 91 94 157 88 101 155 154 123 111 152 126 126 157 149 129 129 167 211 131 96 143 207 133 107 204 134 120 126 200 98 145 165 166 98 172 172 130 97 178 178 128 206 178 213 125 178 187 216 123 178 219 122 179 143 220 178 144 89 222 175 146 228 173 173 86 230 171 171 84 177 169 83 83 176 82 82 176 176 219 81 175 217 217 174 174 215 135 173 213 212 165 171 210 210 165 208 208 166 167 206 167 168 77 77 170 171 77 154 173 77 77 148 179 77 146 145 147 77 146 201 78 148 148 200 199 149 199 199 208 146 198 198 215 200 198 218 219 198 198 219 83 198 176 212 85 176 201 133 86 159 179 88 199 166 143 89 169 170 148 182 171 206 152 177 130 202 175 175 111 193 175 96 91 154 213 80 170 150 152 71 147 215 150 69 144 149 102 143 143 148 215 142 148 148 224 118 147 228 229 76 146 229 112 77 226 224 77 111 217 76 75 138 206 73 72 136 69 67 135 135 143 61 134 142 141 133 132 141 140 132 140 139 181 130 137 170 163 137 137 129 116 137 94 87 37
167 91 72 74 165 90 80 162 161 87 90 159 118 97 157 156 122 107 154 124 125 89 151 127 128 91 129 129 94 96 131 132 103 146 133 116 121 155 132 139 161 163 134 166 169 132 131 174 175 129 128 180 128 127 141 185 125 142 142 124 123 143 143 122 143 144 225 225 145 145 227 196 146 228 229 197 146 230 198 198 84 232 198 123 233 198 198 125 234 197 128 128 149 196 131 132 149 216 135 149 149 213 166 150 240 143 166 150 241 168 150 78 242 184 150 242 155 182 77 242 182 182 78 147 182 160 78 146 201 163 147 148 200 166 148 199 199 205 140 198 171 212 81 198 216 135 235 219 219 83 229 217 215 85 150 207 86 86 157 188 87 161 163 204 89 167 155 205 169 170 206 167 170 204 203 180 167 199 197 200 191 188 209 211 97 175 214 98 99 215 215 100 137 215 101 101 131 213 102 126 124 148 103 121 119 103 226 116 118 117 114 113 115 206 111 112 112 206 76 111 206 206 74 109 207 104 69 136 204 102 109 134 143 100 116 194 141 185 119 140 92 121 122 138 179 125 112 137 155 129 113 117 105 38 114 171
182 70 104 104 180 79 104 179 179 122 160 178 95 158 224 178 140 154 124 148 151 218 127 158 161 214 101 168 211 210 100 178 207 100 100 178 203 99 139 178 99 99 178 167 98 178 178 205 97 178 178 210 178 178 213 214 185 178 217 183 182 218 219 180 92 220 178 177 90 221 175 89 89 120 173 87 87 172 147 86 176 176 84 84 176 222 83 175 175 220 235 175 220 219 236 173 217 166 238 191 215 166 170 189 141 167 79 211 168 150 79 148 170 78 78 152 149 78 151 156 148 78 146 147 147 242 146 201 78 241 186 200 241 148 191 168 240 195 198 170 238 199 173 215 199 199 175 218 196 176 176 131 85 176 131 131 215 176 133 135 204 137 138 197 194 143 145 187 148 148 181 180 136 152 177 123 119 161 176 103 157 156 90 85 153 152 77 150 149 152 70 146 146 150 144 144 149 149 210 148 148 216 218 147 147 224 75 147 227 228 76 146 227 77 77 223 221 76 76 214 75 74 137 137 71 136 136 144 65 135 134 143 109 133 142 142 132 132 140 184 130 139 139 182 182 138 172 165 40 138 131 38 38 58 90 37
104 91 73 74 104 90 81 162 162 178 91 160 159 98 136 157 122 109 155 153 125 154 151 127 128 164 213 130 99 173 209 132 111 148 205 100 132 156 135 99 178 164 99 179 178 171 98 178 175 130 97 178 211 127 178 178 214 125 142 216 217 181 143 219 122 179 92 220 177 145 90 175 174 89 227 173 172 87 177 171 86 86 176 195 85 176 175 221 83 175 175 220 174 174 218 218 172 217 217 166 170 215 215 167 80 213 168 168 79 210 170 79 79 172 173 78 152 175 78 78 147 179 79 145 145 146 79 146 147 201 240 148 200 199 240 148 198 207 146 197 198 213 199 198 217 217 197 198 217 85 190 176 212 86 87 176 132 88 158 182 137 200 163 140 90 191 166 146 184 167 140 150 179 166 201 162 176 110 193 201 177 91 154 211 80 77 150 152 72 147 146 150 69 144 150 149 143 143 148 103 215 148 148 221 117 147 225 226 76 146 227 226 77 225 223 77 77 217 215 75 138 207 73 72 136 206 67 135 135 144 61 133 143 142 132 132 141 141 131 140 140 184 130 139 138 178 41 139 156 144 39 119 108 37 37 86
104 180 106 104 179 179 112 103 178 124 103 178 178 135 90 178 142 144 90 178 152 218 217 125 162 214 213 135 147 210 101 178 144 133 100 141 203 135 100 138 136 99 178 135 138 98 178 174 139 208 178 209 140 215 182 212 218 219 186 124 221 188 189 123 222 190 122 121 192 192 121 176 145 121 121 146 88 121 147 147 229 122 147 147 230 148 148 232 232 148 149 233 191 190 235 235 189 217 236 187 187 137 238 185 141 142 183 183 144 145 181 148 149 149 180 151 152 148 241 155 147 147 240 146 146 241 240 145 145 240 186 143 239 240 192 141 239 195 196 237 237 198 198 174 198 197 175 176 192 176 176 130 183 176 176 131 201 175 134 135 175 174 140 195 172 144 145 185 144 149 181 180 130 151 178 116 111 96 177 97 93 97 150 81 151 183 143 72 147 151 70 147 144 150 139 143 214 148 130 142 148 103 124 211 147 224 118 209 104 226 208 208 105 111 77 105 105 110 75 104 110 110 110 104 111 67 135 112 113 109 133 115 116 110 193 118 110 110 187 94 111 183 183 88 112 181 81 79 178 177 69 121 174 58 54 135
168 104 91 166 109 110 91 163 114 91 90 118 118 90 90 105 90 91 113 115 92 121 123 151 95 130 133 148 178 140 146 145 147 149 143 134 135 140 140 136 172 137 137 137 194 134 138 205 207 192 140 213 214 188 97 217 184 142 96 220 186 124 220 177 189 122 177 191 219 122 177 191 121 175 177 220 121 147 176 221 172 147 220 220 170 86 230 169 169 84 232 169 84 233 172 168 83 235 186 82 82 168 183 81 81 163 212 143 160 159 210 173 154 208 207 175 149 206 179 180 204 204 183 146 202 187 189 80 200 194 81 81 147 202 81 82 147 82 82 146 145 83 84 145 198 85 146 146 198 86 148 199 200 218 153 201 192 187 167 203 171 166 204 172 155 92 205 153 154 94 166 165 95 95 162 153 96 157 157 153 98 150 175 153 182 142 161 100 137 70 148 195 130 140 137 204 71 131 213 213 73 141 212 104 75 141 210 104 140 140 146 105 139 207 146 219 138 145 105 209 145 145 201 111 145 144 193 63 109 189 188 57 110 186 52 51 131 186 47 46 130 44 43 129 129 41 128 128 139 38 127 128 141 101 127 142
92 179 106 107 91 178 111 91 91 91 116 90 98 101 158 91 109 146 155 117 119 153 217 127 129 150 130 136 148 147 132 145 145 133 134 142 141 135 166 172 137 137 189 193 138 201 204 174 140 210 212 178 214 215 181 182 217 184 184 125 219 186 187 124 144 189 122 123 145 190 122 145 145 121 121 146 224 122 146 147 225 122 147 227 227 189 148 229 229 188 230 231 187 186 232 233 185 134 234 183 183 137 166 181 140 141 161 179 145 148 148 209 149 148 148 152 178 147 239 156 146 81 239 186 145 239 239 192 81 239 187 199 82 238 192 170 237 146 195 172 235 196 198 174 145 194 176 216 147 199 177 130 151 200 200 132 209 202 179 136 199 164 160 92 190 152 93 93 163 158 94 180 160 96 96 157 104 97 97 151 179 153 146 144 166 149 138 155 152 216 132 143 215 215 136 134 214 214 128 213 212 103 122 211 211 104 113 209 105 105 111 146 105 110 110 105 105 110 110 105 110 110 110 104 112 109 109 191 114 109 109 196 54 109 191 189 110 130 185 95 111 183 182 88 128 179 82 79 128 175 70 134 134 142 55 137
233 104 92 166 231 110 91 86 114 103 91 96 118 91 177 107 102 92 115 152 102 177 125 152 102 178 167 149 131 178 176 146 133 181 183 205 134 188 202 200 100 194 198 138 99 195 194 99 209 191 191 98 177 180 98 97 177 183 97 177 177 213 96 177 215 215 177 177 216 122 177 217 218 175 176 218 218 173 90 218 172 172 89 124 171 88 87 171 170 86 173 170 85 85 171 170 84 169 168 214 83 165 164 212 235 161 210 210 157 177 208 174 151 206 206 178 177 204 181 182 178 202 186 81 82 162 192 82 147 165 142 83 146 203 140 236 145 137 84 235 145 135 232 145 194 132 228 146 199 212 221 180 200 201 172 170 176 182 163 203 173 139 154 171 153 145 143 168 148 95 181 163 151 179 156 152 153 178 150 153 180 181 78 153 185 186 72 189 191 70 70 197 199 70 143 142 72 72 141 148 73 141 141 147 75 140 147 146 139 139 146 146 139 146 146 216 137 145 208 205 71 145 199 197 66 193 191 61 60 188 187 55 132 186 51 49 130 186 46 130 130 140 42 128 140 140 128 128 140 141 128 141 142 102 126 144
102 168 106 107 91 92 111 91 91 92 116 91 91 102 102 91 110 113 93 94 121 154 98 128 131 151 178 138 149 148 131 147 145 134 134 184 142 135 135 140 200 137 196 137 138 138 206 194 140 210 211 190 98 213 181 181 97 214 183 127 97 177 185 125 215 177 214 123 177 188 215 177 177 216 123 175 146 216 174 147 90 217 172 147 223 171 171 88 226 170 170 87 171 170 86 85 169 85 85 166 165 211 84 162 210 142 158 157 208 146 152 206 206 178 147 205 180 181 203 202 184 186 201 189 190 83 83 195 197 83 147 201 84 84 146 208 84 145 145 85 86 145 198 86 145 146 198 198 147 200 200 206 151 201 201 190 166 203 174 169 157 172 156 93 204 169 152 95 166 160 150 96 156 180 97 178 151 153 98 146 144 153 183 139 160 152 188 71 147 194 195 70 137 202 71 71 142 214 73 124 213 147 74 140 211 105 140 140 147 105 139 139 146 217 138 145 145 209 110 145 202 199 68 145 194 113 61 189 188 57 110 186 52 51 131 186 47 46 130 44 43 129 128 140 40 128 140 140 127 128 141 123 127 143 144 90
111 233 104 117 231 231 103 126 229 103 102 227 226 102 177 224 102 102 177 177 102 177 178 162 102 177 177 170 120 177 175 177 144 151 182 205 177 159 188 201 163 192 138 197 100 197 194 139 99 134 191 99 99 131 141 98 177 129 143 212 177 143 96 212 177 144 213 177 186 214 214 177 214 123 215 186 215 174 186 186 124 173 185 184 126 147 184 127 128 148 88 130 148 148 227 132 148 86 229 148 148 230 162 148 231 232 175 148 233 233 175 234 234 175 175 153 235 176 156 157 178 179 160 144 182 163 164 143 186 167 141 140 169 170 138 138 172 136 135 232 231 134 133 229 190 131 225 223 182 220 218 176 173 212 210 166 175 203 159 157 172 171 149 170 169 145 137 166 149 149 163 162 151 152 158 152 152 180 153 153 153 183 212 152 186 188 71 151 193 70 70 102 200 71 143 206 120 73 141 214 74 120 140 114 76 140 140 111 114 139 146 146 112 208 145 212 137 208 146 203 207 145 105 194 204 144 190 115 198 103 187 53 51 102 120 47 130 98 124 111 129 127 128 113 128 130 113 113 175 134 114 127 169 114 114 164
104 91 233 107 91 83 230 103 91 94 228 102 177 104 102 93 177 115 102 177 122 158 154 177 165 152 214 177 172 149 132 177 179 207 134 183 185 203 101 189 200 199 100 194 196 100 100 177 193 99 177 177 99 99 177 180 98 177 177 207 97 177 177 209 177 177 211 211 179 211 212 177 177 213 213 175 93 213 174 174 92 213 173 91 91 126 172 90 89 172 148 88 169 169 88 225 166 210 87 164 162 208 229 159 207 207 230 153 205 177 149 174 204 179 175 202 155 184 84 201 187 144 84 162 193 84 84 165 142 85 145 169 139 86 145 137 137 232 144 197 230 229 191 198 226 146 185 177 220 179 200 176 212 169 175 184 162 160 173 138 153 170 170 143 95 167 147 148 182 163 150 97 180 152 152 180 146 153 153 181 79 152 184 185 72 188 190 70 70 144 197 71 143 142 72 72 141 141 73 141 141 147 75 140 147 147 140 139 146 146 219 146 146 214 212 145 146 205 71 145 199 197 65 145 192 61 59 188 187 55 131 186 50 49 130 130 46 130 130 141 42 128 128 140 113 127 141 141 127 142 143 123 126 145 146 91
169 233 104 79 167 231 103 164 164 115 103 177 118 119 92 177 122 102 95 121 126 101 177 131 128 115 138 170 131 136 147 148 156 152 155 145 204 159 142 142 137 165 140 198 139 138 136 140 100 135 134 141 205 132 142 142 205 143 143 205 205 182 144 205 182 183 206 206 183 183 207 184 184 124 209 183 125 125 183 182 125 125 147 126 126 147 147 128 128 148 219 130 148 148 221 134 148 224 224 148 148 226 174 148 227 227 172 173 229 173 173 150 231 174 174 154 175 175 158 159 178 160 162 143 182 165 165 141 197 168 140 139 233 171 137 232 232 212 135 229 229 132 89 226 187 130 222 147 179 91 215 172 170 175 152 162 174 173 154 153 171 141 155 203 168 146 201 199 160 150 195 160 179 98 185 194 152 181 182 207 100 184 74 213 101 189 70 102 102 125 70 103 121 120 129 103 118 74 123 115 114 120 140 212 112 116 210 146 113 113 210 105 111 209 209 105 110 208 105 105 207 206 105 105 114 104 104 116 116 103 103 119 110 102 122 122 111 187 125 112 112 128 129 112 176 131 114 114 173 172 114 169 167 60 115 162
90 75 78 167 177 85 165 165 177 134 163 117 177 143 160 121 149 151 222 125 157 155 218 102 114 215 130 102 136 211 101 154 177 207 101 177 158 101 101 177 164 101 177 177 193 100 177 173 196 193 177 199 133 190 201 202 187 142 204 205 184 98 206 182 182 97 207 180 96 96 179 178 96 95 175 95 94 175 174 94 174 174 210 92 172 172 209 214 170 209 209 169 168 208 174 174 207 207 174 88 206 175 175 88 205 177 87 87 147 179 87 87 152 146 86 142 185 145 86 142 199 86 231 144 198 232 145 185 197 232 144 197 207 231 191 197 212 230 191 175 215 189 198 176 130 90 176 209 130 92 176 130 92 207 174 133 93 152 137 138 193 153 142 144 186 132 199 183 182 115 160 180 102 98 156 180 86 152 151 78 76 149 212 72 146 146 151 71 144 150 149 200 142 149 149 208 148 148 213 214 148 147 217 76 147 219 219 76 146 217 76 75 213 211 73 137 136 70 69 135 135 65 133 134 145 58 132 132 143 131 131 142 142 130 142 141 187 187 141 141 189 40 141 190 188 38 143 171 37 37 134 122 36 36 96 35
74 169 105 80 167 167 111 165 164 115 116 162 162 119 92 160 122 123 97 157 126 105 109 128 128 122 139 142 140 147 148 150 165 153 155 146 183 160 161 143 177 166 141 140 169 170 138 139 140 136 136 141 198 133 142 142 198 131 143 198 198 184 143 198 198 182 97 199 181 145 97 176 181 126 202 175 179 126 174 179 126 128 173 177 129 147 171 208 130 148 175 207 174 148 206 136 175 90 218 175 147 89 221 177 88 222 148 179 88 225 171 87 87 142 174 87 141 141 199 160 142 143 198 195 144 197 197 201 144 197 205 207 197 197 210 135 197 213 214 90 198 214 90 91 144 211 91 92 147 92 92 148 149 93 93 151 202 94 152 152 203 190 151 201 200 185 150 196 162 167 107 187 181 187 179 195 199 100 166 208 210 101 147 214 102 102 144 150 103 123 216 149 103 118 126 104 210 115 121 104 113 75 117 217 111 115 139 217 76 112 210 213 74 137 209 105 71 135 207 105 134 133 145 105 133 198 144 187 131 143 103 186 142 142 186 124 141 142 188 41 113 191 192 39 113 185 38 37 127 146 36 126 126 36 35 126
104 177 122 124 176 177 130 165 177 136 138 227 177 144 225 224 102 152 222 221 102 219 218 102 102 216 214 102 177 211 102 102 177 134 101 177 177 136 101 177 187 188 177 177 191 191 177 193 194 193 177 197 197 190 177 199 187 187 178 131 185 99 98 129 183 98 176 181 145 97 176 179 97 198 175 146 96 174 177 146 201 173 207 147 204 175 206 175 207 173 206 175 172 171 136 175 171 204 139 147 169 142 177 147 145 146 146 89 150 151 146 223 140 145 145 225 140 144 226 227 178 143 227 181 182 228 228 185 197 228 188 189 172 210 190 190 174 134 189 175 176 131 184 177 129 130 176 176 129 211 175 131 131 203 173 134 198 196 149 139 191 189 136 186 185 125 122 182 113 108 158 181 96 92 154 85 82 151 150 76 74 147 151 151 146 144 150 150 143 149 149 201 142 149 206 208 148 148 212 213 147 216 216 76 146 216 217 76 138 214 75 74 136 110 72 136 135 111 67 134 145 63 109 133 144 56 132 193 144 187 130 143 142 186 182 142 188 188 179 96 191 40 176 91 190 38 85 82 135 36 73 120 138 115 126 140
170 169 105 82 167 109 111 133 165 115 116 141 227 119 90 160 223 123 98 124 125 102 114 134 102 130 177 143 102 155 148 176 102 177 156 147 101 177 184 145 137 177 188 142 139 191 192 195 140 194 192 191 100 197 189 142 191 187 187 99 192 185 184 99 176 178 98 98 176 203 97 175 175 205 97 174 205 205 173 173 205 129 172 205 205 175 170 204 204 175 93 204 176 176 92 176 176 91 91 177 177 91 150 179 90 90 144 181 90 141 140 199 89 139 199 199 223 140 197 197 141 179 197 198 142 197 197 203 186 196 207 208 188 197 211 91 91 175 213 91 142 176 130 92 143 209 129 213 145 130 94 147 147 132 200 148 202 137 193 143 201 152 187 129 197 154 118 114 159 169 101 181 155 151 86 152 201 152 77 149 151 102 188 146 151 192 123 150 150 198 119 149 203 205 74 148 209 211 75 213 214 76 76 216 76 76 138 138 76 75 137 146 73 136 135 146 69 135 145 145 134 133 145 144 132 144 144 187 131 143 186 186 46 142 187 187 43 189 190 40 40 193 194 38 127 187 37 37 126 36 36 126 126 35 35 126
103 84 80 106 84 176 132 134 84 98 140 227 86 109 148 224 117 119 159 221 127 160 156 128 137 155 214 131 152 152 133 102 171 149 135 180 177 136 137 187 177 137 188 189 169 139 189 171 172 189 189 174 174 136 175 176 134 134 176 176 132 144 177 131 130 144 176 129 145 145 129 129 145 192 129 145 146 193 194 146 195 195 172 147 197 198 170 200 200 169 169 202 169 168 138 206 168 167 141 167 167 145 145 146 168 148 146 146 152 153 145 145 156 144 144 220 160 143 221 222 195 142 223 223 183 90 224 185 186 224 224 188 173 223 188 188 175 140 186 176 176 141 180 176 129 143 200 175 129 130 201 188 132 200 172 170 136 193 158 140 189 187 151 97 184 119 158 98 182 102 99 100 137 87 152 182 132 161 149 129 73 148 213 124 140 144 216 121 132 216 149 127 125 216 148 208 215 215 105 213 213 213 105 110 211 105 105 110 105 105 110 110 105 105 111 109 105 112 112 109 133 114 109 110 196 118 110 190 188 111 111 184 182 112 180 179 100 112 177 176 96 127 174 91 89 134 170 83 137 137 148 69 139 114 54 141
81 102 104 81 85 109 82 81 96 103 83 104 107 103 88 115 161 102 177 125 158 157 177 164 156 129 142 153 153 132 173 151 134 134 178 206 136 183 182 202 137 186 199 199 101 187 170 140 101 177 172 101 186 177 195 100 177 175 197 100 176 199 132 176 176 199 131 144 201 201 181 145 201 202 179 97 202 178 178 97 178 177 96 96 177 177 95 166 177 94 94 162 167 94 158 157 201 93 152 201 200 147 146 199 199 142 199 198 184 137 198 198 187 171 197 191 192 91 197 195 91 91 199 200 91 140 204 91 91 140 209 92 140 140 133 92 139 139 198 218 140 199 199 214 175 200 203 142 167 201 190 160 201 172 172 150 201 160 139 138 166 151 98 98 162 147 99 140 158 150 181 136 151 151 182 131 151 184 185 74 151 188 124 141 191 193 72 132 217 72 73 142 216 73 74 141 148 75 140 140 147 76 139 147 147 138 138 146 105 209 146 146 204 110 146 199 197 65 145 192 191 59 189 188 55 53 187 186 49 130 186 46 45 129 142 42 128 128 143 40 127 143 143 127 127 145 146 126 147 148 127 126 150 151 95 153
78 78 82 84 78 78 92 166 79 100 103 163 84 110 162 161 119 122 160 159 129 158 157 128 129 155 131 131 157 152 133 133 172 134 135 178 180 136 136 183 164 138 184 184 168 142 184 171 171 140 184 172 138 137 174 174 136 135 174 134 134 143 174 133 132 144 199 131 145 145 186 181 145 187 187 146 146 188 171 146 189 190 169 146 191 167 167 96 194 166 137 95 159 165 140 141 153 200 144 146 165 199 147 145 199 151 184 145 197 155 144 92 197 190 143 213 136 194 92 216 178 199 92 139 182 92 92 139 185 92 139 139 197 92 138 197 175 139 139 198 176 129 199 200 206 128 200 200 195 95 201 183 179 96 201 165 97 97 155 153 98 141 151 98 98 139 108 99 136 136 175 100 132 132 163 129 129 154 152 126 146 143 213 121 137 135 216 103 129 216 216 104 123 216 104 104 140 215 105 105 214 147 105 109 212 105 211 110 146 105 110 110 110 201 111 110 110 194 114 109 200 189 57 110 192 52 51 130 185 47 111 181 142 43 128 177 100 99 127 143 96 132 127 145 91 135 146 147 152 138 150 115 106 35 153 92
74 233 103 75 176 231 103 176 98 103 103 176 109 163 177 177 153 161 177 177 159 219 177 164 165 216 177 170 213 212 173 174 209 102 177 206 205 102 181 203 102 101 177 199 101 101 177 101 101 177 177 101 177 177 193 100 176 176 195 187 176 196 196 185 175 198 183 183 172 198 181 181 199 132 180 98 200 179 146 97 133 179 97 97 167 146 96 164 162 146 96 159 199 95 195 152 199 197 147 164 198 201 140 198 151 204 166 197 187 187 169 158 190 93 172 162 194 92 165 166 141 92 168 139 139 215 171 137 93 216 185 135 216 138 184 132 215 182 198 212 212 176 176 209 171 169 174 204 163 173 173 156 153 170 169 136 168 167 139 98 164 163 144 183 160 147 148 182 149 150 181 181 151 151 183 78 151 185 185 73 72 189 72 72 144 193 72 142 142 73 73 142 141 74 141 141 148 76 140 139 147 211 139 147 147 210 137 146 206 205 146 146 200 69 145 196 194 63 145 190 58 57 105 187 52 51 130 121 47 129 130 44 112 128 143 41 128 127 143 113 127 144 145 114 126 146 175 126 164 150 124 114 152 59 95 35
100 71 83 105 103 72 93 111 74 176 104 164 82 112 115 162 177 123 160 159 177 161 158 128 177 167 155 131 170 172 211 133 175 151 135 102 178 205 137 180 177 201 102 181 167 198 101 177 170 101 101 177 171 101 176 176 193 100 176 172 195 186 175 196 134 184 197 197 183 145 198 198 181 99 199 180 180 98 199 180 98 97 179 179 97 165 163 97 96 160 158 96 155 153 199 95 148 146 198 196 141 198 198 136 135 197 186 187 197 197 190 93 196 192 193 93 196 196 93 93 168 201 93 93 171 137 93 137 209 93 213 136 197 94 136 136 198 211 136 199 199 208 138 200 204 204 165 201 191 139 156 171 174 148 199 168 137 98 165 152 142 99 161 146 99 182 157 149 100 131 150 150 182 128 151 183 184 74 146 187 188 72 145 191 72 72 143 196 73 142 142 74 75 141 216 76 140 140 147 76 139 147 147 209 137 146 146 206 146 146 202 201 146 146 196 65 145 192 191 59 188 188 54 53 186 186 49 130 129 45 45 129 128 42 128 128 143 40 127 127 144 127 126 146 147 126 148 149 147 134 151 152 105 35 154 92
126 233 103 103 176 231 103 103 176 114 103 176 176 119 103 177 154 123 112 177 160 103 136 138 165 216 177 146 154 212 151 174 152 208 157 150 206 136 162 148 202 102 146 145 139 101 144 140 140 180 177 141 141 180 171 142 180 180 171 143 180 171 195 180 180 170 196 181 169 169 134 181 168 134 134 145 166 135 135 146 136 136 146 146 137 138 146 186 140 146 146 188 146 146 190 190 145 145 193 162 162 194 195 163 164 198 165 166 157 200 168 169 161 171 172 164 165 175 167 167 140 139 170 170 137 209 172 136 135 210 174 133 210 210 131 131 209 179 129 207 206 173 128 203 167 165 173 199 158 156 170 138 148 169 168 139 136 165 140 126 162 161 145 184 158 148 148 174 154 150 181 181 191 151 183 184 204 102 186 73 150 103 118 73 103 194 115 73 104 113 74 121 141 111 76 140 215 110 115 139 147 109 113 212 146 111 111 211 105 110 210 146 105 109 205 105 192 114 199 105 188 55 105 105 120 49 104 122 123 111 103 126 127 112 128 130 113 113 132 132 113 170 169 114 114 166 149 114 162 160 73 114 154 59 54 147
103 103 176 87 103 103 176 138 103 176 106 146 103 176 150 162 177 177 157 221 177 161 162 218 177 167 215 215 102 171 212 210 102 209 207 102 102 205 102 102 177 201 102 102 177 140 102 177 177 101 101 176 189 190 176 176 191 192 175 193 193 187 175 194 185 185 169 195 184 183 167 135 182 99 99 136 181 99 168 181 145 98 165 146 98 184 160 146 97 156 161 146 187 148 197 145 189 161 197 184 191 162 197 187 164 196 156 189 167 159 192 142 170 163 196 94 165 166 140 94 169 170 138 205 134 137 136 207 182 134 207 207 182 132 207 179 178 205 205 174 199 203 169 167 174 197 161 159 171 130 151 169 168 134 166 166 138 139 163 162 143 182 159 146 147 181 155 148 181 181 85 150 182 78 77 184 185 74 73 187 73 73 144 192 73 73 143 74 74 142 141 75 75 140 148 148 140 139 147 207 139 147 147 206 138 147 204 203 146 146 199 198 146 195 193 62 146 190 58 56 131 187 52 51 130 121 47 129 129 125 43 128 143 41 113 127 144 39 127 171 145 201 126 148 190 180 163 151 142 130 157 69 103 35 148 51
60 170 103 105 63 167 110 69 71 114 115 82 176 119 97 103 122 155 122 128 132 159 145 138 141 157 145 146 155 154 151 153 153 135 157 151 151 136 161 149 138 138 178 146 139 178 178 140 141 178 178 142 179 179 169 142 179 179 169 179 179 169 168 179 179 167 137 137 166 166 137 145 165 137 137 145 163 137 145 145 138 139 146 146 140 146 146 183 183 146 184 185 159 145 186 187 160 96 188 160 161 96 190 163 155 192 127 165 159 195 168 162 163 141 172 165 140 140 196 169 139 138 196 206 137 204 173 210 134 205 212 132 95 204 212 96 204 132 174 96 201 169 199 97 134 161 172 97 134 199 169 134 134 196 166 133 192 191 152 142 185 151 153 100 175 162 148 101 175 180 101 181 193 196 102 121 205 103 103 118 103 103 116 115 128 104 113 124 123 112 111 119 140 110 117 116 215 109 114 113 213 76 112 213 212 111 211 210 105 105 208 207 105 113 203 105 105 116 196 105 118 119 144 104 121 111 104 185 124 112 103 127 41 112 173 131 113 113 171 38 114 168 167 36 115 163 87 35 126 157 73 126 126 156 54 143
170 175 175 133 230 176 138 140 228 114 144 227 226 103 151 224 122 103 222 221 103 145 219 103 103 177 215 102 102 177 172 102 177 177 175 102 177 178 179 177 177 181 182 177 183 184 198 177 186 195 194 168 188 193 192 101 141 190 101 101 188 188 101 174 186 100 100 173 145 100 172 171 145 100 169 196 99 180 166 196 196 163 159 196 182 158 196 196 183 158 196 183 183 158 147 185 97 159 151 186 97 128 155 144 96 125 191 143 192 126 142 96 194 171 140 196 130 175 139 198 177 196 199 200 180 197 210 180 180 174 212 179 179 175 130 176 174 210 128 174 174 127 97 172 172 128 193 170 130 130 189 132 134 186 185 131 139 183 120 116 181 181 105 101 180 95 92 153 180 84 82 150 150 77 148 147 150 74 146 150 150 144 144 150 193 143 149 149 197 141 148 200 201 148 148 203 203 76 205 205 76 75 204 74 73 136 201 71 70 135 112 66 133 134 61 60 132 146 55 131 131 145 145 130 144 144 185 129 144 186 186 174 144 190 191 144 101 198 38 146 202 202 36 126 186 36 35 126 140 35 126 126 142 35 126 158
83 170 103 105 135 168 109 111 75 228 115 90 96 119 120 115 124 123 133 139 134 103 153 139 141 103 165 147 156 171 176 153 153 152 157 176 151 137 161 149 203 138 182 148 139 140 184 197 141 177 186 194 141 178 192 191 101 178 167 143 101 174 166 101 178 173 193 100 172 163 194 100 169 195 139 168 167 195 140 145 196 196 183 145 196 183 183 98 196 184 145 98 185 185 98 183 186 186 97 128 188 97 97 123 163 97 123 123 195 96 125 196 195 127 127 196 195 129 196 196 205 130 196 196 209 179 197 211 212 96 174 213 96 96 212 211 97 129 209 97 97 130 201 97 130 130 128 98 130 130 195 186 130 192 191 183 124 185 151 127 110 176 155 99 168 154 169 87 157 182 150 79 148 198 103 118 146 150 103 115 144 150 190 113 149 104 194 111 149 197 110 76 148 201 109 115 203 203 76 113 213 75 74 137 212 72 71 135 146 68 135 134 146 62 133 146 146 132 131 145 186 185 144 145 185 123 144 185 186 42 144 188 189 40 192 194 38 38 201 203 37 126 198 36 36 126 152 35 126 126 156 35 126 158 158 126
129 232 88 133 230 229 138 140 228 103 145 227 226 103 151 224 103 103 161 221 103 103 176 128 103 176 176 131 170 176 171 102 174 176 174 175 177 177 178 176 177 180 202 177 165 183 198 102 166 145 195 102 187 143 142 101 142 190 143 101 141 143 101 178 140 144 101 172 144 144 178 169 194 178 178 159 195 179 179 158 141 179 156 157 143 180 156 145 146 156 156 148 145 145 150 151 144 98 153 144 144 185 157 143 143 186 143 142 188 188 142 141 190 171 140 191 192 174 169 193 177 177 171 195 178 172 173 179 178 174 173 176 173 174 129 173 173 127 127 173 172 127 127 191 128 128 188 187 130 131 185 138 134 183 182 125 139 180 114 110 179 179 100 155 154 91 88 151 151 82 150 148 150 76 147 146 150 134 145 150 150 128 214 149 192 142 217 149 196 75 148 199 199 76 147 201 76 76 105 202 75 74 105 110 72 136 198 111 110 135 112 63 110 133 146 110 132 193 145 110 130 145 105 111 180 144 185 176 174 103 187 172 172 102 132 38 101 100 135 37 97 137 138 114 92 140 35 114 141 142 114 126 143 114 114 138
54 131 230 104 65 168 229 103 85 227 115 103 110 225 103 129 176 222 103 176 134 103 103 176 142 158 176 176 169 156 176 176 172 209 176 175 176 205 178 179 203 203 181 181 200 102 183 197 197 102 177 195 102 102 175 192 101 101 174 101 101 173 173 101 172 172 192 101 170 170 193 185 167 194 194 185 164 195 184 184 156 195 184 99 195 184 185 99 196 185 99 99 149 187 98 98 126 144 98 121 120 143 98 119 196 97 185 119 196 186 122 169 196 188 125 196 168 190 175 197 207 208 177 172 210 97 177 173 132 97 173 173 129 97 173 128 128 192 172 127 98 190 159 127 188 126 195 129 185 141 191 183 182 129 161 181 118 115 158 179 104 156 154 94 92 152 171 148 150 150 149 103 147 150 150 183 146 150 150 187 150 149 190 191 149 149 193 75 148 196 197 76 76 199 76 76 139 201 75 138 138 74 73 136 136 70 135 135 146 65 134 133 146 189 132 146 146 186 145 145 185 185 145 145 185 44 144 185 186 41 145 189 39 39 194 196 38 37 126 37 36 126 126 36 126 126 154 35 126 126 157 114 126 159 159 113
129 59 62 92 168 74 100 103 166 97 110 165 164 119 121 162 122 123 161 161 126 103 159 129 129 169 157 131 132 173 133 134 175 175 136 136 176 160 160 176 177 162 149 177 163 163 148 177 164 146 146 164 165 144 144 164 144 143 143 163 142 144 144 177 142 144 144 177 145 145 177 177 145 145 178 157 145 178 178 155 145 178 155 155 145 179 154 147 148 138 154 150 150 155 152 152 144 157 155 156 143 196 158 142 142 196 196 141 185 185 199 140 186 171 139 97 187 174 137 189 125 176 97 190 176 176 97 125 175 173 97 124 198 173 128 124 198 172 127 198 198 200 127 196 168 188 99 193 176 131 99 164 161 100 180 119 151 101 122 105 101 101 121 92 102 119 119 150 102 117 79 142 116 116 135 145 114 131 129 211 149 125 124 215 104 121 217 217 105 117 217 105 105 216 216 105 108 215 105 105 109 213 105 110 110 110 105 112 112 110 191 114 110 109 116 117 110 189 119 110 111 181 47 111 176 175 104 112 172 103 103 127 169 102 102 127 147 100 136 164 150 200 138 152 92 164 141 155 128 142 114 114 101 144 113 135
174 131 229 229 96 137 228 228 142 166 226 103 148 224 120 103 176 222 103 103 176 127 103 176 176 130 103 176 167 133 174 176 172 175 176 157 175 206 176 160 151 202 162 181 148 199 163 148 197 102 163 146 142 102 145 144 142 102 144 143 143 177 172 144 101 177 159 144 177 168 158 145 178 156 193 178 178 154 144 178 154 154 145 178 153 147 147 145 153 149 150 145 152 152 144 144 154 143 143 181 158 142 142 182 142 142 183 183 140 140 184 169 170 185 185 172 172 186 174 174 170 188 175 172 172 176 175 172 172 174 172 172 129 128 171 171 127 187 170 127 126 186 126 127 184 183 129 130 181 136 133 180 179 123 137 178 113 109 156 178 100 96 153 119 88 151 151 82 145 149 149 77 147 147 150 132 145 150 150 126 144 149 189 190 216 149 192 75 217 105 195 76 148 105 108 76 105 198 109 74 105 109 72 136 135 111 67 134 146 113 110 133 146 110 110 191 146 110 130 183 105 111 178 145 104 112 172 104 186 130 170 103 132 38 102 101 135 37 99 137 138 114 95 140 140 114 141 142 114 114 143 143 113 138 136 112
87 66 92 95 168 167 102 104 166 113 112 164 164 119 122 163 122 123 161 161 126 165 159 129 129 171 157 131 174 174 152 134 175 176 156 103 176 159 159 177 176 161 150 177 162 162 148 175 163 147 147 141 163 146 142 142 188 144 143 177 189 190 143 177 143 144 101 177 188 144 177 177 187 101 177 154 154 100 178 153 145 100 147 153 147 139 137 195 150 130 153 195 189 121 196 154 191 114 196 193 142 98 196 195 98 181 198 199 98 183 201 98 98 120 204 98 98 121 98 98 122 121 98 98 121 197 197 121 121 198 212 120 198 197 210 120 197 205 204 195 195 197 194 193 187 184 100 100 172 100 100 121 158 100 101 120 140 101 119 119 102 102 118 153 102 117 116 144 103 115 138 136 197 113 131 205 207 75 126 212 213 75 143 215 104 118 142 217 105 140 217 148 105 139 147 105 197 108 148 105 109 72 147 194 111 110 146 192 63 110 189 188 57 110 186 53 52 130 183 48 129 130 145 44 128 172 104 128 127 145 103 127 127 146 197 126 148 149 205 150 151 198 191 35 155 158 35 35 124 116 35 114 102 35 35 125
103 174 132 103 175 175 138 103 175 142 144 176 176 148 150 176 152 154 221 220 158 159 217 103 162 215 215 103 156 212 103 103 210 210 103 176 207 102 102 176 203 102 176 176 180 102 175 182 183 177 174 185 185 177 161 187 193 172 160 188 191 159 190 144 190 101 144 189 144 101 144 188 101 177 144 144 101 154 145 144 177 145 144 144 178 135 144 178 178 152 196 179 153 195 154 179 155 196 193 158 159 159 196 161 162 162 141 165 164 164 139 166 167 138 137 183 169 136 184 184 134 134 185 120 132 185 185 173 129 185 185 169 185 185 165 164 184 160 159 168 168 153 150 166 128 143 164 163 131 131 161 135 135 159 158 139 177 155 143 144 177 176 146 177 177 84 148 178 178 79 180 180 76 76 182 183 75 145 185 75 75 143 109 76 142 142 149 76 141 148 148 140 139 147 148 139 148 147 195 137 147 195 194 210 147 192 191 204 106 188 59 58 106 186 53 131 185 120 48 130 184 45 112 128 127 42 128 170 130 113 127 146 146 114 165 148 203 114 161 151 201 158 153 94 167 152 87 132 143 144 72 105 35 61 60 145
169 169 174 96 168 167 175 139 166 113 114 145 163 118 149 163 222 123 154 220 126 103 171 217 129 173 176 214 103 175 151 211 103 176 156 103 103 176 175 102 176 160 178 150 175 180 149 199 174 183 147 142 185 185 195 142 187 187 193 102 189 191 191 102 190 190 101 101 164 189 101 161 159 101 101 154 152 101 149 146 195 100 139 195 195 131 129 195 195 120 196 196 191 192 196 196 193 99 196 195 196 99 197 198 99 99 163 201 99 115 203 139 98 117 117 98 182 118 197 98 118 117 198 183 117 197 197 183 171 197 212 183 166 196 209 162 194 168 202 99 192 194 126 100 164 180 100 100 162 133 101 118 158 137 176 117 141 141 176 116 144 176 176 87 145 177 114 80 148 179 77 132 146 76 76 145 208 75 75 143 150 76 143 143 149 105 141 148 148 192 140 148 148 194 148 148 195 195 147 194 194 70 147 192 191 65 190 189 61 59 132 186 55 131 131 51 50 130 146 46 130 129 145 43 128 145 145 127 127 146 147 127 147 148 199 201 150 150 205 36 153 194 186 35 164 152 35 35 121 114 35 126 102 35 35 126
103 174 169 103 104 175 108 110 130 175 143 145 150 121 148 160 128 130 161 168 137 157 159 142 143 158 214 148 149 156 134 152 155 154 136 103 153 137 137 177 152 139 177 177 139 140 177 177 141 177 177 159 142 177 177 159 146 177 158 157 145 156 156 145 145 155 154 144 144 153 145 145 144 152 146 145 145 147 147 145 144 177 144 144 178 178 144 178 178 152 143 178 178 153 178 178 156 156 179 179 159 160 179 161 162 162 140 165 164 165 138 168 166 137 137 198 167 135 134 168 211 132 182 169 131 130 182 170 129 182 182 166 99 181 162 160 99 180 155 166 100 116 146 164 178 138 180 161 116 126 159 158 136 166 156 139 141 157 152 144 176 148 162 147 177 173 177 103 178 189 149 103 111 201 104 182 110 123 104 109 76 119 104 108 117 141 107 107 114 141 107 112 112 216 108 111 215 214 105 110 211 211 105 208 206 106 106 201 199 106 116 193 106 106 119 183 106 122 123 105 105 126 112 112 128 129 113 113 131 113 113 165 134 114 114 162 36 114 159 158 114 126 154 94 114 148 147 84 143 141 73 69 145 131 63 145
173 103 174 174 134 103 174 138 139 142 175 144 145 222 125 149 221 220 153 154 218 103 158 216 216 103 162 214 103 103 156 211 103 175 175 136 103 175 175 103 177 175 177 102 175 174 180 177 174 183 183 177 158 185 195 177 158 187 193 102 156 145 192 102 190 145 143 102 145 190 144 101 146 144 101 177 147 144 177 138 144 144 177 127 195 178 178 151 196 178 178 152 154 178 154 155 157 156 157 159 159 160 161 161 140 99 163 164 138 99 165 137 137 180 167 136 135 181 133 133 181 181 131 181 181 170 129 181 181 167 168 180 163 162 167 179 157 166 165 151 149 164 127 141 162 162 130 130 159 133 134 157 157 137 139 175 141 142 175 175 145 145 175 85 147 177 177 80 103 178 77 77 180 180 76 145 144 75 76 144 143 76 143 142 149 76 141 148 148 113 140 148 148 138 216 148 192 137 147 147 191 68 147 189 189 62 147 187 58 57 106 185 53 131 106 121 48 129 183 124 111 128 127 42 112 127 146 113 127 165 147 114 163 149 102 114 160 152 205 156 155 97 180 150 149 90 143 35 81 77 145 35 66 145 35 111
96 101 96 102 121 127 107 110 143 114 116 155 158 123 163 165 129 131 160 171 137 159 159 142 144 158 157 132 156 156 133 134 155 154 136 177 153 137 137 177 204 139 177 177 139 140 177 158 159 177 177 158 158 177 157 157 146 177 156 146 146 166 154 145 146 153 191 145 144 151 146 146 144 177 146 144 144 177 148 144 177 177 191 144 177 150 192 100 178 152 143 100 102 153 100 178 100 156 158 101 159 197 160 105 197 162 203 109 197 164 137 197 197 208 135 197 197 211 99 180 212 131 99 180 213 99 180 112 212 100 112 163 100 100 112 157 100 112 113 185 100 113 113 179 180 113 173 171 165 167 165 157 154 158 156 151 102 150 153 155 103 142 164 103 103 175 179 103 103 110 103 104 110 109 104 108 109 120 104 108 108 117 186 107 115 114 188 107 113 217 217 75 111 216 105 110 137 213 105 109 210 147 106 134 204 106 106 133 147 106 118 132 147 106 121 111 106 183 124 112 183 127 42 112 184 130 113 127 188 38 114 163 197 37 126 159 36 36 126 154 98 126 126 157 92 126 159 160 117 126 161 70 104 162 162 105
92 98 116 174 132 134 139 110 137 223 156 119 163 221 125 147 161 219 134 160 217 127 140 159 215 103 175 156 132 103 175 134 134 177 175 136 136 177 156 138 177 177 158 139 177 158 158 177 177 158 183 148 157 157 147 195 156 147 147 142 154 146 146 143 146 146 144 144 146 146 144 177 146 144 144 177 149 144 177 177 149 143 177 149 149 177 177 150 151 177 152 152 155 178 155 156 157 141 158 159 159 140 160 161 140 139 162 163 137 178 164 136 136 179 166 134 179 179 133 132 179 170 170 179 179 168 167 179 165 164 166 178 160 159 165 111 153 164 163 111 180 162 126 136 173 160 130 174 158 161 134 174 155 138 174 174 151 142 174 174 158 103 175 83 147 103 110 79 147 178 109 77 146 108 76 121 144 108 76 143 213 107 115 142 149 114 113 217 148 112 112 217 105 190 215 214 105 190 211 105 105 112 206 106 187 114 106 106 117 55 106 119 120 110 106 123 123 111 172 126 112 112 167 130 113 165 165 113 113 163 103 114 161 160 102 114 157 100 99 140 152 97 96 142 158 90 143 144 81 77 145 112 69 146 146 111
96 118 168 102 103 141 223 109 153 175 221 103 165 124 220 103 175 132 160 103 175 139 159 175 143 158 157 175 149 156 211 175 166 154 136 170 170 206 137 177 174 203 103 177 202 201 103 177 199 102 102 171 197 102 169 169 102 102 166 154 102 163 162 190 146 158 157 191 192 150 192 193 192 141 194 191 192 194 195 192 101 195 193 193 101 196 194 101 101 98 195 101 100 94 142 100 96 96 100 178 100 197 100 103 104 198 178 107 198 197 208 108 197 210 211 169 197 212 212 196 166 213 100 195 213 128 100 166 212 100 100 165 124 100 109 109 124 101 110 179 125 175 110 172 174 174 125 164 174 111 113 155 174 104 149 153 173 93 152 157 145 86 150 169 103 148 148 148 104 147 149 149 179 145 149 149 181 149 149 183 107 77 149 185 77 113 187 188 76 139 188 75 75 138 189 72 137 136 69 67 135 135 63 134 134 147 147 132 132 147 183 131 146 147 183 147 146 182 182 146 146 183 41 147 184 185 39 147 189 38 37 126 198 36 126 126 36 35 126 126 35 125 125 158 35 126 126 160 113 126 161 162 105 126 162 110
125 224 223 102 167 222 103 103 165 221 103 175 163 118 103 175 121 122 173 175 126 103 175 142 129 176 175 148 132 177 151 164 154 177 153 169 207 155 156 152 204 156 151 151 139 156 150 200 141 149 148 141 102 177 147 142 177 165 142 142 177 152 143 177 177 150 143 177 149 149 177 177 148 148 177 148 148 148 148 148 148 149 143 149 151 151 143 152 153 142 142 154 155 141 177 156 141 140 178 158 140 177 178 162 138 178 164 165 178 178 167 168 178 168 169 165 178 169 169 165 107 168 166 165 128 165 165 126 126 165 165 125 176 163 124 123 175 162 124 175 175 186 126 174 174 129 102 173 116 113 173 110 105 154 173 97 94 152 109 88 151 150 109 82 149 147 109 126 147 149 78 122 200 149 180 145 208 104 182 212 149 105 184 216 105 186 76 217 105 187 75 105 105 109 72 137 110 111 109 135 112 63 109 201 115 109 132 191 118 109 184 147 110 111 175 147 111 170 169 105 182 166 105 105 131 163 104 104 135 103 103 137 137 102 102 139 114 100 141 142 114 179 143 114 114 140 144 113 134 131 112 112 124 121 110 115
96 104 223 222 104 152 173 103 103 174 119 103 103 175 142 103 175 175 147 103 175 151 152 175 175 156 157 175 159 161 211 210 164 209 208 103 169 206 205 103 151 203 103 103 202 201 103 171 200 103 103 169 142 102 167 166 186 102 163 187 188 177 157 189 190 177 149 191 193 143 148 193 193 148 194 148 193 101 148 193 101 101 150 195 101 96 151 142 101 91 197 142 178 91 141 101 177 158 140 178 98 161 198 177 163 197 161 177 166 197 209 167 167 163 211 168 168 164 131 168 165 165 128 165 164 127 126 177 164 124 176 176 124 123 176 107 124 175 175 140 125 174 132 129 173 173 120 117 173 111 108 155 154 100 97 153 142 91 151 151 145 84 149 146 147 148 148 148 176 147 149 149 178 179 149 179 180 77 149 181 182 77 183 184 77 77 185 76 75 139 187 73 73 138 109 70 136 136 148 65 134 148 147 134 133 148 147 132 147 147 182 130 147 182 182 172 146 182 182 166 105 183 40 39 105 185 38 126 190 136 37 126 138 36 126 126 140 35 126 157 142 114 125 159 159 113 136 161 114 125 127 162 108 119 162 88
96 168 100 102 166 165 107 103 164 112 114 169 162 118 172 173 121 123 174 175 138 176 176 143 144 177 177 147 155 177 150 151 154 177 153 153 153 155 154 152 138 155 151 150 140 140 149 140 141 177 149 141 141 177 142 142 177 177 142 177 177 150 143 177 177 149 102 177 148 148 147 177 147 147 147 147 147 148 148 148 149 149 142 149 151 142 142 197 152 142 141 177 199 141 178 178 140 140 178 159 139 177 177 163 100 177 164 165 100 177 167 163 100 104 168 163 163 103 193 164 129 166 190 164 126 188 164 211 125 183 209 124 101 178 202 123 174 195 193 101 173 132 180 102 107 121 102 102 108 148 102 108 108 141 103 108 137 135 108 108 131 150 107 127 126 178 148 122 122 192 104 119 200 202 104 206 208 105 105 212 213 105 106 216 105 105 107 75 105 108 108 109 105 109 109 109 110 111 109 109 113 109 109 197 116 109 110 187 51 110 179 177 106 111 172 106 106 128 166 105 130 164 147 105 133 161 104 188 136 150 103 138 139 153 206 140 115 114 199 35 115 143 161 35 113 136 35 35 125 127 35 111 126 162 34 126
222 104 167 221 104 104 165 219 104 168 163 115 103 174 161 120 174 174 124 125 176 174 149 176 177 145 154 177 148 149 155 177 151 163 153 153 153 153 205 154 154 151 139 155 150 149 140 177 149 140 141 177 148 142 177 177 142 142 177 157 143 177 177 149 143 177 177 148 147 177 147 147 147 147 147 148 148 147 148 149 143 148 150 150 142 150 151 142 142 153 153 141 177 177 140 140 178 178 139 177 177 161 138 177 177 164 177 177 166 166 177 167 167 162 178 168 167 163 129 167 163 163 127 164 163 125 125 182 162 124 123 162 205 123 174 160 123 174 174 136 125 173 173 125 102 173 116 113 102 173 104 154 172 107 94 152 107 89 131 150 107 83 149 171 147 123 148 148 148 120 195 149 177 116 204 149 179 210 211 105 181 214 105 105 106 216 105 184 107 110 105 109 71 109 105 111 109 135 112 113 109 199 115 109 109 189 118 109 182 179 106 111 173 147 106 168 167 105 181 164 163 105 132 161 105 105 135 104 103 137 138 103 103 140 115 115 141 142 114 114 143 114 114 138 145 113 132 130 35 111 122 120 110 126 112 97
99 167 167 105 166 165 107 114 164 112 114 171 162 118 119 175 215 122 176 176 213 127 176 143 129 103 177 147 132 177 174 150 103 177 152 164 152 172 154 151 152 171 172 150 139 169 176 149 140 178 179 199 141 182 197 198 102 185 197 142 102 149 196 102 177 148 195 102 131 148 102 102 118 193 102 108 104 195 102 95 196 196 196 87 197 150 198 197 197 200 141 197 198 202 101 198 203 204 101 205 205 101 101 207 208 101 100 101 101 101 100 101 101 101 101 191 101 101 189 188 176 101 185 184 102 161 181 211 102 176 174 206 101 170 200 198 102 163 190 102 102 158 178 102 105 156 131 102 106 156 136 172 106 136 103 173 106 130 173 106 127 125 174 81 123 179 175 79 119 192 78 78 146 202 78 115 144 149 105 143 213 149 105 141 149 105 183 140 149 184 109 148 148 184 111 148 184 184 62 148 183 183 57 133 183 53 52 131 49 48 130 130 45 44 129 147 42 128 128 147 40 127 148 148 184 126 149 150 192 152 152 201 204 154 207 207 35 157 194 186 35 165 154 35 35 127 121 35 125 126 35 34 126 163 34 126
104 172 172 120 219 173 124 125 217 173 129 216 216 127 134 215 103 134 159 214 103 144 158 128 103 173 211 103 103 173 133 103 173 173 136 103 172 165 137 177 170 169 177 177 154 173 177 166 153 149 200 152 180 148 198 151 147 197 142 150 147 142 102 146 147 143 102 147 143 143 177 147 143 143 177 147 143 177 177 148 177 177 149 150 177 177 151 151 177 153 154 153 177 156 155 155 139 159 156 157 137 157 158 136 136 159 135 134 177 160 133 132 177 131 131 177 177 129 128 176 164 164 176 176 161 162 176 157 156 161 175 151 160 160 144 142 159 159 134 158 158 126 123 156 156 130 172 154 133 134 173 152 138 172 173 141 142 173 86 144 174 173 82 147 174 80 79 147 175 78 146 146 105 78 145 144 77 112 143 149 77 142 142 148 110 140 149 148 109 138 149 184 184 211 148 184 65 204 106 183 58 148 106 117 53 106 181 121 48 106 123 45 111 106 127 112 128 163 130 113 127 148 113 113 158 150 114 114 156 104 115 153 152 103 115 148 101 101 143 142 98 144 35 95 94 145 35 88 146 146 111 87 147 147 108 147
101 116 219 102 119 165 217 104 124 216 113 104 129 215 103 175 214 213 103 176 212 103 103 173 211 103 103 173 151 103 173 172 156 172 171 160 162 171 170 165 204 169 169 171 202 167 173 201 200 177 177 199 103 103 198 198 103 103 197 103 102 141 197 102 102 129 142 102 119 116 102 102 105 193 194 96 93 195 197 85 196 196 198 80 196 199 200 152 196 201 201 155 153 203 101 196 155 138 101 95 207 136 101 97 135 101 177 98 133 101 98 166 131 177 98 186 129 176 165 182 176 176 162 161 212 159 157 161 208 153 160 160 122 145 159 197 102 158 158 124 102 157 127 128 172 104 131 133 172 101 136 172 172 93 140 173 88 86 173 173 83 122 174 81 80 148 175 79 147 147 148 78 145 145 149 144 143 149 149 142 142 149 181 141 149 149 182 149 149 182 182 149 149 183 66 65 182 183 60 59 182 56 55 132 181 51 49 131 47 46 130 130 44 129 128 147 147 128 127 148 181 127 149 149 184 126 151 191 194 153 153 204 35 155 208 206 35 158 189 35 35 126 148 35 35 125 146 35 126 126 147 34 126 162 34 107
96 161 164 109 103 169 115 117 172 173 123 162 175 129 130 160 213 135 159 158 125 141 157 157 129 156 156 131 132 154 133 134 177 153 135 136 177 137 137 177 177 153 139 177 152 153 177 177 151 152 177 151 151 148 177 150 147 147 149 149 147 147 148 146 146 143 143 146 147 142 177 147 142 143 177 197 143 177 177 142 141 177 150 141 177 177 152 153 177 154 155 153 177 158 158 154 92 160 155 156 95 193 157 135 165 191 158 133 189 159 213 131 177 160 129 101 176 214 127 176 98 213 101 175 159 211 102 99 153 102 102 100 145 102 101 101 153 158 102 127 146 177 103 141 155 130 137 136 157 135 132 131 151 103 128 152 154 104 173 160 104 104 104 173 104 105 104 104 104 104 79 105 104 105 113 105 105 105 111 105 106 110 110 215 107 110 215 214 109 109 212 105 108 208 206 106 109 200 106 106 133 191 106 106 182 148 106 123 124 106 180 126 112 106 129 130 112 180 132 113 114 181 135 114 156 186 36 115 153 152 35 126 149 103 115 125 158 101 125 138 99 98 126 161 94 145 125 162 89 147 163 163 124 147 107 145
171 111 217 171 111 115 216 173 119 163 214 125 124 213 213 133 159 212 103 103 158 127 103 172 156 130 103 172 132 133 177 171 135 103 170 152 136 177 168 162 138 177 152 167 202 177 152 149 201 151 151 148 199 150 147 147 142 149 147 198 142 146 147 143 102 177 142 142 177 103 143 142 177 147 142 177 177 148 142 177 150 150 177 177 151 152 177 154 154 152 152 156 153 153 139 159 154 155 136 155 156 135 135 157 157 134 177 158 132 132 176 131 130 176 176 165 127 176 164 163 176 175 160 159 175 156 154 159 175 149 147 159 143 140 158 158 122 157 157 124 125 156 156 128 172 155 132 133 172 153 136 172 172 151 141 173 86 143 104 173 82 82 174 104 80 148 174 79 79 146 104 78 145 144 105 78 143 149 105 111 142 149 110 109 214 149 181 138 149 105 181 209 149 181 181 202 106 181 58 194 106 118 52 106 106 122 48 131 124 125 111 129 127 42 112 161 131 113 127 159 134 113 157 150 114 114 154 104 115 151 150 103 208 146 102 102 143 140 100 100 145 98 97 145 145 94 146 146 111 93 147 147 108 134 147 106
96 166 168 111 170 172 117 119 163 122 124 161 161 130 131 160 121 136 159 158 125 141 157 128 129 139 155 131 177 155 207 134 178 178 135 103 177 152 137 177 177 152 103 177 152 151 103 177 151 148 103 151 150 148 145 149 180 147 142 149 147 198 142 186 146 142 143 188 198 142 177 191 198 102 177 199 199 102 177 150 102 102 74 152 102 177 78 194 102 83 157 193 102 89 192 153 92 92 191 209 94 188 188 211 134 186 213 213 101 182 214 214 102 214 215 102 176 214 102 102 96 214 102 102 97 122 102 98 98 156 102 99 151 150 100 100 145 144 101 141 139 175 102 136 165 163 104 131 155 154 103 152 151 104 104 153 154 104 103 161 104 104 104 146 104 104 104 148 104 104 113 149 175 104 111 111 177 78 110 211 106 76 109 213 74 109 139 212 70 138 209 149 65 136 203 106 134 134 148 106 118 132 148 179 122 148 148 179 45 148 179 128 42 148 178 40 113 179 179 38 114 156 37 37 126 154 36 36 126 154 35 126 125 157 125 125 158 159 125 126 160 149 126 161 162 123 146 163 119 120 34 162 132 34 34 158
105 107 166 170 114 115 164 120 121 162 213 114 129 160 118 104 159 159 123 104 158 126 127 178 156 130 178 178 132 132 178 178 150 178 178 151 151 178 178 151 150 178 151 151 149 151 151 149 148 150 150 148 141 149 147 147 141 142 147 142 142 177 146 142 142 177 142 142 177 177 142 177 177 148 142 177 177 150 102 177 151 152 149 177 153 150 150 155 156 151 139 158 153 153 137 161 154 136 136 187 155 135 134 177 212 133 176 177 131 102 176 166 128 176 176 165 102 176 162 161 102 175 158 159 102 97 152 158 158 97 150 158 120 137 145 192 122 140 157 181 125 135 170 128 103 130 159 133 173 153 152 103 173 89 104 104 103 84 104 104 103 117 104 103 80 114 104 103 113 146 104 104 111 144 104 110 110 208 149 109 211 212 105 109 213 212 105 211 210 106 106 206 204 106 114 198 106 106 118 109 106 120 121 110 106 124 111 111 126 127 112 112 129 112 113 159 133 114 114 157 38 114 155 154 105 126 151 104 104 126 147 103 142 142 158 102 144 136 101 165 145 161 98 146 112 162 121 147 109 109 126 34 107 103 154 34
216 104 171 113 104 104 171 120 104 104 172 113 104 171 171 118 104 171 122 158 171 171 128 207 129 133 135 206 132 139 206 205 103 146 204 204 103 203 204 103 103 202 202 103 157 156 103 103 151 170 103 144 141 175 103 133 178 178 123 120 181 182 109 184 184 198 94 186 199 199 103 188 199 200 102 147 200 102 102 148 201 102 74 202 140 102 80 204 102 177 86 138 102 89 161 187 177 91 185 184 177 164 182 212 176 166 178 214 166 166 157 215 165 158 215 126 102 159 214 102 175 159 122 102 96 158 120 174 97 120 120 174 98 121 173 174 126 122 173 119 116 155 173 108 129 155 101 99 154 152 93 91 152 139 87 151 151 143 150 150 145 146 149 149 147 174 174 148 148 174 175 148 175 175 78 149 176 176 77 177 177 75 74 178 72 71 139 138 68 67 137 149 62 135 135 149 56 134 149 149 132 132 148 178 131 148 148 178 130 148 178 178 41 148 177 177 39 178 178 38 37 180 182 36 126 190 36 35 126 141 36 125 125 143 35 125 159 159 114 126 161 161 125 122 162 123 126 162 101 125 107 162 143 151 99 132
104 166 165 101 104 164 107 108 175 162 113 176 176 131 118 177 171 137 177 177 141 124 178 178 145 155 178 147 147 154 149 149 153 153 150 151 152 137 137 151 150 138 103 150 139 139 177 149 140 140 177 141 140 177 177 141 177 177 148 148 177 177 148 147 177 148 148 147 177 148 146 146 149 149 147 141 150 148 148 140 152 148 140 140 177 150 139 139 177 138 137 177 177 137 136 177 163 135 177 177 165 102 177 165 166 102 176 166 156 156 92 165 157 157 163 164 158 124 160 158 122 122 154 158 120 120 149 207 120 174 174 200 120 173 130 121 103 173 119 124 173 100 109 103 173 101 125 103 101 94 153 104 102 120 152 142 102 117 150 144 115 115 171 147 113 180 183 105 111 192 148 105 199 201 105 176 206 208 105 106 75 105 105 108 71 105 110 110 108 106 113 108 109 115 116 109 134 118 109 109 180 149 110 110 171 106 111 165 164 106 128 160 106 106 158 157 105 134 155 105 105 137 152 105 139 140 115 104 141 142 115 210 143 115 114 144 35 114 131 145 113 113 123 35 111 117 114 34 109 108 115 121 127 100 133 147
215 104 170 170 103 104 170 170 104 176 170 107 104 171 171 112 208 171 116 117 207 142 122 206 206 145 128 205 104 133 154 204 103 140 203 135 103 161 202 103 103 156 138 103 151 149 140 177 142 165 140 177 131 171 177 177 149 175 177 107 148 146 199 148 180 146 142 149 147 200 141 150 147 141 103 147 147 140 102 148 140 140 177 149 139 139 177 157 138 177 87 160 177 177 162 180 177 177 164 154 177 165 166 155 176 166 156 156 128 166 157 127 126 157 158 125 124 157 123 122 175 158 121 120 174 120 120 174 174 119 119 173 133 130 173 174 122 156 173 115 112 155 173 105 155 154 98 96 153 153 91 153 152 140 86 151 143 143 173 150 145 145 173 174 147 173 173 147 148 174 79 149 174 174 78 149 175 76 75 142 176 74 140 140 109 69 138 138 65 108 136 149 60 135 134 149 109 133 149 149 110 175 149 178 177 167 148 177 42 161 106 176 40 149 106 134 38 105 177 137 37 105 139 36 115 104 140 115 126 156 142 114 125 158 115 114 132 160 113 126 125 100 112 119 162 101 112 110 111 133 147 102 130 147 34 139
97 165 165 102 175 175 106 108 176 126 113 176 177 132 118 177 136 138 178 178 141 143 178 144 145 155 178 147 154 154 133 149 153 152 135 151 151 136 137 150 150 138 178 149 138 139 178 148 140 177 177 149 140 177 149 149 103 177 148 149 177 93 148 146 177 149 149 147 73 149 147 147 68 182 147 140 140 183 148 140 177 182 204 139 177 149 206 102 177 207 137 102 177 210 102 177 164 212 102 90 165 154 102 90 166 155 90 90 164 156 91 165 159 216 92 155 157 215 151 150 213 120 102 145 210 103 175 206 205 103 174 199 103 103 97 189 103 103 98 103 103 99 99 103 100 100 121 121 100 101 119 151 101 117 116 153 101 115 160 162 113 113 171 105 112 180 183 105 110 191 105 105 104 201 105 105 106 149 105 107 107 150 105 109 108 106 177 112 108 178 114 108 108 193 117 109 185 183 51 110 175 173 46 131 167 106 112 130 148 106 128 158 148 106 128 149 105 176 136 151 105 139 36 153 193 140 115 155 208 35 115 210 207 35 125 189 35 35 126 152 35 125 126 162 34 126 110 162 126 127 162 131 127 161 160 187
166 99 104 164 103 105 176 169 110 111 176 130 115 177 177 136 177 178 140 141 178 178 144 155 178 146 147 154 204 148 153 153 134 150 152 152 136 151 151 137 138 150 138 139 178 149 139 140 177 140 140 177 177 150 141 177 149 149 177 177 149 147 177 149 149 147 177 150 146 146 151 151 147 147 152 147 147 140 140 148 148 139 177 149 138 138 177 208 137 177 177 136 136 177 164 134 177 177 165 166 177 166 166 154 176 166 156 156 90 165 156 157 91 153 157 123 160 148 157 121 145 158 211 119 175 208 118 103 174 202 118 174 129 193 103 173 119 182 103 98 108 103 173 99 99 104 99 94 119 153 100 116 153 151 101 115 151 143 114 113 165 146 111 111 176 105 110 186 189 105 104 196 105 105 105 204 105 106 107 105 105 108 70 105 110 111 108 106 113 114 108 116 116 109 109 185 109 110 178 175 110 110 169 106 111 163 162 106 112 159 106 106 128 155 105 135 153 150 105 137 139 105 186 140 115 104 142 142 115 211 143 115 114 201 145 114 128 145 35 113 121 102 111 126 113 107 109 107 162 126 127 100 139 142 127 159
97 86 165 102 175 89 210 108 176 161 208 104 177 207 118 104 178 206 104 178 168 143 104 166 146 116 104 164 148 153 162 161 129 152 158 157 136 201 152 142 143 201 138 148 200 200 103 154 200 103 103 200 200 103 177 199 103 103 91 200 103 103 79 103 103 71 70 174 67 67 175 175 67 68 176 203 71 176 176 205 77 175 206 206 158 174 208 208 173 151 209 102 102 211 102 102 88 213 102 102 88 131 102 89 89 129 102 89 155 102 176 90 150 216 90 160 146 214 92 142 157 212 150 138 209 208 142 158 203 103 132 157 119 103 156 157 121 103 97 124 125 173 99 129 104 173 95 134 173 100 89 138 172 86 114 173 172 83 150 173 82 81 149 173 81 147 147 147 79 146 193 149 145 144 149 105 142 150 149 175 141 150 150 176 67 150 176 177 62 150 177 58 56 177 176 52 51 176 49 47 131 176 45 130 130 42 42 129 128 149 128 128 149 149 128 127 150 175 126 152 152 184 153 153 197 202 155 155 211 35 157 208 204 35 35 182 35 35 126 147 35 34 126 34 34 126 126 34 127 127 161 34 128 127 159 195
165 99 175 175 103 105 176 176 110 177 177 132 115 177 136 138 178 178 140 141 156 144 144 155 155 147 147 154 131 149 153 152 134 150 152 135 136 135 151 137 178 149 138 138 178 178 139 178 177 150 140 177 177 150 103 177 150 150 103 82 150 146 177 71 150 146 67 151 171 147 140 153 147 203 140 172 147 139 139 171 205 138 177 170 207 103 177 208 209 103 177 163 103 103 87 165 103 177 88 160 103 88 166 156 88 88 153 155 89 89 149 216 90 145 144 215 121 141 214 213 103 137 211 118 103 207 206 103 174 201 103 103 95 192 103 103 97 103 104 97 98 120 104 99 118 118 99 99 116 150 100 114 114 151 101 112 155 157 83 111 165 167 105 149 177 105 105 185 188 105 104 195 105 105 105 149 105 107 108 150 105 110 107 150 175 112 108 108 176 59 108 190 118 53 134 180 50 110 132 171 45 131 165 106 42 130 159 106 128 128 148 106 135 154 150 174 137 151 105 179 36 153 191 141 36 155 209 35 115 212 210 35 114 130 35 35 126 123 35 125 125 162 34 126 126 162 126 127 161 161 127 127 160 188 128 158
98 80 212 211 104 83 209 209 104 168 207 104 104 167 205 104 167 166 104 104 165 103 104 164 163 109 104 161 115 117 178 156 122 124 201 151 130 200 200 135 137 200 103 142 200 200 103 148 200 103 103 148 200 103 93 147 140 103 80 77 141 177 70 164 103 66 152 166 177 66 168 167 177 154 168 204 177 156 168 206 158 158 149 207 103 165 150 136 103 150 210 134 177 152 133 103 177 153 131 177 87 130 129 176 88 150 176 176 164 146 176 162 161 157 175 158 157 157 154 152 157 158 147 144 157 117 138 157 158 117 103 157 118 119 174 156 121 173 173 124 125 173 173 129 173 173 93 134 173 172 88 173 173 85 85 152 83 83 150 150 82 81 149 146 81 147 147 148 79 146 149 149 144 144 149 149 174 150 150 174 175 150 175 175 65 150 175 175 59 106 175 55 54 176 176 50 133 175 46 46 131 149 43 130 130 148 40 128 148 149 113 128 149 149 114 151 150 175 126 152 152 188 144 154 203 207 35 104 212 35 35 103 199 35 126 103 146 35 125 143 147 111 126 147 34 109 104 161 107 127 98 160 104 94 158 153
115 164 211 121 163 163 107 127 161 111 113 160 159 116 118 158 120 121 178 156 124 125 178 146 128 178 178 148 178 178 149 150 178 178 150 151 178 152 151 150 178 151 150 149 152 151 148 148 139 148 147 139 140 147 140 140 177 147 140 140 177 200 140 177 177 140 140 177 153 139 177 177 155 147 177 156 157 148 177 159 148 148 83 161 149 149 162 160 150 135 165 151 151 133 177 152 132 131 177 215 129 176 176 216 127 176 165 217 103 176 162 122 103 89 158 103 175 90 133 157 91 147 130 157 93 128 157 204 94 124 157 117 123 122 186 120 120 119 174 104 117 164 162 104 98 154 104 172 99 150 104 100 86 104 104 100 83 105 101 101 109 105 102 109 108 103 103 108 107 189 108 107 196 197 107 107 201 105 107 202 202 106 107 200 106 106 195 194 106 117 118 106 106 121 121 106 123 124 110 106 127 127 111 174 130 112 112 173 39 113 154 135 38 114 151 105 115 126 147 105 115 143 153 105 125 139 104 104 125 157 104 145 125 159 180 146 160 160 147 147 111 134 147 34 109 139 148 107 127 166 34 104 94 34 34 128
213 118 74 210 104 126 162 208 104 132 160 114 104 159 158 119 178 157 122 123 178 156 126 178 178 148 129 178 156 149 178 178 150 119 178 151 151 151 178 152 152 149 152 152 149 149 151 152 148 139 139 147 147 139 103 147 140 140 177 147 140 177 177 140 140 177 177 139 177 177 155 156 177 177 157 147 177 159 159 148 160 161 149 149 163 163 150 135 164 151 151 133 166 152 132 131 177 153 130 129 176 128 127 176 176 125 176 176 163 123 176 175 160 103 175 155 154 103 175 149 157 157 143 141 157 116 134 157 157 116 124 157 118 118 119 157 121 122 117 170 125 173 173 158 130 173 91 134 104 172 87 104 173 100 84 105 172 83 109 105 101 82 149 105 102 108 147 148 104 107 191 149 107 107 198 150 107 200 200 106 107 199 150 174 196 194 106 174 189 186 106 120 51 106 106 123 110 106 126 127 111 106 129 112 112 131 132 113 128 134 114 114 151 150 114 148 148 105 115 144 144 105 141 140 105 104 135 134 104 145 130 104 104 146 123 104 147 147 111 106 147 110 109 136 148 108 107 148 34 105 96 147 103 103 91 34
118 164 176 123 162 162 166 129 161 160 165 80 159 116 118 85 157 121 178 156 201 125 178 200 128 104 178 200 131 178 150 200 104 178 152 199 104 134 152 150 104 122 131 149 112 109 137 148 97 141 148 199 83 145 147 139 148 149 200 140 151 152 201 103 177 202 202 103 68 203 103 103 74 205 103 78 79 103 103 82 161 103 83 84 152 150 84 151 150 212 86 148 148 213 146 146 215 215 143 142 216 103 141 216 217 103 137 217 103 103 88 216 103 89 89 119 103 90 90 103 175 91 125 103 92 92 122 174 93 120 120 174 117 118 185 182 107 116 172 104 99 156 160 104 113 153 133 104 154 149 104 104 153 140 105 100 100 143 172 101 108 145 172 102 107 172 172 78 107 172 105 76 144 172 73 107 142 70 68 140 198 150 63 138 151 106 137 136 150 106 135 150 150 174 133 150 150 174 149 149 173 173 149 173 172 40 40 171 171 38 128 171 38 37 126 173 37 126 126 36 36 126 154 35 125 125 156 156 125 157 158 197 125 159 159 164 160 160 144 140 161 161 137 34 161 147 154 34 169 179 34 34 128 202 34 129
165 121 164 163 104 128 162 161 110 160 160 114 115 158 118 119 178 178 122 123 178 146 126 178 178 148 129 178 150 150 178 178 151 151 178 152 152 150 178 153 150 150 137 152 149 148 138 149 148 139 139 148 147 139 177 147 139 139 177 200 139 177 177 154 139 177 156 156 103 177 157 158 177 77 159 148 177 161 161 149 82 163 149 149 84 148 150 134 133 145 151 132 177 152 215 130 177 153 128 103 176 217 126 176 86 217 103 175 162 217 103 88 158 157 103 89 151 157 90 90 124 157 91 137 122 205 92 120 158 197 119 118 190 118 104 116 177 104 173 168 164 104 173 156 104 104 98 149 104 99 99 104 105 100 100 105 100 101 108 150 102 102 108 171 103 107 107 182 77 107 189 191 106 107 195 105 107 197 196 106 108 195 106 106 116 189 106 106 119 151 106 121 122 106 173 125 110 106 127 128 111 172 131 112 112 154 134 114 152 151 38 114 149 105 37 126 145 105 115 126 153 105 126 136 155 105 125 156 104 206 145 158 105 146 35 159 153 147 111 140 138 34 109 142 147 34 127 167 34 34 128 198 34 128 91 154
120 65 165 165 68 162 207 164 72 205 112 76 77 203 117 81 201 201 104 87 200 104 104 199 199 104 178 199 104 104 143 151 104 104 134 115 104 125 122 122 104 111 126 128 100 97 131 198 86 135 136 199 74 139 199 199 104 142 200 201 103 147 201 103 103 202 139 103 72 204 103 103 77 137 103 80 81 146 103 82 145 145 177 83 144 143 176 166 142 213 85 167 152 214 167 138 153 216 167 154 217 126 103 155 217 103 175 156 121 103 87 119 119 175 89 117 116 175 146 115 174 91 137 114 174 130 119 158 174 120 158 191 113 110 158 179 105 157 157 124 97 156 156 129 156 155 133 134 172 154 137 172 172 140 141 171 83 143 171 171 81 145 172 80 80 171 172 78 77 171 75 75 143 143 71 142 141 151 66 140 139 151 138 138 151 151 136 136 150 173 135 150 150 173 132 149 173 173 43 149 172 41 41 171 171 39 39 170 38 38 128 169 37 37 126 140 36 126 126 153 116 126 154 155 125 125 156 211 125 157 158 190 126 159 166 158 114 160 142 140 107 120 142 34 34 146 148 34 127 190 147 34 128 147 34 100
98 176 176 103 104 177 131 108 177 178 136 114 178 139 141 178 178 144 145 155 146 147 155 154 149 154 153 130 151 152 152 132 151 151 134 134 150 150 136 177 150 136 137 177 153 137 177 177 153 139 177 154 154 177 177 154 155 177 155 155 147 177 156 156 147 70 158 147 147 138 143 148 137 137 148 148 136 177 149 136 135 177 149 134 176 176 212 133 176 167 167 103 176 167 168 103 85 167 154 176 86 165 155 86 164 129 156 87 160 156 217 88 124 157 117 103 123 213 115 175 120 210 104 175 205 204 104 174 198 104 174 94 188 104 95 105 104 104 96 98 156 97 97 110 155 98 98 109 147 99 108 108 147 100 108 151 153 107 107 159 105 105 168 170 105 171 178 105 105 106 187 105 105 109 105 106 111 112 106 113 114 108 106 116 117 108 181 120 109 109 173 123 110 167 165 45 111 160 159 112 130 156 106 113 153 148 106 128 150 106 106 138 150 105 140 141 151 105 142 115 153 207 144 116 214 145 35 115 206 146 114 126 118 35 113 114 112 34 126 107 119 34 126 101 145 127 127 159 163 128 157 157 204 129 153 164
163 62 104 163 129 65 177 162 68 70 178 138 74 202 178 143 157 200 145 146 155 199 104 154 198 128 104 153 198 104 178 152 132 104 124 134 134 177 111 135 136 177 154 137 177 177 155 127 177 155 155 148 177 155 133 147 155 156 148 201 156 147 147 138 158 147 147 138 177 147 137 137 177 148 136 177 177 136 135 177 164 134 176 176 166 133 176 167 167 176 176 168 168 153 168 168 153 154 166 166 154 124 165 155 155 122 156 156 119 119 157 157 117 175 157 116 115 175 175 114 174 174 133 113 174 126 123 174 174 117 114 174 110 107 158 174 102 100 157 124 95 156 156 129 90 156 133 134 109 154 137 171 153 148 141 171 152 143 105 171 161 145 171 171 78 105 170 76 76 105 107 72 144 171 110 68 141 112 63 107 139 116 58 137 182 119 109 135 151 151 109 168 150 172 110 162 106 171 158 157 106 170 154 106 106 135 151 106 168 138 115 106 139 36 115 141 141 116 126 143 143 115 132 144 115 115 127 145 114 122 120 114 113 115 113 107 110 109 114 142 103 130 137 148 98 156 160 148 159 168 147 147 168 167 147 99
99 177 177 103 177 177 133 109 178 178 139 159 178 142 143 157 178 146 156 156 152 149 155 126 150 94 153 129 152 153 131 132 106 151 134 134 177 197 135 177 177 197 104 177 155 137 104 177 155 104 177 68 156 104 177 156 131 104 66 157 148 148 70 134 147 138 75 135 204 137 135 135 206 136 135 208 208 103 135 210 134 103 83 211 103 176 83 103 103 84 168 103 103 84 129 103 84 84 127 103 85 126 125 85 85 123 156 217 122 122 216 117 120 215 215 104 118 212 212 104 158 209 104 104 205 203 104 92 196 104 104 94 112 104 95 95 111 104 96 110 110 172 97 109 108 98 88 108 146 99 107 107 147 105 107 150 152 105 150 158 105 105 148 168 105 105 147 149 105 107 184 149 171 110 150 106 171 63 107 171 116 58 107 172 54 109 175 172 50 109 168 46 46 133 161 43 111 131 149 41 130 154 148 169 129 148 106 167 128 149 168 139 150 150 178 141 151 193 199 35 153 211 35 35 125 213 35 35 125 35 35 126 126 34 34 126 159 34 126 126 160 34 127 160 159 127 127 158 197 202 156 155 203 199 152 187
162 127 177 177 132 63 177 178 136 160 178 140 142 158 117 144 156 156 121 148 155 124 125 154 153 127 128 153 130 130 177 152 133 177 177 154 134 177 177 155 177 177 155 155 177 177 156 148 177 156 156 148 177 157 147 148 158 158 148 138 138 148 148 138 137 148 137 137 177 148 136 136 177 136 136 177 177 135 177 176 166 133 176 176 167 151 176 168 168 152 176 168 153 153 84 167 154 154 166 124 155 122 163 156 217 119 121 157 118 117 175 216 115 175 175 214 113 175 138 211 104 174 129 104 104 92 119 104 174 93 112 158 94 105 110 158 95 109 158 125 97 109 157 130 108 108 147 134 107 145 145 105 106 147 141 105 102 153 105 170 103 162 105 104 78 105 105 107 106 105 109 110 106 106 111 106 107 114 115 107 107 181 108 108 176 174 109 109 169 106 110 164 162 106 132 158 106 106 155 154 106 134 134 106 106 137 137 106 138 139 115 105 141 116 116 186 143 115 116 207 35 116 129 145 35 115 123 105 114 126 117 106 113 112 108 110 126 105 120 148 126 159 148 148 96 159 189 148 157 173 206 147 100 197 146 34
212 104 177 208 104 104 160 205 104 178 157 203 104 155 144 104 104 150 83 104 146 144 90 104 139 94 96 196 129 100 102 196 105 106 196 196 109 196 196 104 114 196 196 104 149 197 104 104 69 197 104 67 66 104 104 67 67 104 69 70 127 104 74 128 128 177 78 128 129 177 163 128 207 207 165 128 209 104 128 150 211 104 151 213 131 104 152 214 103 83 152 128 103 84 154 125 175 84 122 104 176 85 121 175 85 159 119 175 155 118 158 175 149 117 215 143 140 159 211 104 132 159 112 104 159 159 113 174 159 114 115 173 159 118 173 173 121 122 172 96 126 172 172 90 107 172 87 86 155 171 85 85 154 83 83 152 152 82 81 151 145 79 149 148 147 76 146 148 149 170 144 150 170 170 151 151 170 171 151 171 171 56 151 171 171 51 171 171 48 46 171 45 44 132 131 42 42 131 148 40 129 129 147 38 128 148 148 128 127 149 149 127 149 150 184 190 151 201 206 35 153 215 215 35 105 210 35 35 106 187 35 126 165 147 34 126 148 34 109 126 159 34 127 159 159 105 127 157 156 102 90 153 199 129 90 147
177 101 102 177 134 135 178 178 139 159 178 142 143 157 178 146 157 156 147 149 155 155 140 91 154 127 128 98 196 130 177 152 195 132 177 195 133 104 177 196 135 177 156 196 104 177 157 197 104 67 158 148 177 67 122 148 69 159 124 148 73 125 148 202 77 125 148 136 126 126 206 135 125 208 208 104 177 210 210 104 83 212 104 104 83 214 104 83 83 104 104 84 167 104 83 83 121 155 84 119 120 218 85 118 118 217 117 117 217 216 116 115 215 104 115 214 213 104 159 210 104 104 91 205 104 92 92 113 104 93 93 104 173 94 109 104 95 95 108 172 96 107 107 172 89 106 145 144 86 106 144 105 105 153 147 105 105 152 144 105 149 161 105 170 148 148 105 108 109 149 170 111 106 150 170 114 107 170 170 57 108 170 120 52 136 170 49 109 134 46 45 133 159 148 42 131 148 106 130 130 147 106 129 147 147 166 128 148 167 168 149 149 177 142 151 193 199 35 116 212 214 35 125 214 35 35 125 198 35 126 126 34 34 126 158 34 126 126 159 159 127 159 159 178 127 158 157 204 156 155 206 201 151 189 183 34
211 104 104 208 104 104 157 205 104 104 154 113 104 151 150 118 177 146 83 86 177 139 90 196 131 153 96 195 121 100 152 195 156 105 195 133 156 150 195 104 104 150 135 104 72 149 137 104 68 137 137 177 68 137 104 177 160 137 177 74 162 177 177 162 123 204 177 164 149 206 165 165 149 208 166 150 150 133 167 151 131 131 151 151 130 104 152 128 128 176 83 126 125 175 167 123 175 175 164 121 175 161 160 175 175 157 158 175 152 150 158 158 145 159 159 112 136 159 159 111 160 160 111 111 160 112 112 173 160 114 115 173 117 117 173 172 96 122 172 93 92 171 172 89 88 171 87 86 155 170 85 154 154 83 83 152 152 81 151 150 145 146 149 148 148 169 146 149 149 169 176 150 170 169 178 151 170 58 151 106 170 53 52 170 123 49 135 170 46 45 133 128 43 132 132 132 112 131 147 134 113 129 147 114 115 146 148 166 127 142 106 175 138 149 191 143 133 105 211 35 127 105 146 35 105 105 147 35 106 147 147 112 125 148 34 110 103 148 108 127 97 107 106 94 158 104 103 92 178 101 90 90 173 186 89 166
130 163 162 104 162 161 107 109 177 159 112 177 177 115 117 177 177 119 177 177 151 123 177 153 153 177 177 155 155 177 156 156 152 151 156 157 151 133 157 150 150 135 111 150 136 136 114 149 136 177 149 198 137 177 177 137 104 177 162 136 177 177 163 104 177 164 164 104 81 165 149 104 81 167 150 82 82 120 151 131 168 152 213 129 119 153 128 104 119 216 125 175 118 217 104 175 218 218 104 175 218 104 104 85 156 104 175 86 113 104 87 145 113 88 88 112 160 89 89 111 208 91 110 109 201 111 108 195 192 104 108 183 104 104 174 170 104 104 161 105 105 97 149 105 105 98 133 105 99 100 105 105 101 105 105 103 103 105 152 105 105 105 161 107 105 167 169 71 105 173 174 65 142 175 106 106 174 151 106 119 170 106 106 123 150 106 125 126 149 106 128 111 148 169 132 112 113 167 39 114 149 137 38 128 146 37 115 127 142 36 127 138 149 35 126 132 105 125 125 152 105 146 154 154 208 147 156 156 184 34 157 163 158 34 158 151 34 34 157 162 34 106 182 34 34 128 92 34 129 129 152 34 129 130 145 130
164 101 135 162 105 106 160 160 110 110 177 113 115 177 177 117 118 177 151 121 177 177 153 125 177 155 155 177 177 156 152 152 157 157 151 151 158 151 150 134 159 150 150 135 149 150 135 136 149 136 136 177 149 136 136 177 161 136 177 177 163 136 177 164 164 177 177 165 165 177 166 166 150 176 168 151 151 82 168 151 151 130 118 153 128 128 153 153 125 175 155 124 124 175 218 121 175 175 218 118 175 159 158 104 175 154 152 104 86 147 159 174 88 139 160 88 132 160 160 90 109 161 110 91 108 161 112 173 107 188 114 172 160 175 104 172 165 122 105 96 154 105 171 98 145 105 99 86 105 105 101 84 154 102 102 105 152 104 105 105 155 106 105 105 164 105 105 169 170 106 106 172 106 106 172 172 106 170 169 106 106 122 165 106 125 125 106 106 128 128 106 130 131 112 106 133 134 113 150 136 114 114 147 139 115 143 143 36 116 138 105 116 135 133 105 116 129 105 105 125 123 106 106 147 154 106 147 147 156 173 148 112 112 154 148 110 154 148 34 107 174 148 105 127 92 34 102 90 91 34 129 89 174 34 130 141
157 60 162 103 138 66 206 108 71 159 203 104 78 200 116 104 83 199 104 177 197 196 104 177 155 104 104 111 157 104 104 98 103 104 88 86 106 80 78 108 108 73 72 110 195 196 111 112 196 135 113 198 198 104 114 199 104 104 200 201 104 104 203 104 104 80 205 104 104 81 117 104 81 82 116 104 82 116 116 82 82 116 214 82 116 115 215 83 115 217 217 167 114 218 218 104 157 218 104 104 157 116 104 85 218 114 104 86 112 104 174 87 111 104 88 133 109 174 89 108 108 173 117 107 200 173 109 161 190 104 102 161 178 97 160 160 121 93 159 155 126 171 158 129 105 99 133 134 170 101 137 138 169 82 141 168 168 79 144 168 76 75 168 168 72 105 146 68 67 144 169 63 143 142 151 57 140 139 151 138 138 150 150 136 135 149 169 169 148 148 168 42 147 167 167 40 146 166 38 38 164 164 37 37 164 37 36 127 171 36 36 126 149 35 126 126 150 125 125 152 152 125 125 154 203 125 155 155 177 125 156 160 156 157 157 155 34 34 166 173 34 34 194 34 34 128 209 34 34 129 147 34 130 130 146 34
163 101 103 162 105 106 177 160 110 177 177 113 114 177 177 117 177 177 153 121 177 177 155 154 177 156 156 153 104 157 152 152 158 158 151 132 159 151 151 133 160 150 134 134 109 150 135 135 177 197 135 177 177 199 104 177 163 135 104 177 164 104 177 81 166 104 177 166 115 104 81 168 151 209 82 115 152 130 82 114 213 128 114 114 215 126 114 216 217 104 113 217 121 175 83 218 104 174 160 104 104 84 155 104 104 86 110 104 86 86 109 104 88 108 108 89 89 108 209 208 107 107 203 109 107 197 194 104 106 186 183 104 177 173 105 105 163 160 105 97 151 105 105 99 104 105 100 100 104 105 101 104 104 168 103 104 104 105 78 105 153 108 105 148 161 106 105 164 165 106 144 166 106 106 141 166 106 121 139 150 106 124 150 149 169 127 148 106 130 42 111 168 132 113 113 166 39 114 148 164 38 114 144 37 37 127 140 36 127 127 148 35 126 130 149 211 125 151 105 216 125 153 210 147 154 155 187 34 155 168 163 34 157 155 34 34 126 166 34 34 127 34 34 128 128 34 34 129 151 34 129 130 145 130 130 138
155 62 64 208 67 69 206 205 73 75 202 105 105 200 200 104 135 198 104 104 125 196 104 116 113 125 104 103 100 104 177 91 102 104 83 159 104 194 75 106 106 194 161 108 195 196 162 109 196 104 162 150 198 104 111 200 135 104 150 201 104 177 80 134 104 81 81 133 176 81 113 131 176 82 113 176 176 169 113 176 169 169 153 175 168 112 155 124 167 155 217 121 164 157 119 104 158 158 116 104 159 115 114 174 160 112 173 174 143 111 174 174 136 173 173 128 107 173 173 120 162 172 114 112 162 108 106 162 162 101 100 161 116 117 160 161 120 121 160 124 125 170 158 129 131 169 133 134 168 169 137 168 168 81 142 167 167 78 150 167 74 74 149 168 69 146 146 65 64 144 150 60 142 142 151 55 140 150 150 168 137 149 149 169 157 148 168 168 147 106 167 40 145 166 166 39 106 164 38 38 106 163 37 128 127 141 36 127 127 36 117 126 148 35 126 125 150 116 125 152 152 115 115 153 197 114 109 155 171 34 104 116 157 34 131 140 148 34 163 183 148 105 181 148 34 102 184 147 100 129 89 146 96 131 138 95
163 101 153 68 208 106 72 74 204 110 79 202 201 105 177 199 118 104 127 197 104 177 116 104 104 106 158 104 104 94 100 104 86 83 102 104 77 104 104 194 73 106 194 195 107 107 196 196 108 197 197 104 109 198 199 104 150 201 104 104 80 202 104 81 81 104 104 81 111 104 81 81 112 104 82 111 111 175 82 111 111 175 168 111 215 216 167 156 217 104 110 218 218 104 157 218 104 104 159 218 104 84 160 112 104 86 217 110 173 87 107 104 173 131 106 173 89 122 106 172 116 105 162 172 109 105 192 103 102 162 180 105 162 161 119 105 160 160 123 169 159 127 128 169 158 132 169 168 135 136 168 103 139 167 168 78 104 167 76 74 150 168 71 69 147 67 66 146 144 61 60 143 150 56 140 140 150 139 138 149 149 169 136 148 168 168 147 146 167 167 145 166 166 39 145 164 164 38 163 162 37 37 163 36 36 127 127 36 36 127 147 35 126 126 149 35 125 150 151 125 125 152 205 125 154 154 181 174 155 164 161 34 155 159 162 34 154 176 34 34 196 201 34 128 210 34 34 129 147 34 130 130 142 34 131 134
177 140 67 208 143 144 161 205 148 148 159 112 151 157 157 117 153 156 119 105 155 155 123 104 154 125 126 177 94 128 177 177 160 130 177 177 161 177 177 161 161 177 177 162 151 177 163 163 150 163 163 150 150 134 165 150 134 133 150 151 133 133 151 133 133 176 151 132 131 175 131 130 175 175 168 175 175 169 169 175 175 168 155 174 167 167 156 174 166 157 157 163 162 158 117 159 159 159 114 114 160 112 112 173 161 110 110 173 216 109 173 173 108 107 172 125 107 172 172 117 104 172 111 109 163 172 104 163 162 94 99 162 162 95 103 161 120 91 103 149 125 103 159 141 131 168 138 134 105 167 137 139 167 104 140 105 167 76 146 105 109 71 106 106 112 105 106 115 116 106 143 118 107 141 158 121 108 139 149 109 109 155 147 110 154 153 106 112 151 151 106 150 149 106 106 136 146 106 139 139 106 106 140 36 106 142 143 117 106 144 117 116 145 145 117 117 146 116 116 116 114 116 115 110 107 114 106 105 111 126 101 122 128 126 97 151 148 94 155 178 148 148 186 211 147 101 185 147 147 98 179 146 96 95 175 34
140 105 177 143 144 105 146 148 160 177 139 83 158 134 154 87 156 118 90 156 196 122 94 155 124 177 97 194 127 177 99 194 104 177 194 130 104 74 194 104 177 73 163 104 74 163 105 104 76 164 151 77 78 107 151 80 107 107 201 81 108 108 204 108 108 206 206 104 109 208 104 104 210 210 104 175 213 104 104 82 215 104 81 82 104 104 82 82 107 82 82 107 107 83 83 107 218 84 107 106 218 150 106 217 217 143 106 216 104 105 162 214 104 104 211 107 104 90 207 104 104 91 108 104 92 92 111 170 94 103 105 170 95 103 169 96 92 103 151 98 103 159 142 86 103 137 133 84 156 136 105 81 154 140 105 152 152 144 105 110 146 147 167 112 148 106 168 61 149 168 118 56 168 168 52 108 168 168 48 137 168 45 44 135 152 42 133 133 145 40 132 144 144 131 130 143 106 129 143 143 162 128 144 144 169 145 145 183 189 35 147 207 35 35 216 217 35 125 215 35 35 125 198 34 126 126 34 34 126 126 34 126 126 155 155 127 155 155 193 127 154 154 210 152 151 206 201 148 147 181 34 142 174 175 34 34
177 142 163 162 146 146 161 160 149 159 159 113 153 158 157 116 157 157 119 120 177 156 123 177 177 125 125 177 161 127 177 177 161 129 177 161 162 177 177 162 163 177 163 163 151 152 164 151 151 133 164 151 151 133 105 151 133 133 106 152 132 175 152 205 131 175 175 130 104 175 169 129 175 168 168 104 175 169 168 104 81 167 156 174 82 165 158 82 164 106 159 117 106 159 219 115 106 161 113 104 105 218 110 172 105 217 104 172 216 215 104 172 213 104 104 89 120 104 90 90 103 105 91 106 103 93 93 103 163 94 95 103 169 96 103 103 155 105 102 147 145 105 102 139 105 105 136 135 105 167 135 105 105 106 138 105 105 109 144 106 111 112 105 113 114 106 106 116 117 106 154 120 107 107 154 124 109 153 153 46 110 152 106 111 135 151 106 106 149 143 106 135 147 106 106 138 142 106 139 140 143 106 142 116 144 176 143 117 129 200 35 117 123 146 35 125 117 35 116 125 112 34 125 107 152 34 125 153 115 126 126 154 138 148 154 154 186 148 154 184 208 34 152 211 147 34 148 189 34 97 175 174 34 131 175 34
142 105 105 147 75 105 143 141 81 203 136 85 86 200 126 88 199 198 91 91 197 121 94 195 195 105 96 194 194 105 194 194 104 104 77 104 104 75 75 104 104 75 102 104 76 76 103 104 78 103 103 176 80 104 200 80 167 104 202 203 105 152 204 104 105 206 207 104 154 209 104 104 154 211 104 81 156 125 104 81 106 122 173 82 106 104 173 163 105 173 82 160 105 173 157 105 219 173 151 161 218 147 145 162 217 104 164 164 107 104 164 213 106 171 164 105 104 171 164 106 170 91 107 108 170 102 110 169 169 97 102 169 94 93 162 168 91 89 161 88 88 160 160 86 159 158 133 83 156 156 137 166 154 140 141 166 152 144 166 166 146 146 166 167 148 167 167 58 148 167 54 53 167 167 50 49 139 47 46 137 136 44 43 135 144 41 133 133 143 132 131 142 142 130 130 142 161 129 142 142 162 164 143 170 174 35 144 193 199 35 105 213 35 35 217 147 35 125 211 35 34 125 151 34 126 126 153 34 126 153 154 110 126 154 179 107 93 154 203 128 91 190 212 90 150 199 192 34 181 175 34 34 171 175 34 131
177 145 146 105 145 149 161 105 138 152 159 112 129 87 158 116 157 90 198 119 92 156 196 105 94 195 125 105 96 194 105 177 194 194 104 177 163 104 104 75 164 104 76 76 101 104 78 165 102 80 79 102 152 81 81 103 201 132 103 103 203 131 104 205 206 104 104 208 104 104 210 210 104 104 212 104 104 81 215 104 104 81 104 104 82 82 104 173 82 104 104 83 83 104 218 83 104 104 219 84 104 218 218 142 103 216 216 104 164 215 104 104 165 105 104 89 208 105 105 91 106 105 170 93 108 105 94 99 102 169 95 102 166 168 92 102 152 167 88 161 142 87 103 159 135 83 158 133 135 80 155 134 105 166 153 142 105 110 145 145 166 114 147 147 167 60 148 167 167 54 148 167 51 50 168 168 47 138 137 44 44 136 149 42 134 133 143 40 132 132 141 131 131 141 141 129 129 141 161 162 142 142 169 36 143 185 191 35 144 208 35 35 217 218 35 35 215 35 35 125 200 34 126 126 151 34 125 126 153 126 126 153 153 127 127 153 196 128 153 152 212 128 150 207 202 147 146 181 34 34 174 174 34 34 176 34
149 102 105 144 78 106 177 137 83 105 177 155 86 177 121 157 89 177 159 91 157 177 160 93 195 124 161 155 194 105 154 154 128 105 153 153 130 177 153 130 131 177 152 131 176 176 132 132 176 165 166 176 175 167 102 175 167 167 153 175 167 168 154 168 168 154 154 168 169 155 127 126 156 156 125 173 157 123 122 173 158 120 173 173 119 118 172 172 116 172 172 157 114 172 154 153 162 171 148 146 163 143 141 164 164 136 134 165 105 128 165 165 105 120 165 105 105 165 166 105 169 169 107 107 169 168 110 168 168 96 114 168 168 92 105 167 90 89 105 100 87 160 160 102 84 158 133 81 157 156 137 77 154 140 141 104 151 144 144 105 141 146 166 147 145 106 167 56 148 106 167 51 106 167 125 47 106 167 45 110 106 131 42 135 133 133 113 132 136 136 114 145 140 115 115 141 141 116 138 136 106 117 132 142 106 128 127 106 207 122 105 105 146 35 106 106 148 116 106 148 148 114 108 148 113 112 149 149 111 97 149 109 108 93 148 106 92 91 189 103 90 90 191 90 89 187 185 89 89 178 145 89 169 166 144 123
105 146 77 78 141 140 81 161 134 84 85 202 124 87 88 199 89 90 198 197 91 196 196 105 105 195 195 105 82 194 105 105 78 194 105 77 77 129 105 77 98 105 78 78 98 104 80 99 99 198 80 100 100 200 167 101 201 202 167 101 204 104 102 154 207 104 155 209 127 104 156 211 104 173 81 123 104 81 81 121 172 81 102 118 172 162 102 171 171 158 102 171 155 153 162 171 149 102 164 108 143 164 217 106 136 165 105 104 165 166 104 170 166 104 104 169 166 105 169 169 106 106 168 93 101 168 168 97 101 167 94 93 163 167 91 90 162 88 88 161 161 86 85 159 130 132 158 157 135 136 155 138 139 166 153 142 166 166 144 144 166 166 146 166 166 57 147 167 167 52 142 167 49 48 139 46 46 138 137 43 42 135 142 41 133 133 141 39 132 140 140 162 130 140 140 160 140 140 162 164 141 171 176 35 142 195 201 35 106 214 35 35 105 218 35 125 125 148 34 125 149 34 114 126 151 34 126 98 151 110 126 152 152 107 92 152 205 104 91 150 212 34 90 190 192 34 185 182 146 34 174 174 145 92 162 144
146 103 177 177 151 107 177 177 154 177 177 157 157 177 177 159 158 158 160 160 157 156 161 156 156 123 162 156 125 125 155 154 127 127 154 128 128 176 176 130 130 176 165 130 176 176 166 175 175 166 166 175 175 167 154 175 167 167 154 174 167 155 155 128 168 156 156 126 156 156 125 124 157 123 123 172 159 121 120 172 216 118 171 171 217 116 171 159 158 104 171 154 163 171 83 149 163 170 145 101 165 85 138 166 166 86 101 166 104 88 101 167 104 169 101 208 104 168 203 201 105 168 194 107 168 94 182 105 167 94 168 105 98 91 163 105 100 101 162 101 102 102 160 103 102 102 130 106 103 156 130 104 104 132 141 104 104 135 106 166 138 139 106 118 141 106 106 121 143 106 123 125 106 106 127 128 106 129 130 111 106 132 112 112 146 135 113 114 145 38 114 142 141 115 115 139 106 116 135 133 106 117 129 106 106 145 123 106 146 146 144 105 147 148 146 213 148 116 107 148 148 115 180 149 113 112 169 34 110 95 94 34 108 93 181 34 127 91 192 103 128 148 191 129 89 144 183 130 139 176 174 131 129 176 144 35
210 77 78 208 105 105 205 204 105 177 203 202 105 116 200 105 105 105 198 105 97 94 105 105 87 92 105 82 81 93 93 79 94 94 194 78 95 95 194 165 96 195 195 96 96 196 105 97 198 198 105 81 200 104 104 81 202 104 81 81 128 104 81 81 127 173 81 100 104 172 167 100 172 81 100 100 215 165 100 216 216 162 100 217 104 160 162 218 104 100 163 111 104 164 219 108 169 165 107 104 169 85 105 169 86 130 104 168 88 100 168 168 117 100 168 112 110 167 167 106 104 167 106 100 166 166 109 96 166 112 113 165 164 116 105 163 120 121 165 162 125 165 165 129 130 165 165 78 165 165 75 74 165 165 70 152 166 65 64 150 61 60 147 147 56 55 144 146 51 142 142 144 144 140 143 143 167 137 141 141 166 140 140 165 164 139 163 162 38 138 161 160 37 106 160 36 36 128 165 36 127 127 35 35 127 142 35 126 126 144 35 125 145 145 117 125 147 147 198 104 148 182 178 100 150 170 34 150 174 178 34 166 193 34 34 188 211 34 128 193 147 34 129 129 147 97 130 139 34 94 89 130 93 132 89 117
165 103 104 177 207 106 177 177 156 110 177 158 159 105 177 160 160 105 100 161 158 177 90 90 157 85 163 156 156 125 93 156 126 127 93 155 128 176 94 195 128 176 196 196 105 175 197 129 105 81 199 105 174 82 166 105 81 167 97 104 81 167 157 81 81 98 157 81 99 99 211 81 99 99 214 99 99 215 216 104 99 217 104 104 218 218 104 83 219 104 104 83 218 104 84 84 104 104 85 85 100 86 86 100 100 87 87 100 214 88 99 100 210 114 100 207 205 108 100 199 105 100 192 189 105 105 180 105 105 97 165 105 99 99 117 105 101 101 122 164 103 102 105 164 105 103 165 107 76 103 128 110 104 153 130 67 104 133 143 61 148 136 106 56 146 145 106 143 143 144 106 126 143 142 167 129 141 166 166 42 140 165 134 113 164 163 38 114 161 161 37 130 160 37 36 128 135 36 128 127 139 35 127 141 141 126 126 142 106 126 143 144 217 125 145 146 204 147 147 189 184 34 176 173 34 34 172 174 34 126 187 34 34 127 207 34 128 128 34 34 129 146 34 129 130 141 139 130 136 133 175 131 125 122 177 115
210 105 79 208 105 105 163 204 105 105 162 112 105 112 200 115 105 101 117 105 177 91 89 105 85 164 90 176 80 91 156 176 165 92 194 176 165 156 195 166 166 155 196 105 156 155 129 105 156 129 105 174 156 128 105 81 128 128 173 81 127 126 172 167 125 171 171 166 98 171 165 166 160 171 165 161 161 163 162 162 217 160 162 163 113 157 163 164 110 165 165 109 108 168 107 106 168 168 105 105 168 134 103 167 167 127 102 167 121 120 167 167 114 113 169 109 109 168 168 104 168 168 106 99 167 167 109 166 166 112 113 165 165 116 164 164 120 121 164 85 125 164 164 81 130 164 78 76 164 165 72 71 164 68 67 152 166 63 61 149 118 57 147 146 144 107 144 143 143 109 141 142 167 139 143 140 166 137 139 106 165 144 138 164 137 38 106 161 38 37 106 140 37 129 106 142 36 128 144 144 117 127 145 118 127 119 147 117 126 143 105 117 109 144 210 116 105 108 192 101 100 112 175 98 123 129 149 94 153 149 149 176 182 148 34 104 148 148 102 129 147 147 99 89 146 97 96 89 95 94 89 90 92 92 89 154
177 209 105 177 133 206 105 177 158 105 105 115 160 105 105 104 87 105 97 94 88 197 88 89 89 196 82 90 195 195 90 91 195 126 91 195 195 105 92 196 105 105 196 197 105 105 81 105 105 82 82 105 105 82 95 105 81 81 96 105 82 96 96 171 81 96 210 81 165 97 212 212 97 161 214 104 97 216 217 104 163 217 104 104 164 112 104 83 165 109 105 83 98 105 167 84 98 105 85 136 98 167 86 98 98 166 124 99 213 166 116 169 209 112 110 169 204 105 169 169 105 105 168 187 107 165 167 110 105 164 112 114 164 100 117 118 164 86 122 164 164 82 102 164 79 77 158 164 74 72 155 70 68 153 152 64 151 150 142 59 148 147 143 166 145 143 142 167 143 142 167 167 141 140 166 43 138 166 165 41 137 164 40 39 163 162 38 38 131 37 37 129 129 36 36 128 137 35 127 127 138 127 127 140 140 126 126 141 219 125 143 143 214 211 144 203 199 34 146 184 34 34 117 173 34 34 178 149 34 127 196 34 34 128 148 34 128 128 146 34 129 144 143 97 130 138 173 131 89 130 176 132 122 158 177 89
