P2
256 256
255
50 218 132 223 218 95 225 226 217 96 227 216 216 226 249 215 214 226 203 214 226 226 215 212 225 222 224 225 225 230 237 225 234 235 238 225 238 240 240 206 240 241 242 205 243 243 205 204 244 204 203 224 245 202 202 224 202 202 224 224 243 201 224 243 242 224 224 241 241 224 240 240 250 224 238 250 249 236 235 250 250 232 250 250 202 202 250 250 203 224 250 203 204 224 228 204 224 224 205 205 224 184 206 224 224 166 206 224 152 147 246 224 134 128 244 237 116 244 243 228 174 242 201 87 176 242 196 176 241 176 189 224 241 182 78 224 151 170 224 35 136 78 224 29 122 78 91 25 78 77 79 24 76 70 25 177 244 57 28 243 91 41 178 243 72 178 178 87 62 178 178 86 49 177 85 85 40 178 85 33 31 6 84 25 5 5 22 21 4 116 20 4 4 182 22 3 3 183 3 3 183 184 3 3 184 84 84 184 185 87 115 186 91 93 147 190 98 165 170 231 106 181 184 114 76 189 3 3 191 113 3 203 189 3 4 205 105 3 205 205 103 3 205 163 4 44 204 172 4 203 247 179 139 201 183 95
247 130 222 248 248 17 225 248 18 227 72 249 20 228 214 22 22 93 213 24 25 106 92 27 117 121 90 250 132 87 86 250 146 84 250 250 82 81 250 239 80 251 251 50 78 251 251 55 251 251 60 62 203 66 68 209 211 73 75 215 74 82 219 221 74 91 223 74 74 249 227 74 252 252 200 74 252 252 74 224 252 128 74 252 252 137 224 252 142 144 224 251 149 230 224 205 155 228 75 192 247 225 75 163 222 205 76 246 218 76 76 244 206 76 240 243 205 224 233 203 203 224 221 175 224 224 78 176 224 187 63 240 224 53 177 241 224 41 241 140 35 33 242 150 78 242 243 134 77 243 121 117 224 244 106 103 224 96 93 224 224 83 224 224 36 71 224 224 45 243 224 55 58 242 224 69 240 240 80 84 239 238 95 237 237 39 106 235 39 39 234 234 40 41 220 42 43 218 217 45 47 214 107 49 210 208 93 203 201 82 79 192 188 71 231 231 67 66 231 232 64 232 233 74 63 234 234 79 199 235 82 83 237 137 85 107 239 87 88 105 50 89 104 103 45 91 103 40 38 150 102 33 248 102 5 27
221 131 135 223 224 216 225 225 215 215 226 227 214 226 228 213 213 226 230 212 226 225 110 210 225 221 209 88 225 228 229 225 250 233 237 225 236 237 238 251 238 239 240 251 53 241 202 251 60 243 201 224 244 206 200 224 245 199 74 224 217 199 224 252 222 73 224 239 226 74 252 237 74 74 252 235 248 252 252 124 249 252 228 133 233 252 139 249 233 144 146 232 201 151 152 230 75 157 228 228 75 224 225 75 75 248 221 76 247 246 75 75 243 242 76 239 238 173 76 232 229 174 196 219 175 175 186 201 176 177 174 176 177 163 77 177 152 148 77 177 136 77 77 242 122 77 77 91 132 77 82 79 76 224 70 177 74 61 57 177 224 45 177 177 224 31 177 87 224 46 176 85 85 59 243 84 42 177 241 44 33 240 84 41 25 238 40 21 222 236 40 19 4 117 42 220 3 179 218 217 111 179 214 213 100 232 208 90 86 232 198 77 232 88 70 68 232 95 164 233 233 71 181 234 75 76 129 236 79 80 117 81 82 112 110 85 85 107 52 87 106 105 47 245 104 42 41 247 103 36 248 248 31 29 249 250
247 17 17 248 248 18 62 249 19 20 72 249 21 80 84 192 24 93 96 93 230 106 92 91 117 121 89 250 131 87 86 250 206 84 251 251 205 81 251 48 203 225 251 53 55 224 240 59 195 251 240 242 204 240 72 244 211 240 245 216 198 239 246 222 74 224 247 197 73 252 197 197 224 252 198 198 224 231 198 224 252 228 198 224 224 137 224 224 219 144 233 213 211 247 232 204 247 247 202 192 246 246 203 245 244 203 203 244 243 204 224 242 204 204 224 126 203 224 224 110 202 224 99 95 224 224 84 80 224 73 69 240 224 58 55 240 178 46 241 241 166 242 242 155 151 243 244 139 224 244 126 123 224 245 112 224 224 101 98 224 28 29 224 224 34 35 224 40 42 246 224 50 53 244 12 63 244 243 74 77 242 43 88 241 240 41 223 239 41 41 222 237 41 221 221 81 43 219 219 80 28 217 106 50 46 3 93 233 206 3 80 233 3 72 178 233 3 65 234 69 3 185 235 73 3 189 115 77 192 238 126 192 116 134 83 190 110 144 185 107 4 154 176 105 43 168 165 4 37 156 5 5 195 145 6 6
220 215 137 18 58 215 18 224 67 213 20 75 213 96 23 86 211 226 97 100 92 225 214 90 90 250 222 88 225 250 38 85 251 231 43 83 251 47 236 251 251 52 180 201 57 59 191 199 63 198 200 76 70 207 209 75 212 214 74 74 218 220 74 252 223 73 74 252 102 73 252 252 111 74 252 117 119 252 252 125 128 252 132 134 234 252 140 235 234 216 146 234 233 74 246 233 74 74 246 230 75 250 228 202 75 249 224 75 224 246 204 75 244 170 171 224 239 172 172 224 109 173 198 222 94 175 188 83 175 238 176 68 239 165 185 54 240 150 76 224 242 164 76 110 243 149 224 95 137 133 224 83 121 224 224 25 107 224 27 27 224 224 30 176 247 34 36 247 86 43 45 246 59 54 246 245 51 245 244 46 45 243 243 43 224 224 41 41 223 4 41 222 222 112 43 221 221 113 219 219 110 108 216 103 100 235 211 90 86 234 58 77 234 234 63 68 235 66 67 235 235 70 157 236 74 74 139 238 77 128 124 79 81 117 115 54 112 111 51 49 109 108 45 246 106 41 39 248 4 34 249 249 5 28 250 91
227 135 214 227 227 151 214 226 164 168 225 226 181 23 227 192 196 228 97 205 228 229 208 216 230 230 207 231 231 205 205 232 233 203 225 225 202 202 225 225 201 225 225 237 199 224 238 238 224 224 238 238 224 238 237 242 242 237 237 243 195 236 244 244 195 244 244 195 195 245 245 195 224 246 195 195 224 246 196 224 224 224 196 224 224 220 224 224 216 214 224 211 209 246 224 202 200 244 251 191 244 243 250 178 242 202 202 166 241 202 224 239 217 202 224 238 203 75 224 205 201 224 224 196 76 224 89 85 76 224 75 238 224 173 60 239 152 50 176 241 127 40 243 128 108 176 244 144 93 177 107 128 224 176 98 74 224 94 92 73 224 90 71 70 41 87 67 224 27 62 59 19 49 54 52 12 175 246 9 8 174 83 6 174 174 82 5 175 82 81 174 174 80 80 175 79 79 19 220 78 24 26 3 77 38 44 3 55 66 3 3 93 102 4 171 129 3 3 173 159 3 177 178 104 3 181 111 113 58 185 122 124 188 242 132 193 190 140 143 188 245 150 182 179 247 87 171 4 4 88 160 5 191 89 104 6
49 214 227 144 213 97 226 161 97 226 249 177 96 226 189 25 94 250 202 228 92 250 32 229 206 250 36 129 204 39 40 143 203 44 154 158 81 50 168 200 80 177 180 78 224 189 191 77 251 237 76 75 252 76 75 252 252 83 74 252 89 91 252 252 97 243 252 103 105 229 194 111 231 232 74 119 233 234 74 246 235 74 74 236 236 74 252 236 74 74 252 236 74 251 251 153 74 251 157 158 224 250 161 162 249 171 164 226 248 167 167 220 144 169 216 214 128 236 208 75 75 235 200 75 222 235 197 75 205 181 194 224 182 189 75 224 156 180 224 136 45 176 224 38 176 121 224 31 176 109 28 27 247 100 26 176 248 108 26 249 91 95 249 249 86 68 224 249 74 224 23 65 63 224 14 57 224 224 65 50 224 224 79 224 224 88 91 224 98 100 242 242 106 107 241 44 110 240 239 47 107 238 49 50 238 238 53 213 237 57 58 206 204 61 198 195 65 65 185 181 61 173 168 59 59 153 149 57 241 137 56 55 243 54 53 244 244 82 49 246 83 84 247 247 85 86 248 86 87 106 250 88 106 105 177 89
227 138 142 227 227 154 223 226 166 170 224 226 182 225 226 193 196 227 208 205 228 228 206 206 229 205 204 225 230 203 202 225 202 201 225 225 200 200 225 232 199 225 224 234 77 224 234 234 237 224 235 238 239 252 234 240 240 234 87 240 193 232 241 223 193 100 243 193 193 108 230 193 224 224 233 193 224 224 235 74 224 221 194 74 252 217 74 224 252 144 74 252 206 151 74 251 154 242 198 251 158 241 199 161 163 230 201 165 226 225 74 167 220 202 75 215 213 74 224 237 206 74 230 105 75 75 217 91 75 202 197 175 75 179 175 176 159 152 176 176 133 176 176 129 125 176 176 115 75 176 107 105 75 248 98 74 74 94 92 73 61 90 71 70 45 87 67 34 31 174 62 22 19 174 224 14 173 173 224 66 173 82 7 79 173 81 89 173 244 80 20 173 79 18 17 242 78 18 4 241 48 23 3 76 52 216 3 54 54 211 3 58 206 3 69 164 196 3 167 239 181 60 170 100 58 57 241 110 56 55 243 77 54 244 244 80 50 246 82 82 114 247 84 111 111 85 85 108 5 86 107 107 28 87 106 106
49 96 96 249 58 97 249 249 97 97 250 250 96 250 250 27 28 250 250 30 104 250 34 35 118 217 38 129 133 42 44 144 84 48 154 158 82 81 168 80 79 251 181 78 78 251 195 76 252 252 194 224 252 80 75 252 252 87 224 252 93 95 223 252 100 226 227 228 107 230 74 226 243 233 73 120 244 192 74 244 236 193 74 244 193 74 224 252 194 74 252 207 196 224 252 152 224 224 192 157 224 224 182 238 224 172 168 236 224 157 234 234 201 142 233 201 201 232 232 200 74 231 200 199 224 232 198 197 224 195 194 224 224 72 188 224 62 58 224 224 49 242 224 41 39 244 224 34 246 246 30 29 248 248 27 249 249 113 110 250 103 99 224 250 90 87 224 81 78 224 224 69 67 224 48 60 224 224 59 52 224 69 72 247 224 82 246 246 91 94 245 245 100 244 244 45 105 243 242 47 169 242 50 50 218 74 54 215 214 56 57 210 74 60 204 201 65 64 193 61 60 160 177 58 57 180 4 56 243 243 4 176 244 78 51 179 246 80 182 247 143 82 183 248 83 184 184 160 85 109 167 168 164 107 24 176
227 141 144 97 249 156 222 226 168 171 224 250 183 225 225 207 195 226 206 205 33 227 204 225 37 122 202 225 229 137 85 225 148 199 83 225 162 81 225 251 229 79 251 230 67 77 252 231 235 252 252 78 236 252 252 86 214 252 91 93 220 252 98 224 226 74 105 229 74 224 231 232 74 224 234 73 73 252 236 74 74 252 74 74 252 252 140 252 252 144 146 252 252 149 237 252 153 154 237 252 157 235 235 160 161 232 74 163 229 228 74 74 224 74 74 244 217 74 74 239 200 74 233 231 199 74 221 173 74 224 203 174 224 186 71 175 159 160 175 240 143 48 175 130 127 38 245 117 74 31 247 138 74 249 249 123 73 74 112 108 224 61 99 71 50 30 86 224 34 173 75 224 40 173 224 224 50 250 224 59 62 249 81 73 248 248 46 85 247 80 45 246 246 45 18 245 46 47 222 244 49 49 220 51 52 218 218 89 55 214 79 76 210 208 69 66 201 63 61 242 190 58 242 243 56 56 243 244 54 244 245 75 76 246 246 78 127 247 79 81 119 81 81 115 114 83 83 111 32 84 109 109 26 25 108 22
218 211 96 220 221 210 97 250 209 209 226 250 207 95 225 192 206 225 250 203 225 225 209 37 225 225 216 228 133 220 221 229 148 224 230 230 197 226 231 172 195 231 232 194 78 233 193 192 224 234 192 191 224 228 191 224 224 227 190 224 227 226 224 224 225 239 224 224 224 240 224 222 241 241 220 220 241 242 190 242 242 191 191 242 241 191 224 241 192 193 224 193 193 224 224 194 194 224 191 188 224 224 181 178 224 172 169 231 224 159 230 229 149 145 228 227 135 227 227 199 121 227 227 199 224 228 197 197 224 231 194 224 224 172 190 224 67 184 73 224 54 175 224 126 43 73 224 37 35 247 96 30 249 249 84 174 250 118 74 174 250 104 174 174 87 91 173 251 85 66 225 83 71 224 224 82 53 224 54 82 43 9 66 36 33 6 79 27 5 5 169 21 5 96 168 77 4 167 245 75 166 166 74 51 163 163 73 35 159 73 74 61 157 76 88 98 80 82 127 135 4 151 159 4 4 176 4 4 166 190 4 4 170 141 4 172 173 4 4 175 140 142 177 177 150 189 178 157 159 180 178 166 172 169 251 174
96 249 54 97 97 250 22 97 250 250 25 250 250 28 29 250 250 32 98 251 35 36 111 251 40 122 126 216 46 137 141 84 229 152 83 82 162 195 80 251 175 79 79 252 192 78 252 252 191 76 252 82 190 224 252 89 214 224 225 96 221 252 224 237 226 223 107 229 230 221 239 233 74 219 240 235 73 252 240 189 74 253 190 190 224 253 190 74 224 205 192 224 252 200 193 224 194 153 224 224 185 233 236 177 175 230 234 165 228 228 198 153 226 226 199 225 224 198 199 224 224 199 224 226 198 198 224 100 196 224 224 87 192 224 77 73 224 224 63 59 224 53 50 243 224 43 245 246 155 34 248 248 140 249 250 128 124 250 250 113 225 251 103 99 225 252 90 225 225 81 78 225 37 39 225 225 46 49 224 54 57 250 225 66 69 249 6 78 249 249 86 168 248 46 95 247 247 48 223 246 49 50 221 245 52 220 219 72 56 217 216 74 63 212 68 61 102 4 61 244 197 57 56 245 4 54 245 246 4 51 246 74 4 167 247 76 169 170 133 78 173 249 144 195 118 151 81 188 113 160 181 111 6 169 170 109
218 210 210 226 220 209 226 226 207 207 226 226 206 225 225 192 204 225 199 202 226 225 207 209 226 212 214 227 228 217 218 228 196 221 229 229 194 223 229 193 193 230 230 191 224 224 190 190 224 224 189 224 224 224 188 224 224 223 75 224 222 222 224 252 221 237 224 220 220 237 187 218 238 239 187 216 239 188 188 129 239 188 188 239 239 189 224 238 190 74 224 201 191 224 224 195 74 224 189 187 74 224 180 229 74 250 169 226 249 249 164 224 248 147 166 224 198 167 221 216 198 169 209 198 73 171 198 196 224 189 185 73 224 174 73 73 177 158 72 73 151 174 73 133 127 174 73 113 174 248 100 97 174 102 88 174 174 95 77 173 91 90 71 172 87 87 69 85 85 66 65 83 83 61 21 82 55 54 13 58 47 10 9 39 36 7 167 167 6 5 167 167 5 166 166 76 4 165 74 74 97 162 72 72 93 246 71 29 156 245 71 50 4 74 61 85 4 79 114 202 4 66 150 4 54 69 179 4 159 72 163 49 163 118 146 46 166 129 42 41 249 139 37 250 147 80 31 251 157 187 251 251 82 177 251 251
210 21 22 56 208 23 63 66 97 26 73 76 96 250 85 94 225 251 98 92 251 204 90 90 251 45 88 251 251 50 85 251 55 57 156 251 62 63 170 67 68 179 182 73 75 191 77 80 198 201 76 232 207 75 75 213 215 75 252 252 74 75 252 252 74 252 252 111 74 252 115 117 224 253 121 123 224 213 127 238 253 210 133 239 74 137 237 240 74 141 240 190 74 233 240 74 252 231 192 74 251 228 194 224 251 159 195 224 250 162 224 249 151 165 224 141 166 219 224 129 169 213 120 117 221 203 107 105 224 195 72 228 229 192 72 232 188 187 224 238 181 224 224 174 172 224 120 162 224 224 36 148 224 224 30 250 225 27 27 251 27 26 252 252 27 27 252 91 29 252 252 79 35 252 71 69 225 252 62 60 225 56 55 225 225 51 225 225 74 49 225 225 85 224 224 91 92 224 224 94 248 248 94 93 247 53 88 247 247 56 78 246 59 60 246 246 62 63 246 64 65 200 246 68 68 188 52 70 176 172 48 192 159 46 45 199 144 42 249 134 5 37 250 125 33 168 251 79 28 251 80 81 171 251 81 81
217 208 208 23 220 207 206 25 68 205 226 225 79 96 225 191 202 93 225 200 91 225 251 206 89 225 210 49 86 251 214 227 84 251 61 228 192 251 67 173 190 73 74 185 188 79 194 196 77 85 203 187 224 209 211 76 224 217 75 75 252 218 75 74 252 109 74 252 252 115 74 253 119 120 253 253 124 236 253 128 130 239 186 134 240 240 74 138 240 241 74 241 240 74 74 241 240 74 252 240 73 73 251 193 73 251 250 159 74 250 162 162 224 248 164 165 246 136 166 220 242 168 217 210 115 170 202 198 103 223 189 72 72 228 174 72 185 234 186 72 159 145 178 224 134 170 71 118 41 158 224 102 173 172 225 30 172 95 225 28 171 90 26 27 252 87 28 252 252 87 31 252 83 76 252 252 68 56 225 252 60 225 10 55 54 225 7 51 225 225 77 49 225 83 86 224 224 91 91 224 92 92 248 248 90 88 248 55 83 247 247 58 247 247 60 61 247 247 64 207 247 65 66 197 195 69 188 184 49 71 173 169 46 160 157 43 42 145 40 39 250 133 35 34 251 31 29 251 251 79 24 251 80 80 252 252
226 150 23 57 59 163 25 66 97 175 222 77 96 31 86 201 94 224 98 92 225 225 198 90 251 251 196 225 251 54 193 225 251 61 224 224 216 67 224 252 218 228 224 218 79 229 218 219 230 201 185 218 231 185 75 231 231 184 75 232 184 184 224 233 183 224 224 183 183 224 224 183 224 224 211 123 224 224 209 234 224 207 206 234 204 203 233 232 200 199 231 187 196 229 228 189 189 225 190 190 224 222 192 192 224 193 193 224 224 194 224 224 152 195 224 224 140 224 224 131 128 213 224 120 216 217 111 108 220 194 99 224 226 192 87 230 189 188 172 236 183 181 240 137 174 224 224 166 163 224 39 153 225 225 32 71 225 29 28 70 225 27 252 225 64 26 252 252 28 169 252 83 32 252 83 72 167 252 65 63 166 81 58 225 164 80 53 225 79 79 26 225 78 50 19 5 86 17 224 5 158 16 4 89 155 18 4 151 248 4 4 148 248 4 146 145 74 62 145 79 80 125 146 87 89 159 94 96 177 181 105 108 192 4 116 198 200 5 39 202 5 5 161 201 6 163 163 6 6 165 165 7 166 166 166 7
22 52 206 98 24 61 97 226 69 71 96 251 80 95 95 251 92 94 251 251 92 91 251 251 89 251 251 52 226 251 251 59 150 251 64 66 164 215 71 174 177 77 78 186 78 83 194 197 77 77 204 76 76 252 212 75 252 252 182 75 252 252 75 224 252 111 74 253 253 116 224 253 119 121 235 253 124 237 238 206 129 239 74 203 231 240 74 137 230 186 74 228 242 187 74 225 188 73 224 252 190 224 251 176 191 224 251 157 224 224 158 160 224 224 147 209 224 138 136 210 224 127 211 214 195 116 215 195 71 219 220 193 71 225 191 191 224 232 187 186 224 182 180 224 224 53 224 224 45 43 225 225 36 250 225 32 31 251 225 28 252 252 26 27 253 253 27 253 253 91 88 252 83 80 225 252 72 69 225 65 63 225 225 58 57 225 59 54 225 225 70 25 225 77 79 251 224 84 250 250 87 88 250 250 87 249 249 55 80 249 249 58 145 249 60 61 215 74 63 211 209 65 66 203 50 67 195 192 46 69 182 44 43 194 166 40 250 201 5 36 250 251 6 158 251 76 27 161 251 78 162 252 160 78 163 252
51 153 156 218 59 165 220 220 203 176 222 222 201 223 223 199 199 225 197 197 225 225 195 195 225 205 193 225 225 208 191 224 211 211 224 224 212 213 224 213 214 227 228 214 228 228 184 214 228 228 183 229 229 182 182 229 230 181 224 230 181 181 224 211 180 224 224 210 180 224 209 208 224 224 207 207 224 206 205 231 224 203 202 230 253 200 228 228 184 139 226 185 185 224 223 187 224 220 187 188 224 216 189 224 224 240 191 224 164 238 73 224 153 150 72 248 142 206 224 245 131 207 241 122 167 211 235 111 215 194 224 169 222 192 170 170 171 189 224 234 154 70 224 140 177 70 224 124 70 225 114 111 70 102 35 70 71 89 30 252 81 78 169 253 68 65 168 85 53 167 166 83 36 166 83 82 164 164 82 55 162 81 81 46 225 80 38 36 7 78 28 26 5 22 21 5 5 17 5 5 153 15 4 4 150 223 4 147 146 67 4 142 68 69 66 140 71 73 140 249 78 112 141 84 142 150 249 94 171 177 4 70 190 5 5 72 200 5 152 203 148 6 154 139 6 27 157 128 7 159 252 121 19 161 164 166
22 217 55 160 25 62 203 171 220 72 97 181 222 199 95 223 223 197 93 251 195 91 225 251 193 225 251 205 191 225 251 63 224 224 209 70 224 224 211 226 177 211 212 227 189 212 227 227 182 212 228 181 181 228 229 181 75 229 180 180 224 230 179 179 224 209 179 224 224 207 224 224 206 206 224 224 204 229 224 202 202 229 224 200 227 227 197 196 225 224 183 222 222 185 185 219 185 186 224 214 187 188 224 188 189 224 224 190 190 224 159 156 224 224 148 202 224 140 137 203 224 129 205 206 121 118 210 211 110 215 216 193 99 222 223 191 224 229 188 187 224 151 182 224 224 133 173 224 49 165 69 225 39 152 225 98 33 70 225 29 169 253 77 27 253 253 64 166 253 95 47 165 253 83 164 253 82 73 162 253 66 51 225 81 59 226 9 79 34 226 63 77 25 6 73 20 18 5 80 16 5 4 149 15 4 146 145 66 4 142 250 66 139 138 68 61 137 137 73 84 137 78 80 126 138 87 153 161 95 98 180 5 5 192 195 5 5 201 6 6 150 204 6 6 153 137 6 155 155 7 20 157 158 8 158 159
226 155 158 218 226 167 169 219 201 176 221 221 199 35 222 197 197 41 223 195 225 224 114 193 225 224 191 225 225 140 189 224 206 207 83 224 208 208 81 252 209 226 224 252 210 227 252 210 94 227 252 210 228 210 179 102 228 179 76 107 222 178 224 111 227 75 224 230 231 75 224 233 74 74 253 236 74 253 253 127 74 253 198 131 253 253 134 224 253 252 138 242 252 141 142 242 252 145 242 242 148 148 242 73 73 241 241 73 224 239 72 72 249 236 72 72 248 192 71 246 245 72 243 242 165 165 237 235 166 202 228 168 168 187 214 169 175 171 83 169 157 153 169 239 139 69 170 127 170 69 121 113 69 69 104 147 69 94 91 132 69 82 167 117 225 69 166 225 225 27 165 225 41 29 253 83 32 161 253 82 38 253 81 62 46 252 80 38 252 252 54 28 252 53 53 225 5 53 17 225 79 54 225 4 81 56 224 78 140 222 222 71 250 220 64 63 250 217 56 250 250 64 50 250 250 66 250 250 68 68 250 250 69 184 251 71 71 169 72 72 157 154 73 73 144 25 24 135 133 20 20 127 17 17 252 120
250 24 98 250 250 27 98 251 30 31 225 251 34 36 251 187 40 97 251 45 223 111 90 52 122 126 88 224 137 86 86 225 152 84 252 225 185 82 252 183 182 224 252 181 79 224 208 93 224 252 208 99 224 207 102 214 224 207 107 220 206 206 227 226 205 228 228 176 75 228 233 176 224 227 176 74 224 226 177 224 253 178 178 224 195 179 224 224 192 180 224 190 188 215 224 185 183 210 181 179 206 205 175 173 202 187 167 199 197 188 196 196 189 190 195 195 191 224 224 192 192 224 224 193 224 224 118 193 224 111 108 224 224 100 97 224 91 88 228 231 79 76 237 182 66 242 243 174 54 246 166 163 249 250 153 225 251 142 138 225 253 126 225 225 27 112 225 225 27 68 225 27 28 225 35 30 253 225 33 35 253 16 39 253 253 10 48 253 57 56 151 252 54 54 148 74 53 225 252 71 16 225 68 55 224 224 66 16 223 74 72 22 221 66 251 38 5 58 250 5 5 131 250 5 46 133 88 5 135 251 98 5 137 106 70 195 140 118 71 166 126 129 205 151 137 206 206 7 146 205 203 8 202 201 9 9
215 250 161 217 218 251 29 219 199 251 33 79 197 37 38 91 194 43 101 104 92 50 115 191 89 251 130 87 224 251 145 85 252 203 83 83 252 80 81 252 252 87 80 252 91 93 195 252 97 98 204 101 102 210 212 105 215 217 76 109 221 223 75 227 227 75 75 230 231 75 253 253 75 75 253 253 74 253 253 126 74 253 129 130 224 253 132 133 224 190 136 242 252 186 139 243 74 142 243 243 73 201 243 73 73 197 242 72 251 193 188 72 250 238 190 224 249 158 71 224 135 161 224 243 125 162 224 117 164 207 224 107 165 192 99 96 222 175 88 85 231 186 69 237 239 180 225 244 173 170 225 248 162 225 225 151 148 225 95 136 225 225 29 122 225 27 27 253 225 26 26 253 27 27 253 253 30 31 253 74 34 253 253 66 42 253 61 59 226 253 57 226 226 55 54 225 225 54 226 226 74 55 225 225 76 224 224 75 74 223 71 70 251 251 63 61 251 62 55 251 251 64 48 251 65 65 251 251 67 67 251 68 68 191 251 69 182 178 31 71 167 163 26 206 152 23 22 207 140 19 252 132 16 15 252 9
226 215 201 225 225 200 199 225 251 198 225 225 182 38 225 186 187 222 225 191 192 223 194 195 224 224 197 198 224 186 199 224 224 183 225 225 182 181 224 225 180 224 224 178 178 224 224 177 224 224 203 176 224 224 203 224 224 203 202 226 202 201 226 226 201 201 226 173 199 225 225 173 198 225 174 174 223 223 175 224 221 175 175 224 224 176 224 224 188 177 224 224 185 74 224 182 181 73 224 177 199 224 252 171 194 252 166 191 190 186 158 188 187 188 154 188 189 190 157 232 191 224 193 225 70 224 218 192 69 224 111 69 224 225 100 69 224 92 166 68 195 81 234 68 170 167 242 151 145 167 120 128 166 166 107 154 166 100 98 68 165 93 128 68 90 88 67 225 86 67 67 53 84 65 65 36 63 62 25 22 152 56 16 150 149 12 10 146 253 8 144 143 76 6 141 74 73 67 138 70 70 15 68 67 14 14 65 64 15 5 63 19 21 5 60 31 5 5 62 57 5 124 87 214 5 126 126 5 40 129 96 6 131 132 107 33 134 115 118 29 251 126 206 24 252 137 207 252 252 73 206 9 153 74 129 9
98 250 250 27 99 251 30 31 225 251 35 36 225 183 40 92 95 187 47 105 93 53 223 119 90 224 131 185 87 224 146 85 224 224 181 83 252 252 179 224 252 90 178 224 252 96 224 224 201 101 224 201 201 225 224 200 108 225 200 200 225 223 172 199 225 172 76 224 224 172 224 224 172 172 224 222 173 224 224 174 174 224 253 174 224 224 188 131 224 224 185 208 224 182 181 202 180 178 198 196 175 173 193 183 169 189 188 184 184 186 185 186 224 184 188 224 224 188 189 224 224 190 224 224 126 191 224 224 117 224 224 109 107 211 224 100 219 221 91 89 228 187 80 235 237 181 67 243 176 173 247 248 165 163 250 155 152 225 225 142 225 225 30 126 225 225 27 68 225 26 26 66 225 27 253 226 34 29 253 253 32 149 253 68 38 253 80 62 142 253 59 58 139 76 57 226 135 72 56 226 69 68 15 225 71 14 14 5 71 16 224 5 121 22 5 60 251 38 5 119 251 5 5 121 251 5 123 123 89 67 125 97 100 181 129 109 69 196 117 120 203 172 128 130 207 7 138 208 208 8 143 207 9 9 147 204
226 200 200 225 225 171 197 225 175 177 225 225 181 221 225 185 186 222 225 189 222 223 191 192 223 223 193 224 224 183 183 224 181 181 224 224 179 179 224 177 177 224 224 188 175 224 199 174 78 224 199 199 224 252 198 224 224 198 111 224 253 197 224 224 253 116 223 170 253 118 223 170 121 121 236 171 224 237 238 74 224 239 172 224 253 241 74 224 185 242 74 252 182 73 73 252 178 73 252 252 140 190 252 143 143 243 252 145 183 242 148 149 241 185 151 152 238 70 154 235 233 70 246 228 70 70 242 219 69 238 236 69 68 230 227 68 220 217 163 68 203 198 164 224 180 165 165 136 63 165 123 120 164 164 110 67 163 102 100 67 162 94 67 68 253 89 67 74 253 107 67 58 53 94 226 40 151 62 29 26 147 226 18 144 143 226 11 139 79 226 47 135 76 30 55 253 73 21 129 253 57 16 252 66 58 14 252 58 14 225 252 60 224 5 61 61 222 5 114 220 219 48 116 217 216 42 251 212 38 37 251 205 34 251 251 31 30 252 69 26 252 252 70 207 252 71 71 155 252 72 72 143 73 73 135 133
200 225 251 167 216 225 173 32 219 225 178 220 83 182 183 221 96 186 222 222 187 189 222 186 185 223 223 183 183 224 181 180 224 224 179 178 224 195 177 224 224 196 174 224 197 197 224 224 196 224 224 196 196 224 224 196 224 224 170 195 224 224 169 223 223 169 169 223 169 169 224 221 169 169 224 190 170 224 224 188 171 224 187 186 224 224 184 184 224 182 182 202 224 179 197 196 252 175 191 190 178 139 185 179 180 182 181 181 224 178 183 183 224 241 185 224 224 238 186 224 138 233 70 224 128 126 224 242 119 198 224 112 109 207 229 103 215 218 216 162 226 187 197 163 236 183 163 163 134 176 225 247 118 66 225 108 157 66 107 98 67 225 93 92 67 83 28 66 67 69 26 253 56 52 150 253 39 34 146 82 24 142 141 81 139 138 80 79 134 132 77 36 130 76 75 26 227 72 20 19 5 68 16 5 5 14 14 5 5 14 5 5 111 19 5 5 109 222 5 110 110 71 6 112 78 80 114 115 88 142 118 96 98 174 122 107 190 194 252 118 201 204 7 70 207 8 9 71 156 9 138 209 143 10 142 136
225 213 56 100 225 64 195 99 251 74 98 225 251 86 97 251 184 49 94 251 187 222 251 251 63 223 251 69 72 143 252 77 80 157 84 86 167 171 91 93 180 81 81 189 191 80 224 199 79 79 252 207 78 252 252 77 77 252 252 77 253 253 115 76 253 253 117 229 253 119 119 233 188 120 235 236 187 122 238 75 124 239 239 75 126 241 74 74 253 242 74 74 252 173 73 252 252 175 224 252 137 73 224 252 140 224 252 162 143 224 251 145 175 241 151 148 239 185 142 178 236 70 134 183 188 69 189 191 189 69 197 190 190 224 208 190 224 224 97 188 224 206 161 225 225 77 161 225 225 65 246 225 56 53 249 225 45 252 252 148 36 253 137 133 253 253 122 66 253 111 108 226 253 98 95 226 89 86 226 226 79 226 226 32 33 226 226 37 253 226 43 44 253 227 50 253 253 56 57 253 253 62 253 253 59 65 252 59 60 225 252 61 61 224 62 62 223 223 63 63 221 47 64 219 218 41 101 215 37 35 211 210 32 252 252 28 27 252 252 24 252 252 70 20 252 252 70 132 252 71 71 136 149 72 142 139
212 54 168 214 215 195 174 217 72 99 225 219 190 97 251 188 188 225 251 186 185 224 186 183 224 224 188 181 224 189 189 223 224 190 223 223 191 191 223 177 192 223 223 171 192 224 224 169 224 223 168 168 223 223 168 224 224 167 166 224 190 166 224 224 188 166 224 188 187 224 224 186 186 224 185 185 215 224 184 212 211 167 182 208 207 169 204 202 170 170 197 196 171 224 191 173 173 224 184 175 224 224 167 177 224 164 163 224 224 158 157 224 154 152 171 224 147 145 174 249 138 178 179 247 152 185 188 188 154 193 189 224 200 208 189 224 212 189 67 224 177 187 224 201 157 65 225 73 138 65 158 61 248 66 134 49 251 118 114 157 252 102 34 253 92 87 153 253 117 149 148 86 103 226 144 84 64 226 82 82 61 226 81 56 55 15 80 48 11 10 41 38 8 45 30 7 7 113 253 6 6 109 66 5 107 106 63 5 103 61 60 100 100 61 19 98 63 64 29 99 68 45 53 6 76 82 94 6 66 128 7 7 158 208 7 115 185 7 7 120 192 8 124 125 179 9 128 137 139 13 132 146 148 136 252 155
99 54 57 100 100 64 100 100 251 251 99 98 251 43 97 251 251 51 95 251 57 59 224 251 66 129 251 187 75 144 252 81 223 158 85 89 168 171 83 223 180 82 81 223 192 81 252 223 168 79 252 166 78 224 252 165 78 252 187 115 224 253 116 117 224 185 118 229 224 184 218 232 183 183 215 235 182 212 212 165 75 208 239 167 224 203 167 75 224 196 170 224 252 170 171 224 172 172 224 224 169 174 224 166 165 171 224 161 159 169 157 155 169 169 150 170 170 183 143 173 174 185 177 179 186 186 185 187 188 224 224 188 188 224 224 189 224 224 100 188 224 92 90 225 225 82 79 225 72 70 245 246 60 57 249 165 49 251 252 153 252 253 142 138 253 253 127 226 253 116 112 226 253 102 226 226 26 90 226 226 28 60 226 30 31 226 15 34 253 227 38 40 253 8 45 253 253 7 52 253 60 60 103 253 60 226 253 61 61 226 253 62 15 225 61 62 224 224 65 31 222 46 44 56 220 39 252 97 7 34 252 7 7 109 252 7 25 114 113 8 118 252 123 9 123 131 70 209 128 140 210 159 147 150 211 146
211 196 195 214 214 193 192 217 191 190 225 218 188 225 225 186 185 224 224 183 224 224 184 184 224 224 185 222 224 186 186 223 186 186 223 223 186 187 223 170 187 223 223 168 187 223 167 166 224 222 165 165 224 211 164 224 224 163 224 224 184 163 224 224 183 77 224 182 182 76 224 180 215 214 253 179 212 163 178 121 208 164 177 204 240 166 124 197 167 167 126 242 168 224 224 243 170 224 168 244 73 224 166 72 72 252 161 72 224 251 138 71 251 152 141 70 250 143 170 239 249 145 237 185 147 148 231 186 149 224 222 67 152 213 189 66 201 197 66 224 183 178 65 209 86 65 65 188 156 65 169 163 155 65 145 154 154 128 122 152 152 109 150 150 94 92 147 90 89 65 142 86 86 65 253 85 64 64 83 83 62 28 82 58 56 17 80 51 13 11 111 41 9 107 106 227 7 102 101 227 53 98 66 6 58 94 62 60 91 253 59 59 253 60 63 18 252 63 25 7 252 64 43 7 252 65 219 7 66 113 216 7 67 212 8 26 109 205 22 113 252 196 18 118 128 15 14 252 138 12 11 252 70 9 252 252
100 211 212 193 101 215 215 191 225 217 189 188 225 219 185 225 224 184 183 224 182 181 224 224 183 71 224 183 183 222 224 184 184 222 184 184 223 223 184 222 222 168 185 223 223 166 223 222 164 164 224 222 163 224 224 162 161 224 224 161 224 224 180 161 224 179 179 224 224 178 178 215 177 177 212 211 176 176 208 162 175 204 203 163 122 198 165 165 193 191 166 224 185 167 168 224 224 169 224 224 165 171 224 224 162 72 224 159 158 224 251 155 163 224 150 148 165 250 144 169 170 183 136 175 184 184 146 183 186 224 148 222 188 224 201 208 66 224 195 188 66 225 93 65 225 204 82 64 225 74 153 64 162 62 248 144 138 151 251 122 117 148 98 104 146 145 92 128 141 88 117 65 136 86 64 226 84 84 63 226 82 60 60 23 81 55 54 14 50 47 11 10 103 37 8 99 98 7 7 94 68 6 91 90 64 6 87 61 60 85 84 59 59 15 60 60 19 20 64 26 29 7 71 46 53 7 65 82 7 7 66 129 8 100 158 211 9 106 107 9 19 112 123 10 116 252 133 13 122 139 141 10 252 148 212 7
210 194 251 30 213 191 175 35 73 189 40 218 84 185 225 94 183 96 224 109 180 224 251 123 91 224 181 90 89 252 182 87 87 252 92 85 252 182 99 222 252 103 222 189 252 108 197 163 111 112 205 161 113 211 212 79 116 217 218 78 221 222 78 78 253 227 77 253 253 77 76 253 119 76 253 253 120 76 253 120 120 253 253 121 121 240 121 122 241 241 123 242 242 74 125 243 243 73 172 244 72 72 166 244 72 252 244 173 71 252 251 71 224 251 136 70 251 145 138 224 249 140 141 224 133 143 233 224 125 145 226 118 147 196 215 66 205 203 188 65 216 184 65 225 228 186 64 198 238 182 225 174 177 175 225 149 149 225 225 47 146 225 40 38 253 226 33 139 253 30 29 253 87 27 26 253 99 26 253 253 88 226 253 80 78 227 253 72 227 227 68 67 227 227 64 227 227 44 62 227 227 50 227 227 54 55 253 56 57 253 253 56 56 253 63 53 253 253 64 48 252 64 65 252 252 65 221 220 66 66 218 217 67 214 214 24 68 209 207 19 204 201 16 15 194 191 13 252 181 10 10 252 70 8 252 252
225 251 30 225 251 175 35 70 177 39 217 82 178 46 92 183 179 220 105 95 180 221 178 93 221 221 175 90 252 172 172 224 252 169 224 224 180 167 224 252 179 224 224 180 108 224 224 179 221 224 178 178 221 159 176 220 220 158 176 219 157 157 218 217 157 77 215 157 157 224 213 157 157 224 158 158 224 224 169 224 224 169 169 224 224 168 192 224 167 167 184 224 166 178 176 165 165 171 167 168 166 165 169 169 161 171 171 224 159 173 173 224 175 175 224 224 177 177 224 143 179 224 224 135 173 224 129 128 182 224 121 189 192 242 113 200 203 106 209 212 187 98 221 186 187 148 233 185 183 225 142 180 225 225 125 173 225 54 165 63 225 44 152 226 107 36 64 226 32 133 253 79 27 253 253 61 121 253 95 42 113 253 84 108 106 81 76 100 79 79 47 93 77 66 37 8 73 29 228 7 68 21 7 51 17 16 6 55 15 7 7 72 14 7 71 70 7 7 71 253 66 73 74 72 65 77 79 82 79 83 89 92 124 97 100 155 164 109 111 184 10 10 197 200 10 11 206 11 12 118 211 12 12 123 166 13
28 55 251 31 32 65 102 36 73 76 100 44 86 99 98 95 99 97 224 109 95 94 251 124 92 251 252 172 90 252 252 89 252 252 95 96 252 252 102 179 252 106 107 190 252 110 197 199 175 113 205 80 115 220 212 80 80 217 156 79 253 222 79 79 253 155 77 253 253 155 224 253 119 155 224 253 118 235 224 166 119 238 253 166 193 240 165 120 186 241 164 180 242 162 164 172 164 73 167 165 166 72 253 168 169 224 252 170 71 224 154 173 224 251 149 224 224 145 133 224 224 139 168 224 134 132 176 234 126 183 186 184 118 193 196 186 201 205 187 187 213 187 187 225 226 186 186 225 82 184 225 225 71 178 225 62 59 225 225 51 252 225 43 41 253 226 36 253 253 31 30 253 253 113 253 253 103 100 253 94 90 227 253 83 81 227 77 75 227 227 71 70 227 35 67 228 228 41 42 228 45 46 253 228 50 253 253 7 53 253 253 54 67 253 64 51 253 253 65 225 253 65 65 223 74 65 222 221 83 66 219 27 94 128 216 22 67 167 10 17 186 206 10 14 252 12 11 252 252 12 116 252 69 13 122 252
225 174 175 211 225 176 177 214 177 178 216 217 177 218 218 181 177 219 219 177 224 220 175 174 224 221 172 224 224 170 169 224 176 166 224 224 176 164 224 175 175 224 224 174 174 221 173 173 221 221 172 172 219 155 170 219 219 154 218 217 154 154 216 216 153 224 224 153 153 224 224 154 224 224 164 154 224 163 163 76 224 163 163 224 253 163 187 224 162 162 179 160 162 174 171 162 161 166 164 164 121 160 166 224 123 244 168 224 155 244 71 224 244 172 224 224 147 69 224 142 141 69 249 136 171 67 248 129 179 247 246 137 189 244 115 138 215 239 140 209 199 64 141 185 186 63 141 164 63 225 148 144 63 225 130 62 63 154 115 63 62 131 134 63 115 111 129 102 97 125 123 85 80 118 87 67 111 110 85 47 104 84 83 97 95 82 57 55 80 79 49 47 77 43 40 9 74 32 30 7 65 23 7 7 64 17 7 65 15 7 7 62 58 7 60 60 60 7 60 64 65 43 63 71 74 36 252 81 65 73 252 66 109 10 100 67 153 10 67 176 209 11 68 196 12 11 68 195 12 111 69 183 7 118 174 171
28 56 225 176 33 65 225 177 214 77 177 44 217 89 177 218 99 178 176 219 175 95 224 220 172 92 252 170 169 224 252 166 166 224 174 164 224 224 172 224 224 172 172 221 224 171 220 220 170 169 220 207 168 219 219 153 167 218 217 152 216 216 152 151 214 151 151 224 224 151 151 224 162 152 224 224 161 153 224 161 161 224 224 160 189 224 160 160 182 224 159 176 173 159 159 168 166 161 163 161 163 164 157 156 166 224 154 167 168 224 244 170 224 224 148 173 224 145 144 224 224 139 138 224 135 133 174 224 127 181 183 246 120 191 193 242 135 202 186 186 137 214 186 225 223 178 186 225 234 184 225 225 142 180 225 67 124 62 225 55 165 62 130 44 253 226 110 36 253 97 32 116 253 79 111 253 86 60 102 253 95 96 94 83 85 228 86 81 54 228 79 78 46 228 76 39 36 9 71 29 8 7 22 21 7 48 17 7 7 59 253 7 7 57 59 7 56 56 62 56 57 67 69 60 60 75 45 65 83 86 79 72 94 112 124 10 105 156 164 11 68 184 12 12 197 12 12 105 207 13 13 112 184 14 117 119
225 177 177 103 225 177 177 103 251 177 215 216 251 177 217 178 176 218 219 175 175 219 173 171 76 220 169 224 86 148 166 224 221 161 88 224 171 161 86 224 169 84 224 252 168 83 252 167 116 82 252 165 219 252 252 118 217 151 253 118 220 150 119 119 225 149 118 227 228 78 118 230 78 77 233 234 77 224 235 77 77 253 157 76 76 253 116 75 253 253 116 253 253 116 116 253 253 117 243 253 117 117 244 253 118 244 244 71 119 244 244 70 244 244 69 69 243 69 69 251 242 68 68 250 177 67 249 249 127 66 247 129 129 224 245 131 220 242 108 132 206 236 133 218 187 94 134 171 166 84 238 150 62 62 246 131 61 167 251 170 62 142 161 158 226 120 148 62 226 34 133 226 87 108 117 226 27 100 86 227 26 253 84 26 26 253 82 27 253 253 75 30 253 77 70 253 253 67 33 228 253 65 228 7 65 65 228 47 65 228 228 49 65 227 49 49 227 227 46 44 225 42 40 253 253 35 253 252 67 29 252 252 67 252 252 67 67 252 252 67 213 252 68 68 207 252 68 201 198 8 68 191 6 5 182 179
178 206 225 178 178 211 177 177 214 214 177 177 216 179 178 217 218 175 224 219 173 172 224 219 169 224 224 167 166 224 224 163 224 224 169 169 224 168 167 220 224 166 166 220 165 165 220 219 164 163 219 151 162 218 218 150 160 217 149 148 224 214 148 224 224 148 148 224 224 148 224 224 154 148 224 224 155 77 224 154 154 76 253 154 186 184 253 154 177 154 155 114 170 156 155 164 242 158 115 157 159 160 115 244 162 224 224 244 71 224 151 244 70 224 148 69 69 251 144 68 224 251 121 67 250 134 172 249 249 124 181 181 247 126 228 184 127 127 216 185 128 205 200 62 129 185 186 62 169 164 62 225 149 61 61 185 67 61 61 160 124 61 141 135 119 62 119 114 112 104 100 107 90 86 101 99 87 87 93 86 85 62 85 84 83 59 253 82 56 54 80 79 48 12 76 42 39 10 68 31 9 8 57 23 8 55 54 229 8 52 50 228 49 49 58 9 47 253 62 44 48 67 69 38 253 76 38 44 252 86 66 10 252 67 109 12 105 67 216 12 67 176 212 11 68 207 14 8 100 199 6 107 252 188 5 114
104 251 179 208 104 251 37 212 251 251 44 215 251 50 53 97 251 60 218 111 68 70 122 169 78 134 138 92 224 148 152 90 252 162 88 88 252 175 87 252 252 85 85 252 115 84 252 252 117 118 252 119 119 211 252 119 119 216 155 120 220 221 119 119 224 79 119 227 228 79 206 230 78 78 253 233 77 253 253 148 77 253 253 76 224 253 113 76 253 152 113 224 253 113 113 224 152 113 242 243 152 113 244 72 152 151 244 71 114 149 165 70 150 244 168 224 154 170 69 224 251 173 224 250 136 175 224 249 119 224 224 124 121 224 119 117 195 224 111 108 207 104 103 215 219 186 94 228 186 61 236 239 184 61 245 181 179 225 250 173 226 226 166 163 226 226 153 226 226 37 35 226 226 31 253 227 28 28 253 27 26 253 253 26 26 253 85 26 253 253 77 76 253 73 72 229 253 69 69 229 67 67 229 229 66 229 229 45 66 229 229 47 15 228 47 46 253 227 44 253 253 41 39 253 66 35 253 253 67 28 252 67 67 62 252 67 67 252 110 67 215 214 68 68 210 9 68 205 204 7 206 197 5 5 212 186
204 205 186 225 208 183 183 224 212 180 224 224 178 176 224 224 174 224 224 172 172 224 224 170 219 224 169 168 219 167 167 219 220 165 165 219 157 163 219 219 154 153 220 152 151 224 218 149 224 224 148 147 224 224 146 224 224 153 145 224 224 151 212 224 150 149 208 224 149 206 204 149 148 201 144 148 196 195 146 148 190 147 147 113 183 148 149 224 239 150 224 224 152 75 224 150 154 224 224 151 73 224 151 150 72 224 150 148 71 252 149 149 150 252 112 152 168 144 113 243 171 113 162 242 174 115 241 176 66 116 237 179 224 247 231 64 224 114 63 63 242 106 62 62 236 120 61 229 227 120 61 216 119 119 202 197 117 131 177 115 114 116 168 110 107 105 61 104 98 97 61 94 93 62 62 90 89 62 67 87 62 62 45 74 61 31 28 67 57 19 63 62 15 14 58 57 11 55 54 70 9 51 66 65 24 48 60 59 18 253 58 16 16 253 58 15 9 60 66 17 9 67 22 226 10 66 33 11 30 50 223 12 56 58 221 19 65 108 218 14 75 117 11 10 252 127 8 252 252 68 6 252 141 210 192 252
105 251 251 184 104 251 251 181 224 251 44 103 224 251 53 224 251 173 64 111 170 72 218 127 168 83 138 163 166 219 153 91 163 219 157 88 219 219 154 224 252 151 150 224 252 149 224 224 154 147 224 252 120 224 224 150 120 224 224 148 212 224 147 147 209 142 146 206 206 142 145 202 143 143 198 196 143 78 192 144 144 224 185 146 224 224 147 147 224 224 147 224 224 148 148 224 224 148 155 224 148 149 151 224 149 148 148 148 148 148 162 162 148 149 165 166 153 167 168 224 158 170 171 224 172 174 224 224 175 224 224 126 179 224 224 119 193 225 113 111 204 225 105 213 216 98 97 225 229 90 235 237 185 81 244 183 182 112 249 177 175 226 115 168 226 226 104 155 226 39 144 61 226 32 61 227 81 29 62 228 27 73 253 43 26 253 253 26 62 253 80 17 57 253 74 54 53 73 71 50 69 68 28 47 63 68 229 8 59 18 229 45 58 16 9 45 16 16 9 38 18 11 11 39 25 11 42 44 12 12 48 252 94 54 56 103 67 63 65 113 151 73 120 123 181 127 129 196 199 135 137 206 17 18 211 211
201 185 184 225 206 181 181 224 178 178 224 224 175 174 224 173 172 224 224 171 170 224 168 168 218 224 166 219 219 252 163 219 219 156 104 219 154 153 110 219 151 224 218 192 148 224 198 146 84 224 206 144 224 252 148 83 224 146 145 82 253 144 210 81 253 143 206 253 142 117 202 253 116 198 231 253 114 192 141 77 112 235 143 224 111 237 76 224 238 238 75 253 239 74 74 253 241 74 253 253 73 73 253 147 106 253 253 105 147 252 252 105 244 252 105 105 244 105 105 244 244 105 105 242 66 66 241 241 65 65 239 64 64 248 234 63 247 246 182 62 244 243 62 225 239 110 61 235 232 110 174 224 110 109 153 207 107 138 134 67 104 121 60 101 252 109 60 95 102 151 61 253 95 61 61 90 124 61 73 67 109 228 50 66 96 229 31 60 229 229 27 55 229 15 29 253 75 31 48 253 69 35 253 65 68 39 253 68 20 253 253 67 16 253 67 67 228 253 67 67 227 39 67 227 226 34 225 225 29 43 224 224 23 252 222 19 17 252 220 14 252 252 10 9 252 252 68 252 252 68 68 252 68 68 198 251
185 225 251 183 181 224 179 39 224 224 177 47 224 174 173 215 224 171 216 216 169 168 218 218 165 218 218 160 162 218 219 156 224 219 154 153 224 151 150 224 224 148 148 224 150 145 224 224 148 143 224 146 145 224 224 144 143 212 142 142 211 210 140 208 208 138 139 204 203 138 201 200 138 138 196 194 139 224 189 140 140 224 139 141 224 224 141 143 224 141 142 75 224 142 143 224 253 144 154 224 145 145 150 154 145 148 148 156 102 147 159 159 102 149 162 224 152 244 165 224 157 168 66 224 243 171 224 250 132 65 224 127 125 64 248 120 191 63 247 112 202 245 243 104 213 240 99 105 189 233 105 235 167 59 103 152 184 59 101 132 59 226 121 117 59 226 109 60 60 129 99 60 112 105 78 61 89 30 71 71 65 66 253 48 42 60 85 30 56 55 82 19 52 79 78 49 48 74 41 38 70 68 31 29 63 25 24 10 59 20 19 10 68 17 10 10 16 228 11 33 18 11 12 34 74 12 36 37 84 13 41 92 95 21 49 103 106 16 252 113 137 65 252 68 172 17 129 68 194 18 68 203 205 19 68 210
28 201 58 106 34 66 179 106 41 77 104 224 87 91 102 251 101 100 100 251 168 98 251 251 82 95 252 252 93 252 252 100 102 252 252 108 174 252 112 114 185 150 116 192 194 87 119 201 86 85 206 207 84 84 212 83 83 252 217 82 253 253 137 81 253 253 81 224 253 116 116 253 253 114 231 253 113 112 233 253 111 234 235 137 108 236 76 138 171 238 75 75 163 145 75 253 241 148 74 253 149 72 224 253 153 224 253 144 156 224 252 99 224 224 144 98 244 224 142 156 244 140 139 163 243 136 169 242 172 131 177 175 64 184 186 178 62 193 181 182 225 245 184 185 225 102 186 225 225 94 225 225 88 85 226 226 78 247 226 71 68 251 226 59 252 253 166 49 253 253 152 253 253 142 138 253 129 125 228 253 114 111 228 104 100 229 229 26 89 229 27 27 230 230 28 253 230 30 31 253 230 33 253 253 36 37 253 253 39 253 253 68 68 253 253 68 228 253 68 68 228 68 68 227 227 68 67 226 29 67 225 224 22 67 223 18 17 252 221 13 252 252 17 9 252 252 18 78 252 68 4 88 251 68 96 251
183 224 224 181 180 224 224 177 224 224 177 173 224 174 173 102 224 170 169 224 251 166 216 216 163 162 217 157 159 218 218 154 103 218 151 150 110 218 147 224 115 188 144 224 217 197 86 224 142 139 85 224 139 84 224 252 137 83 252 135 120 83 253 134 205 253 253 117 201 134 253 115 229 134 113 113 231 79 111 233 136 78 108 235 77 224 236 237 76 224 238 75 75 253 138 75 74 253 100 73 253 253 99 253 253 98 97 253 253 97 244 252 95 95 245 252 95 244 244 67 94 244 67 67 243 243 65 65 242 65 64 250 239 63 63 249 178 62 248 247 93 61 245 94 94 225 241 94 197 237 93 94 176 228 93 243 154 78 90 139 134 67 251 123 59 59 253 165 59 141 253 152 60 116 141 60 227 91 125 61 72 28 110 229 48 54 229 229 26 50 83 230 27 253 79 28 29 253 74 31 253 253 71 34 253 62 70 253 253 69 20 230 69 69 230 11 68 68 228 40 68 228 228 37 68 227 32 31 225 225 25 253 224 21 19 252 106 15 252 252 68 11 252 252 67 252 252 67 67 252 252 68 208 251 68 68
28 55 58 107 33 66 69 106 208 78 105 105 251 91 103 251 251 166 101 251 72 99 224 251 84 96 252 92 94 224 252 102 104 224 151 109 174 177 147 217 185 88 118 217 195 87 215 201 138 86 214 207 85 224 212 135 84 252 209 134 224 253 120 133 224 131 118 224 224 130 115 224 130 130 192 224 130 111 186 131 131 181 234 136 177 174 137 77 169 168 139 224 163 141 142 224 156 144 224 224 146 147 224 253 150 224 224 141 94 224 142 142 148 224 142 142 152 141 141 156 158 139 139 163 167 136 169 171 170 174 177 173 174 224 185 176 225 225 180 180 225 225 183 225 225 104 185 225 225 96 225 225 90 88 240 84 81 246 248 74 71 251 179 63 252 253 171 52 253 162 159 71 253 148 227 253 95 132 228 228 120 229 229 27 106 229 229 26 59 230 26 26 56 19 28 253 230 14 30 253 12 32 39 253 71 35 253 60 70 34 253 69 69 32 59 69 229 30 63 18 228 69 71 21 227 33 25 27 14 27 37 225 16 37 59 16 16 45 17 17 52 252 18 18 63 127 19 71 74 135 67 82 141 143 205 93
195 185 184 201 202 177 181 206 174 173 209 209 170 169 212 167 166 224 214 163 162 224 160 159 224 224 158 224 224 155 153 224 224 150 217 224 147 146 216 224 143 216 216 252 140 215 138 137 214 214 135 135 212 134 134 224 210 132 132 224 219 131 224 224 223 131 224 127 131 81 224 127 80 224 253 127 188 224 128 108 182 253 129 177 176 253 104 171 136 253 101 238 139 99 99 239 142 224 240 241 73 224 241 146 72 253 243 71 224 141 244 70 253 141 69 68 252 87 68 252 252 85 161 252 85 84 243 251 83 175 242 83 83 240 175 83 237 236 62 83 231 229 61 224 221 60 60 243 205 59 239 238 59 58 231 228 58 221 217 80 58 203 78 77 226 180 74 73 112 48 69 105 103 65 63 98 59 59 94 93 60 253 90 60 60 253 87 60 34 253 90 57 21 20 82 230 16 40 47 231 31 38 231 12 36 36 231 36 34 59 230 39 32 59 40 40 253 62 18 28 253 69 19 253 76 68 227 253 68 32 225 253 68 224 17 68 67 223 18 47 221 221 9 57 219 6 6 252 216 4 4 251 3 3 251 251
187 186 198 178 183 202 69 174 206 207 171 106 209 210 167 224 212 164 163 224 214 159 224 224 156 155 224 224 154 224 224 150 149 224 147 146 216 224 142 141 216 140 138 215 215 136 135 214 135 133 213 212 133 224 211 131 131 224 208 130 224 224 129 129 224 224 129 224 224 124 129 224 224 124 191 224 125 125 185 253 125 180 178 127 127 174 134 128 169 167 135 130 163 138 138 96 157 141 224 224 241 143 224 224 146 72 224 138 149 224 224 139 70 224 140 140 68 224 140 157 67 252 138 163 164 252 80 170 168 132 79 242 172 78 184 239 176 78 236 179 60 78 228 60 225 106 217 59 225 98 59 58 238 90 58 57 228 77 57 218 74 74 58 198 72 252 180 173 68 111 164 65 63 103 150 59 98 97 60 54 93 92 60 90 89 61 60 87 59 59 28 84 57 56 19 40 51 15 15 37 43 13 36 36 12 12 34 34 12 33 32 58 12 30 59 61 18 28 64 66 18 253 72 20 21 253 81 26 16 90 68 37 17 68 52 224 19 67 82 19 46 48 221 20 56 59 218 5 67 135 215 3 79 142 2 87
192 224 251 32 199 251 182 38 205 251 45 208 168 251 55 99 164 224 67 113 159 224 125 129 98 224 141 152 96 252 155 94 224 252 168 93 252 141 91 91 252 119 215 252 252 121 214 252 122 123 206 252 123 122 211 122 122 215 216 121 219 220 84 119 222 223 83 253 225 82 82 253 227 81 253 253 80 80 253 253 79 253 253 103 78 253 101 100 235 253 98 97 237 129 95 238 238 131 92 240 73 90 151 241 72 150 242 71 71 150 243 70 253 253 153 69 252 252 157 224 252 78 66 224 252 76 224 252 134 75 224 131 74 182 225 125 73 238 177 119 196 232 60 111 207 184 59 215 219 186 225 228 188 189 226 240 188 226 226 78 186 226 208 69 226 226 60 66 227 227 49 253 227 42 40 253 36 35 253 253 31 30 253 118 114 253 253 104 60 253 95 92 230 253 85 231 231 81 79 231 231 76 231 231 33 73 231 231 35 253 231 37 38 253 230 39 253 253 39 38 253 69 36 253 253 69 32 253 68 68 226 253 68 68 225 68 68 223 223 67 222 222 9 67 220 220 5 162 217 4 4 186 214 2 251 251
189 193 195 176 184 199 174 172 203 205 169 168 208 166 165 224 210 161 161 224 162 157 224 224 157 153 224 152 150 224 224 147 215 224 143 141 215 224 138 215 215 252 133 214 214 134 122 212 132 131 123 207 129 224 210 128 128 224 216 126 224 224 220 125 224 120 119 83 224 119 119 82 253 119 189 224 253 108 184 253 121 104 178 253 102 173 234 253 98 167 132 76 95 237 134 224 238 238 74 224 240 240 72 253 241 71 71 253 243 70 253 253 69 69 253 138 78 252 252 76 160 252 74 73 244 252 72 71 244 71 70 243 242 70 69 241 61 61 238 237 60 249 232 60 59 247 222 59 246 245 58 58 242 240 57 236 234 68 57 225 222 66 144 209 64 64 127 59 61 117 114 48 57 106 58 54 253 100 59 50 95 129 60 253 92 60 230 46 103 60 32 29 92 231 22 38 84 231 16 36 231 231 31 34 232 13 33 253 61 35 31 253 71 38 253 61 20 38 253 70 19 253 253 69 21 253 69 69 227 253 69 226 226 21 68 224 20 15 223 223 11 43 222 221 7 252 220 5 4 251 217 3 251 251 2 2
27 251 251 31 33 251 251 38 74 77 45 48 88 106 55 98 102 104 67 114 102 101 126 130 100 99 141 98 97 252 156 95 95 252 110 93 252 252 116 224 252 119 120 224 252 122 199 252 126 123 206 252 123 209 211 121 122 215 125 86 204 219 84 84 200 123 84 253 196 123 83 253 123 123 224 253 124 81 224 118 104 224 253 102 175 224 121 98 234 224 123 165 236 125 125 160 238 127 156 156 137 130 153 140 141 224 151 144 70 224 146 147 224 253 150 151 224 138 154 224 224 138 158 224 137 136 224 224 135 174 176 132 131 182 184 127 187 189 175 121 195 197 180 202 205 183 184 213 185 186 226 226 188 189 226 90 189 226 226 82 189 226 74 72 226 226 64 61 227 55 53 253 227 45 253 253 152 37 253 253 137 253 253 125 121 253 253 110 230 253 100 97 231 83 89 231 231 78 81 232 29 30 43 232 31 32 232 14 34 253 232 36 36 253 14 38 253 253 15 26 253 69 69 25 253 69 228 24 89 69 227 253 69 39 225 106 68 224 22 116 83 222 8 124 121 24 5 252 158 25 3 251 27 27 76 250
224 224 175 175 224 184 172 224 224 179 167 224 174 172 224 224 167 210 224 162 160 212 212 156 213 213 149 149 213 214 145 214 214 142 140 214 214 137 224 214 135 134 224 193 132 224 224 124 129 224 121 121 88 224 119 119 224 252 117 204 224 116 119 201 253 115 197 197 253 114 193 121 121 110 188 122 224 107 229 122 224 178 231 79 224 233 125 78 253 234 77 224 122 122 76 253 125 158 74 253 128 156 253 253 81 153 253 79 78 242 253 76 154 244 73 72 244 152 67 69 245 66 224 245 245 65 224 245 64 63 252 243 62 252 251 61 61 251 251 60 250 250 60 60 249 249 60 225 247 60 61 210 97 60 195 190 60 60 173 56 59 157 152 56 56 138 56 56 192 122 57 57 166 166 57 144 137 152 229 113 46 59 229 81 42 230 59 40 40 89 37 38 86 84 26 36 80 54 28 253 73 47 33 253 76 39 253 62 73 30 253 72 26 231 15 71 231 16 38 70 230 17 25 229 229 33 24 228 228 28 253 226 23 22 252 107 16 252 252 68 11 252 68 68 252 252 67 143 251 67 67 218 251 67 68 214
26 111 224 188 32 224 251 181 200 224 177 47 205 224 170 208 103 165 163 210 118 158 212 212 150 100 213 213 145 224 213 142 141 224 139 138 224 224 135 135 224 128 132 224 224 124 123 224 121 120 209 224 118 208 207 116 116 205 204 114 202 201 120 113 199 197 120 195 194 120 120 224 190 120 224 224 120 120 224 114 121 224 224 115 122 224 117 117 224 224 119 119 224 121 121 162 161 124 159 158 134 127 156 155 137 78 154 140 141 154 154 144 224 156 147 148 224 224 151 224 224 137 156 224 136 136 64 224 135 135 63 252 132 181 225 129 127 189 251 123 194 196 179 56 203 182 183 57 213 185 226 56 209 189 226 236 189 56 226 172 190 56 226 151 56 227 209 64 56 192 56 51 57 166 45 253 143 135 46 253 111 102 43 96 78 40 40 92 38 38 89 88 60 36 84 57 56 79 77 52 232 72 47 44 15 65 38 35 15 32 30 15 16 28 16 16 27 27 17 17 26 73 18 24 24 82 20 24 89 92 24 24 100 36 27 107 110 53 59 116 73 80 25 125 108 117 27 67 145 28 28 67 175 30 70 190
224 224 174 111 224 185 170 224 224 179 109 224 174 172 206 251 166 208 209 251 159 210 151 251 86 212 147 147 97 153 142 105 213 166 138 112 176 135 94 224 186 92 224 252 196 92 224 119 90 90 252 116 89 89 252 123 88 252 252 121 217 252 119 118 221 253 116 222 118 113 112 225 118 109 226 227 82 105 228 228 81 229 230 80 79 253 79 78 253 253 77 77 253 88 76 253 253 84 75 253 81 80 253 253 77 240 253 74 73 242 242 70 242 243 69 66 244 244 67 162 244 66 65 167 245 64 252 245 161 63 252 55 62 225 252 53 60 252 126 53 225 251 53 53 225 113 52 229 225 105 219 217 99 97 231 198 56 240 182 191 56 248 160 56 227 251 186 56 204 253 179 227 179 171 168 228 42 158 229 229 34 42 230 31 30 253 230 27 38 253 26 26 253 86 27 253 253 89 27 253 253 82 253 253 78 77 233 253 75 232 232 73 73 232 232 71 231 231 37 71 230 36 36 229 229 33 32 253 30 28 253 253 23 22 253 68 17 252 252 68 252 252 68 68 252 252 67 221 251 67 67 219 218 67 217 216
193 224 224 188 187 224 184 182 197 224 177 175 202 172 170 205 206 156 162 208 152 151 210 210 148 147 211 144 143 224 212 140 224 224 137 135 224 224 128 224 224 123 122 224 224 119 209 224 117 116 208 252 114 206 205 112 112 203 119 110 201 200 117 117 197 117 116 224 193 116 116 224 225 116 224 224 227 82 224 110 117 81 224 111 80 224 253 113 171 224 115 88 167 253 118 164 236 253 81 161 130 253 77 239 134 74 73 241 138 224 242 141 69 224 243 145 224 253 244 66 224 136 65 65 252 136 64 64 252 53 63 252 252 51 183 252 50 50 242 251 49 240 239 49 49 234 182 49 229 226 56 50 216 212 56 203 197 55 55 239 175 55 232 229 55 55 218 49 56 204 197 47 56 179 45 44 229 149 43 42 104 34 40 99 97 38 253 94 60 37 91 90 60 253 85 59 58 253 78 54 20 253 81 48 17 17 41 233 17 30 33 17 35 28 232 18 27 27 231 37 26 73 230 35 24 83 32 31 253 93 27 253 253 69 36 252 111 68 225 252 68 72 223 252 68 222 30 67 67 221 31 56 219 218 1 67
112 27 57 59 112 251 67 111 111 251 110 109 251 251 108 107 251 64 105 251 251 77 103 251 86 89 224 251 97 153 157 136 107 167 170 113 211 179 95 118 187 189 93 210 196 92 92 208 202 91 252 252 120 90 252 123 118 224 252 121 87 252 108 118 224 252 115 114 224 107 111 224 224 107 186 226 83 108 182 228 81 178 177 117 80 174 230 119 224 170 120 77 224 167 123 224 253 126 126 224 121 76 224 224 124 72 224 127 127 159 224 129 131 160 132 132 162 163 134 164 165 151 152 168 169 155 224 173 159 160 224 178 163 225 225 167 168 225 225 172 225 225 121 177 225 116 114 208 226 108 105 219 102 99 229 233 93 92 241 192 85 247 248 191 250 251 189 187 253 253 182 227 228 176 173 229 229 164 229 229 36 150 230 230 30 59 230 28 27 231 48 26 253 253 26 26 253 93 27 253 253 85 29 253 80 79 31 253 76 233 29 61 74 233 253 72 25 231 37 71 231 231 36 21 230 33 33 23 228 29 253 28 25 22 253 27 27 27 252 28 12 32 124 68 37 252 132 67 45 137 67 152 56 144 173 218
51 113 224 190 62 112 224 183 194 111 251 175 200 224 169 57 204 251 161 206 207 251 79 208 146 251 92 146 141 224 102 160 136 224 170 173 96 224 181 129 94 252 191 93 224 252 92 92 252 112 91 90 252 123 204 252 252 122 201 252 120 120 218 252 117 116 221 114 113 222 223 110 224 225 83 105 226 226 82 253 228 81 80 253 229 80 253 253 79 79 253 86 77 253 253 81 76 253 78 76 236 253 73 72 238 124 69 240 241 65 64 241 69 61 243 243 68 163 244 67 66 167 245 65 253 253 155 64 252 252 160 225 252 46 61 225 131 44 225 252 126 44 225 120 43 202 225 113 43 230 185 105 221 219 55 97 234 191 55 242 244 192 226 249 191 191 227 252 187 227 208 59 180 228 185 42 229 229 41 40 230 35 34 253 230 30 29 253 28 27 253 253 26 26 253 101 98 253 253 91 55 253 85 84 233 253 79 233 233 76 76 233 233 74 233 233 36 73 231 231 36 253 231 35 34 253 33 32 253 253 28 26 253 69 22 252 252 68 14 252 68 68 224 252 68 223 222 67 67 221 220 67 220 219 1 67
113 113 180 171 113 251 66 166 224 251 163 110 224 251 157 224 251 162 152 224 251 76 207 224 147 89 142 224 139 209 157 133 131 210 132 126 209 179 128 120 209 126 94 224 208 122 93 252 120 119 224 252 118 224 224 107 115 224 224 105 224 224 104 104 224 224 104 193 192 104 104 189 223 104 186 185 112 105 182 112 112 179 178 113 114 176 114 115 224 172 117 117 224 112 119 224 224 115 224 224 118 118 224 224 121 163 224 124 125 163 224 127 163 164 140 131 165 165 144 166 168 148 149 170 152 153 224 174 157 158 224 246 162 225 225 165 167 225 130 128 225 225 124 197 225 118 117 206 226 110 214 217 249 102 227 230 247 43 239 192 88 43 247 192 227 251 156 190 227 142 185 55 228 127 177 229 47 115 57 229 38 107 58 115 32 253 59 77 36 253 55 27 34 253 37 33 253 82 27 32 253 89 31 31 68 82 30 64 63 39 233 62 62 32 20 65 27 26 21 71 23 23 23 22 22 25 33 23 26 26 24 27 28 25 25 110 30 26 26 119 29 29 125 127 34 36 132 105 42 138 140 140 250 145 162 169
173 175 171 29 183 167 166 189 190 163 224 224 159 157 224 167 154 224 224 158 148 224 151 148 103 224 142 140 101 252 134 209 224 252 126 209 129 121 117 208 125 120 208 122 122 123 206 119 224 124 205 117 224 203 210 90 224 104 113 89 252 103 88 224 252 103 87 252 102 111 86 253 102 186 253 253 102 183 253 253 98 227 112 93 92 228 80 89 229 230 78 83 231 77 77 233 233 75 224 235 74 73 253 237 72 253 253 64 71 253 253 59 253 253 56 55 253 253 52 244 253 49 48 245 253 46 245 245 63 43 246 62 61 183 245 60 60 245 59 59 252 243 58 58 252 178 57 251 251 183 226 250 39 40 226 248 40 208 246 91 41 187 241 41 249 165 75 41 151 146 64 253 134 55 53 253 175 56 168 253 162 57 131 152 148 231 91 136 60 231 27 121 232 43 26 233 233 26 32 253 233 28 253 70 29 30 253 65 31 253 253 77 34 253 75 74 253 253 73 25 253 72 72 231 25 71 70 229 31 70 228 228 26 69 227 21 19 226 226 13 252 225 9 8 252 223 5 251 251 67 2 251 250 67 250 250
173 224 176 169 168 224 166 164 224 224 177 160 224 171 168 224 224 162 66 224 155 152 205 224 145 143 206 138 136 208 208 130 208 208 130 129 208 208 126 224 208 123 122 224 206 119 224 224 117 117 224 106 115 224 224 104 112 224 102 102 198 224 102 101 194 101 101 192 191 101 101 188 108 101 186 185 109 101 183 109 109 95 180 110 224 224 111 112 224 224 114 224 224 109 116 224 111 112 75 224 115 115 73 253 118 167 167 253 122 167 132 125 56 167 136 129 168 243 142 49 170 146 65 45 245 150 224 42 246 62 225 136 246 61 225 134 60 60 252 130 58 252 252 36 57 252 119 37 251 251 37 214 250 250 38 220 190 39 39 202 193 39 186 181 54 40 164 54 54 150 145 54 228 133 55 55 188 47 56 56 157 37 57 127 117 36 97 88 34 34 63 57 33 91 42 32 32 84 31 32 77 75 56 31 69 67 49 253 64 43 41 63 77 35 22 66 29 28 23 73 25 25 25 72 22 27 26 26 229 29 25 102 228 24 25 111 32 17 252 120 13 29 252 128 8 252 134 94 102 251 140 127 39 250 67 158
24 171 55 251 29 62 165 35 38 75 112 45 85 89 110 56 101 108 108 113 117 106 224 251 104 104 251 137 102 251 252 105 100 252 252 113 224 252 117 118 252 252 121 194 252 123 123 201 202 124 205 206 93 123 210 91 91 199 214 90 90 216 109 89 252 219 88 88 252 107 86 252 253 105 224 253 101 100 224 253 96 225 224 102 90 227 253 104 176 229 106 80 174 230 108 172 232 117 75 171 119 74 224 169 123 73 253 126 128 224 253 131 132 224 127 136 224 253 131 171 224 133 44 174 224 135 176 246 136 136 180 246 136 183 184 162 134 187 189 168 191 193 172 174 225 176 178 226 226 182 183 226 108 187 226 226 99 191 226 93 91 227 227 85 248 227 78 76 252 252 68 253 253 184 56 253 253 176 253 253 168 164 253 253 154 231 253 143 139 232 28 128 232 233 26 113 233 26 27 233 234 28 28 234 29 30 253 234 31 253 253 23 34 253 253 76 28 253 74 74 253 253 72 231 253 72 71 230 253 70 229 228 104 69 227 21 114 37 226 14 13 52 37 8 252 224 38 4 251 40 3 43 250 41 50 250
171 224 171 168 167 224 181 163 224 224 78 158 224 224 154 110 224 161 148 224 251 151 106 224 143 141 205 251 134 206 206 252 125 206 128 252 114 206 124 114 120 189 120 122 205 197 95 123 202 114 94 224 208 93 224 101 212 91 224 99 90 90 252 99 89 252 252 112 88 252 98 107 221 253 103 185 223 253 98 224 107 93 92 225 108 87 226 227 80 82 229 79 78 230 230 77 76 253 76 75 253 253 74 73 253 61 72 253 253 56 224 253 52 51 253 253 48 243 253 45 44 244 244 42 245 245 63 39 246 246 61 181 246 60 60 185 163 59 252 245 168 58 252 33 57 226 252 33 56 251 33 34 226 251 34 226 226 99 36 210 247 90 244 188 84 37 250 167 54 252 153 189 54 253 136 55 229 253 176 56 169 167 164 231 130 154 150 231 29 139 232 232 26 33 233 26 26 253 233 27 253 253 28 28 253 68 30 253 253 82 32 253 253 78 253 253 76 75 233 253 74 232 232 72 72 231 34 71 230 230 30 70 228 25 24 227 227 18 17 252 13 12 252 252 8 252 251 67 4 251 251 67 250 250 67 67
23 25 54 193 29 62 64 184 183 74 114 43 190 88 111 251 100 109 109 251 116 107 251 251 139 105 251 94 135 224 252 104 101 224 121 112 224 252 114 118 186 110 121 204 195 106 123 200 114 103 202 206 94 200 200 109 92 198 197 108 224 195 107 106 224 252 105 224 224 97 105 224 97 97 224 224 98 98 224 99 99 182 224 100 101 180 107 102 178 178 108 104 177 110 111 176 176 113 224 174 115 117 224 173 119 224 224 123 124 224 224 122 224 224 125 126 224 128 129 174 224 132 132 176 134 134 178 178 136 136 181 155 136 184 184 160 162 187 165 166 225 192 170 225 225 175 176 226 226 180 226 226 111 186 226 226 103 230 226 96 93 241 246 87 247 248 80 78 251 193 70 253 253 188 59 253 182 180 36 253 172 169 231 113 160 231 231 105 60 232 27 134 61 233 26 62 233 40 26 61 234 27 30 58 28 29 253 66 25 30 253 81 25 29 66 77 29 29 72 75 29 78 81 25 28 88 72 24 96 98 25 229 28 28 29 36 21 35 38 38 28 49 40 40 31 68 41 34 36 42 43 41 144 146 47 49
170 117 25 55 166 224 64 67 115 224 77 81 113 251 92 111 110 251 158 109 251 251 77 106 251 87 90 251 251 98 203 252 106 108 170 252 114 115 181 118 119 189 191 97 195 197 96 95 202 203 95 252 207 94 93 252 211 92 252 252 91 91 252 252 114 252 252 111 110 252 107 106 220 252 102 101 222 97 96 223 223 98 90 224 83 86 181 226 80 253 227 108 79 253 228 77 224 253 112 75 253 253 116 224 253 58 120 224 253 53 224 224 122 48 240 125 126 175 243 129 41 176 141 132 178 245 63 135 180 151 61 182 183 157 225 253 161 162 225 253 167 225 225 130 172 226 252 123 226 226 118 31 226 226 108 221 226 102 99 234 193 93 242 244 195 84 249 194 194 251 252 191 190 253 187 185 229 253 179 230 230 171 169 231 231 33 231 232 29 28 232 233 26 253 233 26 26 253 234 26 253 253 28 28 253 93 91 253 253 86 84 253 81 80 234 253 77 77 233 76 75 232 232 73 231 231 35 72 231 230 32 253 229 27 25 253 227 20 252 252 40 13 252 68 8 32 251 67 5 251 142 67 42 250 67 67
198 24 224 193 191 171 63 185 183 180 157 176 186 188 152 165 192 147 146 196 197 142 224 199 138 137 224 202 132 224 224 124 127 224 224 117 224 224 112 110 224 224 106 202 224 104 102 201 101 100 200 200 99 98 198 107 107 196 196 106 105 194 104 104 224 192 103 224 224 103 103 224 224 102 224 224 96 96 224 224 97 183 224 98 98 182 224 100 181 181 253 102 180 107 104 69 179 110 107 178 231 113 224 178 116 117 224 235 121 224 224 238 69 224 123 240 68 224 127 66 66 253 131 64 224 253 35 181 253 136 33 183 253 31 185 159 253 30 246 164 29 29 246 170 29 245 244 55 226 242 180 55 252 237 54 226 251 53 53 250 96 53 53 248 34 53 244 243 35 53 236 35 35 150 222 35 35 134 35 35 124 122 34 117 115 57 34 108 106 60 253 100 61 62 94 92 63 46 43 63 62 36 31 60 32 30 30 55 28 30 30 235 27 30 29 234 36 29 73 75 37 29 81 26 28 253 91 25 253 99 25 25 253 109 29 39 253 69 36 41 123 68 226 43 31 62 224 6 35 223 47 3 41 222 1 47
118 224 196 194 117 251 188 173 115 251 40 182 251 251 50 189 251 60 63 111 142 73 197 128 107 86 140 133 105 152 155 103 224 166 169 101 252 179 100 100 252 189 98 252 252 122 97 252 252 123 252 252 123 122 252 121 121 212 252 119 118 214 94 114 216 217 111 110 218 89 89 219 219 88 252 220 87 86 253 221 85 253 253 102 83 253 253 103 224 253 76 74 253 253 69 227 253 65 64 230 107 60 231 232 111 55 234 72 115 179 237 70 46 179 127 68 253 241 133 224 253 137 65 224 253 143 224 253 136 149 225 253 31 225 225 138 29 225 225 136 190 247 134 132 195 172 129 199 201 178 121 207 182 184 215 218 188 53 228 191 192 227 249 194 227 227 84 195 228 228 74 229 229 66 62 229 230 54 253 230 45 42 253 231 35 253 253 158 30 253 148 144 253 253 133 129 253 122 119 234 253 109 106 235 101 98 235 235 91 235 235 33 34 235 234 35 253 234 37 37 253 233 37 253 253 37 36 253 253 34 253 253 71 71 253 70 69 227 252 69 68 226 128 68 225 225 68 68 224 4 67 223 223 2 118 222
199 154 157 194 192 165 168 186 173 175 156 176 182 183 151 53 189 146 145 192 114 140 224 224 136 135 224 132 131 224 224 122 126 224 116 114 101 224 110 108 100 252 104 200 224 101 122 200 110 99 198 198 107 122 197 105 105 119 195 103 224 116 215 102 224 216 216 90 224 94 100 89 252 94 88 224 252 95 86 253 95 89 84 253 97 184 253 253 78 184 253 73 71 226 105 67 66 228 76 62 229 230 74 56 232 73 224 234 235 71 253 237 70 69 253 240 67 253 253 38 66 253 253 35 253 253 33 33 253 253 31 246 253 29 29 247 138 27 247 247 57 26 247 56 56 245 245 55 55 243 54 54 252 239 54 252 251 189 53 251 250 193 227 249 32 32 227 245 33 176 240 73 34 157 228 34 253 140 51 34 130 177 41 253 118 57 33 253 157 60 99 253 144 62 69 132 129 234 50 119 234 41 27 106 235 34 30 235 235 31 30 65 235 34 253 69 36 37 253 76 38 253 253 75 37 253 74 73 253 253 71 25 253 71 70 228 42 69 69 227 17 68 226 226 10 225 225 6 5 224 224 3 250 223 2 1
118 118 250 25 118 251 251 32 224 251 38 41 81 251 49 93 97 58 61 110 114 72 122 127 108 85 140 106 106 199 155 104 104 200 122 102 252 252 118 101 252 119 100 224 252 121 98 252 98 122 224 252 122 197 224 94 120 211 224 93 194 214 93 93 192 215 91 191 217 100 90 189 99 89 224 187 99 87 252 99 99 224 253 85 100 224 97 78 224 224 98 72 224 100 101 184 224 103 184 184 105 106 183 231 109 184 183 114 72 183 183 119 224 182 123 125 224 128 129 224 224 134 136 224 132 141 225 225 136 146 225 138 138 185 225 139 139 188 139 138 190 191 136 193 194 170 131 197 199 176 203 205 181 183 226 215 187 226 227 190 192 227 96 194 227 227 86 195 228 79 76 229 229 68 65 230 59 55 253 253 47 44 253 174 36 253 253 163 33 253 153 150 32 253 139 234 253 88 125 235 253 115 64 235 28 103 235 30 30 56 235 33 33 48 31 35 253 39 33 38 253 34 38 29 253 74 37 253 97 73 29 253 71 27 30 114 70 228 30 122 38 226 128 131 51 225 136 64 70 51 4 88 52 53 43 116
250 198 119 250 250 28 118 251 184 171 251 251 43 179 149 51 54 100 143 64 67 117 110 77 131 135 107 90 147 106 106 158 162 104 224 251 102 102 252 106 101 252 252 120 100 252 252 122 252 252 122 122 252 252 121 209 252 119 118 212 93 116 214 214 92 111 216 91 91 190 217 90 89 218 98 88 252 219 87 86 252 98 85 253 253 80 224 253 76 74 224 253 69 224 224 101 63 226 253 104 185 228 106 54 230 110 110 185 233 71 71 185 119 69 253 184 124 67 253 129 131 224 253 136 64 224 134 142 225 253 137 185 225 139 27 187 225 139 189 248 139 138 192 247 135 195 196 172 130 200 177 178 206 208 183 185 226 187 189 227 227 192 193 227 93 195 228 228 83 195 228 75 72 229 229 63 253 230 53 50 253 253 42 253 253 171 33 253 253 159 253 253 149 146 253 138 135 234 253 125 122 235 26 112 235 235 29 101 235 31 32 235 235 34 35 235 37 37 253 234 38 253 253 37 39 253 253 74 30 253 73 72 253 253 71 229 253 70 70 227 125 69 226 226 132 68 225 7 140 72 224 3 3 97 55 2
168 120 224 196 162 224 250 187 157 224 179 40 224 224 168 51 224 159 155 187 224 146 190 192 138 135 194 195 128 196 196 125 124 198 198 119 224 198 117 115 224 198 112 224 224 110 109 224 97 96 224 224 94 94 224 93 93 194 224 92 92 193 92 92 192 191 91 191 191 97 92 190 189 97 224 189 97 97 224 188 97 224 224 97 97 224 224 98 224 224 97 100 224 98 99 79 224 101 102 188 253 104 187 187 107 108 187 111 111 187 187 116 42 187 120 121 38 186 126 224 185 242 133 224 224 138 63 225 135 144 225 225 139 60 225 140 140 58 253 140 190 56 253 138 193 168 253 24 198 174 128 24 243 181 25 212 238 53 27 231 190 52 28 218 52 227 203 197 52 228 79 52 52 238 68 53 53 224 33 54 207 200 33 184 175 33 253 145 135 32 109 107 32 32 98 142 32 89 86 66 31 78 65 65 71 69 63 62 66 59 57 35 66 50 48 34 30 41 35 36 30 34 38 30 30 39 41 30 97 43 30 30 107 46 31 114 116 25 32 123 125 38 252 131 48 51 252 67 65 55 144 67 86 57 67 106
250 21 120 250 250 27 29 250 32 35 72 251 42 82 86 165 53 99 103 63 186 116 110 76 129 133 108 251 146 107 106 251 161 105 251 251 118 103 251 115 114 224 251 119 101 224 97 121 224 252 94 121 205 93 120 194 209 92 194 211 100 91 192 213 93 191 191 97 92 190 190 96 224 190 96 96 224 252 96 224 252 93 96 224 94 79 224 224 95 72 224 97 97 189 224 99 100 189 102 102 189 189 105 189 189 108 109 189 189 112 224 189 116 117 224 188 122 224 224 126 128 224 224 129 225 225 134 134 225 136 137 187 225 139 140 188 141 141 189 190 141 141 192 164 138 194 195 170 226 199 175 177 226 206 181 226 226 186 187 227 227 191 227 227 96 194 228 228 86 248 228 78 75 252 237 66 253 253 55 53 253 182 43 253 253 174 34 253 166 163 32 253 154 234 234 95 141 235 235 83 66 235 26 118 65 236 28 63 236 38 32 57 235 34 30 47 36 37 253 83 38 30 253 79 40 30 92 75 30 253 102 73 31 109 71 28 31 118 32 228 125 127 40 226 13 49 53 55 7 66 72 57 40 89 58 59
167 224 224 197 161 224 224 187 224 224 179 177 224 224 168 176 224 158 155 183 139 146 187 188 132 134 190 128 127 193 193 123 122 195 119 118 224 196 115 114 224 101 111 224 224 97 100 224 95 94 224 224 93 194 224 92 92 194 224 91 193 193 252 90 191 97 97 107 191 96 96 101 216 96 224 190 217 95 224 217 95 86 224 217 96 224 94 219 83 224 95 190 81 253 98 191 224 253 57 191 253 103 51 191 253 48 191 230 253 43 233 113 70 39 236 118 224 239 239 66 224 241 242 64 253 243 63 62 253 245 61 253 253 60 59 253 24 24 253 253 23 191 253 22 22 247 253 22 22 246 23 23 244 244 23 241 240 52 25 235 232 52 251 223 52 52 250 204 52 247 246 194 52 241 239 53 230 229 33 54 214 33 33 131 183 33 33 119 31 32 110 108 26 32 99 63 32 253 87 66 253 78 124 67 253 69 65 236 41 104 60 38 38 94 235 37 30 87 235 38 30 234 234 40 30 233 40 40 253 232 39 31 253 72 33 253 116 71 26 253 69 37 252 252 68 226 252 68 68 225 251 68 224 224 67 67
19 21 47 50 25 54 57 119 119 67 70 118 250 81 116 115 251 97 113 251 251 136 111 251 78 110 224 251 91 108 251 118 101 164 251 108 109 177 104 114 185 187 99 195 193 101 96 195 200 99 194 204 102 98 252 208 97 224 252 99 96 252 252 97 224 252 107 96 224 90 102 224 224 90 95 224 90 91 191 216 92 83 191 95 92 191 218 95 192 191 97 82 192 192 98 224 192 99 99 224 192 102 224 224 105 105 224 224 109 224 224 113 39 224 117 118 191 224 122 124 191 126 128 190 190 133 133 189 138 139 189 188 145 225 189 150 151 225 190 156 225 225 160 162 226 226 167 226 226 135 134 226 226 128 205 226 120 118 215 112 110 224 228 101 99 238 194 91 245 247 195 80 250 193 193 230 253 189 231 231 144 184 232 232 178 56 233 32 169 233 234 27 61 234 25 25 253 235 24 253 253 60 26 253 121 27 31 253 109 31 253 65 99 30 253 92 91 30 74 86 235 234 82 33 234 41 92 28 232 40 26 26 49 36 27 230 52 32 31 54 23 34 38 57 35 252 137 59 37 143 68 40 40 150 67 43
42 165 224 49 161 121 224 59 155 224 250 177 117 224 168 48 115 251 155 178 113 251 70 184 251 251 84 188 251 92 95 156 121 103 167 170 105 110 179 112 103 187 189 102 224 194 197 101 251 201 100 99 252 205 98 252 252 116 97 252 114 113 252 252 110 192 252 105 104 214 252 99 98 215 90 93 215 215 88 191 216 87 87 217 216 85 252 217 84 83 253 219 82 253 253 97 79 253 253 77 224 253 50 48 253 105 45 229 253 42 40 232 114 38 235 236 119 34 238 66 124 192 241 64 191 191 133 62 253 245 140 225 253 145 59 225 253 151 225 253 144 158 226 253 21 226 226 140 21 226 136 134 200 245 128 125 208 183 117 216 236 189 106 229 192 51 239 241 194 228 247 194 194 230 241 192 230 230 59 187 231 231 46 232 232 37 35 233 233 29 253 234 26 25 253 24 24 253 253 139 24 253 129 126 253 253 117 114 253 109 106 236 253 99 236 236 92 91 235 235 86 235 234 42 42 234 233 42 253 232 40 40 253 231 36 253 253 31 29 253 70 22 252 252 69 69 252 69 69 225 251 68 67 223 152 67
122 20 133 162 121 142 56 156 120 154 152 118 250 163 146 116 250 141 140 224 251 135 224 224 136 79 224 251 124 188 224 116 100 191 224 109 192 175 103 102 193 109 99 193 193 106 101 193 104 103 224 193 101 101 224 99 99 224 224 97 97 224 89 96 224 224 89 224 224 89 89 192 224 89 192 192 90 90 192 193 90 193 193 94 92 193 94 94 193 194 95 95 195 95 96 224 224 97 98 224 100 99 224 224 104 102 224 107 108 224 224 111 195 224 115 117 195 194 121 194 194 123 127 192 192 129 27 191 135 137 191 246 142 225 190 147 149 225 247 154 225 226 145 159 226 144 143 54 226 139 138 54 253 132 202 226 253 23 211 253 114 25 223 252 26 234 193 194 29 245 194 229 31 180 193 230 166 161 53 231 148 185 55 201 133 56 233 166 31 59 140 26 32 62 108 24 253 89 82 31 253 68 31 31 70 54 31 31 65 31 31 64 65 58 31 68 51 49 73 75 42 44 82 35 33 46 92 29 49 49 27 27 52 53 26 54 56 33 33 58 58 34 129 60 36 36 137 11 38 143 145 6 41 150 82 44
41 122 122 250 49 122 121 250 120 120 250 250 118 250 250 47 116 250 250 59 224 251 69 72 125 251 82 138 143 90 94 155 159 102 165 169 106 109 178 104 104 192 188 103 103 193 105 101 251 251 102 100 252 118 99 252 252 116 224 252 113 112 224 252 109 212 224 88 102 213 252 89 192 213 91 91 193 214 90 193 214 92 87 194 93 86 224 195 94 84 252 94 94 224 253 58 95 224 98 51 224 224 101 197 224 104 105 197 224 108 197 197 112 114 197 234 118 196 196 118 66 195 195 124 225 193 130 132 225 136 137 225 225 143 144 225 144 149 225 225 146 155 226 146 145 192 226 144 194 195 140 138 198 200 132 203 205 181 121 212 215 188 221 225 191 192 228 238 194 228 229 194 193 230 74 192 230 231 61 188 231 50 46 232 232 38 35 233 31 29 253 253 26 253 253 155 23 253 253 144 31 253 134 132 31 253 123 236 253 114 111 236 253 104 236 236 37 95 236 40 41 41 235 43 43 32 48 43 253 232 51 42 253 54 39 33 253 72 33 253 125 71 35 252 70 43 37 140 69 225 39 147 69 224 152 154
204 202 127 130 196 136 139 156 186 148 150 150 224 158 145 144 224 141 139 224 224 134 133 224 135 129 224 224 123 123 224 116 114 224 224 107 189 190 102 101 191 191 97 192 192 105 94 192 192 102 118 193 100 99 117 192 98 224 192 209 96 224 88 95 224 224 88 94 224 88 88 93 224 88 88 91 252 89 194 224 252 79 195 252 91 73 196 92 67 197 215 93 61 198 94 81 55 218 95 224 50 221 76 224 223 224 74 253 107 72 71 253 112 70 253 253 34 67 253 122 30 253 253 28 195 253 26 26 244 253 24 24 245 59 22 247 247 57 21 248 56 56 248 248 55 226 248 54 54 253 247 53 253 253 176 52 253 253 22 253 253 24 24 252 252 26 222 251 28 28 203 86 30 187 181 72 32 166 53 53 253 148 54 55 136 179 57 172 121 58 60 140 164 62 118 111 154 235 92 32 143 236 72 31 69 236 27 31 64 50 31 253 64 34 31 253 99 39 253 74 91 42 253 86 36 253 253 81 29 52 78 77 231 56 75 27 230 36 73 228 61 27 228 227 20 37 226 226 11 252 146 7 6 251 152 3
18 123 250 250 23 51 250 27 29 61 251 35 72 75 42 45 87 140 54 100 105 114 67 118 112 112 251 136 110 110 251 109 109 251 251 107 107 251 110 105 251 251 114 224 251 117 117 224 251 118 201 203 90 117 205 207 115 192 209 98 112 210 210 97 193 211 96 95 193 92 94 252 193 92 92 252 88 91 224 252 81 89 224 90 73 224 252 92 198 224 93 62 215 224 95 199 217 97 97 200 219 77 200 200 98 75 201 225 101 224 200 104 70 224 107 109 224 253 113 114 225 124 29 225 225 131 26 225 135 136 194 225 141 192 192 144 145 191 191 148 191 191 155 148 191 191 161 226 193 166 168 226 196 173 226 227 178 180 227 123 184 227 227 111 189 228 102 99 228 229 90 87 247 81 78 250 251 67 252 253 187 51 253 253 181 253 253 176 174 253 253 168 235 235 161 158 235 235 150 236 236 23 139 236 25 26 70 237 29 30 237 50 34 253 236 37 38 253 97 41 253 253 89 31 253 85 84 32 253 80 232 32 106 76 231 253 116 28 229 122 72 228 228 24 38 227 17 15 49 69 9 251 65 70 5 250
249 203 121 161 159 24 133 155 153 141 64 149 224 152 144 118 224 90 138 224 224 108 114 224 135 126 111 224 123 182 110 251 113 185 251 251 105 188 251 100 189 184 251 115 190 104 251 117 198 101 117 117 203 98 224 206 206 99 224 209 99 98 252 211 97 224 252 96 95 252 87 94 93 252 90 195 252 252 83 212 252 77 76 213 252 71 213 213 65 64 213 214 59 214 214 81 53 216 217 79 253 219 77 77 253 98 74 253 253 72 72 253 35 70 253 253 32 67 253 30 30 225 253 28 240 241 132 25 243 243 138 194 245 59 21 246 247 57 191 247 56 56 191 248 55 253 253 162 54 253 18 168 226 253 19 52 227 131 21 227 253 120 23 227 110 25 228 228 97 238 208 193 85 247 186 52 251 251 189 53 253 253 184 232 253 179 178 233 253 173 234 234 166 164 235 23 23 236 236 23 32 236 24 24 253 237 27 28 253 30 31 253 253 35 253 253 104 39 253 253 95 235 253 90 88 234 253 84 234 233 81 79 232 231 76 231 230 39 74 229 33 31 253 227 23 21 252 16 14 252 252 9 8 251 69 5
18 19 249 200 22 48 250 27 28 59 182 35 69 73 169 44 84 117 116 164 102 115 251 172 129 113 251 135 123 224 251 119 109 224 251 114 224 251 101 109 224 98 113 189 224 93 116 196 91 91 191 202 90 89 192 97 88 192 192 95 87 192 94 97 193 193 92 224 252 92 91 224 252 91 224 224 88 91 224 224 89 224 224 89 90 224 91 91 200 200 92 92 201 92 94 201 202 93 97 202 94 95 203 203 96 97 203 98 99 224 203 102 224 224 113 106 225 225 119 225 225 124 125 225 225 131 198 225 135 137 196 253 141 194 193 145 146 192 145 147 191 191 152 154 191 157 159 226 192 163 165 226 247 170 226 227 175 51 227 128 125 227 227 116 218 228 106 103 233 229 93 242 244 247 80 249 191 239 32 252 187 53 33 145 182 233 253 128 175 234 116 169 61 235 100 161 236 112 84 68 236 23 71 71 74 26 71 72 60 32 253 54 53 32 253 50 31 253 70 49 31 77 94 31 32 87 87 32 95 97 29 32 105 107 27 62 115 28 28 65 125 32 67 68 37 39 70 38 47 71 72 41 61 73 43 44
248 248 19 118 249 23 25 52 250 30 61 64 36 38 75 79 46 88 92 117 116 105 110 114 251 124 113 112 251 121 110 251 251 116 109 251 104 108 251 251 110 106 251 113 114 192 251 116 116 199 90 116 203 204 88 192 207 100 112 192 209 99 193 210 92 97 252 211 96 224 252 91 94 252 88 90 224 252 81 90 224 89 74 224 224 90 67 224 91 91 201 212 93 56 202 92 95 203 215 93 204 204 95 76 204 204 96 224 204 99 99 224 204 102 224 225 116 107 225 121 122 225 225 127 26 225 132 134 198 225 138 140 196 143 145 193 193 142 149 192 148 149 191 191 154 226 190 159 160 226 192 166 226 226 171 173 227 227 178 227 227 125 121 228 115 111 223 228 101 98 237 91 88 245 247 78 74 251 188 62 252 253 184 46 253 180 179 234 253 173 234 235 168 166 235 235 160 236 236 22 150 236 237 23 71 237 26 27 253 61 30 253 253 53 36 253 109 40 31 253 100 45 253 81 92 32 253 87 86 32 99 82 232 232 109 27 231 44 120 29 229 35 33 34 70 25 40 226 73 39 52 74 10 251 75 76
206 162 224 224 198 224 224 191 188 132 224 179 141 144 169 166 152 138 155 159 161 132 142 167 127 126 172 173 122 120 178 118 116 224 224 113 224 224 101 109 224 224 96 224 224 94 92 224 224 90 190 224 89 89 191 224 88 192 192 94 87 193 92 92 194 194 91 91 195 91 91 224 196 90 90 224 211 90 224 224 89 90 224 89 89 88 224 91 202 224 252 92 203 224 94 52 204 252 96 205 205 253 43 205 95 95 39 220 97 224 36 225 100 225 228 229 68 225 233 108 225 253 237 64 225 130 63 62 253 137 197 60 253 21 195 253 253 19 192 253 18 18 248 253 17 191 249 17 17 248 163 52 248 248 52 227 247 246 51 253 243 51 51 253 236 51 252 252 51 51 251 28 51 248 246 30 31 239 32 32 161 223 33 33 143 39 33 130 125 34 34 112 61 33 99 95 65 253 83 68 69 98 70 72 82 77 137 73 66 64 127 237 57 32 66 53 39 32 236 52 31 31 77 47 32 85 87 50 32 95 30 51 253 106 27 33 253 77 28 253 125 75 228 253 73 37 227 73 72 226 75 13 70 225 76 44
224 249 18 41 224 196 24 50 188 185 132 62 121 37 73 141 119 152 89 117 116 161 131 115 251 168 124 224 251 120 119 224 251 115 224 224 104 104 224 251 99 186 224 95 113 187 224 91 189 198 89 89 190 97 88 191 191 94 101 192 93 92 224 194 92 91 224 91 91 224 224 90 224 224 87 90 224 224 88 224 224 89 89 201 224 90 201 202 91 91 203 203 92 204 205 90 95 205 92 92 205 206 93 93 207 94 95 224 224 96 97 224 109 100 225 225 115 225 225 120 122 225 225 127 203 225 132 134 200 200 139 198 197 132 145 195 194 139 19 193 145 146 191 248 151 226 190 156 158 226 248 163 226 226 148 170 227 141 139 51 227 130 205 228 253 116 217 228 105 27 233 250 91 242 244 244 31 249 188 187 33 252 183 233 33 139 178 234 126 121 60 235 108 166 63 137 90 66 236 114 21 70 96 23 33 73 77 32 253 66 64 32 253 57 32 32 65 54 32 32 72 32 32 79 81 40 32 89 33 234 97 100 28 63 108 27 27 67 119 28 70 71 32 33 73 74 39 75 76 39 40 77 41 42 154 78
207 205 224 201 198 116 224 191 189 127 250 179 135 138 170 41 146 138 156 154 156 132 61 162 127 125 224 170 121 224 224 147 116 224 109 112 109 224 101 107 224 251 96 107 224 93 92 106 251 90 189 189 251 88 191 95 251 110 192 93 108 106 209 92 102 195 210 98 96 210 90 96 224 210 94 224 252 210 92 252 88 91 91 252 89 89 252 252 61 87 252 252 55 252 252 51 206 211 252 46 212 92 43 41 215 76 38 218 219 73 35 222 71 70 226 227 68 68 231 66 66 253 253 64 253 253 25 62 253 253 22 225 253 21 20 253 253 19 247 253 18 17 248 248 17 248 248 53 16 249 52 52 190 248 52 51 193 172 51 253 244 179 51 253 183 50 228 252 25 229 251 97 28 230 246 30 186 231 69 32 164 232 51 253 144 39 34 253 126 28 253 112 168 62 253 163 65 236 253 155 69 106 149 147 237 85 140 138 237 28 131 237 237 35 253 237 40 41 253 237 45 253 253 48 50 253 85 52 253 253 89 54 253 253 83 253 253 80 79 230 78 77 228 228 75 74 227 26 73 226 226 16 72 225 10 9
126 126 248 158 126 249 249 124 124 250 30 122 250 250 38 41 250 46 49 90 250 58 104 108 136 70 123 128 123 171 142 112 91 176 159 110 179 169 108 109 251 105 108 251 251 102 106 251 113 99 224 251 112 103 224 88 110 224 251 87 106 224 87 103 195 210 86 196 210 90 87 198 210 96 199 200 89 93 200 201 89 224 202 89 89 224 90 89 224 224 91 89 224 92 93 224 224 95 46 224 97 98 208 224 101 101 208 104 105 208 209 96 208 209 98 100 208 208 102 225 207 107 108 225 205 113 225 225 118 120 225 141 126 225 225 148 149 225 152 154 192 226 156 157 190 158 158 189 189 158 157 190 162 154 191 191 169 227 194 174 176 227 201 181 228 228 185 186 229 229 188 230 230 91 188 231 79 74 52 232 61 57 252 212 43 253 253 186 30 253 172 24 34 253 166 20 253 160 158 34 253 152 237 33 62 144 237 237 57 74 237 31 129 71 237 38 66 237 56 44 55 56 48 33 44 58 53 253 89 61 33 253 87 65 34 109 83 35 35 120 79 36 129 131 34 38 138 40 42 144 146 50 225 80 61 65
247 35 126 248 199 126 125 249 190 124 250 250 33 121 250 250 43 80 250 51 54 97 250 62 112 116 72 75 131 113 84 144 149 111 95 161 110 109 251 175 109 109 251 108 107 251 251 106 251 251 112 104 251 251 111 224 251 109 108 224 251 105 208 209 86 99 209 210 94 197 210 97 88 210 89 95 200 209 94 93 202 89 91 252 204 89 89 252 59 87 224 252 53 224 252 94 48 224 252 45 209 224 99 40 213 224 102 210 217 105 107 210 221 71 210 209 100 68 208 102 104 225 207 108 64 225 113 115 225 253 120 122 225 145 20 225 225 151 194 226 155 156 191 226 159 190 189 159 159 189 189 158 189 189 164 153 191 192 172 227 195 177 178 228 181 182 228 228 186 187 230 100 188 230 231 84 187 231 71 67 232 232 53 252 252 40 36 253 253 28 253 253 168 21 253 253 162 253 253 157 155 253 253 149 237 237 143 141 237 28 135 237 237 34 126 237 40 41 62 237 46 47 236 57 51 253 235 54 33 253 92 57 253 253 86 34 253 83 82 35 253 79 229 253 133 77 227 253 76 44 226 148 74 225 82 11
161 126 102 104 156 224 248 152 151 224 184 146 224 224 171 140 224 160 157 224 224 147 59 224 136 133 162 224 124 121 169 116 113 173 175 111 177 178 107 106 181 182 103 224 184 101 100 224 187 98 224 224 89 96 224 87 87 224 224 87 86 224 87 86 195 224 86 86 197 86 86 199 199 86 87 201 89 89 202 203 88 224 204 88 88 224 206 88 224 224 208 89 224 224 89 224 224 95 89 224 97 98 209 224 100 101 210 253 104 210 210 253 109 210 97 114 30 210 100 120 209 231 105 25 207 109 62 225 239 117 225 225 242 59 225 149 245 57 225 155 55 55 253 159 54 253 253 15 189 253 161 15 249 253 16 189 248 253 17 246 174 19 20 242 180 22 236 234 50 25 223 51 50 248 202 51 231 240 52 52 229 58 54 54 205 35 56 186 181 35 171 167 35 35 154 150 35 82 77 35 35 67 63 34 59 58 75 34 55 55 75 253 56 73 72 59 123 66 59 58 58 55 58 33 47 60 60 33 36 63 34 34 233 67 34 108 231 59 35 119 75 53 253 130 33 38 253 140 40 252 146 76 51 252 154 62
247 33 127 248 248 155 126 248 25 27 224 249 33 35 250 168 42 77 250 49 52 94 143 61 108 113 130 162 128 114 114 169 146 112 251 175 110 111 251 173 105 224 251 102 108 224 251 99 224 251 90 96 224 88 109 203 224 87 106 207 86 86 195 208 86 97 197 90 86 198 209 89 200 200 89 95 202 202 88 224 252 88 88 224 252 88 224 224 90 88 224 224 92 224 224 94 94 224 95 96 210 210 98 100 211 91 102 211 211 92 107 211 94 95 211 211 97 225 210 100 101 225 209 105 225 225 132 111 225 225 140 225 225 146 148 225 225 153 195 226 157 158 192 161 161 190 189 162 163 188 155 156 188 188 162 164 189 167 169 227 192 174 228 228 241 180 228 229 183 51 230 104 100 230 231 88 240 231 73 69 249 233 54 251 252 198 36 253 173 177 36 253 168 20 36 89 162 237 253 72 155 237 63 151 237 237 55 76 238 27 53 76 238 34 72 71 63 42 65 237 59 33 253 60 53 33 253 62 34 253 91 66 34 100 90 35 35 113 86 36 122 124 30 37 132 135 36 81 142 42 45 83 51 54 84 84
160 159 223 157 155 223 223 152 150 224 185 146 224 224 172 224 224 161 158 224 224 147 149 151 137 133 158 160 124 163 165 116 114 171 112 110 96 176 107 106 179 178 103 224 224 100 100 224 91 97 224 224 89 95 224 87 87 103 224 87 194 102 251 86 196 224 251 93 198 89 86 200 200 89 81 202 88 88 74 209 88 224 67 208 87 224 207 207 89 224 207 88 87 252 93 84 224 252 95 81 252 98 40 79 252 37 212 252 252 34 213 253 32 31 220 95 29 28 225 67 27 230 231 64 234 234 62 61 238 239 60 253 242 58 58 253 244 56 253 253 17 55 253 253 16 253 253 15 14 253 14 14 248 253 15 15 247 156 16 246 245 146 19 243 50 50 238 235 50 251 226 50 50 248 206 51 243 240 183 52 228 222 180 233 204 35 35 234 181 36 114 170 21 36 93 18 36 253 74 17 36 63 152 19 253 55 76 24 253 141 76 76 253 134 238 66 128 126 237 61 120 237 237 52 111 236 62 58 235 235 61 34 234 233 65 253 108 65 64 253 85 61 253 253 82 50 253 80 79 253 252 78 50 252 77 77
223 95 158 223 223 154 152 223 248 148 224 224 179 143 224 224 165 224 224 155 151 144 144 141 151 154 130 127 160 118 119 166 168 113 109 172 109 108 176 177 104 224 181 102 101 224 224 99 224 224 90 96 224 224 88 224 224 87 87 224 224 86 195 224 86 86 198 251 86 199 200 89 86 201 88 88 203 203 87 87 205 87 87 224 206 87 224 224 206 87 224 224 92 86 224 94 94 83 224 97 211 224 252 100 212 225 102 212 213 252 107 213 93 253 30 213 95 96 28 225 98 225 211 231 103 225 235 108 61 225 239 60 225 253 243 58 225 154 56 56 253 160 192 54 253 15 189 253 253 14 187 253 14 14 248 253 15 247 247 16 17 245 173 50 242 240 50 229 233 230 50 250 218 50 51 245 51 51 236 232 52 53 216 35 55 197 192 36 253 178 37 37 102 164 37 37 82 17 36 68 65 36 59 57 75 35 53 52 77 253 51 77 77 72 54 73 65 64 126 64 61 34 56 236 62 34 44 63 60 35 234 67 35 35 101 68 36 110 113 67 37 122 30 60 253 133 34 253 253 81 43 252 149 79 225 252
30 159 17 34 155 127 22 42 149 223 49 51 124 224 173 64 122 250 159 120 119 250 144 118 250 250 67 116 251 76 79 251 251 87 169 155 94 96 166 106 101 102 179 110 106 187 189 108 194 195 107 107 200 200 106 251 204 104 104 251 87 103 251 251 96 101 251 251 90 251 251 84 82 251 79 77 209 251 72 70 208 88 65 207 207 92 59 206 89 89 209 206 87 252 206 87 85 252 206 82 224 252 89 79 252 252 36 225 252 34 33 225 253 31 217 225 115 28 223 120 122 213 229 128 24 211 105 135 208 238 112 60 204 117 58 253 199 126 226 253 132 134 226 253 140 226 226 167 147 226 253 167 226 227 165 15 186 227 159 187 246 151 147 192 175 137 197 199 180 120 208 182 182 221 225 182 182 231 181 180 232 233 177 233 233 40 173 234 235 26 235 235 20 19 236 236 16 253 237 16 16 253 253 18 253 253 147 23 253 144 142 253 253 137 136 253 132 130 237 253 124 122 237 118 116 236 236 61 235 235 64 66 234 233 69 253 232 72 72 253 230 69 253 253 82 59 253 253 83 41 253 82 81 252 152 80
209 16 32 34 202 99 38 126 192 108 146 125 115 118 140 123 125 136 134 224 136 129 119 224 125 124 224 250 125 118 224 117 84 224 224 108 171 224 103 101 177 224 97 180 181 94 93 185 185 97 187 188 95 95 190 93 93 224 193 92 91 224 90 90 224 224 89 89 224 86 89 224 224 87 87 224 87 87 205 224 88 206 207 89 89 208 209 90 209 210 87 92 211 211 87 211 212 87 88 224 88 88 225 225 89 90 225 104 90 225 225 108 91 225 112 114 69 225 119 121 214 253 126 213 212 132 24 210 106 140 207 206 113 20 203 120 122 18 197 129 226 16 247 137 226 166 247 53 226 169 149 226 253 168 51 227 164 163 51 253 156 188 50 253 143 193 253 252 23 202 180 26 27 215 181 30 230 192 52 33 172 177 53 35 148 55 234 129 123 58 175 21 61 62 164 17 65 154 150 38 70 136 131 37 120 115 36 36 98 93 36 49 80 35 35 52 73 35 56 58 64 35 64 55 52 71 74 44 41 82 36 34 69 95 30 73 74 96 28 77 78 38 230 81 39 40 84 85 41 142 87 42 43 150 89 45
29 30 17 33 34 128 127 39 126 126 248 48 124 124 249 139 122 249 249 121 120 250 54 119 250 250 66 113 250 74 77 133 251 85 147 152 106 94 164 168 100 177 178 110 103 186 99 109 185 194 108 108 251 95 106 251 251 92 105 251 99 91 224 251 94 102 224 86 88 224 251 87 202 224 87 75 205 208 88 206 208 87 89 207 206 92 209 209 87 90 210 87 87 224 211 87 87 224 96 88 225 225 99 88 225 102 35 225 225 107 32 225 110 111 215 225 116 215 215 121 122 214 214 99 213 213 102 103 211 209 108 225 206 114 116 225 120 122 226 226 129 131 226 166 137 226 226 169 170 226 171 171 185 227 169 168 185 165 163 186 186 155 188 189 172 142 193 195 178 229 203 180 180 230 218 180 231 232 178 177 232 62 175 233 234 40 171 234 28 25 59 235 19 17 253 162 16 253 253 15 15 253 152 17 253 253 148 37 253 144 143 36 253 139 238 36 51 134 238 237 58 63 237 56 121 50 64 62 42 235 67 70 33 71 75 37 28 76 79 253 116 80 39 253 90 84 40 136 87 42 42 145 46 44 151 152
210 208 91 223 203 96 98 196 192 104 106 184 111 113 140 171 121 124 134 224 132 129 127 224 143 123 224 224 119 117 224 118 113 224 224 109 108 224 104 102 175 224 97 96 181 251 93 184 185 251 105 188 95 89 190 192 93 102 194 92 91 97 197 90 224 224 208 89 224 224 209 100 224 87 87 98 251 87 96 224 251 89 94 251 89 58 92 251 91 210 205 251 48 212 87 45 44 204 88 41 40 204 81 37 204 205 77 35 207 75 74 252 210 72 225 115 69 69 253 121 67 253 253 25 64 253 253 23 253 253 21 21 253 253 20 241 243 18 18 244 55 16 246 247 54 14 247 53 53 248 248 52 51 248 51 51 253 247 50 50 253 16 50 253 253 19 228 252 22 24 230 250 26 217 246 97 30 193 234 33 240 167 53 36 147 170 56 251 121 58 59 253 163 62 166 253 159 67 154 155 154 237 137 151 75 238 20 38 238 99 37 253 238 33 36 48 238 43 253 54 50 52 253 62 58 253 253 118 66 253 113 111 234 253 106 29 232 101 100 231 80 96 95 230 78 92 228 228 65 89 227 52 47 252 226 34
88 28 206 91 93 151 198 98 39 127 104 107 142 124 114 117 136 224 249 132 130 224 147 125 224 224 133 120 224 124 121 224 224 114 85 224 107 105 171 224 101 176 177 101 96 181 182 98 184 185 96 95 189 190 93 224 193 92 92 224 196 90 224 224 87 89 224 86 87 224 224 87 87 224 87 87 205 224 88 88 207 89 89 209 209 90 210 210 87 87 212 212 87 224 213 87 87 224 214 88 225 225 88 88 225 225 88 225 225 107 90 225 111 112 217 225 117 118 217 253 124 216 216 253 131 214 99 137 23 211 104 21 208 239 112 19 202 119 56 226 245 127 226 226 247 54 226 172 248 52 226 173 51 51 253 171 51 253 253 15 184 253 158 186 243 253 20 191 175 251 24 227 178 27 29 207 51 32 187 181 52 35 160 54 55 194 133 57 235 179 59 60 171 16 63 64 162 41 68 153 149 40 140 135 39 39 119 113 39 44 44 38 38 45 45 37 48 49 72 37 54 65 62 253 63 52 49 71 118 41 68 69 34 32 72 38 29 76 78 39 27 81 40 40 229 85 42 134 228 66 43 143 90 48 252 151
242 209 89 243 203 19 95 148 194 100 42 143 30 109 139 137 38 62 133 224 47 78 127 224 92 122 118 224 111 117 224 250 117 115 224 110 89 114 251 102 173 112 251 100 179 251 251 103 190 251 103 103 198 251 102 201 203 106 99 206 91 105 207 208 104 224 209 208 102 251 208 101 100 251 99 98 251 251 67 97 251 62 61 251 251 56 55 251 52 51 205 251 47 204 204 95 43 203 203 41 215 203 81 81 203 203 78 252 205 75 75 252 208 72 252 252 91 69 253 27 67 225 253 25 64 253 135 23 232 253 21 21 237 151 20 241 241 159 200 244 55 166 193 246 54 189 188 138 53 185 248 146 226 253 151 51 227 253 158 227 253 163 165 228 154 19 228 229 137 23 230 122 117 204 213 101 95 222 174 77 235 239 171 244 246 168 56 250 251 163 235 253 160 159 236 253 156 237 237 13 152 238 238 15 238 238 18 20 238 23 26 253 238 33 35 253 41 43 253 253 51 53 253 129 128 253 253 123 236 253 118 116 234 253 112 233 233 107 105 231 231 102 230 230 90 88 228 228 77 253 227 64 59 253 92 45
14 130 242 243 18 223 245 22 24 223 189 28 46 223 176 35 57 166 163 123 72 121 51 134 124 119 142 104 118 118 152 114 116 224 161 109 224 251 106 105 224 251 102 224 224 96 101 224 224 92 186 224 90 101 191 89 88 193 204 87 87 197 90 87 199 200 89 87 202 88 88 224 204 87 87 224 87 87 224 224 87 224 224 89 87 224 224 91 224 224 92 93 213 224 94 214 214 97 97 215 87 100 216 216 88 103 216 88 88 217 217 89 89 217 90 90 225 225 92 92 225 127 94 225 225 134 225 225 141 142 225 225 149 208 225 155 158 202 226 163 197 195 126 170 190 133 134 14 185 140 142 183 248 148 227 181 153 155 227 247 160 228 228 244 167 228 148 145 49 229 130 195 50 247 108 209 231 236 33 228 221 64 37 242 198 39 248 124 163 42 103 159 236 43 78 156 237 64 59 69 237 50 149 75 135 43 77 238 113 41 81 97 30 39 80 80 39 253 72 70 38 253 66 38 38 61 65 38 38 73 38 38 82 86 39 92 96 28 28 107 110 28 83 119 30 31 87 131 35 90 90 41 43 92 92 52
239 240 16 130 243 19 20 245 245 25 26 246 29 31 50 248 37 39 62 160 46 73 78 120 134 92 120 119 107 112 118 250 128 116 116 251 147 115 251 251 104 113 251 98 100 224 251 100 101 224 92 101 197 251 89 99 202 89 97 196 205 88 198 207 89 87 201 208 102 224 204 88 101 251 205 87 224 251 87 87 224 251 87 224 224 90 87 224 92 50 224 224 94 45 204 95 96 214 203 98 99 216 88 102 216 217 88 217 217 88 88 217 218 89 225 218 90 90 225 253 92 225 225 131 94 225 225 139 225 225 145 148 225 152 154 205 225 160 162 199 120 168 193 192 129 173 187 135 137 184 183 143 226 182 148 150 227 181 156 227 227 160 162 228 228 155 228 229 142 137 230 230 122 198 231 104 98 214 230 79 229 233 58 51 243 165 34 249 250 160 159 252 157 156 236 253 153 237 237 54 149 238 238 44 75 238 17 145 79 238 25 253 238 90 35 253 238 44 39 253 69 54 253 54 65 39 253 128 67 39 73 122 39 39 87 116 233 98 112 28 231 112 28 230 85 124 31 228 92 37 38 91 73 46 48 94
153 153 223 223 150 223 223 198 145 223 223 187 102 223 177 174 111 223 164 119 122 153 150 130 123 140 139 141 118 127 149 114 112 157 159 109 108 224 105 104 224 224 102 101 224 96 98 224 224 93 111 224 91 91 224 224 89 194 224 88 88 198 198 88 200 200 89 87 202 88 88 76 205 87 87 69 208 87 224 209 208 87 224 90 87 94 224 92 87 224 251 94 90 224 95 214 87 251 98 215 84 251 37 217 252 104 34 217 88 33 218 203 89 31 206 89 70 28 210 91 225 215 217 65 225 223 225 62 253 230 60 59 253 152 58 253 253 18 56 253 17 16 253 253 15 189 253 13 13 248 253 13 13 248 51 13 247 247 50 247 246 50 50 244 243 49 252 239 49 49 250 228 50 246 244 171 51 234 229 35 233 213 38 39 195 39 42 121 181 44 44 92 16 46 74 68 12 46 55 70 46 253 44 75 139 40 144 79 118 38 81 238 97 142 81 84 80 140 238 72 40 136 237 66 40 57 237 70 40 69 78 81 253 82 90 40 253 116 102 253 106 112 109 253 108 30 253 253 104 228 91 102 102 226 94 100
223 238 16 223 241 203 20 223 244 24 96 223 185 31 47 49 172 112 58 122 158 123 126 121 131 134 120 120 143 116 115 224 153 111 117 224 108 107 224 251 104 224 224 99 97 224 224 95 184 224 93 92 189 224 90 192 193 89 89 196 197 90 198 199 89 105 201 89 89 224 204 88 87 224 87 87 224 224 87 87 224 90 87 224 224 91 211 224 92 93 213 224 94 214 214 96 97 215 216 99 216 216 87 102 217 217 88 217 218 88 88 225 89 89 225 225 89 90 225 125 90 225 225 132 93 225 138 140 61 225 146 213 212 253 155 207 205 162 202 199 116 169 194 192 126 14 188 132 134 13 183 140 226 181 248 147 227 178 153 50 227 172 160 228 253 160 49 229 147 142 50 249 126 194 51 241 31 208 228 223 36 227 163 40 41 134 159 44 248 104 59 46 83 152 64 47 61 67 237 50 47 72 150 12 76 77 131 17 80 115 109 44 82 94 35 42 82 78 42 253 71 41 41 50 66 41 41 61 47 41 70 73 37 41 83 32 30 93 97 28 27 107 28 28 85 120 31 89 90 108 37 92 93 48 226 95
25 151 223 207 205 223 223 198 196 223 191 188 99 223 179 176 107 248 166 115 118 248 152 126 123 142 59 138 117 224 147 115 112 224 156 108 116 224 150 104 224 224 168 114 224 98 181 112 251 94 111 111 251 92 191 251 251 94 195 251 89 90 207 251 86 201 209 251 79 209 88 74 73 209 101 224 209 209 99 224 208 97 97 251 207 95 224 251 93 92 251 94 90 251 251 42 88 251 251 39 202 251 37 36 201 251 34 201 201 33 32 201 202 31 203 204 71 28 207 68 67 220 213 65 64 253 93 62 253 253 60 59 253 21 58 253 253 18 226 253 17 17 226 253 15 246 246 179 13 247 248 182 181 248 51 12 179 247 50 179 246 157 50 180 161 49 252 183 166 49 250 24 169 231 243 30 51 232 89 35 233 209 58 233 234 37 44 246 235 20 250 87 14 13 252 64 66 253 253 144 71 253 253 142 238 253 141 141 238 141 141 238 238 141 140 238 41 44 238 238 53 42 237 62 65 253 237 72 253 253 81 84 253 253 95 253 253 123 110 253 253 118 231 253 116 115 229 253 112 228 227 110 110 227 85 108
223 223 149 148 223 204 202 223 223 194 94 223 186 183 102 223 173 109 111 163 159 119 122 149 128 131 119 136 140 142 114 224 151 111 109 224 139 106 224 224 103 102 224 101 100 224 224 97 97 224 94 93 189 224 92 193 194 251 90 196 197 89 88 199 89 89 202 203 89 77 205 88 87 70 207 87 224 224 209 87 224 90 208 97 224 92 87 94 251 93 92 224 251 96 90 251 98 40 86 251 38 217 201 251 36 218 87 34 33 200 88 32 31 201 73 30 204 89 69 28 209 67 225 253 216 63 253 142 61 61 253 151 59 253 253 20 57 253 253 18 253 253 16 16 253 14 14 246 246 13 12 248 51 12 247 247 51 13 247 50 50 246 245 50 49 242 49 49 251 235 50 248 247 27 51 239 235 33 232 220 37 39 233 196 42 131 185 27 47 99 17 50 251 72 64 51 57 143 68 253 43 73 73 253 139 77 135 253 139 81 114 140 83 238 93 140 238 81 48 44 238 71 43 253 237 68 43 56 236 80 253 68 90 94 253 128 107 253 253 124 121 253 121 121 230 253 118 32 228 116 115 227 94 113 113 226
24 25 131 223 27 130 129 241 32 129 128 244 127 126 245 246 125 247 247 41 43 248 248 50 75 249 58 60 94 250 67 110 115 76 78 131 136 84 146 151 115 90 164 115 114 251 178 113 113 251 95 112 251 251 93 110 251 92 109 224 251 88 224 251 83 82 208 251 77 209 209 89 71 209 210 89 208 209 100 60 210 209 98 211 208 87 95 212 87 93 224 251 87 91 251 98 87 225 251 39 87 225 104 36 225 225 108 219 225 111 113 219 225 117 221 221 89 124 221 205 89 221 221 90 64 220 220 92 225 217 95 96 225 98 100 225 225 165 107 226 171 172 226 226 178 15 226 181 182 183 226 184 180 180 185 184 178 178 182 178 178 154 156 179 179 160 228 180 164 165 230 185 166 231 231 164 164 232 91 161 233 233 58 156 234 36 31 243 235 19 17 250 13 12 252 252 10 253 253 139 9 253 253 138 52 253 137 137 238 253 138 238 238 32 139 238 238 139 238 238 54 139 238 63 66 61 237 75 78 47 67 88 253 253 71 105 253 130 119 45 253 126 46 253 109 123 47 253 121 34 49 129 118 227 50 138
148 212 82 83 145 85 86 142 141 223 92 138 223 223 135 133 223 247 130 223 223 158 124 223 148 145 224 224 135 132 224 127 124 151 154 117 115 161 105 109 168 171 101 103 176 99 98 182 184 96 224 188 94 94 224 192 92 224 224 91 91 224 224 90 224 224 90 90 224 89 89 206 224 89 90 208 251 90 209 209 87 91 211 87 87 212 212 87 87 213 87 87 224 215 87 224 225 203 87 225 225 201 84 225 106 107 80 225 111 219 225 251 117 221 252 121 30 222 252 128 221 207 252 26 221 90 253 24 221 93 225 22 230 97 225 235 237 57 226 240 55 55 253 243 54 226 181 53 53 253 185 181 51 253 12 177 253 253 13 246 253 13 14 244 253 17 240 239 20 21 232 164 25 220 215 51 231 195 188 51 210 162 53 54 189 55 56 181 179 58 59 175 54 62 172 171 56 67 166 56 56 37 155 55 33 32 14 53 30 30 51 253 30 83 49 32 33 81 253 37 76 74 70 43 65 66 66 138 51 66 46 136 235 69 46 33 234 118 46 232 79 47 47 230 141 48 112 114 138 253 123 38 122 253 133 47
80 24 131 234 26 143 129 239 31 129 223 243 28 127 245 245 34 223 247 40 42 223 156 49 70 223 143 58 88 134 131 144 109 119 75 156 107 117 163 147 117 224 172 100 115 251 180 97 224 251 95 95 224 251 93 224 224 92 89 224 91 91 200 224 90 80 202 90 90 204 210 90 90 207 88 90 208 209 87 91 210 87 87 224 212 87 224 224 87 87 224 224 87 224 224 99 87 225 225 102 225 225 105 106 218 108 109 219 219 113 114 221 88 119 221 221 88 125 222 89 89 222 222 89 90 221 91 91 225 225 94 225 225 158 98 225 225 166 226 226 172 174 226 226 179 189 226 183 185 182 253 186 179 179 139 187 177 145 147 13 177 152 153 177 243 157 228 179 161 161 230 228 162 231 231 209 51 232 93 85 52 233 58 221 55 185 29 239 235 177 54 248 174 11 251 54 169 58 253 134 133 58 34 132 238 56 30 132 238 28 28 83 238 29 136 83 88 33 80 238 75 75 72 69 68 48 59 65 47 253 66 67 47 253 69 47 47 80 75 47 90 93 48 49 103 105 49 111 114 34 35 123 125 42 96 133
145 145 81 143 143 223 85 140 139 223 138 136 223 223 133 132 223 174 129 223 223 160 123 223 151 147 128 223 138 137 140 250 126 149 152 119 79 160 105 111 168 170 101 90 176 99 98 224 181 96 224 224 192 94 224 94 92 110 224 92 91 224 251 91 108 224 91 76 106 252 90 206 206 251 65 208 88 251 59 210 88 54 53 209 87 50 212 207 95 45 206 87 92 205 205 90 224 251 203 87 251 104 85 84 251 109 81 251 251 33 77 251 32 31 251 252 30 30 201 29 28 204 89 27 26 210 63 25 217 220 60 23 227 58 58 233 235 57 253 239 55 55 253 253 54 253 253 14 53 253 253 13 226 253 12 12 253 187 12 246 253 13 14 243 175 16 240 238 50 21 231 50 50 184 214 51 51 192 155 52 207 159 151 233 187 147 56 235 178 141 235 175 11 59 236 171 61 252 237 8 61 34 9 10 253 29 13 14 253 131 21 253 253 133 84 253 136 82 238 253 138 75 70 140 140 237 66 140 236 236 90 140 235 235 110 234 234 126 131 253 232 145 253 253 153 154 253 134 153 253 253 132 139 253 132 131
79 80 143 131 82 141 140 223 86 138 223 223 135 133 223 223 130 223 223 168 126 223 223 155 120 223 145 142 132 223 133 142 145 125 122 154 107 116 162 165 102 109 172 100 100 178 180 97 97 224 95 95 224 224 93 224 224 93 92 224 224 92 109 224 91 91 224 224 91 204 224 91 91 207 207 91 208 209 88 92 210 88 88 51 212 87 87 47 207 87 224 214 87 87 224 100 87 225 225 104 87 225 107 107 83 225 111 219 79 251 117 221 225 251 31 222 251 128 30 223 88 28 223 204 89 26 210 90 62 24 220 92 225 228 230 57 225 236 237 56 253 241 55 54 253 15 53 253 253 13 52 253 12 12 253 253 12 175 253 12 12 245 253 14 15 241 50 18 236 233 50 228 224 50 51 207 200 51 217 176 52 53 194 139 54 184 181 57 57 177 58 60 174 173 63 63 170 64 64 37 163 63 63 30 10 62 27 26 16 59 26 84 58 253 27 84 90 30 136 80 76 35 73 238 68 141 60 65 64 142 236 66 50 142 235 118 50 75 233 141 50 86 154 157 253 98 161 52 253 138 155 253 119 41 136 253
22 226 15 81 140 18 20 27 137 23 24 32 128 29 37 39 126 245 45 125 124 247 56 124 248 150 122 122 249 137 121 250 250 71 120 250 250 79 133 251 84 86 153 88 88 167 171 90 91 181 114 90 190 192 113 89 198 111 111 203 205 110 251 251 108 108 252 252 106 252 252 67 105 252 251 61 224 251 58 56 224 251 52 209 251 95 48 208 96 45 214 206 93 41 205 87 90 216 204 88 87 217 87 84 251 219 87 225 251 33 87 225 251 31 225 225 127 30 225 252 29 223 225 140 27 206 225 148 221 216 154 156 217 94 58 212 209 98 56 202 104 106 226 193 113 54 226 121 123 226 253 129 226 227 190 138 227 227 189 174 227 185 183 175 228 175 176 177 164 159 179 179 142 181 183 155 113 189 151 150 232 202 146 144 234 141 140 234 235 136 134 236 10 130 236 237 7 237 237 7 7 238 238 8 253 253 12 13 253 253 20 253 253 128 33 253 253 133 253 253 136 137 253 139 140 237 253 142 142 236 94 143 235 235 116 144 234 134 140 29 232 155 253 231 83 166 253 229 166 54 253 141 154 253 253 141
78 79 140 223 81 138 137 223 28 135 223 223 132 132 223 183 180 223 223 170 167 223 160 157 118 223 148 145 131 249 136 140 143 250 72 153 106 118 80 163 102 224 171 156 99 224 180 97 115 224 183 95 224 252 194 113 224 95 201 111 251 94 110 109 251 92 203 252 92 70 205 252 92 207 211 251 59 208 88 55 54 210 88 51 49 209 97 224 208 208 95 224 206 92 92 251 204 90 251 251 87 86 251 109 84 251 251 34 80 251 251 33 197 251 31 31 197 251 30 197 198 29 28 201 65 27 207 209 62 25 217 60 59 216 228 58 57 253 99 56 253 253 55 226 253 15 53 253 253 13 226 253 12 12 227 253 11 246 245 189 12 244 243 14 174 240 50 18 235 155 50 178 222 50 51 183 152 51 213 192 146 53 191 49 140 234 180 58 235 235 13 65 236 174 8 250 237 7 70 252 237 7 253 27 9 10 253 24 81 253 253 124 85 253 127 129 238 253 133 134 238 136 137 238 237 140 141 237 86 54 236 236 106 253 235 125 132 253 233 150 253 253 164 167 253 253 172 253 253 147 168 253 253 146 227 252
21 222 15 24 24 207 19 27 28 129 87 31 128 128 35 129 126 244 42 125 125 246 121 124 247 248 117 123 249 60 62 223 250 69 71 250 122 77 127 251 82 168 149 109 87 163 167 104 183 178 115 100 190 190 113 252 194 92 112 251 91 91 224 251 90 109 224 93 90 224 252 93 89 224 93 60 224 224 94 55 211 95 95 211 210 96 212 213 88 98 214 214 88 215 215 88 91 216 216 88 225 251 88 88 225 112 88 225 225 118 88 225 122 124 225 225 129 131 225 135 136 224 225 142 144 223 89 150 222 221 90 219 218 92 93 212 210 97 226 203 102 104 226 193 111 226 226 118 121 226 191 192 226 227 193 193 227 192 191 173 227 188 186 173 252 178 174 175 167 163 177 153 153 179 181 150 231 185 146 145 232 197 140 233 234 111 134 234 235 129 59 235 9 122 236 172 6 251 237 6 6 253 159 8 253 253 143 12 253 117 123 66 253 123 33 63 26 129 61 253 30 77 238 36 139 66 237 43 55 236 63 52 42 235 122 35 33 69 148 29 74 76 55 253 81 176 56 93 88 56 252 104 93 57 113 151
216 214 223 223 209 207 223 204 202 85 223 195 192 90 240 184 95 97 176 38 104 122 120 112 115 117 223 125 114 112 223 138 109 223 223 107 105 224 224 103 119 224 112 111 224 251 107 181 224 103 102 188 252 99 192 193 252 97 197 91 252 80 200 91 75 74 210 90 224 205 212 107 224 212 88 105 224 212 103 224 251 212 101 251 96 99 98 251 99 96 251 251 42 215 251 251 39 205 251 37 37 202 251 36 200 88 34 34 198 80 34 196 196 75 225 195 72 72 251 195 69 67 252 66 65 252 252 63 252 253 25 60 253 253 23 225 253 21 20 236 253 18 240 241 16 15 243 244 13 244 245 52 12 245 51 51 174 245 51 50 172 144 50 252 252 149 50 250 19 50 230 243 26 230 232 125 34 231 209 41 191 233 54 52 118 108 24 225 82 58 12 241 55 63 248 42 114 68 252 111 71 238 253 109 77 148 110 111 238 129 70 116 238 28 67 238 238 45 253 238 58 62 253 238 73 253 253 85 89 253 48 105 253 253 148 35 253 253 151 232 253 153 153 231 154 154 230 229 155 155 228 178 155 227 227 160
77 223 213 16 23 208 206 82 26 200 85 86 129 191 91 92 126 97 98 123 122 223 109 119 223 223 116 114 223 249 111 223 223 132 107 223 125 123 224 224 117 115 224 112 110 177 179 107 105 185 95 102 190 191 94 193 194 92 92 198 198 91 224 201 90 90 224 204 90 224 224 95 89 224 224 95 224 224 95 95 224 96 97 211 224 98 98 213 251 100 213 214 88 102 215 88 88 216 216 88 225 217 88 88 225 219 88 225 225 198 88 225 225 195 75 225 132 134 70 225 139 224 225 252 147 224 252 153 27 222 253 161 218 220 253 23 211 95 253 20 237 101 226 17 241 54 226 243 118 53 226 245 52 226 253 245 51 227 193 50 50 253 188 172 50 251 16 173 248 247 22 223 239 28 30 201 219 38 176 166 45 48 135 133 56 105 96 57 235 72 60 60 175 48 64 65 171 67 69 167 165 73 75 156 79 79 144 139 76 83 124 73 72 22 102 69 25 26 50 66 30 31 64 253 35 67 62 41 43 53 253 48 43 40 64 150 34 67 69 153 29 74 59 28 231 81 59 30 86 187 59 228 92 60 60 226
216 215 132 223 210 80 131 228 203 83 85 235 27 88 126 186 33 36 123 38 102 44 119 46 52 116 124 54 67 112 223 80 85 121 223 129 106 120 250 120 119 119 251 83 118 251 251 86 117 251 85 85 252 252 84 193 252 82 81 201 91 77 206 207 111 72 210 211 109 212 212 107 107 213 213 106 252 213 103 103 252 212 101 251 251 47 99 251 44 43 224 251 41 40 251 40 39 205 251 37 37 203 112 36 201 200 83 220 199 80 79 221 196 76 251 194 88 72 251 193 69 225 251 88 65 252 252 88 225 252 26 26 225 166 24 225 225 174 21 234 180 182 196 240 187 16 185 114 192 180 244 124 176 175 130 52 227 172 137 227 253 142 143 228 252 147 228 228 172 148 230 241 149 230 230 126 35 181 96 85 188 143 51 43 203 126 23 219 225 118 10 238 112 110 246 248 105 237 251 101 100 238 238 100 238 238 9 102 238 238 17 238 238 28 31 238 238 45 253 238 59 63 253 71 75 253 253 140 92 253 145 146 253 253 150 152 253 153 155 233 253 158 231 231 73 160 230 229 191 228 228 188 186 227 227 174
77 223 213 78 79 209 207 81 129 201 84 85 127 126 89 124 124 223 97 121 120 223 118 117 223 223 114 113 223 146 110 223 223 135 122 223 128 126 159 223 120 167 170 251 113 177 179 109 183 185 95 105 189 94 94 82 195 92 92 224 202 91 224 224 208 90 224 97 90 108 224 97 90 224 252 97 106 224 97 52 103 252 99 211 211 251 45 212 88 251 43 213 88 41 40 207 88 38 205 204 89 37 203 88 85 200 200 83 225 123 197 79 251 129 75 74 251 136 71 251 251 31 67 251 30 29 252 252 28 222 206 26 25 217 91 23 22 229 56 20 236 237 55 240 241 54 54 243 243 53 253 244 52 51 253 253 51 253 253 12 50 253 252 14 228 251 16 18 248 168 22 220 236 29 31 197 117 39 171 161 53 51 129 54 55 206 90 57 177 227 112 60 174 45 103 236 171 98 69 237 165 94 238 157 86 86 238 140 83 20 238 20 79 22 31 36 253 25 51 72 253 125 68 253 35 135 65 253 141 54 236 253 148 235 62 153 154 234 66 158 232 232 184 161 231 230 194 229 229 195 194 252 227 187 252 252
204 208 132 131 217 220 131 225 227 23 129 232 27 28 223 238 33 34 241 177 39 42 244 44 46 52 124 53 62 65 123 135 79 122 122 149 99 121 250 162 101 120 251 139 98 224 251 97 117 224 251 84 224 252 104 82 224 102 79 197 224 99 74 207 99 98 202 211 97 98 205 90 108 206 213 89 224 208 89 104 224 210 89 224 252 89 88 224 251 88 224 224 105 88 224 224 108 216 224 111 112 217 115 116 218 219 120 122 220 89 126 222 222 88 133 223 88 88 224 224 88 225 225 88 88 225 225 88 225 225 162 89 225 225 171 225 225 176 178 226 226 184 195 192 189 190 185 112 194 179 177 122 197 174 128 130 171 170 135 137 170 140 141 228 170 144 228 228 174 145 229 230 151 51 230 127 118 231 231 83 185 232 48 39 199 234 20 214 219 176 10 234 103 101 88 246 94 93 91 26 90 237 252 22 89 238 20 92 82 238 20 85 238 27 31 87 238 46 253 84 77 64 253 75 66 70 253 62 96 67 253 60 66 253 48 61 65 52 157 30 64 59 163 231 65 67 28 229 74 77 33 88 85 39 41 93
132 223 208 16 78 218 208 21 81 227 24 84 124 234 30 90 121 34 36 37 118 41 105 45 125 48 53 112 124 248 67 123 223 249 85 122 250 129 121 121 250 122 120 251 251 81 119 252 83 82 171 251 82 82 186 81 80 194 197 77 76 203 113 72 207 208 111 67 212 110 109 213 214 108 252 252 106 106 252 252 104 252 252 48 102 252 252 44 224 251 42 41 224 107 40 208 251 111 38 205 90 37 217 203 87 35 200 84 82 221 197 79 251 222 89 75 251 192 88 225 251 32 68 225 251 30 225 252 160 28 225 252 26 218 225 173 23 227 179 181 200 236 186 188 189 106 54 182 180 116 52 176 123 125 227 171 131 227 227 136 137 227 252 141 228 228 182 143 228 229 165 172 230 144 136 176 231 106 180 181 69 58 189 121 30 201 206 111 13 222 104 101 235 240 93 91 236 88 86 237 237 83 238 238 6 84 238 238 11 238 238 19 22 238 238 35 253 253 51 56 253 253 69 253 253 130 87 253 138 140 253 253 148 149 253 153 155 234 253 160 161 232 190 165 231 230 200 29 229 201 201 35 228 196 252 227
223 201 125 132 212 210 124 223 223 23 223 223 197 28 223 223 187 93 34 180 177 102 41 168 109 113 112 157 123 60 108 133 137 106 122 148 104 103 223 161 101 100 223 120 98 223 224 114 96 224 110 109 224 224 106 193 224 104 104 197 224 102 200 200 91 100 202 203 90 204 204 90 90 206 206 90 224 208 90 90 224 89 89 224 224 89 89 224 104 105 224 224 108 108 224 110 111 214 224 114 216 216 118 119 218 218 123 219 219 89 129 221 221 89 225 223 89 89 225 190 88 225 225 88 88 225 158 88 225 225 165 89 225 171 173 213 225 179 181 203 253 186 195 191 253 16 184 110 196 13 177 120 12 173 243 128 11 169 133 51 227 240 139 227 251 234 51 228 175 223 51 235 153 51 51 213 116 52 196 192 52 53 183 36 67 90 178 78 215 102 87 89 44 91 95 96 30 68 98 24 23 74 99 20 77 79 145 19 83 130 125 86 86 107 31 87 92 87 83 85 75 72 79 68 66 76 75 61 60 73 40 41 71 70 44 37 69 48 49 30 68 54 28 28 252 61 28 29 67 173 33 85 76 39 227 92
123 123 223 77 123 223 223 207 122 223 223 199 129 223 193 190 128 238 183 96 223 242 172 106 244 164 49 119 247 153 129 65 106 63 144 104 103 70 100 101 223 76 123 120 223 140 146 119 224 161 118 117 252 178 117 224 106 77 115 252 104 199 252 252 70 202 252 252 64 212 252 61 59 215 252 55 216 216 106 51 215 104 104 215 214 102 224 213 100 99 251 211 98 97 251 95 94 251 251 92 91 251 36 36 251 251 35 200 251 34 34 196 251 34 194 193 141 34 190 190 33 224 188 67 32 189 88 63 252 195 61 60 252 89 59 253 253 91 57 253 20 97 226 253 17 54 226 196 14 243 253 13 173 243 200 11 243 243 198 168 240 51 194 167 235 51 168 168 140 51 170 137 136 230 216 131 52 231 91 122 232 184 43 113 233 22 77 234 234 10 90 235 6 5 241 236 4 247 248 73 4 251 251 72 252 252 73 75 253 253 80 238 253 87 89 238 95 98 238 238 62 112 238 76 80 237 237 95 101 237 115 122 252 235 146 155 252 170 177 252 252 193 252 252 170 171 252 252 174 228 252 177 178 227 252 180
223 76 121 121 223 121 120 223 223 204 119 223 198 196 223 223 189 187 223 182 179 100 223 171 108 111 163 160 122 125 152 133 136 105 104 147 151 102 223 161 100 100 223 172 98 223 223 148 95 224 114 94 118 224 110 109 224 252 107 197 224 105 105 200 252 104 202 202 252 63 204 90 252 58 205 90 54 53 216 90 224 208 215 104 224 215 90 101 224 213 99 224 111 210 97 251 114 94 93 251 118 90 251 251 36 218 251 128 35 198 251 34 221 194 34 34 191 89 34 34 188 69 33 188 187 65 225 189 63 62 252 199 60 59 253 58 58 253 253 57 253 253 19 55 253 253 15 226 253 13 13 243 253 12 243 243 12 12 241 51 12 238 237 51 15 232 51 51 168 220 51 51 170 132 51 208 202 124 52 189 56 53 232 180 72 233 177 84 87 234 175 96 40 235 5 103 28 26 4 248 22 73 106 251 66 79 252 19 71 84 253 76 87 238 253 87 88 86 97 100 238 71 85 114 237 86 81 237 237 110 252 236 133 141 252 235 166 252 252 186 191 252 50 202 252 252 173 29 252 178 178 228 252 181 182 227
19 20 132 16 21 22 131 23 23 131 130 25 129 129 230 28 128 127 237 114 127 240 241 43 125 244 49 51 246 246 56 60 248 61 64 77 249 69 93 98 131 74 115 121 124 177 139 120 120 185 160 119 252 174 117 117 252 93 116 252 252 92 114 252 68 92 224 252 63 62 224 104 58 215 252 104 206 217 105 50 207 216 106 209 215 90 108 210 214 100 211 211 90 98 251 213 90 224 251 90 90 225 122 90 225 225 128 89 225 132 134 225 225 139 34 225 144 146 223 189 152 224 224 89 159 223 224 88 222 222 88 88 218 216 89 225 210 91 91 226 253 95 226 226 193 103 226 198 198 226 226 200 201 226 201 201 169 227 200 199 166 196 195 166 166 137 166 167 136 135 168 168 131 230 171 125 124 231 175 116 232 232 109 106 233 233 98 234 234 9 8 235 6 5 238 236 4 4 247 167 3 250 250 5 5 251 62 8 252 252 69 238 252 76 78 238 252 88 238 238 28 103 238 238 32 71 237 98 130 56 236 127 45 235 55 161 252 57 183 74 252 62 201 252 50 69 71 252 178 77 70 62 182 70 69 71
223 223 117 132 223 212 117 223 223 205 130 223 199 197 128 223 191 90 127 237 181 99 111 242 45 110 108 164 52 51 105 57 135 65 103 65 78 101 122 71 100 99 223 117 123 121 223 122 120 120 252 117 118 118 252 76 117 252 252 73 115 252 70 69 252 252 65 210 252 61 60 215 91 57 216 216 109 52 217 217 106 217 217 104 104 216 215 102 252 214 100 99 252 90 98 252 251 38 94 251 37 37 251 251 36 36 251 35 35 199 251 35 196 195 142 35 192 191 73 223 187 70 68 223 185 65 251 186 89 62 252 195 60 225 253 90 58 253 185 92 226 253 19 19 226 196 16 241 226 200 13 242 202 202 169 241 201 167 166 131 198 165 235 51 165 165 135 51 240 166 132 229 221 127 125 230 198 118 231 231 58 108 232 30 24 233 233 12 93 212 7 6 228 35 4 4 242 59 3 247 248 55 250 251 56 56 251 252 60 238 252 65 68 238 238 76 238 238 53 91 238 238 73 238 237 89 94 237 106 114 252 236 138 147 252 164 172 252 252 162 196 252 169 171 252 252 176 230 251 181 181 228 251 185 227 227
75 20 132 16 21 115 131 78 23 130 223 82 114 129 227 229 113 223 235 36 111 223 240 42 223 243 168 50 223 160 55 131 223 151 62 71 101 142 157 91 122 134 169 97 121 177 179 95 120 185 94 94 223 191 93 224 224 93 93 224 252 111 224 224 109 66 224 224 108 202 224 108 108 204 108 108 205 205 108 109 207 90 109 207 207 90 90 209 90 90 224 211 90 90 224 90 90 224 224 90 224 224 126 90 225 225 131 225 225 136 138 220 225 142 221 221 148 149 222 89 155 223 223 89 162 222 89 89 221 220 88 88 225 88 89 225 225 90 91 226 189 94 226 226 196 55 226 199 200 54 226 202 171 226 253 202 167 166 201 12 165 132 196 164 230 134 18 164 132 131 25 202 126 230 37 172 118 231 144 111 53 232 35 99 233 177 15 57 234 8 102 61 174 5 235 66 171 115 245 166 164 116 249 50 116 115 19 53 112 20 21 86 107 23 68 89 26 26 87 238 29 30 81 64 32 72 68 58 109 57 55 54 83 42 53 81 80 54 56 78 252 59 77 76 46 66 74 74 51 214 73 55 57 39 251 63
223 218 75 76 191 213 78 78 208 23 80 113 201 83 26 112 32 90 110 110 38 33 108 223 44 39 106 223 165 47 125 223 155 124 223 249 146 123 223 140 70 122 251 132 175 122 251 76 183 95 252 76 189 94 75 75 179 93 73 191 194 116 69 202 92 114 208 209 113 224 213 214 111 252 110 110 110 252 51 108 252 252 47 106 252 45 44 252 252 43 42 252 41 40 213 252 39 211 210 94 37 208 207 90 216 204 88 87 201 200 84 251 197 80 79 251 192 75 251 251 35 70 251 35 34 225 251 33 32 252 173 31 195 252 27 27 216 185 24 228 231 192 191 237 55 55 181 240 54 253 174 115 53 253 241 123 226 253 128 52 227 251 131 227 248 190 132 228 178 24 165 229 152 35 177 121 107 171 139 65 52 177 98 27 185 188 84 197 202 72 68 219 224 58 235 172 50 49 236 166 46 237 237 4 46 237 238 7 238 238 13 17 238 25 29 252 252 47 53 252 84 70 252 252 102 91 252 116 120 252 252 133 236 252 145 148 234 252 158 233 232 204 169 231 231 212 230 230 216 215 228 228 215 251 227 212
75 75 218 216 76 112 112 78 79 111 111 81 111 111 223 86 110 109 223 108 108 223 223 107 223 223 171 169 223 223 161 131 223 155 152 146 223 146 157 160 140 138 170 172 133 177 179 95 127 185 94 94 223 190 93 93 224 181 93 224 224 92 92 224 113 92 224 224 112 113 224 112 112 111 224 112 204 205 252 112 205 206 113 47 207 91 115 208 208 91 42 209 91 91 40 213 91 224 224 210 91 224 130 207 90 225 135 90 86 251 141 83 225 251 36 78 251 153 36 73 251 35 222 183 251 35 220 90 33 32 186 89 30 29 204 59 26 220 225 57 231 233 57 226 237 239 55 253 202 55 54 253 203 53 253 253 12 53 252 13 13 251 250 15 17 245 19 21 212 207 27 30 188 52 40 164 155 53 57 126 54 55 96 87 56 177 64 58 59 175 42 62 174 173 117 66 171 169 122 236 164 123 123 237 4 121 21 139 9 117 22 16 114 251 25 35 108 27 71 87 252 30 82 79 252 102 69 56 252 121 236 53 135 138 235 52 150 234 53 197 81 232 57 79 252 230 215 77 46 216 217 251 51 216 215 251
164 168 15 75 184 188 20 22 201 23 80 23 26 28 25 108 32 33 28 127 223 31 32 127 223 37 126 126 244 44 125 246 247 125 125 248 248 124 250 250 69 70 250 251 73 113 251 75 75 137 252 75 154 160 74 73 174 119 71 187 190 117 68 199 116 116 252 208 115 114 253 92 112 253 253 92 224 252 51 109 224 252 48 224 252 117 44 224 252 43 208 217 122 41 215 214 125 211 212 95 129 213 91 92 214 205 90 88 216 90 84 225 251 90 80 251 153 90 225 251 36 225 225 165 35 225 225 172 218 225 176 178 214 225 183 207 205 90 189 197 231 94 189 187 99 56 180 105 107 226 173 114 116 226 120 122 226 226 126 127 227 199 197 227 227 190 162 228 178 172 162 228 149 164 165 115 101 168 169 57 172 174 90 87 182 185 74 233 199 61 57 234 50 47 235 235 41 39 236 3 37 237 237 3 36 237 6 7 251 238 13 251 251 24 29 251 251 48 252 252 74 71 252 252 93 98 252 107 113 93 252 127 236 235 35 144 234 189 156 30 232 207 168 231 213 215 28 230 217 218 33 72 217 251 251 81
74 75 108 16 76 108 108 78 78 108 223 81 108 107 223 85 107 223 223 189 105 223 183 181 126 223 174 172 126 245 165 130 223 247 157 146 248 151 66 160 250 143 169 95 95 73 180 94 223 74 139 93 223 191 162 120 223 176 92 119 224 192 117 224 252 203 116 252 117 60 114 253 116 202 253 253 53 203 253 253 49 220 252 47 46 220 252 44 219 218 103 42 217 101 100 215 214 97 224 212 95 95 252 208 91 90 252 88 87 251 251 84 251 251 36 36 251 251 36 189 251 36 36 182 251 35 178 178 175 33 183 187 30 210 203 60 27 220 58 58 253 233 57 57 253 100 56 253 253 109 55 253 14 54 226 253 13 226 252 202 14 230 249 17 160 219 186 22 206 200 165 161 181 53 126 164 147 53 168 169 93 55 175 82 78 232 177 64 59 234 6 48 234 173 3 38 235 3 127 236 236 3 248 237 4 4 250 237 8 251 251 41 20 251 26 51 251 252 61 88 252 252 78 237 252 93 98 237 108 114 236 236 151 133 235 177 185 234 234 201 205 232 210 213 251 230 217 251 251 218 219 251 251 218 251 251
223 159 15 106 223 180 20 223 194 208 25 23 210 28 84 25 196 33 27 28 188 96 31 127 180 108 102 126 118 122 100 125 246 99 98 223 248 97 124 223 147 96 223 250 140 223 223 136 73 223 223 131 190 223 127 127 194 173 124 196 196 92 122 198 198 92 199 199 92 92 200 92 92 224 201 92 92 224 92 92 224 224 121 92 224 122 122 224 224 124 207 224 127 127 209 224 130 210 210 133 134 211 212 92 213 213 91 91 214 215 91 225 217 90 90 225 90 90 225 225 90 90 225 169 90 225 225 175 176 225 179 181 210 225 185 204 202 253 192 194 192 196 20 185 98 202 179 177 107 15 172 113 115 226 167 120 226 226 234 125 227 199 127 53 227 190 125 227 227 171 52 228 146 135 162 190 93 165 166 181 74 171 82 178 94 182 63 107 111 44 46 120 218 31 65 127 26 31 70 236 22 74 237 154 22 80 142 7 84 85 120 15 88 103 97 118 90 81 76 112 69 65 107 251 31 103 101 31 105 98 97 32 46 93 33 33 35 88 35 30 28 36 36 27 27 57 28 29 62 64 33 68 71 76 42 77
14 75 160 165 17 20 181 21 22 22 105 25 23 24 129 31 25 129 128 27 28 127 223 31 127 127 240 36 126 126 244 99 125 246 247 61 124 248 65 66 250 250 69 89 251 71 72 112 251 73 130 137 132 72 154 160 71 194 175 119 119 187 92 117 252 200 116 116 252 92 115 253 253 92 113 253 53 92 224 253 49 48 224 124 46 221 252 125 205 220 127 42 207 218 131 208 216 92 134 210 213 95 211 211 92 91 252 92 91 225 252 91 91 225 156 91 225 251 162 90 225 167 36 225 225 173 35 225 178 179 211 186 183 206 204 89 190 197 196 91 191 188 95 97 182 180 102 226 175 108 111 226 206 117 226 226 204 122 226 202 201 227 227 195 193 227 186 181 158 228 163 159 159 132 119 162 163 97 165 166 86 82 172 175 67 232 185 53 48 233 205 39 234 234 31 30 235 2 27 236 236 3 3 237 4 5 249 237 8 10 251 114 19 251 251 35 119 251 52 62 251 251 69 237 251 84 89 237 251 106 236 236 32 127 235 235 33 32 234 204 158 28 51 215 27 230 56 219 251 62 220 78 251 71 219 251
223 223 219 16 223 215 214 77 223 210 208 80 205 203 83 85 198 196 89 102 191 96 99 101 223 107 100 99 223 121 99 223 223 97 97 223 223 96 223 223 152 95 223 223 145 223 223 141 140 185 137 136 189 190 133 132 193 92 130 195 195 92 127 197 92 92 198 198 92 224 199 92 92 224 224 92 224 224 125 92 224 224 125 109 224 127 128 224 224 129 205 224 131 132 207 92 135 208 208 92 139 210 92 92 38 211 92 92 37 205 92 225 214 200 82 225 195 91 77 225 167 72 225 172 173 68 225 178 211 63 252 183 206 253 253 28 198 253 195 24 232 253 21 183 237 100 18 239 106 56 16 238 114 226 236 235 54 226 231 54 53 248 221 53 53 236 24 53 221 215 33 53 198 44 48 187 184 63 117 179 79 85 83 177 99 61 56 112 116 42 38 63 33 30 66 67 26 25 70 165 23 75 76 153 23 80 141 136 26 85 119 128 89 238 95 123 121 79 118 117 29 63 112 30 30 99 106 31 31 130 251 31 46 96 251 32 35 48 33 153 28 49 34 27 231 53 175 29 58 220 184 228 66 77 190 226
222 18 132 223 217 102 131 176 211 131 223 196 27 82 208 201 32 87 221 36 93 28 231 41 104 99 45 47 35 98 52 40 42 126 58 50 53 125 248 63 124 124 250 80 123 251 251 123 123 251 140 122 252 252 71 121 252 70 69 252 252 67 66 190 64 63 199 202 61 59 209 116 56 214 216 114 200 219 112 112 201 221 110 253 222 108 108 253 253 106 253 252 42 103 252 252 41 224 252 40 40 224 144 39 212 252 149 38 208 89 37 213 203 84 36 198 91 79 214 192 75 225 213 91 70 251 211 91 225 252 90 90 225 253 29 225 225 194 25 225 199 200 185 225 203 19 238 205 206 173 237 206 206 167 117 206 163 161 121 54 159 122 122 227 156 119 227 227 114 113 228 200 105 229 229 93 93 230 230 40 165 231 21 17 175 11 10 186 191 6 5 208 28 3 225 229 23 2 239 21 20 245 246 20 21 237 22 23 237 237 26 237 238 24 33 238 238 49 238 238 69 75 237 237 94 250 237 115 123 250 104 151 250 250 126 185 250 142 146 250 250 158 162 250 169 172 230 251 180 182 228 221 187 227 227 221
223 223 220 75 223 216 215 77 223 211 80 80 206 204 83 85 100 87 89 100 99 96 99 99 223 107 98 98 223 35 96 223 223 96 96 223 164 94 223 223 157 156 223 153 151 177 223 147 184 185 251 141 189 190 252 70 193 92 136 68 195 92 223 196 190 92 224 200 92 117 224 210 92 224 253 217 114 224 131 220 112 253 131 110 109 253 133 203 253 253 44 204 253 43 42 220 252 41 207 93 40 40 215 92 39 39 211 92 38 207 207 87 252 203 83 82 252 197 78 252 252 74 73 252 176 69 251 252 34 65 252 252 31 253 253 28 27 224 25 24 232 233 22 21 237 58 19 238 237 56 17 236 56 56 165 233 55 251 251 121 54 246 243 54 227 231 27 54 214 208 37 228 193 48 53 229 182 68 110 230 29 90 77 57 13 176 53 60 121 195 28 63 212 30 66 67 232 19 71 163 243 18 236 152 18 19 237 135 135 237 237 15 130 237 94 36 250 238 56 120 250 237 82 250 30 101 108 250 88 57 250 250 112 42 250 129 134 234 250 148 153 232 160 164 231 230 173 229 229 221 183 228 227 222 251 226
75 17 132 132 152 19 131 167 173 100 130 188 193 129 223 206 32 128 217 220 36 223 228 41 42 223 184 46 33 35 176 52 39 125 169 146 48 125 62 161 93 125 170 73 92 223 180 92 123 251 186 91 223 252 70 92 223 252 68 223 223 136 66 223 253 135 196 224 134 59 197 133 133 198 214 92 133 199 93 113 200 200 93 111 201 94 94 224 203 94 224 224 94 94 224 224 94 224 224 146 148 224 224 151 208 224 155 156 209 224 159 210 211 163 165 211 92 169 211 211 91 175 210 91 91 225 206 91 91 225 90 90 225 225 90 225 225 197 91 225 225 202 225 225 205 206 177 226 207 172 170 208 207 166 165 206 162 160 119 202 157 119 119 23 154 115 114 153 183 107 227 228 99 96 229 81 86 229 230 33 57 230 18 15 58 231 9 183 61 175 4 205 234 172 137 227 18 2 140 240 16 141 245 16 17 139 26 19 237 135 27 22 237 28 28 91 238 29 37 89 65 77 83 237 54 113 69 49 126 107 53 46 102 250 45 44 97 250 45 92 91 32 158 88 87 33 29 84 34 35 34 36 37 40 43 39
132 223 220 18 132 152 215 77 130 174 210 80 189 194 30 85 207 33 34 25 220 38 98 28 41 43 31 95 47 49 35 126 223 39 41 125 246 49 125 125 248 61 125 250 250 124 124 251 251 123 251 251 70 70 252 252 69 150 252 67 67 171 139 64 185 188 62 61 199 118 59 207 209 116 56 215 115 114 253 220 113 253 253 94 111 253 253 94 224 253 45 106 253 253 44 224 253 42 42 224 253 41 217 217 155 40 214 93 159 208 210 89 38 209 92 84 210 201 92 78 209 91 75 225 252 91 225 252 185 90 225 253 30 225 225 196 27 225 225 201 186 225 204 205 179 225 207 175 173 107 208 169 112 114 164 163 117 56 159 118 118 226 155 117 115 227 112 110 227 227 102 227 228 108 92 229 229 48 157 230 25 20 164 231 11 173 177 7 6 193 198 4 210 216 17 16 231 15 14 235 241 15 14 236 15 15 237 237 17 18 237 15 21 237 237 36 91 237 57 64 250 237 84 250 250 104 111 250 250 138 250 250 105 175 250 250 128 96 250 143 148 91 32 160 231 230 170 173 229 222 181 228 227 222 188 226
223 75 96 132 143 97 97 223 164 97 97 223 207 97 223 223 201 96 223 197 196 95 223 191 104 29 186 184 117 33 180 129 134 93 173 146 150 93 158 161 92 91 170 91 91 223 223 91 91 223 152 91 223 223 148 91 223 145 145 223 223 143 142 223 142 141 196 196 141 196 197 92 140 197 197 93 197 198 93 93 199 199 94 224 200 94 94 224 224 94 224 224 146 94 224 149 150 224 224 153 154 224 156 157 205 224 160 161 207 252 165 207 207 168 38 208 92 92 207 207 91 225 206 91 91 225 202 91 225 225 203 90 225 194 219 64 225 200 201 62 253 204 182 225 253 207 177 253 208 20 171 253 208 166 229 251 21 159 117 22 22 210 115 226 28 192 55 227 176 169 55 227 148 55 229 181 116 56 178 28 57 57 177 13 59 176 176 125 186 175 174 135 32 172 139 141 28 166 143 27 27 143 143 26 80 142 27 27 86 237 27 89 90 98 29 92 91 76 90 89 63 60 83 55 52 115 69 48 46 109 236 44 104 102 31 43 98 31 31 211 92 31 31 89 250 32 29 84 33 177 35 250 35 41 44 251
132 132 128 17 131 143 148 22 131 165 25 26 180 186 30 22 200 33 34 24 216 37 26 27 128 43 29 30 127 121 33 126 126 138 39 126 246 44 92 125 248 91 125 223 250 67 124 251 157 69 223 252 69 69 223 150 68 139 223 148 194 163 146 145 195 182 144 195 194 92 118 196 206 117 224 197 93 115 253 197 94 224 253 94 94 224 146 94 224 224 149 94 224 151 152 202 224 154 44 203 157 158 204 220 161 205 205 94 165 206 206 93 206 206 92 92 225 205 92 225 225 91 91 225 225 91 225 225 189 90 225 193 195 225 225 199 200 225 202 203 184 183 206 206 179 100 208 175 174 107 170 169 111 113 164 162 115 226 158 115 115 226 152 113 226 226 177 104 227 153 141 227 227 94 77 229 50 40 152 229 21 17 161 176 10 171 174 22 5 190 17 16 139 214 13 234 228 27 12 235 240 12 77 236 27 12 236 237 28 87 237 15 19 91 92 36 250 91 70 66 250 60 86 120 250 50 114 250 30 45 108 250 98 43 102 30 122 234 96 31 28 232 31 31 27 230 32 30 31 49 33 36 227 56 44 47
75 75 93 94 76 77 94 223 78 95 94 223 223 95 223 223 203 94 223 199 197 223 223 193 192 223 189 187 118 223 183 181 134 242 177 146 151 91 61 161 90 90 65 174 90 223 180 76 90 223 186 90 124 223 115 90 223 223 151 122 223 149 149 121 253 148 195 120 253 147 196 253 253 58 196 253 147 197 216 253 53 197 94 113 51 223 94 224 48 225 109 224 225 225 106 224 225 104 103 253 223 101 224 253 98 97 253 167 41 253 253 41 204 253 253 39 210 253 38 38 206 253 36 204 204 35 35 207 71 70 213 216 68 66 224 66 65 253 231 64 63 253 96 62 253 253 61 60 253 23 59 253 252 23 225 250 24 24 214 243 26 203 198 191 32 184 179 167 146 161 56 52 140 82 57 147 109 57 58 178 45 59 176 176 28 61 176 128 18 232 173 138 66 233 3 144 234 165 2 237 27 2 145 244 28 4 247 28 13 9 248 28 90 249 249 21 92 249 28 30 237 250 41 45 237 107 59 236 236 142 82 235 171 179 235 234 200 98 233 212 214 250 231 219 250 250 222 222 250 250 176 250 251 183 185 251
16 16 16 17 17 17 21 18 18 130 25 20 20 129 83 21 129 129 23 23 128 213 25 128 128 226 44 127 233 235 49 127 240 53 55 223 244 59 60 247 171 63 53 249 66 178 68 163 67 82 87 124 188 104 123 123 191 128 123 252 193 90 122 253 169 91 223 253 91 119 223 151 59 224 253 151 56 224 151 55 197 224 152 52 222 153 154 198 225 155 199 199 95 158 199 200 95 224 200 95 102 224 201 94 224 253 94 94 224 253 94 224 224 176 93 224 180 181 225 225 184 185 199 188 189 197 196 192 193 193 90 197 190 189 90 187 187 91 92 184 184 95 225 225 99 100 225 225 105 225 225 208 110 225 226 206 226 226 203 202 226 197 193 148 226 179 172 144 97 143 143 143 83 79 144 68 62 146 148 45 229 154 31 27 230 167 19 231 231 37 13 232 233 3 68 234 2 2 234 235 2 241 235 3 3 245 136 6 247 247 115 15 248 17 18 135 249 24 26 128 29 35 237 250 29 72 237 29 67 56 236 30 44 235 41 30 33 234 209 95 28 41 219 250 27 43 85 250 46 47 80 33 50 77 251 34
14 75 92 92 223 17 92 223 223 18 92 223 210 20 129 223 204 129 128 202 199 128 223 217 41 127 227 190 46 122 236 50 135 34 241 56 38 89 59 61 46 89 64 54 57 125 67 68 73 124 251 87 124 223 252 110 123 252 158 123 122 253 66 122 253 253 63 121 253 61 61 253 253 59 58 207 57 56 213 215 55 218 219 114 53 222 223 112 198 225 110 109 226 226 107 253 226 106 105 253 253 102 253 253 45 99 253 44 44 224 253 43 43 224 180 41 215 253 185 39 213 81 38 196 213 76 194 216 91 73 190 222 69 225 187 91 67 253 185 93 225 253 96 98 225 253 27 225 253 210 26 225 208 27 163 226 206 28 207 201 198 150 191 188 183 144 99 160 141 141 87 227 140 73 68 228 143 51 229 229 35 31 230 176 21 230 231 5 13 232 232 3 205 233 2 2 227 2 2 236 239 2 2 243 10 4 245 246 11 9 248 14 15 248 248 19 237 237 25 27 237 237 36 237 237 110 54 236 236 145 236 235 174 182 234 234 201 250 233 213 216 250 144 220 250 250 161 223 250 170 173 250 251 180 182 251
15 16 220 18 17 131 216 78 18 131 212 81 91 129 84 21 91 129 194 91 128 223 211 91 223 222 192 90 223 232 48 223 223 183 54 223 223 178 159 42 176 174 172 88 172 179 181 88 168 186 88 88 188 190 89 124 191 89 89 223 193 90 90 223 159 90 223 223 158 223 223 158 158 223 223 158 195 224 158 158 195 224 159 196 196 161 161 196 95 95 197 197 95 95 198 95 95 224 198 95 95 224 95 95 224 224 94 94 224 178 94 224 224 182 199 224 185 186 197 224 189 196 196 192 193 193 192 196 191 190 90 200 188 91 91 225 186 92 92 225 233 95 225 225 232 100 225 210 104 62 225 209 109 225 207 207 60 226 202 152 150 225 191 145 144 202 44 140 91 130 57 138 74 70 139 107 51 90 85 35 60 110 61 21 230 176 45 63 231 3 35 66 171 2 69 70 166 2 73 159 157 148 79 148 147 146 29 130 144 247 29 141 140 29 16 136 135 29 91 130 29 29 82 29 29 71 67 30 30 54 42 41 43 39 40 196 32 40 40 95 27 40 40 89 230 41 84 83 44 80 79 31 47 75 74 33
15 16 16 16 19 20 17 131 23 18 18 130 82 20 130 129 179 21 128 194 199 90 128 211 216 127 223 225 46 127 232 187 51 223 240 55 56 223 180 60 42 44 176 64 52 125 172 183 65 125 67 78 88 124 190 99 124 223 192 89 123 252 193 90 223 253 64 90 223 253 62 223 223 161 60 223 162 162 194 224 162 56 195 163 163 195 221 95 165 196 95 111 196 197 95 109 197 95 95 224 197 95 224 224 95 95 224 224 94 224 224 183 45 224 224 186 197 224 189 190 194 192 193 193 192 196 197 190 91 200 188 188 91 204 186 91 92 225 185 94 95 225 97 98 225 225 102 225 225 210 107 225 225 208 225 225 205 203 153 226 197 147 145 183 177 141 94 150 137 136 79 87 136 63 57 82 138 40 35 143 70 23 229 230 16 62 230 4 11 231 231 3 67 232 2 2 72 234 2 235 234 153 3 242 235 3 146 246 10 9 247 29 13 139 248 17 18 134 29 24 237 127 29 37 237 29 29 62 236 29 50 46 40 184 36 234 39 98 29 39 216 91 27 40 86 250 41 42 81 250 44 77 75 31 178 72
75 223 219 219 77 223 216 78 79 89 212 81 82 90 84 85 89 89 90 90 90 223 99 89 89 223 89 89 223 223 190 88 223 187 186 223 223 183 160 223 180 178 172 223 176 179 181 249 173 185 187 171 67 190 88 88 191 191 89 223 192 89 89 223 148 90 223 223 170 90 223 165 91 120 223 165 92 223 253 166 194 224 166 57 194 253 168 195 195 253 55 195 95 253 53 196 95 52 52 227 95 224 197 227 102 224 226 95 99 253 225 96 224 253 223 92 253 191 88 87 253 195 84 253 253 41 189 253 40 39 227 253 38 186 230 37 37 231 93 35 35 231 67 34 229 228 65 34 225 64 63 251 216 63 247 245 61 61 233 228 60 216 210 43 60 195 191 53 226 184 63 67 122 50 80 100 94 95 100 74 61 115 58 54 63 130 44 65 65 184 35 67 171 210 7 71 165 163 7 234 156 149 80 235 142 148 235 129 8 145 236 107 141 29 237 39 136 29 62 70 249 29 82 124 249 44 66 250 29 63 49 250 81 39 234 250 105 233 39 122 127 231 39 142 230 230 224 82 228 228 225 251 227 225 225 251
95 99 17 132 110 217 22 124 128 25 80 144 149 29 19 165 32 34 21 186 36 22 23 128 41 24 128 128 26 27 127 127 29 127 127 239 33 126 126 244 86 126 247 247 64 223 249 66 66 250 250 67 74 251 68 68 94 252 67 112 118 169 67 136 142 168 193 159 122 122 192 91 121 253 191 92 120 253 93 118 253 253 94 117 253 58 95 224 253 56 224 224 175 55 225 253 177 195 226 179 53 195 227 182 195 227 95 185 195 226 97 194 194 94 93 253 93 93 224 253 92 92 224 198 91 224 224 202 91 225 204 205 225 225 208 185 225 209 209 184 230 210 182 182 100 211 178 177 104 173 171 106 106 165 107 107 225 154 105 104 226 101 99 226 226 160 87 226 120 102 226 226 55 44 227 29 24 134 228 14 141 143 8 7 155 159 10 170 177 8 8 197 204 7 232 220 6 6 233 29 7 234 234 7 8 235 5 8 236 236 12 16 236 26 32 248 237 55 63 249 59 85 249 249 49 120 250 51 140 112 250 73 107 250 91 97 234 250 114 232 232 30 134 230 222 30 30 228 225 161 37 43 225 45 226 46
76 77 218 217 77 87 215 78 79 87 212 82 87 88 30 86 88 223 35 21 88 223 223 23 127 223 196 87 223 223 192 127 223 190 188 127 239 186 161 126 244 182 173 246 247 65 181 86 178 67 62 86 67 190 79 87 68 94 87 124 67 118 124 223 135 141 123 223 158 122 122 253 172 121 121 253 62 120 253 253 61 253 253 60 59 253 253 59 219 253 58 57 223 95 57 224 225 110 56 226 226 107 227 227 104 103 227 101 101 253 226 98 97 253 94 94 253 253 49 89 253 47 47 253 253 46 227 253 45 44 229 253 43 229 229 209 42 230 230 210 184 229 70 69 181 224 67 252 219 104 66 249 106 64 225 239 105 63 225 195 100 226 202 49 51 226 142 59 141 226 75 127 115 39 32 129 88 18 134 136 17 9 145 51 10 158 164 9 67 172 190 7 231 168 7 6 233 2 6 234 234 2 7 235 3 4 235 235 8 145 236 16 20 248 29 40 248 249 20 71 249 249 30 249 249 42 45 250 250 61 235 250 77 83 234 234 101 233 232 215 122 231 221 222 230 229 224 225 228 226 226 251 227 226 227 251
132 94 85 132 223 108 86 131 121 213 86 223 140 29 85 223 206 34 20 223 203 98 22 200 199 110 24 196 121 125 86 193 138 28 86 223 154 85 127 223 85 85 223 246 86 85 223 181 85 223 223 178 86 223 177 177 223 223 176 192 192 175 175 192 129 175 192 192 89 175 192 192 91 192 191 91 92 192 192 92 223 192 94 94 224 178 94 224 224 180 95 224 182 182 224 224 183 184 224 186 186 192 224 188 193 192 95 191 192 192 94 191 191 94 94 190 189 93 224 188 92 92 224 187 91 224 224 228 91 224 207 208 224 224 209 210 224 210 211 184 225 212 212 182 253 211 179 178 251 44 172 104 208 44 161 104 225 151 183 99 225 140 93 63 226 153 79 226 226 131 62 226 42 105 62 177 19 129 63 176 10 139 176 176 132 157 174 4 141 36 171 147 203 32 150 150 31 6 151 151 30 79 234 29 29 85 235 29 88 90 111 29 92 236 87 93 93 71 64 88 59 55 126 77 48 46 118 29 42 112 110 29 39 104 29 29 98 96 29 27 91 29 29 27 84 30 30 32 39 30 38 41 41 168 50 44
15 132 95 98 19 106 109 23 24 122 127 28 17 17 31 32 18 86 35 20 21 128 39 22 22 128 23 24 128 127 26 127 127 230 29 127 127 238 58 126 242 243 62 126 246 64 65 223 249 67 56 250 180 68 70 251 69 191 88 178 69 105 111 124 192 128 123 123 192 151 123 253 191 91 122 253 91 92 223 253 92 119 223 181 64 224 253 182 62 224 183 62 220 224 186 192 223 188 188 192 225 190 191 191 95 192 191 227 95 224 189 94 99 224 188 94 224 253 92 92 224 203 92 224 224 205 91 224 207 208 224 224 209 210 184 210 211 185 184 212 184 183 97 212 181 180 101 177 175 103 103 169 166 103 225 225 102 101 225 225 96 225 225 163 84 226 124 106 226 226 57 46 226 30 25 123 227 15 13 131 12 8 141 145 8 156 162 7 7 182 189 6 231 209 6 6 232 228 6 233 233 29 6 234 234 4 86 235 8 10 236 104 21 248 236 41 49 249 66 72 249 249 52 101 249 40 44 115 250 59 235 107 29 80 234 250 29 29 232 29 119 231 231 29 28 229 225 30 34 228 226 251 44 41 227 251
223 223 83 83 223 223 213 223 223 211 211 223 209 209 86 223 207 206 92 204 203 99 102 201 200 112 85 85 123 127 85 85 139 85 85 223 155 84 223 223 84 84 223 223 84 223 223 185 84 223 223 183 188 223 182 182 191 182 181 191 191 181 181 191 87 180 191 191 89 181 191 90 90 67 191 91 91 223 186 92 223 223 93 119 223 185 94 224 224 186 116 224 188 188 114 224 190 190 191 253 192 190 95 253 63 189 95 196 189 226 94 61 188 94 94 60 227 93 224 59 227 92 224 206 227 87 224 208 84 83 253 210 81 224 253 54 77 253 212 54 74 253 53 182 252 252 52 211 102 52 52 199 102 52 189 186 67 53 175 172 65 164 160 64 65 146 141 64 181 180 64 64 178 91 64 177 177 108 65 176 120 124 176 175 134 136 174 141 143 36 171 147 33 32 73 151 31 30 77 234 29 80 82 29 29 85 131 29 89 90 110 29 93 92 87 14 93 71 132 131 236 55 125 123 236 117 117 29 41 153 109 29 181 102 250 29 206 250 29 111 26 250 29 28 230 251 143 33 37 251 155 227 40 163 166 225
15 132 90 94 20 13 104 24 24 15 210 28 16 17 208 32 18 129 205 95 20 128 39 106 84 128 116 23 85 223 214 84 127 223 228 84 223 234 191 84 223 241 62 223 223 188 65 223 223 186 187 223 185 185 190 85 184 191 191 86 183 191 86 87 191 191 87 124 191 89 89 223 191 90 223 223 185 91 223 223 186 223 223 187 187 223 223 188 190 224 189 190 190 224 192 189 190 193 193 189 95 95 189 188 95 95 188 95 94 224 186 94 94 224 94 93 224 224 92 224 224 206 92 224 224 208 183 224 209 210 183 224 211 184 183 212 212 184 184 212 183 182 97 212 181 100 100 225 175 102 101 225 192 101 225 225 98 96 225 184 90 225 225 149 65 225 100 82 65 226 43 115 115 177 20 117 119 176 114 126 10 7 129 142 7 138 160 38 5 145 34 5 72 150 31 5 232 159 30 79 233 3 29 83 139 4 87 88 121 145 91 104 98 140 93 81 135 249 29 61 128 249 29 122 121 28 44 114 28 28 45 106 28 28 33 29 29 28 27 29 29 26 36 36 28 29 37 226 35 37 37 70 46 39 65 64
81 223 12 82 223 223 13 131 223 210 83 223 223 208 130 223 206 205 94 223 204 100 103 179 201 113 117 199 46 129 84 196 50 26 83 54 157 29 83 59 31 83 127 223 37 83 223 246 43 126 223 187 126 126 250 186 126 125 251 70 125 252 252 70 191 252 70 70 125 253 70 190 147 70 70 162 90 70 175 179 121 70 190 192 120 199 201 119 118 253 209 117 253 253 115 115 253 71 113 253 253 71 111 253 71 71 253 253 70 70 253 70 70 225 225 69 69 226 97 68 226 226 93 182 226 90 89 182 225 87 253 225 92 83 253 223 80 224 253 64 77 253 212 63 224 251 62 61 225 210 60 191 225 205 60 178 195 191 141 165 68 64 126 74 67 119 134 52 226 112 35 66 177 112 19 226 176 13 11 228 176 8 228 228 4 138 229 3 3 182 230 3 149 210 2 2 224 30 2 2 236 6 3 241 242 6 6 245 8 8 235 247 11 236 236 14 16 236 236 21 236 236 96 32 236 236 127 235 235 154 163 250 182 189 250 250 207 211 251 109 220 251 251 127 225 251 138 142 251 251 151 154 251 159 161 225
16 11 132 19 79 12 132 131 14 81 131 118 15 130 223 135 82 129 150 155 83 223 169 40 83 223 189 44 223 223 198 49 24 218 53 154 27 195 58 30 82 193 175 34 126 191 183 83 126 187 187 83 126 190 84 84 223 250 84 223 223 188 86 223 252 188 223 223 188 72 223 223 189 189 223 190 190 189 169 191 189 189 92 192 189 92 93 189 189 94 94 188 94 94 224 188 95 95 224 95 95 224 224 200 224 224 202 202 224 224 204 182 224 205 206 181 224 207 181 180 208 209 180 180 210 180 180 92 92 181 92 92 224 182 93 93 224 94 95 224 224 97 97 224 212 99 224 224 211 74 225 207 205 157 225 197 146 142 197 174 131 127 143 70 117 58 76 111 110 34 88 108 22 19 226 78 12 226 227 59 8 228 5 45 70 228 4 6 229 171 3 73 230 2 151 76 160 2 231 234 151 151 239 6 138 149 244 7 146 145 29 10 141 248 29 93 135 29 20 87 28 28 77 236 46 28 59 42 145 46 43 38 182 34 37 36 92 28 35 87 85 35 35 79 77 29 74 72 29 147 68 67 30 52 63 30
133 223 11 11 132 94 12 132 131 108 207 130 119 123 31 130 136 205 35 151 156 39 105 170 175 43 21 189 46 47 23 49 51 24 25 127 56 27 127 127 30 31 127 126 34 126 126 244 39 126 247 247 83 126 249 250 71 223 250 72 72 251 251 73 90 252 73 73 110 253 73 126 132 192 74 148 123 193 188 166 122 122 178 92 121 253 191 120 120 253 94 118 253 253 94 224 253 79 94 224 253 79 224 224 203 80 220 253 205 181 221 206 80 180 222 208 179 222 92 209 179 92 96 178 179 92 92 253 92 92 224 253 92 92 224 214 94 224 224 214 224 224 213 74 224 224 212 172 224 209 208 162 179 201 151 147 91 183 135 131 78 123 120 63 57 111 46 40 225 105 26 22 226 16 14 226 226 9 8 227 6 5 228 228 4 152 229 3 3 183 230 2 205 211 2 2 225 228 5 234 236 5 6 241 242 7 234 245 8 8 235 29 11 235 235 15 16 236 69 22 236 236 97 104 236 119 128 250 235 156 250 250 37 190 251 251 208 89 251 107 221 251 251 124 76 252 135 138 227 251 147 226 226 30 157 225
79 79 79 132 80 80 79 223 82 80 131 223 79 80 223 129 80 80 223 203 81 223 223 202 42 223 200 200 129 223 199 199 144 198 198 156 159 196 166 169 82 195 177 179 82 182 184 82 82 223 188 83 223 223 83 83 223 193 84 223 223 193 85 223 193 193 223 223 193 193 190 194 194 189 189 195 195 188 90 196 188 188 91 78 188 92 92 187 187 93 223 186 93 94 224 224 94 224 224 203 94 224 204 205 112 224 206 206 224 253 207 179 224 208 209 178 253 210 177 177 92 211 177 92 92 84 177 92 224 83 218 92 224 178 215 86 224 211 95 83 224 213 81 224 248 212 78 241 210 165 76 223 202 152 207 202 72 135 190 188 74 147 182 77 110 130 39 85 113 25 69 97 90 69 226 73 68 69 226 56 70 70 175 44 72 72 172 73 73 169 168 149 166 164 151 151 159 157 151 30 149 151 150 29 136 148 29 29 145 144 29 29 93 29 29 93 92 28 89 86 57 28 75 71 46 41 56 41 40 57 40 37 98 32 233 35 90 28 35 219 81 28 35 76 29 29 228 70 29 29 230 251 29 54 60 252
133 132 79 10 132 132 81 78 131 103 13 79 131 118 79 130 223 134 80 129 148 202 80 223 166 43 122 223 200 47 22 223 199 150 24 198 198 164 27 197 173 175 81 196 181 82 126 223 187 82 126 246 82 82 223 249 83 83 223 195 83 223 223 194 85 223 195 195 223 223 196 189 189 196 197 188 138 197 187 187 90 198 187 187 91 186 186 92 92 185 92 92 223 184 93 93 224 204 94 224 224 205 94 224 206 207 224 224 208 208 224 209 209 176 224 210 175 175 92 212 175 175 92 174 175 91 91 175 175 92 224 177 92 92 224 209 94 224 224 95 95 224 214 213 224 224 212 210 224 208 206 156 225 196 191 141 193 172 127 123 184 79 112 50 71 84 101 29 225 98 99 16 226 99 10 70 226 62 7 226 175 48 71 228 3 39 73 171 3 184 75 166 2 212 162 161 151 229 154 151 236 30 143 149 242 7 146 145 29 9 142 140 29 94 235 29 28 89 235 28 82 78 51 28 65 44 42 51 47 39 166 36 37 36 92 28 35 35 84 28 34 78 76 28 72 71 29 29 66 65 29 48 61 29 29 64
200 79 77 202 80 81 78 24 83 77 78 86 87 78 223 223 78 78 223 223 79 223 223 201 79 223 223 200 128 223 199 199 127 201 199 158 223 216 198 170 81 197 64 180 81 197 184 33 81 69 189 82 223 72 44 82 223 74 54 126 223 196 83 126 223 197 125 223 252 197 125 223 198 80 124 253 199 187 253 253 83 186 253 253 85 169 91 87 87 182 92 89 190 192 119 91 198 117 117 203 204 116 224 208 114 113 253 211 112 111 253 97 108 253 253 97 105 253 97 97 253 253 97 214 253 97 97 213 253 97 210 210 92 96 206 204 88 174 200 86 85 194 96 83 242 185 81 81 227 94 79 211 206 89 77 193 81 80 225 184 81 82 181 74 86 123 178 91 94 101 19 102 84 79 10 99 64 72 6 114 50 73 174 137 5 74 172 5 5 229 168 5 77 230 3 5 231 156 3 5 232 4 149 241 233 7 244 29 11 15 247 29 28 248 248 15 58 249 250 23 250 250 31 68 250 250 46 235 39 59 63 234 184 77 233 232 210 96 231 221 223 230 229 228 229 228 230 231 252 227 232 252 252 149 232 252
76 133 80 80 76 223 82 76 77 223 86 77 223 223 77 78 223 223 201 223 223 201 41 223 200 200 125 223 200 200 140 200 199 152 156 199 199 166 80 80 174 176 81 223 182 80 81 223 188 81 223 223 81 82 223 223 82 223 223 198 83 223 223 198 190 223 199 199 189 199 200 188 187 200 200 187 87 201 186 186 89 202 185 90 90 89 184 91 223 223 178 92 223 223 92 119 223 207 92 224 224 208 116 224 209 210 113 224 210 173 172 253 211 172 92 212 104 171 92 213 170 211 91 104 170 91 91 103 208 92 224 103 204 92 224 215 198 89 224 214 87 86 244 213 84 224 231 91 82 216 201 88 79 197 85 133 188 186 84 146 54 85 87 129 32 90 114 109 73 99 93 12 73 76 72 73 226 58 73 73 175 5 74 74 173 142 76 170 169 148 77 165 150 150 161 159 151 151 153 150 149 29 142 148 29 29 90 143 29 29 93 248 29 94 93 28 28 89 64 28 80 75 50 35 62 44 42 51 44 39 98 95 233 36 89 87 232 215 80 28 34 226 72 28 230 67 252 28 232 252 29 143 55 252 29 67
17 80 75 80 21 10 76 223 26 11 75 223 13 13 130 223 14 77 129 134 15 129 223 151 17 128 163 199 128 128 180 51 150 192 196 56 164 207 60 61 25 220 64 181 28 68 68 32 81 71 34 36 126 223 40 42 126 247 48 126 126 249 58 126 250 250 126 125 252 252 125 252 252 85 125 253 87 87 124 253 89 90 141 205 92 153 157 94 95 168 121 97 176 179 120 179 186 119 119 176 193 117 253 253 92 115 253 253 92 224 253 108 111 224 253 110 224 253 214 110 224 214 110 206 206 215 110 204 98 215 169 200 95 108 169 93 92 168 190 94 224 167 94 86 224 161 94 224 215 202 89 224 196 90 224 224 157 88 225 225 97 102 225 52 43 90 29 25 86 86 16 13 88 8 8 94 97 6 74 111 5 5 227 137 5 228 228 4 4 228 229 4 229 229 3 3 230 230 4 235 231 5 6 242 233 8 245 245 14 17 247 11 32 248 249 16 62 250 22 25 235 250 33 36 235 44 47 235 234 60 234 234 185 78 232 232 212 26 231 223 225 230 229 230 252 252 233 233 252 252 234 252 252 146 234 252
8 222 191 20 9 85 194 85 10 196 28 89 75 197 94 13 76 198 102 76 129 223 113 76 128 155 77 77 223 171 77 77 223 199 78 223 223 199 223 223 200 200 223 223 200 185 186 200 200 189 33 200 191 191 81 201 191 81 82 191 190 82 82 190 83 83 223 223 84 84 223 203 85 223 223 204 86 223 205 205 223 223 206 182 223 206 207 181 223 207 179 179 91 209 178 177 91 176 175 92 92 173 92 92 224 170 92 92 224 198 92 224 224 91 91 224 214 214 224 224 215 215 224 215 215 165 224 216 165 166 252 216 166 165 251 112 165 92 93 164 163 93 224 160 93 92 224 169 89 224 224 161 80 224 168 152 80 225 116 46 78 179 53 91 225 178 25 83 177 16 106 83 176 114 89 63 176 125 104 5 133 135 43 4 141 143 36 77 228 34 33 79 163 32 80 82 156 30 83 149 147 86 87 138 8 90 126 121 140 247 106 101 134 28 84 129 127 28 122 120 28 28 113 111 28 54 104 28 28 38 94 28 31 29 35 28 26 34 34 26 27 34 33 30 33 33 63 40 33 33 57 226 34 54 53 224
17 18 8 78 21 23 9 191 26 10 10 194 31 12 131 34 99 13 130 129 14 75 129 144 16 129 156 160 76 128 171 175 77 223 186 57 127 223 201 62 223 212 200 67 27 201 70 187 30 201 74 33 80 202 191 38 126 202 191 81 126 190 190 82 223 189 83 83 223 251 84 223 223 205 85 223 252 206 223 223 207 96 223 223 208 181 223 208 209 178 90 209 177 176 90 210 174 91 91 172 171 91 118 169 91 91 224 166 91 224 224 91 91 224 224 215 224 224 215 215 224 224 216 161 224 216 216 162 224 216 162 162 217 216 162 92 216 161 161 93 92 158 92 92 224 152 90 88 224 85 81 224 224 71 224 224 133 50 225 225 67 79 225 37 31 82 225 19 79 79 177 11 82 84 8 90 93 5 5 109 5 4 138 139 4 4 227 35 4 228 228 32 4 229 4 4 83 230 6 85 231 144 8 88 232 11 142 92 116 21 248 248 95 131 249 18 73 123 250 26 116 114 28 39 107 28 28 44 97 28 66 32 28 28 27 232 34 28 26 34 228 28 29 33 64 35 33 33 59 48 33 54 54 34 34 51
73 222 183 184 222 222 187 86 223 190 190 91 92 192 96 98 74 194 105 108 74 113 117 74 74 127 75 75 223 143 75 75 223 199 76 223 223 200 77 223 200 200 223 223 201 201 223 202 202 190 223 202 191 191 238 203 191 191 81 83 191 81 81 85 189 82 223 188 64 83 223 74 84 125 223 89 85 223 252 106 125 223 209 209 124 253 210 178 124 253 210 175 253 253 113 173 253 115 117 172 253 119 167 179 118 122 183 91 224 124 187 115 224 189 189 112 253 191 110 110 253 191 107 253 252 105 104 252 217 126 251 250 125 158 247 245 122 178 239 119 118 172 116 115 168 166 111 109 161 88 105 155 153 85 85 146 84 83 180 133 81 178 178 18 80 177 177 79 225 177 110 78 176 176 120 225 176 128 130 48 174 136 41 40 4 143 36 79 4 193 33 81 149 218 4 83 230 30 5 85 146 6 88 136 133 7 233 121 138 10 234 100 131 234 234 61 123 235 63 89 251 235 108 107 251 28 136 251 28 63 171 251 76 27 252 252 93 25 252 104 107 229 252 117 120 228 126 128 226 226 237 225 225 237 237 224
175 18 8 222 181 85 8 184 185 90 9 132 94 95 73 131 102 12 73 223 112 73 129 223 73 74 223 153 74 74 223 197 75 223 223 199 60 223 200 199 178 223 201 184 185 201 202 188 189 203 190 191 79 204 192 192 80 192 191 81 81 223 189 81 223 223 82 82 223 207 83 223 223 209 84 223 209 209 223 223 210 210 179 211 211 178 177 211 175 174 88 212 173 172 89 170 169 90 90 167 166 90 223 163 90 90 223 223 90 224 224 215 90 224 216 216 113 224 217 217 224 252 217 154 224 218 217 154 250 218 154 154 91 129 153 91 91 126 152 91 224 121 167 88 224 142 161 90 224 156 72 224 224 147 86 224 101 83 84 179 46 83 82 177 23 74 177 177 108 73 176 9 116 66 176 124 91 52 79 133 45 4 79 140 38 80 227 35 34 81 228 32 82 82 158 30 84 85 150 86 86 142 139 143 133 129 140 138 115 111 133 28 94 128 125 28 72 119 28 28 112 109 28 58 54 28 28 41 37 28 32 30 36 28 26 26 34 97 26 33 33 111 228 33 60 37 33 33 55 28 33 52 51 29 33 49
136 222 174 175 85 81 179 88 90 91 183 94 72 104 34 101 71 189 108 12 72 41 121 73 73 223 15 73 223 223 17 128 223 197 19 127 223 198 127 127 194 200 127 223 206 72 127 215 203 77 29 225 80 192 32 234 84 35 80 86 87 42 81 90 47 50 126 93 56 59 126 64 67 126 126 250 126 125 251 211 125 125 252 109 125 252 252 114 124 252 117 118 252 252 121 147 150 125 125 157 159 128 163 165 120 131 170 171 118 156 174 116 116 177 178 115 252 178 112 112 252 137 110 251 251 137 107 249 136 135 224 245 134 133 224 218 131 170 227 214 144 165 208 122 138 160 93 131 155 69 90 118 148 88 224 102 34 86 179 86 20 225 177 14 12 225 15 109 225 225 9 116 225 7 122 85 225 5 131 46 5 5 134 39 5 163 172 4 5 197 204 4 228 220 4 5 229 234 5 230 230 6 7 231 132 8 232 232 25 11 233 39 45 234 234 67 75 251 88 94 251 251 112 118 251 50 139 251 251 66 252 252 78 82 252 252 94 231 230 104 108 229 228 117 228 227 239 126 226 239 240 225 225 238 239 224
164 167 85 222 172 173 88 176 177 92 94 181 97 98 71 184 105 108 71 40 117 71 71 127 130 71 223 223 72 72 223 223 73 223 223 197 74 223 198 199 127 223 200 201 127 205 202 189 223 216 204 192 78 205 192 192 79 87 191 79 80 90 190 80 223 94 49 81 223 185 58 126 223 211 83 126 223 212 126 223 251 213 125 251 214 115 124 252 214 170 252 252 123 166 252 252 128 145 88 131 131 154 121 134 160 161 119 137 166 118 118 169 170 117 224 172 115 115 251 173 113 112 251 141 110 249 248 140 246 245 139 138 240 237 136 167 228 133 132 164 212 129 161 160 96 123 156 94 93 151 149 91 91 142 89 89 179 131 87 86 178 15 85 177 177 9 83 177 112 114 225 176 120 63 176 6 128 50 174 134 118 42 5 141 37 36 6 183 33 83 7 211 4 84 157 229 5 86 149 6 6 230 139 7 91 232 21 9 232 110 129 14 233 56 122 28 234 84 251 28 102 108 251 28 126 251 251 59 156 252 28 75 252 252 87 25 252 98 101 229 33 111 114 228 238 121 227 226 240 130 225 240 240 224 224 239
137 137 73 75 137 136 82 26 135 90 93 30 133 101 35 36 10 114 40 11 12 43 44 13 13 48 14 14 128 54 15 16 128 164 18 127 127 175 19 127 185 188 74 127 197 75 127 223 208 81 127 215 205 85 223 225 88 89 223 207 92 37 223 209 188 44 126 211 185 52 126 183 182 82 126 180 71 126 223 177 84 125 251 173 85 223 251 121 86 223 216 126 223 223 217 131 223 217 217 157 223 217 137 154 218 218 151 158 218 149 148 88 118 146 146 89 224 144 88 88 224 143 88 224 224 88 88 224 224 89 224 224 219 89 224 216 215 136 224 210 207 132 201 197 126 124 181 173 116 55 144 107 103 35 95 92 24 21 224 77 14 224 224 11 9 225 225 7 225 225 8 6 225 225 6 225 225 5 5 225 5 5 138 148 6 6 176 4 7 200 207 4 9 222 4 5 145 235 5 230 241 30 7 231 246 8 93 232 30 12 233 233 52 91 234 73 81 80 234 99 251 62 49 121 252 42 41 88 252 69 173 252 28 84 72 252 95 98 64 28 108 228 59 28 37 227 28 28 52 225 28 65 70 32 240 84
70 87 70 70 222 90 70 222 222 169 69 223 223 175 223 223 178 179 223 223 182 125 223 185 186 139 188 189 149 153 70 191 163 70 71 171 173 72 72 180 72 73 223 187 73 74 223 75 75 223 223 76 223 223 206 206 223 223 208 191 223 209 209 189 223 211 186 185 241 212 183 81 213 108 180 82 214 177 72 83 223 173 84 84 223 94 84 223 223 107 86 223 218 86 124 223 218 123 223 251 218 152 223 219 143 148 251 220 146 145 251 146 143 88 250 148 160 88 148 148 163 88 148 163 163 112 224 163 88 110 234 162 108 224 221 160 105 210 209 103 102 196 133 100 189 187 127 97 183 122 121 142 180 116 115 132 113 112 122 14 111 110 106 88 111 92 88 85 62 74 85 84 176 59 83 175 174 83 83 173 172 83 171 169 142 83 166 145 145 227 162 146 146 157 11 144 30 30 143 142 30 89 138 29 29 92 248 29 93 93 249 28 91 88 250 23 83 67 28 34 234 52 98 50 234 42 88 233 38 165 78 232 190 72 253 231 217 64 28 230 233 253 28 35 240 253 123 49 253 253 131 225 253 135 81 224
70 139 72 74 70 222 81 26 27 222 91 31 8 223 171 37 9 175 177 121 11 180 46 134 69 184 145 13 69 188 158 69 128 223 170 70 127 170 71 71 223 181 72 223 223 200 73 223 223 203 223 223 204 89 223 223 207 192 31 209 209 190 78 210 188 187 79 212 184 80 80 181 180 81 82 178 82 82 223 223 83 83 223 217 83 223 223 218 223 223 218 218 223 223 219 155 223 219 220 151 223 220 147 146 87 220 143 87 87 141 140 87 87 138 87 87 223 135 87 87 224 158 87 224 224 87 87 224 220 220 224 224 217 128 224 213 211 125 224 202 122 120 190 184 115 112 161 128 105 40 36 96 137 25 224 82 17 16 224 115 11 224 224 98 8 225 10 81 87 225 7 5 86 175 6 84 225 173 134 114 172 7 140 153 168 143 181 34 163 145 210 4 145 145 31 5 143 30 30 89 230 30 7 91 131 29 93 232 114 28 93 98 59 89 87 77 86 77 63 58 100 252 49 92 90 28 41 83 81 28 76 74 28 28 68 66 28 26 61 28 28 32 253 28 40 43 32 28 55 32 32 69 74 32 32 88
70 89 6 69 222 93 69 69 222 7 68 222 222 8 67 223 170 9 132 223 175 130 130 130 180 144 223 141 55 157 150 187 61 169 160 66 177 17 170 73 185 71 77 78 20 72 223 22 23 127 223 25 25 127 207 27 127 127 215 31 127 221 210 127 127 229 106 185 233 234 111 180 238 114 115 55 241 119 120 65 123 124 74 76 128 129 86 125 133 95 98 125 248 106 124 124 248 118 124 248 248 123 123 248 248 122 248 248 151 121 247 152 152 223 246 153 153 151 222 154 154 154 222 153 155 114 152 127 156 112 150 156 84 110 123 154 108 224 118 74 105 188 187 59 224 183 131 41 224 180 125 224 224 52 119 224 31 116 69 224 18 114 100 8 11 57 83 89 8 60 5 87 69 74 5 85 92 4 4 225 126 4 225 225 3 3 226 164 11 227 227 13 144 228 228 16 235 229 19 20 243 22 23 246 247 29 32 249 13 44 250 250 19 21 251 25 28 233 251 37 40 234 47 50 233 233 62 233 233 164 76 231 231 196 253 230 216 222 253 229 234 253 253 240 241 253 122 243 253 253 130 243 253 134 135 253
69 69 222 222 69 68 222 148 68 222 222 157 222 222 162 163 223 223 168 126 223 172 174 139 143 177 149 153 67 182 162 165 67 171 173 68 68 180 68 69 223 187 70 70 223 198 71 223 223 201 73 223 204 204 223 223 206 192 223 208 209 189 223 211 187 186 225 213 183 182 79 115 179 80 80 120 174 81 223 170 64 82 223 72 82 126 223 83 83 223 245 95 125 223 221 221 124 246 221 143 124 246 150 139 246 222 152 135 245 154 131 140 243 155 129 85 120 155 148 86 223 155 151 117 224 151 152 115 218 152 113 112 206 152 111 198 195 108 108 189 185 141 184 183 136 101 181 132 130 138 178 125 124 129 120 120 120 117 116 117 105 94 116 93 89 91 91 76 90 89 176 62 88 175 174 4 87 173 172 86 225 169 140 86 167 166 143 226 162 144 144 31 15 143 31 30 19 139 30 90 136 244 29 91 130 29 11 93 249 28 91 91 92 22 85 77 71 32 233 58 95 45 233 47 85 233 233 149 76 232 36 179 253 231 202 62 253 101 226 253 28 112 238 253 118 46 253 253 126 65 253 130 132 224 253 136
142 19 5 5 141 25 6 139 138 6 7 137 222 98 135 134 106 162 133 115 119 48 131 127 130 54 136 138 58 60 146 149 65 14 157 70 72 16 67 76 17 17 127 82 19 127 127 193 21 127 127 23 72 127 197 26 127 127 205 104 127 210 212 109 223 217 113 114 223 224 117 43 228 216 122 49 232 125 169 58 218 131 65 67 126 159 75 125 126 154 83 126 243 148 84 125 243 84 84 223 243 84 124 223 223 84 223 242 224 128 223 224 157 125 223 224 123 143 223 223 121 146 222 119 118 84 219 117 116 82 224 115 78 112 224 73 70 224 187 60 56 224 161 43 224 224 112 29 224 69 57 224 224 34 73 71 22 19 63 61 14 57 56 7 9 54 56 5 58 60 5 5 71 76 4 225 96 4 4 225 8 4 225 225 10 3 226 13 14 227 227 16 17 227 19 20 236 228 23 242 243 139 28 247 247 11 248 249 14 16 250 251 21 232 251 28 31 233 252 40 233 233 28 54 233 135 141 29 232 162 170 231 35 193 253 229 214 220 253 33 232 253 253 32 49 253 122 32 45 253 128 224 43 28 134 223
19 94 68 120 98 5 68 102 104 67 138 110 112 66 222 120 66 65 223 132 65 223 223 65 65 223 171 172 223 223 177 178 223 181 182 179 223 185 187 186 189 190 190 191 194 194 193 69 198 194 194 70 223 194 71 72 223 192 73 223 223 74 75 223 223 76 223 223 213 77 223 215 215 175 223 217 217 169 218 218 164 163 220 220 158 81 221 153 152 82 222 147 82 82 148 141 83 223 223 106 83 223 223 84 124 223 224 84 223 223 224 122 223 224 224 121 229 223 117 120 222 222 115 83 213 158 113 81 215 156 146 76 154 108 146 67 150 146 56 224 146 143 108 224 122 139 106 224 65 104 103 178 33 101 224 177 121 99 177 13 119 177 177 119 54 176 176 121 69 5 125 126 56 4 131 48 46 89 136 41 39 88 37 36 88 88 34 87 88 160 32 88 88 155 139 89 150 148 135 90 142 131 130 133 129 124 29 118 119 116 28 98 110 28 28 78 100 28 28 58 252 28 44 40 252 28 30 39 28 78 24 36 88 23 34 33 100 27 33 53 51 227 32 49 47 226 244 45 28 31 245 253 28 244 40 253
66 103 98 5 143 25 103 5 140 109 6 66 138 118 65 135 222 129 64 133 117 64 64 223 129 64 64 223 169 64 223 147 176 176 223 180 76 184 223 185 188 16 189 190 192 18 193 194 194 68 127 195 195 70 223 194 71 71 223 72 73 223 223 74 74 223 212 75 223 223 214 77 223 215 216 170 223 218 166 163 219 220 159 157 220 153 151 81 221 146 145 81 142 140 81 81 136 134 82 223 223 82 82 223 224 83 223 223 224 83 223 224 224 223 223 223 223 223 222 222 112 112 219 110 109 79 215 108 107 74 157 105 68 65 103 102 56 224 98 44 41 224 93 30 224 224 74 20 224 44 37 104 224 24 21 102 177 15 59 224 177 10 54 176 8 121 55 176 123 62 60 4 128 80 4 225 134 43 4 225 139 38 88 225 35 3 88 225 32 88 226 157 21 89 153 24 136 90 146 27 244 139 136 126 247 126 122 118 28 108 112 109 28 105 102 28 28 67 92 28 51 46 28 28 34 232 28 27 25 37 28 23 22 34 23 24 33 33 29 32 32 49 48 32 31 46 28 31 43 43 28 31 41 28 28 244
90 99 70 102 103 104 114 117 109 66 127 117 119 65 137 127 64 64 222 139 64 223 223 9 63 223 223 10 130 223 168 63 129 223 175 129 223 179 181 127 164 185 192 192 171 190 194 66 177 100 195 68 198 106 22 69 110 193 25 71 115 27 72 127 223 31 127 223 204 35 127 223 214 127 127 213 217 127 127 218 138 126 220 222 143 223 224 146 147 70 226 149 78 81 153 153 88 81 156 96 98 125 158 105 108 124 112 114 124 123 120 123 123 218 216 123 122 212 162 121 206 204 161 120 199 160 160 223 192 159 141 187 157 156 141 141 153 140 140 113 148 138 137 111 86 133 109 108 78 127 106 177 120 10 104 177 8 102 224 177 122 99 176 8 122 224 176 124 125 224 8 128 53 225 8 96 45 10 10 130 38 13 159 168 3 89 193 32 4 226 218 4 89 227 233 6 227 148 7 8 228 31 10 229 229 39 118 230 51 57 250 231 74 102 251 91 96 252 28 108 252 252 56 124 252 252 71 252 252 81 84 230 252 93 229 229 101 104 228 228 111 227 227 239 118 225 243 244 224 224 246 246 223 245 245 253
67 84 102 104 67 100 109 66 66 115 117 65 222 125 64 64 222 136 63 222 223 147 63 223 223 155 223 223 161 163 223 223 167 180 223 172 174 187 177 179 191 191 63 184 194 64 64 195 195 65 65 195 67 67 223 194 68 223 223 70 70 223 223 71 223 223 210 210 223 223 212 174 223 214 215 167 223 217 161 159 212 219 153 78 220 147 145 79 221 139 79 79 223 132 80 80 223 87 80 223 223 96 125 223 224 80 125 223 223 124 223 213 222 109 223 221 163 106 203 218 104 103 196 162 101 71 190 160 138 62 159 158 139 50 156 139 139 115 224 137 27 113 178 133 112 224 46 110 109 177 26 107 107 177 128 105 177 177 123 102 176 122 122 80 176 124 57 66 126 127 58 4 131 50 48 93 136 42 41 91 38 37 90 90 164 34 90 161 160 90 89 156 137 90 152 151 132 90 145 128 127 228 135 121 119 125 45 113 28 28 107 105 28 80 97 28 28 62 252 28 46 41 252 28 30 42 252 76 23 37 28 89 230 34 55 25 229 213 50 227 32 47 46 226 240 44 28 225 245 41 28 246 246 253 28 105
20 104 70 72 25 110 79 30 31 5 65 36 125 64 139 44 6 63 222 7 7 134 223 9 9 132 132 10 130 130 142 11 129 149 151 82 128 156 173 89 162 163 95 194 168 100 102 17 173 107 108 19 111 113 21 21 127 118 23 127 127 25 26 127 190 28 127 127 194 32 127 197 198 74 127 201 202 127 223 205 144 145 207 208 148 55 210 151 151 63 221 153 70 73 222 157 80 126 222 119 90 125 161 114 79 125 210 106 125 223 206 78 124 203 202 76 223 198 163 73 223 193 163 223 223 204 162 134 185 190 94 136 175 157 91 36 143 88 135 25 94 84 19 113 80 78 13 111 73 11 10 224 177 9 224 224 12 7 224 224 9 224 224 8 8 224 224 8 64 224 8 9 82 224 10 103 110 3 13 137 3 3 164 173 3 4 196 4 4 225 220 5 5 227 6 6 227 227 30 228 228 34 35 229 229 44 249 230 56 61 251 231 78 251 252 93 97 252 252 109 252 252 60 63 252 70 74 231 253 84 87 230 28 96 229 229 103 106 228 222 112 227 226 237 55 225 243 244 253 224 246 253 253 30 245 253
222 67 108 110 74 81 115 65 65 34 124 64 64 132 6 63 222 143 62 62 222 7 61 223 223 9 132 223 149 10 130 223 157 183 129 152 165 189 223 159 95 193 164 177 102 196 169 107 197 62 173 113 19 63 118 119 21 65 223 23 24 127 223 26 68 127 188 29 127 223 192 127 127 194 212 127 127 198 144 127 200 200 148 145 202 151 152 56 205 154 155 64 156 157 71 74 159 79 81 126 161 88 91 125 204 98 125 125 201 106 125 199 198 124 124 195 165 123 192 191 164 122 188 163 163 223 184 162 161 133 176 159 134 134 145 156 133 117 153 83 131 115 80 128 114 113 74 123 112 177 68 9 110 177 177 7 224 177 125 105 224 8 125 224 176 8 126 224 9 130 75 224 10 134 46 3 13 122 39 93 17 158 3 92 184 191 4 225 210 4 5 226 229 6 227 227 7 8 227 142 33 228 228 39 114 229 49 53 250 230 69 74 251 85 90 252 252 102 105 252 55 115 252 252 68 25 253 79 82 230 253 92 229 229 99 102 228 228 109 227 227 229 116 226 225 240 253 224 244 244 253 246 246 253 253 245
66 23 222 72 27 28 222 81 33 5 88 38 41 6 105 46 6 6 118 55 7 135 134 163 8 133 132 173 60 131 141 10 59 223 149 58 129 223 156 59 223 161 171 59 223 167 109 197 223 182 115 18 223 188 195 20 192 193 193 64 197 189 188 65 201 183 67 68 177 175 69 127 223 70 70 223 192 72 223 223 214 73 223 223 216 223 223 217 218 223 223 219 122 121 220 220 116 75 220 111 110 75 220 106 74 74 104 102 73 73 100 72 71 223 97 69 67 223 208 63 223 223 199 223 223 189 185 223 223 169 88 223 146 137 85 223 103 82 82 68 59 78 77 13 74 73 10 10 69 9 9 224 63 7 7 224 97 6 224 224 5 5 224 8 5 224 224 8 69 224 10 11 89 224 13 109 117 168 16 143 152 165 142 178 4 23 140 207 4 225 221 31 5 226 30 7 91 227 30 9 228 138 29 91 229 47 29 90 112 66 84 82 91 92 251 75 71 82 252 58 75 74 28 46 67 253 77 61 60 28 89 55 54 28 24 50 28 28 34 32 28 45 50 32 28 65 31 31 81 87 31 245 100 31 30 37
66 222 55 65 222 222 67 65 222 77 81 222 222 92 96 145 103 107 153 156 116 161 163 60 127 171 173 59 76 180 59 58 185 187 58 223 223 58 58 223 162 58 223 223 170 58 223 174 176 127 223 181 182 127 174 187 194 223 177 192 190 63 196 136 184 65 139 178 28 67 142 169 68 127 146 34 69 223 149 39 127 223 43 45 127 192 215 127 127 193 216 126 194 217 160 126 194 218 109 194 194 163 104 193 193 164 92 70 165 166 101 125 166 107 109 125 166 114 124 124 119 120 123 223 124 122 122 181 127 121 179 179 160 120 178 178 156 178 178 152 151 178 177 146 122 177 141 140 116 177 136 108 106 11 131 98 110 109 56 85 108 106 75 5 105 175 63 103 102 173 4 100 172 171 3 224 169 141 3 225 165 143 35 225 24 141 32 159 138 218 31 29 132 30 30 31 238 30 91 35 244 12 92 131 248 17 90 116 23 25 230 97 33 72 231 96 45 231 61 109 231 231 118 67 231 230 132 253 28 146 152 253 28 172 253 253 106 201 253 253 113 253 253 118 119 253 122 123 223 253 126 127 223 245 130 223
45 25 222 222 53 30 222 62 65 133 222 76 141 143 62 90 151 6 61 159 162 60 136 169 172 59 223 178 58 58 223 57 57 223 223 57 57 223 152 155 223 223 160 162 223 166 168 198 223 174 175 197 178 180 196 195 185 193 192 60 190 188 187 61 223 182 63 63 223 173 64 223 223 66 66 223 207 67 223 223 209 68 223 211 212 131 223 213 213 121 214 214 115 113 215 215 108 69 214 104 103 69 164 99 67 67 166 96 65 223 223 100 60 223 223 56 125 223 195 49 223 181 181 124 223 167 161 123 179 138 82 122 178 95 80 17 64 155 77 13 37 74 121 10 145 70 9 116 139 110 7 224 134 101 112 224 9 89 110 224 8 108 108 175 9 105 174 174 133 103 172 13 138 171 169 141 124 167 166 144 36 3 143 143 33 4 140 32 31 92 135 31 92 92 30 30 92 92 30 92 92 137 29 92 91 124 103 88 111 107 94 230 91 87 84 75 70 78 28 58 71 69 28 46 64 28 28 134 57 28 28 21 253 28 25 28 28 108 37 32 28 50 55 32 120 71 31 31 124 92 31 37 37 223 31 36
163 222 44 65 158 222 52 132 222 86 64 142 222 73 49 152 104 88 160 6 114 66 170 59 126 76 8 58 223 85 9 57 223 10 10 130 223 11 129 129 158 12 128 223 163 128 128 166 166 127 127 170 129 197 172 173 134 193 175 137 139 22 177 141 24 24 144 146 26 61 148 28 29 127 151 32 33 127 184 36 127 127 185 66 127 186 186 127 127 186 161 127 187 187 162 127 187 163 164 70 186 165 166 80 209 166 86 89 166 91 95 125 167 101 103 125 87 109 124 124 85 114 124 180 180 29 124 179 162 22 223 178 160 122 223 58 156 223 177 34 151 223 24 147 69 223 16 141 109 116 12 62 101 114 59 59 5 112 58 80 5 224 62 4 108 224 72 4 224 172 14 3 224 16 142 224 224 21 145 225 23 24 178 225 27 27 206 29 29 220 223 31 31 232 7 8 238 240 10 227 244 14 15 228 247 20 229 229 26 29 230 230 37 230 230 97 49 231 106 108 252 231 116 119 253 125 128 253 253 141 147 253 98 165 253 253 107 193 253 113 114 225 253 119 224 224 122 124 223 223 126 223 223 245 129 223
221 65 222 222 43 44 222 48 50 141 222 58 61 151 99 71 158 161 82 85 168 59 95 175 177 58 81 183 57 57 223 189 56 223 223 10 55 223 223 55 129 223 148 54 223 223 156 128 223 162 164 127 170 170 197 196 173 177 193 56 175 143 186 57 187 146 24 58 149 172 27 127 152 29 60 127 223 33 127 223 182 38 127 223 205 127 127 184 207 127 127 184 162 127 184 184 164 184 184 165 166 72 183 166 79 56 167 167 88 51 167 94 96 125 167 102 125 125 107 109 124 124 113 124 124 179 178 124 124 178 161 123 178 178 158 122 177 155 154 177 177 149 117 177 146 144 111 109 140 105 102 116 136 95 92 114 59 84 112 112 61 4 110 175 63 4 108 173 4 105 224 171 142 102 168 20 146 224 165 146 146 225 27 144 33 225 29 212 31 30 30 227 30 32 234 236 9 92 241 29 92 227 245 17 90 124 23 26 229 107 33 36 230 91 45 230 230 103 72 231 110 113 252 230 121 58 253 131 134 253 28 149 253 253 104 174 253 253 112 253 253 116 118 224 253 121 223 223 124 125 223 243 127 223 223 244
5 167 70 4 164 163 79 5 158 86 88 154 152 96 54 148 104 106 64 66 115 72 74 7 125 82 85 8 105 92 8 9 116 193 10 131 108 196 11 129 199 12 53 128 162 13 128 223 166 53 128 169 169 53 223 172 141 54 223 175 145 223 175 180 149 223 185 151 174 26 190 153 28 57 193 153 31 127 143 140 58 127 130 128 58 223 119 59 59 223 182 59 223 223 203 57 223 182 202 223 223 200 167 223 198 196 88 223 192 191 85 186 184 84 84 36 171 83 31 29 81 80 24 223 79 20 19 223 78 16 223 223 13 12 223 223 11 223 223 23 21 223 223 16 67 223 12 12 64 10 10 61 61 9 9 60 5 9 61 62 4 4 67 4 4 224 77 3 224 224 3 3 224 224 3 224 224 24 3 224 224 27 97 225 29 29 209 225 30 221 224 153 32 231 8 34 119 239 12 40 243 29 17 103 246 23 25 94 28 32 229 229 28 62 230 98 53 39 230 108 27 230 48 117 19 229 125 54 19 37 141 253 253 34 45 253 109 32 43 28 116 40 40 28 120 39 28 28 97 37 28 127 112 28 28 119
66 32 169 221 34 139 164 81 39 148 158 91 51 158 99 54 61 167 109 70 174 6 58 81 7 57 137 90 8 55 222 9 9 132 223 10 10 130 154 11 129 129 160 12 128 163 164 133 128 166 137 138 169 170 142 196 171 145 146 19 173 149 149 22 151 151 23 24 127 25 26 127 127 28 29 127 179 31 127 127 180 35 127 180 180 55 127 180 180 127 223 180 165 165 181 197 165 59 181 166 166 67 193 167 74 76 187 167 82 126 167 83 91 126 81 97 29 125 179 104 125 223 178 19 124 178 178 15 223 178 161 12 223 177 158 223 223 24 154 114 18 16 68 109 13 145 65 7 10 62 97 6 9 61 5 116 62 62 5 224 65 4 4 224 173 4 224 224 16 3 224 169 20 224 224 23 150 224 224 27 173 224 28 29 201 30 30 215 218 6 32 227 8 8 233 235 11 12 240 14 15 227 244 20 228 228 27 29 228 229 82 229 229 93 96 230 230 103 252 230 109 111 252 229 118 252 252 127 130 253 97 143 253 253 106 108 253 111 113 225 253 117 118 224 28 121 223 223 124 223 223 241 128 223 223 243
64 173 70 138 64 168 79 62 62 222 88 50 222 222 45 61 222 106 54 175 222 63 81 182 222 76 187 8 86 89 193 54 99 196 196 53 131 199 52 52 223 200 52 129 223 51 51 223 165 50 50 223 149 50 223 223 156 223 223 162 163 188 223 169 182 179 173 175 172 169 178 163 159 51 183 150 52 52 139 135 51 51 223 51 51 223 223 50 50 223 191 49 223 223 190 48 223 189 189 223 223 186 87 223 181 180 84 83 173 81 81 30 160 80 80 25 79 78 22 20 77 19 17 223 76 15 14 223 111 12 223 223 33 10 223 24 22 123 223 17 15 223 177 12 65 223 10 143 63 176 9 62 62 5 137 62 5 5 136 66 4 224 139 61 4 224 54 51 110 224 46 3 107 167 40 104 224 26 27 101 162 28 192 98 159 31 212 156 156 133 225 153 125 122 30 148 115 238 29 108 105 29 19 89 97 28 84 228 28 28 71 95 28 56 50 75 28 34 61 57 23 21 48 45 56 41 40 52 51 37 36 47 28 34 44 43 28 175 41 28 28 39 39 28 82 37 28 28 103 106 28 113 116 30 28 122
28 138 140 64 38 146 63 62 46 5 61 222 55 5 60 222 5 5 150 222 6 58 144 122 63 141 222 132 76 136 139 85 110 133 146 118 199 152 153 126 201 157 132 133 12 162 138 201 13 128 144 15 48 128 16 17 127 223 18 19 127 173 21 127 127 174 23 127 175 175 127 127 176 176 161 177 177 162 162 177 163 163 35 178 164 164 39 184 165 43 45 166 166 49 127 127 54 55 127 179 61 127 126 178 70 126 178 178 30 126 178 178 25 223 178 167 126 223 178 167 101 178 76 165 105 56 164 74 109 37 161 111 124 25 70 111 124 17 69 8 123 67 105 7 223 177 6 121 223 176 5 223 176 9 5 223 175 139 224 224 12 140 224 224 15 82 52 18 19 98 3 23 115 122 3 26 147 3 4 174 181 4 100 201 5 5 225 217 6 225 225 34 9 225 225 37 225 225 42 44 226 227 53 244 227 66 70 247 228 82 249 250 92 95 251 56 60 251 251 69 72 252 78 82 229 252 90 93 228 98 99 227 226 106 226 225 163 170 225 225 190 253 224 209 214 253 223 227 253 253 235 237 253 253 241 253
139 64 221 146 63 63 221 62 62 222 222 61 61 222 33 59 222 222 39 58 222 46 49 222 222 56 191 192 66 69 196 196 78 198 199 52 91 200 201 51 132 202 50 49 202 202 48 223 223 48 47 223 132 47 223 223 141 46 223 147 149 127 223 154 156 127 174 160 170 223 175 161 157 45 169 162 142 45 163 131 45 44 165 117 44 223 165 39 42 223 98 45 127 223 49 38 127 178 170 127 223 178 163 127 178 155 168 126 178 141 78 178 178 168 76 178 167 167 95 15 166 166 101 126 165 104 105 125 162 107 125 124 108 108 124 223 108 124 124 177 105 123 177 177 147 122 176 176 143 176 176 141 141 176 176 140 74 175 141 142 64 14 145 57 55 18 150 49 112 111 106 42 109 108 39 107 106 163 35 104 103 161 4 101 158 158 6 225 155 131 96 225 151 120 30 148 40 109 29 141 102 242 29 60 92 28 32 77 248 28 67 90 250 52 44 74 251 65 25 57 74 77 229 45 86 16 228 121 96 227 35 133 226 226 147 42 225 225 171 253 28 191 198 253 28 215 253 253 124 231 253 126 127 253 253 129
66 39 5 5 43 44 5 62 51 6 5 167 60 5 162 160 104 5 154 153 115 149 148 122 125 144 142 132 108 139 138 141 118 222 146 125 128 223 153 133 11 11 139 141 12 12 145 13 13 128 150 15 15 128 198 17 128 127 193 45 127 172 172 44 127 174 161 127 223 174 163 127 175 159 164 223 176 164 133 223 165 165 33 223 167 109 38 127 166 99 43 127 92 90 34 127 86 53 31 223 82 28 127 223 26 25 223 177 22 21 223 111 168 223 223 86 167 223 68 62 73 223 47 73 72 36 32 71 104 25 71 70 9 124 69 69 7 223 67 7 7 223 66 6 223 223 5 5 223 9 5 223 223 10 4 223 11 12 71 224 14 15 79 17 18 86 90 21 98 103 3 25 123 131 3 148 157 4 4 181 189 4 224 224 5 6 225 225 7 225 225 35 10 225 38 40 225 225 46 49 226 55 59 243 227 71 75 247 39 86 248 249 52 71 250 61 64 63 251 73 228 252 28 84 228 252 93 18 227 124 101 226 226 138 36 225 153 159 57 32 179 253 81 31 205 253 30 30 36 253 30 233 34 27 128 34
64 64 221 152 62 221 221 6 61 221 221 5 168 222 26 59 161 222 29 184 222 117 35 190 125 40 106 195 134 50 198 9 143 125 201 51 150 133 10 49 223 141 11 48 223 12 13 129 223 14 128 128 167 16 128 223 122 128 127 171 131 127 127 172 162 178 173 173 163 24 174 164 164 26 176 166 28 29 166 166 32 38 166 34 35 127 167 38 40 127 177 43 127 127 177 127 127 178 178 127 127 177 169 127 177 177 168 127 177 168 168 78 177 168 83 85 63 167 91 92 166 72 97 126 165 100 101 126 70 103 125 125 69 103 125 177 177 7 124 177 152 6 223 176 148 123 223 9 145 223 176 144 144 223 11 144 70 223 14 75 60 118 18 83 52 116 93 97 3 113 113 41 3 224 144 4 108 224 178 4 224 159 32 5 224 33 141 225 225 35 127 225 38 39 231 225 43 45 236 51 54 240 241 66 244 245 36 39 247 247 47 228 249 57 59 228 250 69 228 228 78 81 228 227 89 227 227 117 98 227 124 127 252 225 139 144 253 154 160 253 253 180 186 253 121 205 253 253 125 253 253 127 127 253 253 128
66 23 154 220 23 50 6 5 22 168 6 173 23 176 6 166 181 183 57 158 188 7 56 222 193 54 146 222 53 53 222 140 49 51 222 57 135 222 223 68 142 223 77 79 203 223 88 203 202 95 97 200 200 44 198 197 43 43 192 190 42 223 185 41 41 223 174 40 223 223 39 39 223 139 38 223 223 142 143 223 144 144 115 223 145 144 102 144 143 95 93 140 89 86 28 134 82 81 25 80 79 22 21 223 76 19 223 223 17 16 223 223 14 223 223 54 12 223 42 39 126 223 30 28 70 177 22 70 70 17 16 68 8 13 68 67 7 155 67 6 6 151 66 5 223 148 88 5 223 223 81 122 223 11 4 121 223 14 120 223 17 18 119 171 21 91 116 168 25 110 166 165 168 140 4 30 166 35 4 161 196 32 104 151 31 7 101 137 30 99 225 29 29 97 225 43 94 93 142 54 90 88 132 89 83 122 118 80 109 105 73 72 90 84 66 28 69 61 59 28 80 55 27 27 15 49 27 19 21 27 27 28 32 27 41 46 32 27 64 70 31 119 88 31 30 36 108 30 35 35 223 30 34 27 29 34
23 220 220 21 161 221 21 21 169 86 20 175 176 96 20 182 58 107 88 188 56 56 101 7 54 222 197 53 53 222 8 52 222 222 9 137 222 52 10 134 223 63 132 132 160 73 203 223 164 156 202 166 91 160 16 168 161 194 18 171 163 20 40 165 165 22 39 223 24 24 127 223 26 26 127 175 29 127 127 176 127 127 176 176 127 127 176 169 127 177 177 169 87 176 169 169 48 176 169 53 55 169 169 60 61 169 65 67 127 168 73 75 127 72 80 127 127 177 87 126 177 177 126 126 177 164 126 177 177 161 126 177 159 159 223 177 156 155 96 9 153 93 92 9 66 87 124 148 67 80 123 69 74 4 122 73 65 121 223 78 3 120 171 170 3 224 168 169 3 224 28 172 224 224 30 170 224 31 32 193 224 33 156 31 34 35 219 31 101 224 225 11 97 229 230 16 225 234 21 23 225 239 30 226 226 37 40 226 109 90 227 227 96 67 227 100 101 250 228 104 105 251 107 108 252 252 112 113 252 103 119 252 252 110 224 252 114 115 224 252 118 223 223 121 122 223 223 124 223 223 219 126 222 222 230 223
22 21 159 161 21 20 167 61 19 173 175 59 19 181 58 58 186 187 57 56 192 56 55 222 222 53 222 222 27 52 222 222 33 222 222 39 41 222 222 48 205 223 55 57 205 45 65 203 203 43 74 201 43 42 198 197 41 41 192 40 40 223 184 39 38 223 22 37 223 223 111 127 223 114 114 223 223 116 127 223 117 117 111 223 116 102 99 176 112 92 26 176 169 84 23 22 169 49 20 223 76 55 17 223 60 15 127 223 68 13 223 177 75 127 223 34 167 127 177 26 70 126 177 165 69 177 177 163 68 177 161 161 95 177 158 95 7 156 155 92 5 223 89 87 125 223 82 81 124 175 75 124 123 174 67 123 173 173 122 121 171 165 120 169 169 171 100 167 174 175 40 164 175 175 36 173 171 34 34 166 32 32 106 153 31 31 103 155 30 100 99 152 29 97 148 147 19 93 142 140 89 225 132 86 79 122 84 77 226 105 71 68 28 98 63 27 27 102 56 27 15 106 251 27 16 252 252 100 23 252 27 33 224 252 112 53 32 32 117 223 31 37 121 223 30 36 223 223 205 34 222 219 222 252 223 229
21 196 70 20 59 191 79 64 173 86 89 73 181 58 81 84 7 57 93 97 7 163 107 7 8 155 120 8 150 148 9 9 143 144 10 140 139 151 37 136 155 156 155 133 160 161 159 163 163 161 162 166 164 164 17 168 165 166 18 128 166 20 20 127 168 22 127 127 165 24 127 127 26 33 127 175 28 127 223 175 30 127 175 176 169 223 176 170 170 223 176 170 42 176 83 170 47 75 170 76 53 64 169 58 14 52 72 65 127 127 71 11 127 176 70 10 127 177 9 8 223 177 8 223 223 14 7 223 177 11 67 223 10 159 67 223 9 67 90 9 9 67 5 9 68 68 5 10 69 4 4 72 72 3 3 223 3 3 223 171 3 3 223 25 3 223 224 28 224 224 29 30 224 224 32 174 224 33 33 200 205 35 212 215 7 36 220 10 10 224 225 13 15 229 17 19 225 233 25 27 225 70 34 226 226 83 44 226 90 92 226 227 96 248 227 100 101 250 227 104 251 251 47 106 251 251 99 45 252 105 106 252 26 111 224 252 115 116 223 26 119 223 223 26 123 223 187 124 118 222 209 214 222 30 224 252
218 20 164 219 74 19 172 220 17 72 179 59 16 185 186 57 90 190 56 56 103 7 54 222 116 8 52 222 8 9 149 222 9 49 222 147 27 139 222 32 154 135 157 38 205 133 161 162 203 164 165 165 200 167 166 167 18 169 168 190 20 128 169 21 36 127 23 23 127 223 25 26 127 174 27 127 127 175 30 127 175 175 127 127 176 170 170 176 176 170 170 176 170 170 44 176 170 170 49 55 170 54 55 170 170 60 127 127 65 66 127 176 72 127 127 176 78 127 177 177 8 127 177 177 7 223 177 163 126 177 10 161 90 176 159 158 89 9 156 87 85 9 154 81 125 11 69 75 125 155 72 3 124 74 62 3 223 172 3 123 223 169 3 223 168 27 3 224 165 183 224 224 31 181 224 32 33 192 33 35 35 211 7 36 218 220 9 40 223 12 13 226 227 17 96 230 22 24 225 234 31 225 225 79 41 226 226 90 226 226 94 96 226 227 99 249 227 101 102 250 103 104 251 251 106 107 251 102 104 252 252 109 110 252 113 114 223 252 118 118 222 120 121 223 223 123 222 222 192 198 222 222 212 252 223 222
8 200 219 72 65 197 79 81 73 220 89 80 82 221 99 90 7 221 14 102 7 118 14 199 8 160 126 202 51 152 204 9 50 146 206 48 142 222 206 46 137 156 45 44 223 160 43 223 223 40 166 223 223 47 198 223 52 53 192 223 57 185 21 62 63 174 23 66 163 159 32 69 148 31 30 223 131 28 28 223 27 26 223 223 24 23 223 64 21 223 223 58 223 223 53 51 223 223 45 75 74 39 38 73 72 32 71 71 11 26 70 70 9 70 69 8 8 68 8 8 223 223 7 7 223 11 7 223 223 9 6 223 9 9 223 223 9 68 223 9 9 68 223 11 70 70 4 13 72 72 3 161 75 3 3 78 79 3 223 84 3 3 223 45 3 223 223 40 3 224 31 32 117 224 33 33 114 160 35 206 224 158 161 217 156 39 143 223 153 128 225 29 17 110 229 22 93 96 28 30 225 85 28 76 225 27 27 57 109 27 41 226 88 27 22 73 100 55 15 56 103 250 47 45 47 251 39 44 43 25 35 41 40 25 39 39 25 25 37 37 25 99 104 25 25 114 222 25 121 122 30 25 123 30 29 121
65 67 66 171 74 77 73 7 84 79 183 7 94 88 7 56 96 99 7 176 109 8 8 168 122 8 161 159 134 9 153 151 141 148 146 147 149 142 152 153 160 137 157 158 164 223 161 166 167 164 164 168 17 17 169 170 19 19 171 20 21 128 171 22 128 128 169 24 127 127 155 31 127 174 174 28 127 174 171 127 223 175 171 223 176 53 171 223 176 171 86 223 44 171 43 223 39 76 48 127 32 73 53 127 71 58 10 127 70 10 127 223 69 9 127 176 8 8 223 176 7 7 223 11 164 223 223 9 68 223 8 9 68 223 9 68 68 9 9 69 80 10 69 70 4 126 72 72 3 223 74 3 3 223 3 3 223 223 3 3 223 27 3 223 223 29 3 223 31 32 146 224 33 173 181 35 35 199 204 37 211 214 8 39 219 221 11 223 224 14 16 226 227 20 225 225 26 28 225 73 35 225 225 84 46 225 90 92 226 226 96 97 226 98 99 248 226 101 249 250 90 102 250 251 98 45 251 104 106 42 252 110 223 252 24 115 223 252 118 92 222 138 121 222 153 159 118 222 178 184 123 30 200 252 122 29
19 61 218 218 17 60 219 16 15 220 220 14 89 220 12 13 193 7 12 11 198 53 11 200 202 52 203 203 51 50 205 206 49 222 206 48 47 222 207 45 222 222 18 43 222 22 23 223 223 25 26 223 29 29 198 223 33 34 191 36 37 184 181 39 40 172 32 32 161 157 30 223 145 29 28 223 128 26 223 223 24 24 223 223 22 223 223 40 39 223 37 36 82 223 33 32 77 176 28 74 74 176 24 72 11 21 170 70 10 18 70 9 9 223 69 8 223 223 75 7 223 223 79 127 223 9 6 127 223 8 126 223 176 9 126 176 9 160 69 176 11 70 74 175 161 72 3 174 165 64 3 171 173 57 3 179 53 51 124 223 47 124 123 166 41 122 223 164 121 120 162 33 119 118 161 186 116 159 159 174 158 158 163 158 30 155 143 29 29 127 122 29 20 108 28 28 92 94 28 28 82 235 27 70 66 27 56 50 108 104 34 29 88 59 19 73 68 53 14 56 49 48 225 44 45 24 39 104 42 24 35 40 252 24 67 38 23 23 91 252 23 105 109 252 23 117 30 252 125 122 30 126 126 223 29 33
61 71 73 8 204 78 8 8 201 219 8 197 195 96 8 191 221 107 185 183 114 10 176 122 124 130 167 131 134 143 10 140 150 152 11 147 158 12 12 163 164 13 14 167 14 15 135 170 16 133 133 202 18 131 131 167 37 129 169 170 129 129 171 173 128 171 172 173 223 173 173 173 223 174 173 29 174 35 173 31 32 173 104 33 127 172 36 36 127 87 39 127 127 80 15 127 176 75 13 127 176 171 11 223 176 170 127 223 15 170 223 176 13 69 223 11 168 68 223 10 68 76 9 9 68 79 127 68 68 5 127 69 69 5 223 69 5 126 223 5 4 223 175 3 3 223 16 3 223 223 19 176 223 23 24 82 223 26 87 89 28 29 100 104 30 117 124 4 32 149 158 4 224 183 5 6 224 205 7 224 224 9 10 224 44 12 224 224 49 17 224 55 58 224 225 67 70 231 76 79 234 235 87 237 238 53 93 241 242 64 62 244 73 75 247 247 84 225 249 91 92 224 224 99 224 224 103 106 223 104 105 53 222 108 109 222 32 115 252 222 123 127 252 122 141 252 252 124 34 252 126 126 34 252 127 224
170 60 217 217 9 59 218 218 14 202 219 12 12 220 220 11 195 220 10 10 199 117 9 202 203 127 8 205 50 8 147 206 48 48 208 12 46 222 208 44 143 222 14 43 222 222 16 135 222 16 18 132 223 18 131 131 168 21 190 223 170 174 181 171 25 173 25 172 174 155 27 173 173 28 26 173 173 30 24 223 32 33 127 223 34 127 127 175 37 127 223 175 127 127 176 20 127 127 176 171 127 176 176 171 71 176 170 170 60 176 169 64 65 169 168 69 69 168 71 72 127 166 75 75 127 68 77 127 127 176 5 127 176 176 126 126 176 163 126 175 175 165 126 175 168 170 223 173 175 177 57 22 185 53 51 25 84 47 125 199 94 43 124 108 40 4 123 137 36 122 223 172 5 119 160 189 7 224 158 176 9 224 44 159 224 155 49 138 224 54 121 226 224 65 101 28 74 77 231 28 77 234 235 50 59 238 239 61 225 242 69 72 225 246 80 225 225 87 90 224 100 100 224 224 101 44 223 102 102 251 222 104 105 251 107 108 252 252 114 116 252 122 126 252 252 123 222 252 125 125 223 252 126 224 224 127
10 208 175 9 207 207 9 8 205 85 8 201 200 96 8 196 104 107 54 189 114 117 124 221 124 134 137 221 7 146 11 139 8 156 12 8 162 13 13 9 168 14 143 10 206 16 138 161 204 39 134 164 19 37 223 167 36 131 223 169 34 223 170 18 32 223 171 174 223 223 21 174 28 21 21 129 30 21 21 113 21 21 102 100 19 20 92 17 17 86 84 15 223 223 13 13 223 176 11 223 223 14 10 223 223 12 223 223 11 11 223 223 10 69 223 9 9 68 7 8 68 68 6 8 69 6 5 69 69 5 5 70 5 4 223 71 4 223 223 3 3 223 223 16 223 223 19 20 223 223 23 79 223 25 26 84 223 28 90 93 30 30 107 4 4 127 135 4 4 161 5 5 223 192 6 7 224 31 8 224 224 30 114 224 48 14 110 224 55 225 224 63 66 227 224 75 229 230 141 85 233 234 131 73 237 58 95 65 25 69 60 244 25 80 224 24 87 14 224 23 96 224 47 22 26 223 100 39 44 35 102 62 68 33 38 251 32 32 36 252 30 35 35 21 30 34 252 21 34 34 21 126 33 22 22 115
17 10 209 215 15 58 208 80 13 205 218 90 11 201 98 10 110 195 109 117 200 116 119 129 204 50 139 142 11 49 151 154 12 162 160 13 13 153 14 14 148 146 15 16 142 159 17 138 137 163 10 134 165 165 176 132 167 168 176 169 170 176 176 171 176 176 26 172 175 175 27 128 175 29 30 127 174 31 127 127 108 33 127 175 35 127 127 175 37 127 175 175 14 127 176 176 172 223 176 171 171 223 176 171 53 176 10 171 58 9 170 69 62 9 169 65 6 8 69 69 127 127 69 5 127 176 69 5 223 176 5 5 223 176 4 223 223 13 3 223 174 16 74 223 18 179 58 223 22 78 53 25 26 82 3 28 87 90 3 30 100 3 4 117 124 4 124 223 5 5 223 161 6 223 224 41 8 224 224 45 224 224 48 50 224 224 55 224 224 61 64 226 226 73 228 228 37 84 230 44 46 233 234 54 58 237 63 66 225 241 74 76 224 98 84 224 224 99 224 223 99 99 223 223 99 250 222 99 99 251 222 100 251 251 102 104 251 251 120 252 252 122 122 252 123 124 222 252 125 126 223 20 127 224 224 21
11 16 16 178 58 14 183 185 57 12 189 56 56 219 195 54 219 220 53 52 220 116 51 221 221 6 49 221 221 6 222 222 5 6 222 222 6 208 208 6 6 208 42 7 207 206 40 7 204 38 38 201 200 36 36 195 35 34 223 187 33 223 223 12 30 223 223 12 223 223 13 13 223 223 13 126 223 13 13 111 223 13 101 98 17 13 91 16 16 173 84 14 13 80 12 12 223 76 10 10 223 49 9 223 223 53 127 223 8 8 127 223 8 69 223 176 7 69 223 8 168 69 176 8 69 70 176 167 70 4 176 167 69 4 223 168 67 3 223 64 63 126 223 60 3 127 172 55 127 223 169 126 126 168 29 87 126 166 211 99 164 164 212 122 162 210 209 35 161 205 181 33 199 197 32 8 188 31 30 118 224 30 30 114 155 29 110 108 153 28 103 150 149 95 92 145 89 81 141 138 77 62 131 69 67 25 117 62 60 24 98 56 23 23 52 50 22 16 48 21 21 22 249 20 32 37 39 19 53 35 35 114 76 33 32 119 221 31 36 107 222 110 35 222 30 121 34 222 135 34 19 20 156 33 20 111
88 11 211 211 181 10 210 210 10 56 208 89 9 206 218 100 115 201 108 111 124 220 118 132 135 221 128 145 12 221 5 156 13 5 5 209 14 159 170 208 42 151 208 17 40 144 206 39 140 162 202 37 222 165 35 35 223 167 33 223 223 9 178 223 171 9 164 223 10 177 147 223 10 134 30 10 10 117 21 11 107 104 18 11 95 16 16 223 87 14 14 223 13 12 223 223 11 223 223 9 9 223 223 8 223 223 7 7 223 223 7 70 70 7 7 69 69 7 69 69 5 8 70 5 5 70 71 4 4 71 4 4 223 223 4 3 223 15 3 223 223 19 223 223 22 23 223 223 25 80 223 27 28 85 223 30 91 94 3 32 108 114 4 214 136 5 5 162 34 6 223 192 7 7 223 31 9 224 224 30 12 224 55 56 113 224 62 224 106 152 73 226 224 148 97 228 144 90 81 231 136 72 233 60 62 64 237 70 224 57 23 80 224 22 22 15 223 21 96 20 51 19 28 222 42 18 46 37 97 39 69 34 38 251 32 32 36 251 31 35 35 17 30 34 35 17 34 34 18 18 34 33 19 113 111 19
175 16 178 180 57 57 185 186 56 215 190 55 55 217 196 53 218 219 52 52 220 6 50 220 220 5 49 221 5 4 208 221 4 5 209 145 4 209 209 4 174 208 41 4 207 206 39 179 204 37 37 222 200 35 222 222 24 33 223 6 25 131 223 7 29 223 171 7 129 223 8 8 128 173 8 125 120 173 8 109 19 174 175 98 16 174 174 37 14 174 84 40 127 174 42 11 127 173 45 127 223 176 49 127 176 7 127 127 176 7 127 176 176 170 127 176 176 169 176 176 169 169 176 176 169 65 65 169 169 65 127 171 64 63 127 175 61 127 127 59 58 127 127 55 127 127 170 169 127 169 168 212 127 166 166 217 223 165 218 218 163 163 216 36 162 213 212 34 161 206 32 32 123 197 31 122 121 216 30 119 119 221 16 115 155 29 22 109 152 28 102 224 149 36 224 145 91 83 224 138 73 232 224 97 64 24 224 98 239 22 98 98 243 21 97 245 245 95 19 247 101 102 221 249 107 46 38 111 112 221 34 115 116 220 96 119 221 221 99 221 221 103 105 251 222 112 251 251 122 126 251 17 141 251 251 127
61 95 12 68 99 101 11 78 105 11 11 110 111 10 10 117 11 11 203 203 11 11 198 120 12 192 190 129 47 184 135 137 177 174 143 167 168 148 149 175 159 153 178 179 19 158 180 21 21 4 181 22 22 4 196 24 135 181 188 25 132 180 27 29 130 171 28 129 223 172 25 128 172 7 22 223 173 176 20 223 7 176 223 223 7 175 223 7 7 85 39 7 81 41 11 6 77 44 127 75 74 8 127 73 73 7 223 72 6 6 223 6 5 223 223 7 5 223 7 8 223 223 9 170 223 10 10 72 223 12 13 73 14 15 74 74 17 75 75 3 3 77 77 3 223 78 3 3 223 82 3 223 223 3 3 223 32 4 223 223 35 36 223 38 38 157 223 41 42 188 44 46 204 208 50 51 216 12 55 220 221 16 165 222 21 22 224 225 28 224 224 34 36 224 224 43 224 224 96 53 224 97 98 38 223 98 98 23 107 98 240 241 87 97 244 93 97 46 246 100 96 248 16 107 41 249 111 61 39 15 115 220 220 14 95 221 96 14 108 221 99 114 221 30 105 116 29 113 34 114 29 129 251 28 28 33
57 57 99 181 56 56 105 12 55 214 191 11 54 216 11 52 207 218 11 204 219 114 5 199 220 4 144 192 131 4 208 183 139 164 209 144 146 172 17 150 177 208 19 39 181 20 38 147 182 22 36 222 23 24 138 222 25 25 134 167 27 132 132 169 131 131 171 171 179 129 172 179 178 172 173 178 119 173 177 177 33 174 176 35 35 176 176 37 38 175 39 39 127 127 42 43 127 175 45 127 127 176 48 127 176 176 6 127 176 171 127 223 176 171 171 176 7 171 60 176 171 171 61 9 172 61 61 12 73 60 127 15 74 58 127 75 57 3 127 172 53 127 223 170 3 127 168 168 3 223 166 221 3 223 32 223 223 223 35 222 223 38 38 146 34 41 213 179 7 46 198 32 9 210 212 11 122 218 219 15 224 222 19 21 224 154 26 224 224 85 34 224 224 93 224 224 96 97 224 98 99 231 223 99 99 235 99 98 238 239 84 98 242 90 93 244 245 98 221 246 103 105 220 248 109 220 220 113 114 219 219 116 220 220 93 93 221 221 94 251 221 97 98 251 102 103 251 251 111 115 251 126 127 251 251 127
60 101 56 208 13 106 210 211 11 112 12 9 8 195 12 7 199 200 50 6 202 12 49 205 205 48 196 207 208 46 221 208 45 44 221 144 43 221 222 3 40 222 2 2 222 222 3 3 222 3 3 200 222 3 3 194 32 3 188 185 30 179 176 29 28 165 161 26 223 148 24 23 223 130 21 223 223 19 18 223 223 4 223 223 5 5 223 5 5 86 223 5 5 81 5 5 78 77 5 5 75 7 5 74 74 6 223 73 5 5 223 72 5 223 223 57 4 223 223 4 127 223 10 4 223 223 12 73 223 14 15 74 173 18 75 76 172 22 77 3 171 204 78 3 27 80 46 3 221 84 3 127 223 40 3 223 223 37 127 223 38 35 126 223 42 126 126 159 47 125 223 159 200 124 158 58 188 30 157 178 222 28 155 160 28 26 143 137 27 34 117 26 26 83 93 24 67 62 139 23 44 39 129 30 27 119 115 19 17 101 50 16 86 81 46 19 66 44 43 54 51 41 14 13 40 40 12 12 38 12 12 89 37 12 12 103 250 11 109 110 12 123 113 30 12 114 114 29 33 111 29 28 33 106 28 33
102 62 105 106 13 71 110 13 13 10 115 12 12 212 196 12 210 210 12 13 207 113 13 204 202 123 14 197 129 132 45 189 138 164 167 221 145 174 176 149 2 180 21 154 183 184 23 2 185 23 24 2 199 25 141 2 192 27 137 167 182 29 133 169 29 27 223 171 25 130 223 172 22 223 172 4 19 223 4 178 223 223 4 177 36 4 4 89 38 4 4 83 10 5 80 79 9 77 77 8 7 75 75 6 223 175 6 5 223 175 5 223 223 7 4 223 223 8 223 223 10 10 223 11 12 74 223 14 15 75 3 17 75 76 3 21 76 3 3 77 78 3 223 79 3 3 223 83 3 223 223 3 3 223 223 36 223 223 38 39 223 223 42 159 223 46 48 189 159 53 204 208 57 59 215 13 14 220 220 18 20 222 23 25 224 224 30 224 224 26 39 224 223 46 74 223 101 56 223 223 100 231 223 100 99 234 223 98 237 238 96 97 241 93 75 44 244 100 95 42 13 107 40 247 12 111 218 11 115 84 219 10 95 220 32 10 105 220 90 110 111 30 92 113 113 29 34 251 29 29 34 251 28 33 250 15
199 14 179 203 12 12 186 208 10 190 192 8 8 195 51 6 199 200 49 5 203 48 48 205 205 46 46 219 45 45 220 220 44 43 221 2 42 221 221 2 172 222 2 2 222 222 2 205 203 2 2 200 199 2 195 193 31 2 186 30 29 186 175 27 27 163 30 25 223 146 23 22 223 3 20 223 223 3 17 223 3 3 128 223 3 92 127 174 4 86 223 175 176 81 175 4 175 78 7 175 76 46 6 174 48 5 127 174 50 5 223 52 53 127 223 54 54 127 175 10 127 223 174 13 127 174 15 183 127 173 188 76 172 172 197 77 171 206 208 48 169 217 219 45 127 224 43 42 127 41 40 127 127 38 37 127 162 35 127 127 161 34 127 160 159 127 127 159 159 205 158 158 198 196 158 190 187 29 156 178 174 28 84 160 27 27 94 137 26 96 91 226 25 75 146 23 56 52 139 21 35 223 129 74 21 119 115 83 221 101 48 91 220 80 44 13 65 95 42 12 93 40 247 10 92 38 10 114 90 249 9 94 89 250 120 104 250 250 122 221 30 123 124 223 29 125 224 224 98 126 225 28 109 227 227 120
175 198 13 110 15 15 11 187 14 214 9 193 51 214 196 14 49 212 200 48 210 217 204 47 206 121 3 45 219 130 157 220 220 2 168 221 221 2 209 221 2 2 208 222 2 206 205 2 2 202 26 34 199 197 32 144 191 30 30 222 181 28 27 222 26 26 223 223 23 23 223 2 21 223 223 2 117 223 3 3 104 223 3 97 94 4 4 88 87 4 85 83 9 4 80 8 8 223 77 7 6 223 6 6 223 223 5 5 223 7 4 223 223 8 4 223 9 10 223 223 12 74 74 14 14 75 75 17 76 76 3 21 76 76 3 206 77 3 3 217 45 3 223 81 43 3 223 32 3 127 223 35 4 223 37 39 127 223 42 43 127 160 48 171 223 159 211 196 10 60 202 212 13 195 218 29 17 184 222 22 119 169 27 29 223 26 26 102 223 25 25 83 148 105 65 59 143 103 41 137 135 62 24 126 100 53 114 110 49 238 95 46 44 12 75 43 42 11 38 41 10 10 59 39 9 74 78 8 8 90 34 8 98 100 32 8 106 30 30 34 110 30 30 34 223 29 33 33 29 28 33 10 28 33 33 13
193 14 54 198 66 11 213 204 9 120 214 84 7 195 214 94 129 199 48 105 136 203 47 141 205 17 45 150 207 44 200 160 19 42 220 21 21 186 221 2 23 177 151 1 169 167 156 1 160 159 160 191 152 162 191 192 165 165 190 183 166 190 189 30 26 187 187 31 133 186 32 32 131 184 33 129 129 34 35 129 173 36 128 128 173 37 128 174 174 179 127 174 174 178 223 175 178 177 175 5 176 45 175 177 176 47 6 176 49 49 127 177 50 127 127 75 51 127 127 52 3 127 173 52 127 223 172 3 127 172 171 2 223 170 211 213 223 168 221 45 223 29 228 42 31 32 85 40 34 233 94 4 37 106 35 5 42 130 6 128 223 161 7 127 159 9 9 223 158 11 223 223 71 15 223 223 81 223 223 88 173 223 223 99 224 26 104 105 225 44 107 226 226 53 106 227 60 63 228 229 71 73 231 78 80 221 221 86 88 220 97 94 219 219 95 217 217 94 93 217 217 92 246 217 90 89 248 217 88 248 249 118 86 249 120 121 250 250 122 123 250 124 124 223 250 125 125 225 9 126 226 227 99 127 229 108
18 209 210 180 53 213 70 72 52 215 80 124 50 209 90 129 212 213 5 135 215 109 4 205 217 3 149 206 218 2 208 20 42 2 208 21 192 208 208 38 183 208 37 36 221 205 35 166 222 34 33 222 161 1 31 222 2 193 222 222 2 177 222 2 2 162 222 2 149 145 2 2 132 128 2 121 117 16 16 107 104 14 223 97 12 12 223 11 10 223 223 9 8 223 4 7 223 223 5 6 223 5 5 77 223 6 76 75 7 8 75 75 9 75 75 4 11 75 75 3 186 75 3 3 223 76 3 223 223 2 2 223 24 2 223 223 27 2 223 29 30 127 223 32 32 223 163 34 92 94 37 233 105 5 42 122 129 6 225 152 7 7 218 182 9 223 209 30 12 223 212 29 126 223 82 19 123 156 93 120 223 155 103 111 153 108 224 96 151 110 225 149 148 95 227 61 78 74 18 71 62 230 15 18 52 14 86 16 46 11 18 219 10 10 28 217 9 43 48 53 91 64 44 42 38 81 37 36 36 34 34 36 35 32 31 35 6 30 35 34 6 83 34 7 7 106 33 7 104 103 8 8 100 99 10 97
187 57 209 210 64 10 119 71 74 122 190 81 84 127 16 92 132 133 17 102 138 17 18 143 145 19 19 151 20 20 205 203 21 200 198 139 23 193 191 146 37 184 150 151 177 174 154 192 167 157 159 195 222 161 195 195 30 164 195 30 30 2 193 31 31 2 158 32 134 190 141 33 132 128 34 17 130 172 15 129 172 172 13 128 173 183 10 223 173 182 127 223 3 180 223 174 4 80 223 5 180 78 45 6 77 46 4 7 76 47 127 76 76 4 127 75 75 4 223 76 3 3 223 3 3 223 223 22 2 223 24 24 223 223 27 224 223 29 30 81 223 32 84 85 33 34 90 92 37 98 101 5 5 115 121 5 223 142 7 7 223 173 9 223 223 10 11 223 73 14 223 223 84 86 223 92 95 222 223 102 105 223 109 110 224 224 113 225 225 49 113 226 226 58 88 227 66 68 222 229 75 221 221 82 84 220 220 90 218 218 96 97 217 95 94 37 216 92 92 58 49 90 246 246 40 88 247 117 86 36 248 119 35 249 121 122 35 249 123 222 34 5 124 223 224 6 104 226 85 126 101 228 91 98 230 26
173 52 187 189 52 51 195 70 50 199 201 7 48 205 6 5 209 210 4 4 202 4 3 204 205 3 3 206 42 2 207 208 41 2 208 39 38 208 208 37 221 207 36 35 221 221 34 221 222 1 32 222 222 1 222 222 1 1 222 1 1 176 222 1 1 162 168 2 149 145 19 2 132 17 17 121 117 15 15 107 13 13 223 97 11 223 223 39 9 223 223 3 127 223 4 4 223 223 5 79 223 5 6 77 173 7 77 77 173 9 76 4 173 187 76 3 3 191 48 3 223 77 47 3 223 47 2 127 223 45 127 223 168 44 127 223 29 127 128 164 32 84 127 163 237 90 162 161 236 35 161 234 232 34 159 228 33 32 223 221 32 9 215 31 30 128 223 29 29 127 157 29 125 125 156 123 122 156 156 117 115 155 163 106 153 153 142 225 151 122 115 19 147 94 18 17 76 72 15 14 60 13 12 16 50 11 10 16 235 9 21 24 83 7 37 68 64 107 58 52 37 72 215 41 36 86 37 85 36 217 33 35 35 219 81 35 4 4 79 249 5 104 79 249 5 103 249 249 125 100 249 7 126 230 249 127
201 55 51 207 188 64 50 212 71 8 48 200 81 129 47 206 5 135 209 210 4 141 19 3 3 205 21 2 206 206 41 2 208 24 39 208 208 37 197 208 207 35 221 206 34 34 221 1 32 222 222 1 30 222 1 1 222 222 1 200 222 1 1 169 222 1 1 154 20 1 141 136 17 129 125 16 15 114 111 13 223 102 12 11 223 93 9 223 223 8 8 223 4 4 223 223 4 5 223 5 6 79 223 7 7 78 8 8 77 77 10 77 77 3 13 77 77 3 223 77 3 3 223 77 2 223 223 44 2 223 223 2 127 223 29 2 223 31 32 83 223 33 34 88 162 37 95 98 161 42 110 5 47 230 134 7 225 155 32 8 218 183 10 128 223 30 14 223 223 29 126 223 98 27 124 223 109 120 118 155 118 110 154 153 153 94 152 120 128 19 149 107 226 17 145 81 15 73 66 62 12 18 53 10 10 16 45 8 19 21 93 7 31 214 72 47 52 59 91 68 72 46 36 83 39 38 35 35 35 35 35 32 32 35 3 4 34 34 4 4 34 4 4 102 34 5 101 100 249 5 98 98 6 126 96 26
172 51 50 178 49 49 188 184 48 194 196 6 47 201 202 5 215 206 4 4 215 210 3 203 213 113 2 205 215 2 158 207 129 2 208 25 37 176 208 36 35 185 28 34 221 193 29 32 221 29 30 171 222 30 163 161 161 31 155 222 163 202 147 165 1 162 141 167 199 145 168 169 197 34 169 196 195 36 171 193 36 37 130 191 38 9 129 39 39 128 223 40 40 128 172 42 127 127 172 127 127 172 172 127 127 172 190 190 172 172 193 194 172 196 197 45 171 202 45 45 19 210 45 44 216 78 44 127 225 43 42 127 165 41 128 128 163 39 127 162 162 3 127 161 239 4 223 160 236 128 223 48 231 33 159 57 223 32 64 218 31 30 76 198 30 128 87 211 29 127 217 218 22 124 221 26 29 223 155 35 111 223 154 43 223 152 124 52 222 120 114 222 222 113 86 221 108 107 228 220 103 101 230 88 99 233 233 95 235 236 99 101 238 239 105 213 241 109 110 213 243 113 214 214 85 116 215 215 82 217 217 80 79 219 77 77 248 221 75 75 248 75 74 249 249 74 75 249 126 126 248 248 126 232 248 127
51 119 120 21 205 123 20 19 211 127 19 213 214 192 20 215 89 197 44 215 99 21 43 211 109 149 214 116 119 156 216 125 163 166 218 134 173 27 219 1 183 28 1 1 205 29 1 197 202 30 177 198 30 28 167 192 26 160 222 182 24 222 164 22 21 222 166 19 222 222 1 16 222 222 1 122 223 2 2 109 2 2 101 99 2 2 93 8 3 89 87 6 4 85 5 5 223 82 5 4 223 4 4 223 223 4 223 223 11 3 223 223 14 223 223 17 17 223 223 20 78 78 22 23 79 2 25 80 80 2 28 80 3 3 82 82 3 3 85 3 3 223 91 4 4 223 42 5 223 223 49 128 223 57 59 223 223 68 175 223 76 79 197 223 88 208 210 17 100 216 21 23 193 220 28 30 222 24 35 223 223 41 44 223 21 51 222 222 17 60 222 117 115 37 221 109 227 23 137 104 229 218 126 48 232 116 97 41 235 97 37 237 4 77 35 4 109 67 34 3 113 213 3 3 89 214 3 2 95 34 2 98 98 31 2 100 30 30 34 100 29 34 248 29 28 33 248 28 33 33 4 27 33 33 6 33
171 22 197 175 21 48 207 65 21 210 189 74 21 214 81 5 215 215 92 3 216 100 103 146 215 110 112 153 24 119 159 161 26 166 168 27 27 175 178 28 201 186 29 29 194 195 30 188 186 30 31 178 156 156 171 168 159 160 162 161 162 208 153 163 164 207 222 166 206 206 167 167 205 35 36 203 202 36 133 200 37 38 131 199 38 130 130 92 39 129 129 87 5 128 171 41 5 223 171 196 127 223 171 198 223 171 11 201 223 170 204 78 223 16 209 44 223 19 79 43 22 22 79 2 127 80 80 2 128 81 3 3 223 82 3 127 161 3 3 223 160 3 223 223 42 237 223 223 49 121 223 56 59 146 223 67 167 173 76 79 191 30 88 203 207 17 101 214 20 22 223 219 27 29 223 32 34 223 223 40 42 223 135 49 222 222 129 222 222 122 120 222 221 114 226 227 108 106 228 229 103 230 230 91 99 232 233 98 235 235 102 104 238 106 108 211 211 111 112 211 87 114 212 213 83 118 215 81 80 216 217 77 247 219 74 73 248 221 71 248 248 124 70 248 248 125 33 248 126 126 33 248 126 234 247 6
164 11 11 175 173 9 180 182 7 7 186 45 6 191 192 44 214 196 43 42 204 200 41 41 209 40 39 211 212 38 214 215 1 36 216 217 1 218 218 1 1 206 219 1 205 204 1 1 202 200 1 198 196 26 1 192 25 24 185 182 22 21 173 20 19 222 222 17 17 222 1 15 222 222 1 137 222 2 2 223 223 2 102 223 2 3 95 93 3 90 89 5 4 86 85 4 201 83 4 4 202 42 3 223 80 43 3 223 43 3 127 223 16 3 223 168 20 127 223 22 226 127 165 25 80 128 164 235 81 163 162 239 83 161 241 241 37 3 241 91 35 127 240 34 5 223 33 33 128 223 32 32 128 158 31 128 128 157 82 128 157 157 209 128 156 204 203 156 156 197 219 156 191 189 24 155 181 178 22 171 168 20 19 85 149 16 67 61 14 13 44 147 11 31 27 142 9 20 136 134 88 16 126 122 18 214 111 38 37 96 94 34 3 75 33 33 2 88 33 2 2 85 33 2 91 81 245 2 95 95 246 121 97 31 2 123 221 30 124 98 29 29 125 226 28 33 126 229 27 33 232 233 69 33 5 72
121 24 188 123 175 22 201 127 22 45 208 187 22 212 213 193 43 214 88 91 41 203 98 146 39 208 108 153 211 212 2 161 214 124 167 206 216 1 177 30 218 1 205 30 200 1 203 29 192 200 199 27 183 195 25 24 221 187 23 166 222 20 20 222 162 1 222 222 1 212 222 222 1 132 222 2 2 118 222 2 109 107 2 3 100 98 3 94 92 6 5 89 5 5 223 85 4 4 223 4 3 223 223 3 3 223 13 3 223 223 16 223 223 18 19 80 223 22 80 80 24 25 80 81 27 81 81 3 30 82 83 3 84 85 3 3 223 3 4 223 223 5 5 223 48 5 223 223 57 7 223 66 69 128 223 79 178 223 157 92 198 202 103 206 210 20 117 216 218 26 195 220 31 33 185 222 39 223 173 20 47 222 17 16 74 222 132 63 222 149 122 35 221 114 112 23 140 106 228 17 131 49 230 122 118 40 233 101 36 35 3 106 33 238 2 72 31 2 113 85 32 2 90 212 1 1 94 34 1 95 95 32 72 97 30 30 33 97 29 29 33 28 28 33 33 28 33 33 2 26 33 33 3 66 33 5
156 11 10 172 9 9 178 179 44 183 185 43 43 189 190 42 192 195 41 40 199 199 39 203 205 27 38 208 2 36 215 212 1 1 215 126 1 206 217 1 1 205 138 1 204 203 144 1 201 27 149 207 196 25 211 192 33 22 221 183 20 166 222 35 17 222 222 35 151 222 1 36 145 165 2 141 140 166 2 113 167 167 213 103 168 3 211 39 168 211 91 40 168 211 41 4 212 212 42 128 213 41 41 128 223 42 128 128 167 41 128 128 166 128 128 165 22 128 164 163 234 128 162 162 238 223 161 240 241 37 160 242 37 36 242 242 35 35 241 34 34 128 238 33 128 128 123 32 128 128 156 9 128 156 156 128 128 156 213 128 156 156 207 223 156 203 201 223 156 196 24 223 144 187 22 22 150 223 19 96 165 224 16 73 224 13 63 51 225 70 36 221 226 78 23 141 84 86 216 133 52 93 213 98 41 211 210 95 234 208 92 32 237 207 90 239 2 87 86 241 1 89 243 243 119 93 244 245 121 216 245 122 122 219 123 123 221 223 124 124 225 64 125 227 229 62 33 231 62 62 247 235 62 246 246 64
165 167 46 10 173 175 44 178 180 43 204 178 187 42 184 77 41 40 192 86 39 198 199 2 38 204 2 2 208 209 1 1 205 1 1 206 206 1 1 205 31 1 205 205 28 203 203 27 26 200 199 25 220 195 23 23 221 221 20 221 222 1 18 222 222 1 222 222 1 1 222 1 1 135 222 2 2 121 165 2 112 109 7 3 102 6 6 97 95 5 223 91 4 4 223 87 4 223 223 41 3 223 223 12 129 223 15 15 223 165 18 81 223 21 22 81 163 24 81 82 162 27 82 3 161 241 84 3 3 243 36 3 223 90 35 128 223 34 5 128 223 33 128 223 156 32 128 223 67 128 128 156 81 172 156 156 214 192 156 156 209 27 156 205 213 26 156 199 24 31 192 191 22 38 183 20 19 99 222 17 85 79 152 13 62 56 150 46 41 148 147 30 27 144 80 21 139 137 58 4 130 47 44 3 117 38 2 2 33 33 2 2 30 1 1 80 29 1 1 89 242 1 92 92 38 120 93 34 33 121 94 31 33 95 220 30 33 95 29 63 33 226 28 33 1 230 60 33 2 2 59 246 3 97 60 246
154 47 10 170 52 54 126 177 60 62 130 25 68 133 134 26 77 138 27 39 142 144 28 215 200 29 29 216 205 30 215 215 115 31 214 214 123 213 212 128 130 210 209 136 193 195 140 141 203 34 145 209 211 34 149 215 35 35 219 219 35 35 221 36 36 164 222 37 158 156 161 37 150 148 162 10 144 163 163 8 139 164 221 136 222 165 221 134 165 5 221 223 165 221 90 41 8 222 41 41 11 85 41 129 14 84 41 129 82 82 3 128 82 3 128 223 161 3 128 161 27 3 223 159 241 3 223 32 243 223 223 35 243 223 38 40 98 223 45 105 109 6 53 121 32 7 136 142 9 128 160 166 12 223 182 14 15 223 17 18 223 223 22 23 223 138 142 223 223 152 154 223 157 159 223 222 159 159 223 155 153 224 224 145 224 225 69 71 225 226 77 219 226 82 85 216 227 89 214 213 94 96 210 97 100 208 206 94 106 205 92 90 237 205 88 87 239 85 84 241 241 81 80 242 119 76 244 244 121 32 245 122 123 32 245 124 223 223 1 125 226 227 125 95 230 57 126 233 26 56 97 236 56 56 99 23
44 44 44 153 51 43 159 161 7 41 168 5 5 186 177 4 137 192 3 3 195 29 2 2 199 35 2 202 202 34 203 203 32 32 205 205 31 213 214 29 29 216 131 27 217 218 1 25 219 219 1 220 220 1 1 220 1 1 186 184 1 1 176 15 1 168 164 13 1 154 11 11 143 139 10 222 128 8 8 222 116 7 222 222 4 5 222 223 5 223 223 6 7 223 223 8 89 223 10 11 87 163 14 85 85 162 17 84 3 3 235 84 3 3 84 39 3 223 84 3 223 223 37 3 223 223 36 128 223 34 35 128 223 39 97 223 156 46 107 223 52 234 122 155 64 138 31 155 222 161 11 155 217 29 15 223 212 28 19 223 27 26 126 223 25 123 122 155 22 117 223 155 109 106 154 164 93 89 153 164 224 152 152 147 224 150 131 125 7 147 105 6 5 84 78 4 90 60 3 3 21 209 2 2 33 111 2 49 55 92 109 72 77 72 83 86 58 28 90 47 45 29 92 38 30 30 0 34 31 31 0 67 32 0 0 33 245 1 93 33 1 1 94 246 1 96 96 246 1 97 25 24 127 100 23 32
134 45 124 125 151 52 127 127 57 6 130 28 65 133 134 28 207 138 29 29 212 196 30 214 214 199 31 215 101 31 32 215 109 33 215 210 118 175 214 123 125 184 215 130 192 195 217 1 203 35 219 1 212 35 1 1 191 36 1 222 183 16 179 175 37 13 222 162 12 163 222 148 9 222 159 9 8 222 160 7 222 222 3 5 222 222 5 102 223 6 230 96 7 8 92 40 10 10 90 3 12 88 87 3 16 86 3 3 223 85 3 223 223 3 3 223 223 3 223 223 29 3 223 223 32 223 223 34 35 223 223 38 97 100 43 45 107 5 51 117 120 7 63 134 8 9 150 156 11 12 172 13 14 223 192 17 223 223 127 22 223 223 143 124 223 154 157 223 223 165 222 222 169 169 223 222 166 223 223 59 157 224 65 68 140 225 74 76 225 5 82 218 226 87 89 214 3 93 211 210 2 27 206 96 95 43 204 92 234 67 87 89 236 203 66 26 238 54 82 28 241 42 28 242 0 35 30 0 122 217 31 0 123 221 0 0 93 225 0 125 93 28 1 95 233 26 96 97 25 51 33 100 24 32 244 22
140 42 42 146 9 8 152 154 6 177 161 5 5 184 170 4 189 190 3 3 194 195 2 197 198 33 2 200 32 32 202 203 31 30 207 29 29 210 211 27 27 214 1 25 216 217 1 23 218 1 1 198 219 1 195 193 144 1 188 186 1 225 179 14 1 171 168 11 230 158 10 9 231 39 8 222 222 40 7 222 3 40 143 222 4 4 139 159 6 137 223 160 8 134 160 10 92 132 159 235 90 3 159 237 88 3 238 239 39 3 240 87 38 129 241 38 3 128 37 37 128 223 155 35 128 155 34 128 128 154 38 128 154 154 238 128 154 154 233 154 154 228 227 154 224 222 30 30 219 217 29 128 214 28 27 128 210 27 126 126 25 25 124 155 23 120 118 154 20 110 154 154 181 96 153 153 170 222 152 159 155 221 151 143 7 149 135 121 5 123 102 4 3 22 74 3 22 22 228 2 27 30 230 103 43 109 1 108 201 91 111 82 202 70 114 203 57 82 26 207 44 27 241 211 73 29 0 215 68 243 0 64 62 244 124 59 244 245 125 55 245 126 126 232 245 126 97 237 127 127 239 24 127 240 241 49
42 139 45 41 145 147 7 127 153 155 5 179 162 4 4 186 3 3 190 192 3 2 195 33 2 198 199 31 214 201 30 30 202 203 29 28 208 27 27 211 212 25 213 214 1 23 216 216 1 217 218 1 1 196 219 1 192 190 1 1 185 14 1 178 175 12 1 166 10 9 157 154 8 7 144 7 7 222 222 6 5 222 4 5 222 222 5 140 222 7 7 222 223 9 97 223 11 12 93 92 14 91 91 3 18 90 3 3 241 89 3 3 242 37 3 223 89 37 3 223 36 3 128 223 33 128 223 153 37 129 223 42 107 129 153 51 118 128 153 229 134 153 73 223 154 153 220 169 29 14 216 28 17 128 211 27 22 223 26 25 124 223 23 22 119 154 20 113 109 154 185 99 153 153 174 80 153 164 161 152 151 149 224 150 136 131 5 148 113 106 3 93 86 2 2 22 2 2 26 28 1 1 39 117 1 56 62 99 1 79 84 79 113 90 64 25 92 204 48 26 26 41 74 27 0 35 29 29 0 64 30 0 0 59 32 0 91 32 244 0 93 27 0 126 96 25 1 98 238 24 127 103 22 22 127 242
134 31 40 140 8 31 147 148 6 38 172 58 5 186 163 66 3 199 71 3 141 193 80 146 196 34 88 153 200 30 159 160 35 28 167 169 35 215 177 35 36 215 212 36 213 213 126 37 211 130 131 208 207 135 1 203 138 139 222 197 142 143 227 145 145 230 231 39 232 233 40 40 234 235 40 162 235 40 40 154 236 40 149 148 117 40 143 143 40 3 139 155 155 137 155 155 239 134 155 155 240 223 154 240 241 223 153 242 38 153 24 243 37 130 243 91 36 129 244 35 3 129 95 34 129 129 100 4 129 152 107 5 223 152 6 7 223 152 228 223 223 75 223 223 153 92 171 223 106 215 188 223 124 199 26 138 142 209 27 155 215 216 33 118 219 38 40 222 222 47 98 222 53 55 222 152 61 222 221 163 69 221 220 147 225 219 133 129 226 216 118 226 226 109 106 227 228 101 228 229 102 96 230 105 106 232 232 110 111 199 112 113 200 201 115 116 203 79 118 206 207 74 210 210 70 68 214 215 64 242 218 60 59 243 243 55 244 244 125 51 244 244 126 244 244 126 126 244 126 127 240 243 127 127 242 43
40 133 10 9 139 141 7 7 147 6 5 176 155 4 182 183 3 3 188 190 32 192 193 31 31 197 198 30 190 200 28 28 197 202 27 202 203 36 25 207 1 23 210 211 1 1 214 1 1 201 217 1 1 198 133 1 194 192 137 223 188 12 1 229 179 10 231 171 40 8 221 159 7 170 222 41 6 222 222 40 156 222 5 41 149 151 6 145 144 152 8 107 152 152 240 102 152 14 241 40 152 241 96 38 242 242 38 3 243 243 37 131 243 37 36 130 223 35 129 129 151 34 130 223 151 129 129 151 41 129 151 151 234 129 151 151 228 152 152 225 223 30 152 220 29 29 217 216 28 128 213 27 27 127 209 25 125 124 213 23 121 119 153 38 113 153 153 104 101 153 180 88 153 152 169 222 152 159 155 221 151 144 5 219 142 125 3 3 124 226 2 23 82 227 96 26 228 1 101 36 229 104 52 115 231 109 76 97 111 112 198 77 23 94 201 80 22 204 47 75 239 208 71 26 241 213 65 241 0 61 59 242 0 90 243 243 125 92 243 125 125 233 243 126 126 237 126 126 240 240 127 127 242 40 127 242
130 34 99 106 45 33 126 133 51 127 154 56 57 131 177 63 134 136 68 70 140 35 75 145 147 36 83 152 36 36 1 160 36 36 215 203 37 215 215 37 38 215 113 38 215 214 119 19 213 123 124 17 210 128 213 15 218 132 221 223 219 1 227 40 139 231 176 41 2 234 41 41 2 156 41 170 3 145 41 161 136 133 4 154 148 41 3 222 149 3 144 222 10 3 222 149 14 3 222 16 242 223 223 20 243 38 22 23 97 37 25 97 97 3 28 98 99 3 100 101 4 4 104 105 4 223 110 5 5 223 150 6 223 223 58 8 223 69 74 223 223 87 92 223 101 106 182 223 120 125 197 134 139 205 208 27 211 213 32 33 217 218 38 222 220 44 46 222 222 53 222 222 58 60 222 221 175 221 221 164 160 219 150 146 225 217 131 127 226 144 115 226 226 107 105 227 100 99 228 229 104 199 230 108 109 196 232 112 196 197 0 115 199 200 0 94 203 76 119 206 207 71 91 211 66 65 241 32 60 242 242 30 55 242 124 28 31 243 125 47 32 0 126 32 243 0 101 240 0 126 107 241 1 110 242 17
151 37 90 157 36 36 137 165 34 143 145 34 33 151 153 32 157 159 3 31 165 168 2 193 175 2 2 198 1 1 200 200 1 1 202 24 1 203 203 22 1 204 21 20 203 203 19 18 213 17 17 215 215 15 217 217 1 13 218 219 1 202 219 1 1 220 220 2 174 221 2 2 163 5 3 155 152 4 4 143 4 4 240 132 3 3 125 41 3 222 117 3 3 222 13 3 222 222 16 138 222 19 20 135 223 22 101 134 146 25 101 223 146 243 102 147 30 242 34 4 241 108 34 4 238 33 5 130 234 32 7 223 31 31 130 223 30 30 130 150 30 129 129 151 216 129 151 123 212 127 152 209 205 152 152 206 213 152 201 200 19 152 194 17 16 188 186 13 13 85 10 9 70 65 7 7 51 151 5 40 37 149 3 30 148 146 25 25 144 97 91 141 139 72 65 135 54 50 0 125 37 35 0 91 28 0 0 87 233 0 96 21 235 0 96 56 0 119 93 43 0 91 210 35 122 90 32 32 123 219 30 29 124 225 50 31 229 230 45 32 0 42 32 242 0 39 32 0 126 37 241 1 111 241 240 127
73 151 35 87 131 159 34 112 49 168 33 144 55 32 31 151 3 31 158 160 2 29 166 2 2 195 175 2 153 199 1 1 201 39 1 202 203 22 1 203 204 20 204 204 19 18 203 203 17 212 213 15 14 216 121 13 217 217 1 11 218 1 1 219 220 2 2 220 2 2 172 169 3 3 162 4 3 154 151 3 145 142 3 3 135 132 3 222 126 3 3 222 119 3 222 222 15 3 222 222 19 222 222 21 22 223 24 25 106 223 27 27 106 145 29 108 108 145 32 111 4 4 115 117 5 223 122 6 6 223 133 7 223 223 30 10 223 223 30 130 223 100 105 129 223 120 192 223 151 140 203 151 154 206 212 152 171 215 20 152 196 219 44 152 188 14 52 222 178 10 73 222 7 7 54 221 5 42 39 149 3 31 218 143 27 26 145 124 24 25 141 82 227 137 136 58 0 129 43 40 0 118 31 0 0 25 23 0 114 21 0 0 97 199 0 95 95 48 0 92 92 38 91 90 34 33 90 90 30 28 90 29 29 30 91 27 31 31 0 26 31 0 0 39 32 0 0 32 241 0 111 32 1 1 115 239
147 35 9 154 34 34 123 162 33 32 125 37 31 144 146 38 30 152 3 29 182 161 2 193 167 74 2 203 176 1 156 209 86 1 202 213 92 172 203 20 99 181 41 18 188 190 41 16 196 41 15 214 205 42 12 216 42 42 209 217 43 43 205 126 2 201 200 129 231 194 131 132 235 187 133 236 237 135 135 238 150 136 239 239 42 3 240 41 41 155 241 40 40 149 40 40 146 144 39 38 142 141 38 139 138 141 37 136 142 142 241 135 143 240 240 223 144 239 238 144 35 236 33 145 233 232 32 48 228 31 31 61 148 30 131 131 162 29 130 149 177 15 129 149 27 128 223 150 23 126 151 151 29 223 151 202 201 222 184 196 16 222 193 187 13 196 197 222 9 195 169 223 67 187 223 5 74 224 224 79 31 217 225 86 215 145 91 92 210 142 96 206 205 103 101 200 199 96 196 196 92 91 194 89 88 231 232 85 84 233 116 80 234 235 118 74 236 120 120 237 238 121 211 239 123 123 217 218 124 221 222 50 124 227 229 45 231 233 41 40 237 237 37 240 240 35 34 240 33 32 240 240 126 31 239 127
34 148 34 33 127 156 32 32 133 31 31 138 140 30 144 145 3 3 151 153 2 188 160 2 2 193 168 2 197 198 1 1 200 201 1 202 203 20 1 203 19 18 200 205 17 16 206 15 15 210 210 13 13 213 1 11 215 216 1 210 217 1 1 192 219 2 186 185 126 2 179 177 3 234 170 4 4 163 161 3 238 153 3 3 239 42 3 222 222 41 3 222 13 3 151 222 17 3 222 138 20 143 222 23 241 140 139 25 117 137 140 240 118 4 141 238 121 4 236 235 33 5 232 131 32 132 228 32 7 132 31 30 132 223 147 30 131 148 97 130 130 148 119 129 149 149 211 126 150 208 207 150 151 203 202 151 199 197 17 44 192 189 13 93 182 10 9 74 223 7 60 56 5 5 44 149 3 35 33 148 2 28 146 146 116 25 144 143 95 207 139 77 71 135 100 54 0 127 40 36 0 90 28 0 0 98 21 0 100 100 233 0 99 61 235 119 95 46 0 121 208 37 122 90 214 32 123 218 30 50 28 225 28 30 240 231 41 31 0 38 37 240 0 34 33 240 126 31 240 239 126 29 238 126 120 236
144 39 119 119 39 31 78 121 39 94 134 39 39 120 141 40 140 147 59 40 165 63 65 181 185 70 2 195 74 75 154 199 80 81 163 42 86 170 172 42 92 179 42 43 185 188 43 215 194 44 44 215 202 44 214 213 111 44 212 211 116 8 209 118 119 206 219 121 227 200 123 123 231 220 125 234 234 43 128 235 43 43 7 238 42 42 9 146 41 162 239 138 3 156 134 40 3 150 129 3 147 222 136 3 143 136 25 3 222 138 238 222 222 30 236 223 223 34 131 223 38 230 137 223 45 144 31 8 57 154 9 132 163 166 12 131 176 14 15 223 189 18 19 223 22 23 223 223 156 29 222 170 174 222 222 186 218 222 194 196 220 222 200 222 222 201 201 223 223 197 223 223 72 74 224 77 79 218 224 84 85 215 89 90 212 211 94 96 206 112 99 202 200 101 104 196 95 94 229 193 90 230 230 87 85 231 232 82 232 233 117 76 234 234 119 18 236 120 121 208 0 122 212 213 123 123 218 51 124 222 225 45 125 229 41 40 95 235 37 36 101 24 33 239 239 21 32 239 126 29 32 238 126 32 237 1
119 10 10 122 124 8 155 128 6 6 164 134 5 171 173 4 3 179 181 26 185 186 25 24 191 24 23 164 196 22 22 173 21 20 179 181 19 18 188 1 17 193 195 1 205 200 1 1 205 206 1 205 204 1 1 203 202 1 200 200 7 2 197 196 6 220 192 5 5 219 45 4 220 220 3 3 220 5 3 221 221 7 2 221 8 9 172 222 11 148 146 129 15 142 141 131 238 136 3 21 238 134 3 238 132 36 3 237 131 4 141 235 34 4 222 138 33 137 223 38 32 136 141 45 135 134 142 57 133 144 69 219 133 145 217 180 145 146 214 191 19 212 211 26 24 209 208 23 124 205 21 20 117 199 17 110 107 15 14 97 149 149 85 80 149 203 66 149 149 161 49 149 149 149 148 148 139 135 147 128 125 1 145 113 109 1 28 95 0 0 38 73 0 52 58 228 0 78 84 0 111 97 109 0 103 192 91 116 103 77 72 16 198 58 16 17 204 44 18 0 209 58 21 0 54 23 238 0 47 27 0 125 92 239 0 96 97 239 125 102 24 239 126 109 21 126 126 241 18 126 239 238 25 126 233 11
116 41 39 117 149 42 7 119 41 42 5 165 42 98 4 173 26 124 180 182 25 151 62 23 169 156 67 22 186 71 1 20 171 77 160 178 180 1 170 186 189 1 205 194 1 1 206 46 1 206 206 11 1 205 46 9 203 203 8 213 201 7 6 216 197 5 5 218 3 4 219 219 3 3 220 4 5 220 220 6 172 221 8 8 164 221 10 159 157 13 13 152 151 2 148 146 3 3 144 142 3 222 141 3 3 222 4 4 222 222 4 4 222 32 5 222 222 36 37 222 41 43 154 223 50 161 163 60 64 171 173 78 178 181 14 99 189 191 18 223 198 22 23 222 206 27 222 222 21 34 222 181 39 111 222 194 47 222 149 202 87 222 204 205 222 149 203 223 223 148 154 223 77 186 141 224 84 131 224 1 90 118 225 93 28 101 0 99 202 201 0 49 196 98 0 74 125 91 91 96 114 86 104 103 99 19 105 85 77 16 0 65 15 234 0 16 16 0 122 18 19 0 91 21 0 0 91 25 0 92 92 0 0 95 96 26 99 100 24 32 106 23 22 31 114 19 19 32 240 16 32 32 13 12 32 1
117 11 10 120 9 8 152 124 6 6 161 27 5 168 171 25 3 177 24 24 131 185 23 150 190 44 21 157 195 20 164 166 45 18 172 175 1 205 181 1 1 210 85 1 206 195 89 1 206 93 1 194 206 97 1 205 47 101 205 203 6 6 211 48 5 216 216 47 208 218 46 46 204 219 46 200 198 115 45 193 220 117 231 187 119 10 233 121 121 233 161 122 123 234 40 124 234 234 38 126 234 37 37 233 233 36 4 149 35 35 146 222 34 144 143 135 33 141 140 136 7 139 138 138 138 137 140 218 136 141 142 216 29 143 214 213 27 144 212 26 25 140 209 24 23 206 212 20 119 201 18 17 110 148 14 101 98 148 53 85 148 148 61 67 148 166 68 221 148 153 40 219 189 140 217 146 171 224 1 155 118 225 1 132 225 0 34 113 226 0 51 227 227 107 77 228 0 110 190 229 112 105 190 82 115 191 88 77 117 195 72 14 199 200 66 15 205 61 59 236 211 54 236 237 124 47 237 237 124 238 238 125 125 238 238 125 237 238 125 125 241 238 126 242 242 126 126 240 23 23 236 234 22 22 225 23
113 138 10 9 145 44 7 7 155 26 6 162 165 25 132 171 24 24 138 180 22 143 145 21 21 150 152 20 157 158 1 18 164 1 1 202 173 1 1 205 1 1 206 206 1 1 207 11 1 208 208 9 1 207 8 8 206 206 7 211 212 5 5 214 215 4 216 217 3 3 217 218 4 218 219 5 5 220 6 7 183 220 9 9 177 3 11 172 171 3 15 166 3 3 232 162 3 3 159 38 3 222 157 4 156 222 35 4 222 222 30 148 222 33 34 145 222 38 165 142 136 47 171 137 138 218 179 139 72 216 29 14 214 193 28 18 211 26 22 222 209 24 27 222 22 21 121 222 18 115 112 146 15 103 222 147 186 87 147 207 176 70 147 167 223 147 147 155 3 146 146 143 2 146 133 1 1 124 120 1 1 28 0 0 33 36 0 0 48 135 0 67 73 129 109 91 122 119 103 105 111 24 22 99 95 17 16 81 15 14 0 62 13 0 0 62 15 0 0 55 236 0 92 20 236 0 92 29 0 125 95 27 0 98 25 25 125 105 23 30 126 241 20 31 119 240 23 31 237 14 21 32 1 21 32 233
43 37 10 44 118 41 113 50 43 6 116 62 47 118 168 51 51 123 46 55 126 128 46 59 134 46 47 155 141 47 47 177 48 48 188 192 48 197 200 76 49 205 207 80 12 210 84 85 184 213 87 190 191 90 91 196 197 94 200 202 50 97 206 50 49 2 211 49 49 3 199 48 208 207 195 47 203 108 45 2 198 110 3 193 220 112 3 187 114 228 2 221 117 229 3 222 21 229 38 121 23 229 37 25 227 165 35 28 165 34 5 32 167 33 148 169 171 7 145 134 176 9 222 136 10 11 222 72 13 222 222 94 17 222 111 117 222 222 135 208 222 152 158 212 20 172 215 216 39 189 218 219 47 219 220 53 55 221 222 61 221 222 66 68 221 223 73 219 219 197 80 217 187 182 215 214 167 162 211 150 144 225 205 127 122 226 113 109 226 227 100 227 227 109 110 228 228 111 189 229 114 114 190 230 116 192 193 118 119 196 198 120 200 202 61 60 206 56 54 235 213 49 48 236 31 43 236 236 28 37 236 125 33 28 237 125 29 237 0 126 241 236 126 240 240 0 126 236 234 1 130 226 20 126 128 210
12 115 116 10 142 144 8 7 152 24 6 159 162 23 4 169 22 22 122 179 21 20 128 48 19 145 147 48 150 152 1 16 172 161 1 185 167 72 1 197 175 1 208 205 79 1 209 210 82 183 209 8 1 190 52 7 195 209 51 5 200 51 4 213 206 50 3 214 50 49 211 217 49 208 208 103 6 205 203 105 220 200 108 108 223 194 110 224 224 112 112 225 179 115 226 226 38 3 226 37 37 167 225 36 35 162 35 34 158 157 34 34 153 128 32 151 149 131 8 147 133 134 216 144 135 215 215 222 137 213 212 139 105 211 26 140 209 208 24 147 205 22 21 168 215 18 115 113 218 15 103 145 12 52 88 145 8 75 221 145 65 58 145 208 72 219 145 146 143 218 193 134 1 215 176 122 1 159 153 225 0 136 101 225 101 115 226 0 105 227 227 108 92 190 228 111 189 116 113 114 190 102 116 191 191 73 118 195 69 67 198 200 62 13 204 57 55 234 0 50 49 235 123 44 235 235 124 37 236 125 125 236 236 125 238 236 125 126 241 241 126 241 240 22 126 237 235 19 231 228 18 18 217 18 19 231
41 37 38 41 39 40 110 43 42 44 112 123 46 114 115 128 4 119 49 48 3 124 49 105 129 190 50 132 137 50 16 157 200 51 173 162 204 13 189 72 73 11 176 76 172 10 185 79 179 190 192 1 186 198 85 1 210 203 2 196 209 2 2 209 52 213 3 206 3 212 205 204 2 210 202 2 2 218 199 2 219 219 2 3 220 106 3 220 220 15 222 221 221 19 184 221 21 22 182 221 24 181 181 27 27 180 5 29 181 181 6 6 182 7 7 222 185 8 9 222 10 10 222 222 12 222 222 80 16 222 222 104 222 222 122 129 209 222 147 212 213 163 168 216 216 182 218 218 45 196 220 51 53 220 221 58 60 222 64 66 221 220 71 73 219 205 78 218 217 196 30 215 183 179 28 211 162 225 207 140 138 225 225 121 90 226 105 105 227 227 108 60 227 110 111 40 0 113 189 26 0 116 191 0 0 109 194 68 119 105 61 62 101 203 56 12 98 38 49 234 96 33 18 234 30 29 22 235 27 24 25 0 125 27 235 0 111 29 0 126 119 0 0 126 236 0 0 131 11 1 132 132 8 17 129 6
130 25 25 115 24 24 117 118 7 22 120 6 5 124 125 4 4 129 3 3 180 134 3 186 188 2 2 193 195 2 198 199 14 14 203 204 13 163 206 11 11 171 54 10 177 179 55 8 185 1 7 210 193 1 1 198 84 2 211 203 2 2 210 88 3 209 209 91 204 208 2 94 208 206 2 211 212 48 2 218 201 2 203 220 44 3 220 105 42 195 220 17 40 188 110 21 184 182 113 24 177 115 117 219 187 119 29 219 34 122 218 189 33 217 217 32 8 215 215 31 151 214 30 29 147 222 28 144 143 135 27 139 136 137 135 133 138 139 129 139 140 200 120 141 141 195 222 142 189 187 11 143 181 8 7 173 170 5 59 162 4 3 44 149 2 36 34 224 1 30 29 224 89 28 141 141 31 206 139 104 41 137 136 92 196 134 81 77 192 129 63 0 189 88 43 0 0 81 229 0 113 20 230 118 111 231 0 119 107 232 120 103 203 233 122 100 39 123 123 215 33 16 220 222 37 20 228 230 32 235 235 28 27 235 239 24 234 234 22 21 234 0 19 233 233 126 132 233 126 126 214 231 127 127 197 127
24 113 132 23 115 116 22 22 118 119 6 121 122 5 5 125 126 4 175 130 3 3 184 135 2 190 192 2 2 197 14 14 201 202 13 12 205 11 11 164 208 10 10 172 9 9 178 180 7 185 186 1 6 192 193 2 213 199 2 2 212 204 2 212 212 3 3 210 210 4 210 209 2 5 208 2 2 210 206 2 2 218 45 3 219 219 2 2 220 16 3 221 220 19 190 221 22 23 184 221 25 193 193 115 28 193 193 118 216 194 7 34 216 196 8 214 198 10 10 213 30 12 222 212 29 16 222 89 27 143 222 114 24 137 136 140 131 222 138 200 122 139 178 195 110 140 190 220 141 141 181 221 58 174 171 5 66 163 160 3 46 150 2 2 36 2 1 31 30 1 1 29 141 140 31 33 139 150 41 137 136 95 61 134 85 82 131 129 70 66 125 56 51 0 117 38 34 0 115 24 0 0 113 15 0 110 109 231 0 106 57 0 103 102 44 0 101 37 35 123 100 31 31 18 225 28 21 22 233 29 25 0 24 24 27 0 22 29 234 0 19 30 0 126 132 232 0 134 134 231 126 132 6 229 127 188
103 52 22 114 136 52 39 116 52 21 40 44 52 43 122 47 53 51 50 3 61 65 53 3 188 56 56 127 195 58 59 135 57 62 141 143 58 147 149 58 59 155 157 59 188 191 59 59 199 181 59 204 205 76 58 208 78 79 211 211 81 82 212 83 84 195 213 86 86 199 53 88 203 204 50 91 206 49 48 209 209 47 206 211 45 44 203 213 43 200 198 202 40 195 193 106 4 189 109 109 4 221 112 215 179 221 115 215 221 118 34 214 222 121 213 202 31 47 212 30 30 62 206 29 151 81 209 19 145 212 212 24 138 214 28 30 222 216 35 123 222 177 42 222 139 188 222 221 201 180 221 221 208 222 221 210 211 223 219 211 223 223 208 207 223 1 85 224 224 89 31 224 93 95 207 225 98 99 201 101 103 197 196 105 106 192 101 98 190 190 90 228 188 84 82 228 189 77 229 229 73 71 230 230 66 231 231 120 59 231 231 121 205 232 122 122 212 123 123 218 219 124 124 225 33 124 231 233 28 125 236 25 24 239 239 21 233 233 19 18 233 232 17 232 232 126 15 231 230 126 31 229 127 127 31 227
22 112 112 21 114 114 9 20 116 7 7 118 120 5 5 122 4 4 173 127 3 3 183 15 3 190 192 14 126 198 13 12 202 203 11 150 206 10 10 158 210 9 164 166 61 7 172 174 1 196 180 2 2 204 75 2 215 194 78 2 215 80 3 189 215 82 3 214 55 84 197 213 2 211 202 51 2 215 205 48 209 217 46 45 206 218 44 204 202 99 41 199 219 20 213 194 105 23 204 107 108 213 203 111 112 213 34 114 213 213 33 118 212 31 31 212 211 30 162 160 29 29 156 222 28 151 149 129 26 144 142 132 138 136 134 134 129 126 135 195 117 136 137 189 12 138 183 181 9 139 173 7 5 210 162 4 3 153 223 2 40 140 1 82 33 139 1 32 32 139 93 34 138 137 97 45 136 99 102 198 133 90 194 194 106 78 191 125 66 227 0 85 48 0 0 78 229 0 117 72 229 0 114 230 230 120 111 230 121 121 203 231 122 106 210 45 123 215 34 38 124 223 33 17 228 231 28 233 235 25 24 233 238 21 233 232 126 18 232 232 126 231 231 126 126 231 230 126 205 229 127 127 189 127 127 179
98 55 55 42 55 55 39 38 55 56 37 44 45 38 39 47 105 43 49 49 110 51 52 115 116 133 54 121 123 56 2 129 61 59 135 206 62 133 142 63 63 156 212 63 171 175 213 63 187 70 215 5 197 72 62 202 189 75 3 207 77 3 185 200 79 189 190 205 4 194 54 210 6 198 52 7 8 213 49 10 213 212 3 12 212 44 3 218 210 3 202 219 209 4 220 102 4 4 221 105 5 220 221 28 6 221 30 31 208 221 35 37 209 40 42 210 30 51 54 211 15 67 213 213 19 214 215 23 24 216 216 28 222 222 32 34 222 222 40 221 221 184 47 221 221 197 221 221 204 205 220 208 209 223 219 211 211 223 76 209 223 223 83 204 224 87 89 224 224 93 208 225 97 98 203 225 101 199 198 128 105 194 193 107 100 191 95 93 189 120 85 227 189 80 78 228 104 73 228 229 91 66 229 119 119 11 230 121 121 231 0 122 208 231 122 107 215 0 123 221 223 0 108 228 29 0 111 234 24 232 116 23 20 232 20 20 27 232 16 16 29 0 12 30 230 0 9 30 1 127 131 31 1 127 179 1
20 112 96 57 43 113 57 57 38 115 58 36 36 45 6 37 121 48 105 42 50 3 111 52 52 115 193 54 55 122 63 57 127 130 64 60 135 65 65 132 142 65 149 155 65 66 170 175 65 181 185 69 64 193 196 72 4 202 74 74 178 206 76 183 184 78 78 188 57 80 192 193 54 83 196 52 51 9 200 49 48 11 214 46 208 207 213 3 205 95 41 202 201 98 4 199 101 101 5 194 104 210 6 221 108 210 185 221 33 210 32 114 39 212 31 46 208 213 29 61 214 29 18 81 216 27 151 217 217 27 142 129 32 33 221 131 38 40 221 178 45 221 221 193 53 221 201 203 220 220 208 161 219 210 211 223 2 210 223 223 82 206 224 224 88 224 224 92 94 225 225 97 204 225 100 101 198 103 104 195 194 113 107 191 100 96 190 189 88 85 189 81 79 227 190 74 72 228 68 67 229 229 61 229 230 120 120 230 230 121 207 231 122 122 213 231 123 219 221 124 124 226 29 124 231 232 24 23 236 21 20 231 237 18 17 231 18 16 231 230 14 14 229 126 12 228 228 126 31 227 127 127 180 224 127 173
14 124 59 46 131 134 18 40 142 145 17 116 155 16 16 119 167 15 122 49 14 13 126 52 13 130 131 3 118 135 2 2 204 141 2 2 209 2 2 211 212 2 2 214 6 2 215 216 5 216 216 4 4 178 218 3 184 185 3 3 191 193 2 195 197 4 2 201 202 5 205 206 6 7 218 8 8 217 217 10 11 216 2 13 216 215 3 16 215 3 3 215 214 4 219 214 5 5 220 220 6 220 220 28 7 221 221 32 183 221 36 39 221 221 45 215 221 55 59 216 120 73 217 217 22 97 218 26 28 199 219 32 34 195 18 39 221 220 14 110 221 11 52 94 221 200 80 220 134 206 63 219 209 150 50 135 209 223 41 135 129 224 135 135 118 0 134 111 109 0 97 102 0 100 70 94 0 104 195 0 0 101 191 0 109 111 120 0 115 117 113 118 119 106 104 32 120 95 22 20 84 81 14 229 69 10 10 0 54 8 0 0 8 8 0 0 9 0 0 113 114 0 0 115 27 0 118 118 24 125 122 22 21 126 128 18 27 132 226 13 29 29 10 12 30 0 7 30 31 1 10 31 1 1 12 222
120 36 13 127 130 40 92 138 17 9 94 62 16 95 161 64 14 120 65 13 38 124 66 12 127 3 67 51 132 2 69 65 56 2 79 142 59 130 100 60 2 137 214 62 143 216 70 64 150 217 4 155 157 68 3 163 67 66 192 169 65 64 200 63 62 204 204 75 59 207 77 77 208 208 79 8 209 82 82 197 208 84 199 200 86 87 202 202 43 204 205 41 40 206 206 38 199 207 37 36 195 216 35 192 190 216 33 186 108 32 10 180 111 112 175 221 115 205 168 117 118 203 221 121 201 201 221 114 198 22 125 140 194 18 159 189 221 14 111 182 11 53 94 222 8 81 220 223 66 64 133 223 73 218 134 78 80 215 134 127 213 213 200 116 210 133 189 225 205 176 101 225 159 153 225 0 135 128 225 107 111 226 226 110 112 226 112 113 190 227 115 190 191 117 117 192 95 118 195 196 60 119 199 200 53 203 204 48 46 230 210 41 230 231 36 34 231 124 30 231 231 124 25 231 125 125 230 230 125 125 230 126 126 233 232 126 228 225 13 126 215 211 11 203 198 11 10 187 184 10 224 176 11 11 221 220
15 121 17 17 129 132 16 16 141 16 15 115 154 15 14 118 14 13 120 121 4 12 124 4 3 127 128 3 199 132 2 2 205 138 2 209 210 2 2 213 213 2 215 215 5 5 217 4 4 164 218 4 4 172 70 3 178 180 67 2 186 3 2 196 192 4 5 197 74 6 220 203 7 219 219 79 9 219 219 81 195 219 2 14 198 219 3 201 218 42 4 217 40 4 201 218 38 5 218 98 36 194 219 30 34 190 104 34 186 184 108 40 179 111 111 204 219 114 203 203 27 117 201 220 25 198 198 23 31 195 194 19 131 189 16 15 116 127 12 103 99 129 8 86 130 130 73 69 131 206 58 131 131 140 49 132 132 128 214 132 120 117 0 112 110 0 0 103 102 0 72 96 0 0 89 90 0 99 102 226 0 109 120 0 112 116 114 113 119 191 107 46 122 100 97 30 195 88 21 19 198 74 13 0 203 48 9 0 122 41 230 0 121 7 230 124 121 230 0 124 121 230 125 122 233 230 125 234 23 125 126 233 19 25 228 226 13 27 217 11 11 227 201 10 30 225 186 9 224 2 9 10 221 127 12 219
119 37 38 87 65 40 87 88 66 42 89 67 68 37 91 69 34 34 70 70 34 122 71 36 37 51 73 42 43 53 48 51 55 55 118 57 57 123 125 58 59 130 76 60 135 137 75 62 143 74 74 2 149 72 160 155 220 70 176 179 68 2 188 70 64 194 195 72 2 200 74 74 2 202 76 188 2 207 79 192 50 210 13 196 46 83 16 219 43 19 201 219 40 22 219 38 199 25 219 6 196 219 219 8 191 101 9 10 220 105 12 181 220 46 16 220 111 61 20 221 76 200 221 221 100 221 221 120 127 222 19 146 222 222 44 168 222 222 52 223 223 58 60 223 63 65 219 223 71 73 217 206 78 216 215 206 84 213 203 201 210 209 195 192 206 186 181 225 202 168 225 225 150 144 225 225 107 226 226 109 110 226 226 112 191 227 114 115 191 116 116 193 193 118 118 195 61 119 198 199 54 52 202 49 47 229 208 42 40 230 42 36 230 230 31 8 230 124 26 230 230 125 231 230 125 125 234 229 125 233 232 0 126 227 13 1 136 215 11 126 137 9 10 134 188 9 9 223 4 9 221 220 3 10 218 127
16 120 122 39 85 130 15 41 86 142 14 114 88 71 13 117 167 72 34 120 74 11 34 50 76 36 126 52 77 42 53 3 48 51 55 2 212 57 57 123 215 59 128 129 78 60 135 219 77 140 142 75 3 148 150 73 157 175 71 70 172 183 68 181 184 70 64 190 71 72 195 197 73 74 200 75 76 188 202 78 79 193 48 80 195 196 45 17 198 42 41 200 201 39 199 202 38 37 197 203 35 193 193 220 34 189 188 101 12 183 104 105 15 220 108 201 171 220 111 199 220 114 90 196 221 117 193 222 20 136 188 17 124 159 222 12 108 178 223 56 91 223 6 64 76 223 69 66 217 223 76 56 128 205 83 213 128 119 210 210 197 109 206 206 186 225 202 173 168 225 198 152 225 225 133 127 226 109 109 226 226 112 116 226 114 114 192 227 116 116 194 117 118 195 196 119 119 199 54 53 202 203 48 229 207 43 41 229 213 36 229 229 32 30 229 230 26 230 230 125 22 229 125 125 232 229 125 125 232 126 126 228 226 126 126 217 11 126 205 201 9 126 190 9 9 180 177 8 221 221 9 9 218 217 11 215
83 110 38 83 70 112 12 83 72 43 10 150 73 8 87 164 75 6 174 76 10 5 186 78 34 125 197 9 37 52 8 7 132 55 7 6 137 2 5 142 143 2 5 148 2 2 153 154 2 220 220 3 3 220 76 3 221 221 2 3 222 222 2 222 222 2 2 222 222 2 195 197 2 2 201 9 3 204 205 12 2 208 14 15 210 211 17 18 213 19 20 221 215 23 221 221 6 26 221 221 8 221 221 9 10 221 221 12 219 221 14 15 219 221 18 220 220 21 22 220 81 86 220 220 105 112 220 125 132 222 220 150 155 223 120 170 223 223 122 166 223 62 64 155 223 70 217 223 75 77 215 224 82 213 212 1 88 210 209 0 65 206 189 97 77 124 174 225 199 122 153 225 121 135 85 226 118 111 226 0 114 74 226 114 68 65 0 116 55 51 0 127 197 0 0 129 200 0 131 131 68 0 132 208 55 133 133 47 35 133 40 38 6 229 33 32 8 0 29 10 11 0 26 14 0 0 18 19 1 135 22 1 1 137 25 1 137 137 10 1 135 134 6 131 130 5 4 123 121 3 30 113 2 2 31 156
37 81 72 72 81 81 73 13 81 75 75 45 83 77 78 39 78 78 35 35 80 33 33 50 50 33 33 52 101 35 52 53 107 41 55 111 112 137 56 116 84 57 122 123 83 59 128 82 81 95 135 80 79 115 221 77 128 133 222 73 147 65 71 2 163 67 2 172 191 69 2 182 71 8 180 200 73 184 185 205 13 189 48 208 16 222 45 18 19 222 41 21 222 222 6 24 222 37 7 216 222 9 188 218 222 11 218 98 13 14 219 45 17 219 219 58 21 220 71 76 222 219 94 191 223 113 120 223 18 139 223 223 47 162 223 223 55 223 223 61 63 223 223 69 217 216 74 76 215 214 81 213 212 201 87 210 198 197 207 206 190 188 203 181 178 225 199 164 159 225 105 142 225 226 108 226 226 111 111 226 226 113 193 227 115 115 194 227 117 196 196 61 119 199 200 54 202 203 48 47 206 44 42 228 212 37 36 229 42 31 229 229 35 26 229 124 124 8 229 125 230 228 0 125 230 227 126 137 226 1 126 219 217 1 138 205 9 1 136 190 8 223 131 5 7 220 4 3 30 217 2 9 30 3 2 31
78 110 16 15 126 111 13 12 138 11 11 150 153 9 8 164 10 10 175 179 10 9 188 9 8 123 199 7 126 127 7 7 130 132 6 134 135 3 3 139 141 3 218 145 3 3 220 3 3 220 221 3 3 222 2 3 222 222 2 4 222 2 2 180 222 2 1 187 2 2 192 193 2 196 198 10 2 202 203 12 187 206 14 15 190 209 17 222 222 80 20 222 5 23 196 222 7 26 222 36 9 199 222 10 11 199 32 13 218 198 30 17 218 52 29 163 219 68 156 153 107 90 145 219 108 186 133 112 134 223 119 114 173 223 54 117 164 7 61 156 154 5 69 145 3 3 71 133 1 81 68 1 1 69 209 0 0 75 121 189 81 84 120 96 91 119 119 90 100 117 87 85 115 115 82 81 112 79 77 0 108 72 0 0 125 62 0 0 129 227 0 132 133 0 0 135 74 0 137 138 62 0 139 54 51 8 141 43 6 6 221 36 6 6 225 21 7 0 28 9 10 0 15 13 1 1 12 227 1 139 139 226 1 138 12 224 126 136 8 2 126 179 5 127 125 170 3 127 164 2 8 127 157 10 31 210
68 77 78 65 110 41 60 59 43 12 53 51 45 80 45 46 46 84 39 48 87 88 49 50 92 89 51 95 97 89 90 100 90 90 37 106 90 90 43 217 90 49 52 88 88 61 58 87 70 74 60 131 86 60 61 139 101 62 145 147 173 63 153 155 180 6 161 67 67 7 223 63 8 174 58 57 171 223 54 176 178 223 49 181 76 223 4 184 79 42 5 212 82 6 184 214 26 8 215 87 29 197 216 32 197 223 217 38 197 30 44 47 223 29 57 223 223 25 74 223 223 32 219 223 37 39 219 223 44 219 219 50 52 218 114 58 217 217 180 65 216 188 189 215 215 194 195 224 196 196 224 224 195 195 224 92 191 225 225 97 225 225 100 101 225 225 104 197 225 106 107 195 195 110 194 194 102 112 194 194 83 195 196 72 70 197 65 62 227 200 56 55 228 79 50 228 228 121 43 228 121 122 228 228 122 217 228 123 123 221 228 124 224 225 0 124 227 227 17 144 228 14 14 142 226 12 226 221 10 10 225 15 9 224 224 10 8 222 126 7 28 220 127 127 29 3 127 163 215 3 106 156 3 127 97 147
13 109 109 16 65 111 14 14 138 113 12 150 154 45 9 165 169 47 83 181 8 6 87 91 7 91 201 6 6 126 93 6 129 130 93 5 134 3 93 41 139 3 46 49 57 3 56 149 58 125 68 59 3 132 222 61 138 223 80 62 146 223 2 153 155 71 2 161 67 66 142 169 62 61 154 58 57 161 164 71 52 169 73 74 173 174 76 190 176 77 79 192 177 80 194 194 83 84 195 196 35 196 196 34 33 196 196 31 165 194 30 29 157 223 27 151 149 223 24 141 102 22 133 130 105 106 121 108 108 172 109 110 166 163 217 112 155 153 216 181 144 4 115 189 132 2 192 124 224 1 77 114 0 91 82 225 0 87 203 225 99 94 115 225 103 198 113 106 107 195 111 83 195 195 108 79 195 92 87 227 196 75 68 0 66 64 227 0 57 55 228 119 50 228 228 120 143 228 121 121 214 228 122 217 218 123 123 221 38 124 223 223 21 124 225 226 17 226 227 15 14 227 13 12 226 225 10 10 225 126 9 224 223 126 8 222 126 126 220 220 126 172 218 127 127 165 163 127 160 158 8 127 152 149 11 144
71 40 84 68 41 41 10 63 43 44 10 113 45 77 50 116 47 81 117 48 7 85 94 50 88 200 95 5 93 96 5 4 212 97 33 4 216 4 36 219 219 3 42 56 3 3 147 58 3 152 58 3 2 158 60 134 163 165 4 142 170 172 5 223 177 6 6 223 68 7 223 223 2 9 223 2 2 223 223 3 155 223 3 4 206 223 5 5 210 5 6 212 212 23 213 213 26 26 215 215 29 223 216 33 34 223 217 39 223 223 46 49 223 223 24 223 223 29 31 223 34 36 218 224 41 43 218 47 49 217 217 55 57 216 163 63 216 215 176 224 214 183 185 224 212 189 224 224 190 190 224 225 188 225 225 95 184 225 225 100 93 225 103 104 198 0 106 197 197 0 109 196 114 111 120 196 92 113 198 98 75 130 199 65 62 227 87 56 227 228 79 40 228 120 69 26 227 121 18 16 0 122 10 0 123 154 7 0 124 223 34 0 154 225 18 1 152 27 14 150 150 25 12 147 21 20 16 143 17 20 21 13 12 23 221 2 25 26 2 126 27 28 2 119 29 3 3 108 3 3 101 99 3 3 93 1
19 71 41 18 70 68 42 15 138 44 44 74 155 46 46 78 94 47 80 81 96 41 85 98 98 36 89 99 33 33 99 100 32 130 99 33 33 54 98 36 55 56 39 41 56 56 114 57 57 119 121 58 58 127 87 60 133 135 83 61 142 79 78 6 150 74 102 157 223 68 114 117 63 2 126 67 58 134 136 69 3 143 71 71 4 206 73 187 5 210 76 190 40 78 24 191 37 80 193 224 35 30 192 33 33 36 224 31 147 44 224 22 140 224 224 27 132 96 32 34 217 99 40 116 218 115 47 217 104 138 216 216 152 155 216 215 168 224 214 176 178 224 2 183 224 224 84 186 224 225 90 225 225 94 95 225 98 99 201 225 102 103 199 157 106 198 197 137 109 197 120 114 197 198 97 226 198 82 78 227 201 67 227 227 59 57 227 227 119 228 228 120 120 227 227 121 214 228 122 122 217 122 123 220 220 123 123 222 22 124 223 223 18 17 224 15 15 226 223 12 226 225 23 10 224 224 9 17 223 126 7 222 221 126 181 220 126 126 171 217 126 166 164 3 127 160 6 127 103 153 7 127 146 1 12 90
