P2
256 256
255
83 184 144 73 182 89 80 82 180 93 89 177 177 155 123 174 173 153 153 170 151 150 154 163 149 155 155 148 148 156 129 147 156 156 135 146 156 139 140 116 155 143 144 102 147 148 93 90 150 86 84 149 154 79 78 152 76 75 153 154 147 74 155 147 147 157 157 147 147 159 148 148 167 160 149 167 168 149 150 169 169 150 170 170 128 133 170 170 147 162 171 161 164 161 90 176 160 160 185 188 158 156 194 157 157 158 200 155 160 161 170 154 163 163 169 225 165 169 168 227 183 168 209 170 170 166 208 159 165 220 206 146 163 204 193 146 225 201 145 180 226 184 144 183 226 180 231 185 177 176 231 187 173 231 188 85 154 231 189 152 223 231 77 151 171 75 74 219 167 72 72 216 160 70 214 213 158 69 211 158 157 230 207 156 230 230 156 156 230 199 155 230 230 69 154 231 231 70 231 231 71 72 231 231 73 184 183 75 75 181 150 77 179 178 148 79 177 146 145 181 176 142 142 177 200 139 239 239 136 127 241 83 131 243 243 82 123 245 80 80 121 248 77 183 249 243 74 183 251 71 190 182 102 66 181 222
152 144 72 147 145 218 80 139 221 87 74 130 224 97 175 228 229 65 170 232 233 60 111 236 55 54 118 98 50 123 124 92 45 131 89 88 136 138 86 154 144 84 84 249 152 83 84 250 83 83 250 251 32 251 251 32 32 251 251 31 177 251 32 32 181 251 33 183 184 166 35 185 115 117 89 188 126 129 188 162 139 249 191 149 152 247 162 164 245 245 162 177 243 87 161 153 239 110 203 155 172 135 207 231 153 199 210 171 173 212 213 170 206 213 224 169 208 151 226 209 209 149 228 180 149 148 172 165 147 229 176 164 147 178 140 163 145 181 161 228 182 183 159 195 180 158 158 191 176 157 187 186 143 155 182 181 142 178 178 142 142 175 142 142 192 171 141 141 193 150 141 193 193 148 141 194 148 147 195 195 147 147 197 147 147 160 199 146 159 159 146 146 159 159 138 159 159 137 137 160 161 137 215 163 136 136 220 135 135 224 225 134 134 228 169 172 232 233 177 178 235 182 183 198 238 187 188 206 86 189 212 213 191 184 217 123 191 220 221 120 244 224 118 118 244 225 116 244 244 106 115 242 185 117 252 240
68 145 145 74 77 182 81 83 180 179 90 93 177 151 100 174 173 150 109 169 148 148 61 163 147 154 158 122 146 155 154 145 91 154 138 146 153 153 143 85 152 146 147 83 250 150 92 82 250 154 83 150 156 32 76 152 160 74 177 154 32 73 156 95 33 183 158 145 35 186 108 147 187 187 119 148 169 127 130 249 170 140 149 248 55 154 247 171 67 246 245 80 162 243 243 101 203 240 120 126 207 158 145 210 210 213 168 213 218 219 214 214 222 223 214 224 225 205 213 226 227 193 217 228 182 179 222 229 168 225 225 157 154 227 191 143 229 229 186 130 230 182 181 159 230 178 178 231 190 175 231 231 173 143 231 92 169 231 231 86 142 231 84 82 142 231 80 224 142 195 77 221 220 195 148 218 158 73 147 162 156 147 211 160 155 146 160 155 139 146 159 155 231 207 159 138 231 74 137 137 215 76 137 136 219 152 136 223 224 158 135 228 164 183 231 232 171 182 147 176 178 193 143 183 199 202 128 186 208 210 125 213 215 123 122 218 220 120 244 222 118 117 244 188 115 245 244 185 112 244 183 182 243 242 180 179
154 217 218 148 146 220 84 140 223 224 79 131 227 76 74 152 231 70 69 111 115 65 116 118 60 59 124 98 55 129 131 91 142 137 88 87 128 146 85 248 113 146 83 250 250 148 146 250 35 82 143 157 33 141 251 160 32 140 163 32 72 141 164 33 184 158 167 74 186 105 78 80 161 114 86 89 162 147 98 162 135 149 114 162 149 249 162 162 151 246 78 151 152 172 99 153 172 172 182 155 172 172 192 172 172 198 199 171 171 203 155 171 206 207 153 165 208 152 152 169 209 150 171 172 149 149 174 175 148 177 178 165 147 180 181 163 203 183 162 162 200 160 160 197 196 159 159 192 144 157 189 188 144 156 185 143 143 181 180 143 195 195 142 142 196 196 142 196 196 150 141 197 197 149 231 198 148 148 199 199 147 162 200 146 146 160 139 146 160 160 139 146 159 138 138 200 159 138 138 196 153 137 219 163 153 232 224 154 135 232 228 160 233 231 85 167 234 235 173 188 236 89 179 197 237 91 185 206 92 185 187 135 123 188 217 129 120 190 125 117 248 191 118 113 245 112 110 251 244 105 251 252 80 98 252 252
68 184 147 220 88 182 223 84 84 179 226 81 177 103 230 76 173 147 71 70 115 145 154 121 122 100 154 129 145 94 244 136 90 152 247 145 86 248 146 83 83 249 39 102 250 250 37 89 250 35 34 174 251 33 33 178 33 33 181 182 33 33 184 93 33 186 186 99 251 188 106 108 251 189 115 251 251 123 126 250 250 135 250 249 58 149 249 68 72 150 247 86 91 203 173 108 206 207 173 134 210 202 152 194 214 211 175 216 156 217 204 217 220 223 221 153 224 214 212 151 170 204 222 228 174 192 226 176 181 166 230 179 165 231 206 182 163 233 184 146 162 200 180 231 160 196 145 231 192 191 144 231 188 144 144 195 183 143 196 196 143 143 197 88 152 198 197 151 227 198 198 150 168 199 148 148 165 148 148 163 162 147 147 162 140 140 160 160 139 231 160 139 139 210 160 138 138 215 138 137 218 219 137 221 222 151 136 226 227 155 170 230 160 162 176 234 167 183 185 172 174 192 130 178 199 201 127 182 208 125 124 213 215 121 121 244 119 118 245 245 115 114 246 181 111 245 245 178 251 245 175 174 252 243 171 223
153 148 184 152 151 151 181 149 153 153 93 148 154 230 103 155 154 110 74 155 117 120 165 155 126 128 158 131 133 150 148 138 140 138 144 145 128 124 145 145 112 146 146 145 98 148 142 141 150 150 138 137 152 136 136 163 163 135 135 165 71 136 167 167 71 168 168 72 73 170 170 78 161 170 83 86 163 172 95 163 162 148 110 163 163 149 162 163 150 150 162 151 151 173 161 152 153 173 191 155 173 173 202 157 172 197 199 235 172 203 156 172 202 206 154 171 208 215 152 219 209 151 151 225 207 150 176 177 200 149 180 166 148 230 183 164 230 185 152 163 231 189 161 235 231 128 160 195 231 117 236 190 144 108 235 169 143 234 234 166 143 233 164 163 231 231 161 142 231 160 159 231 201 157 157 231 81 148 231 231 79 219 231 79 79 215 231 78 211 210 79 79 207 206 79 204 203 152 138 200 151 152 231 197 152 151 232 166 151 232 232 150 150 233 89 149 234 234 92 148 235 93 94 189 237 96 190 191 243 96 192 193 97 182 195 131 97 196 196 124 180 197 119 117 177 226 111 251 251 226 102 252 88 225 98 252
96 184 150 151 183 92 148 153 97 147 134 155 105 146 155 233 113 117 156 116 120 108 239 125 162 100 242 64 153 244 245 58 142 247 53 52 154 248 47 116 162 44 43 167 148 40 39 173 80 136 177 178 81 251 181 82 83 252 184 86 252 252 89 91 252 169 95 252 251 37 75 251 39 40 191 251 44 46 194 172 51 195 196 59 62 199 147 73 201 202 161 92 206 171 175 246 210 185 244 243 159 197 241 240 205 158 238 186 213 234 233 202 164 228 211 214 168 171 220 215 213 170 226 209 228 168 210 202 229 232 209 148 230 207 189 148 231 205 147 231 189 148 146 192 138 237 146 194 126 237 196 196 157 237 198 107 156 184 199 155 235 180 154 153 177 161 143 152 173 142 231 170 170 142 231 167 141 141 203 165 141 141 206 140 140 207 208 140 209 210 146 146 213 214 146 160 217 146 146 161 221 147 162 163 148 149 165 136 152 168 170 134 134 175 134 133 237 182 131 131 240 130 129 241 242 127 127 243 179 125 244 245 180 245 245 179 180 221 246 178 224 224 176 175 226 226 172 227 227 100 167 226 96 96 197 223
150 151 152 148 147 154 84 147 156 156 95 145 157 103 105 157 157 113 171 156 120 123 165 163 129 160 158 143 137 151 148 143 142 139 144 145 128 125 145 145 112 147 148 140 171 149 137 136 160 151 132 163 164 81 130 165 166 129 252 167 70 130 168 35 69 252 170 71 72 252 39 76 162 162 43 83 163 144 48 195 163 146 106 198 138 147 201 163 152 249 205 162 151 247 209 175 246 173 178 189 244 173 190 241 241 180 198 238 194 198 221 233 208 206 219 216 218 217 153 225 225 213 227 174 208 206 228 178 200 229 229 190 192 230 180 177 231 231 166 162 231 155 152 239 239 141 138 239 172 128 239 239 170 158 238 168 167 237 237 165 231 236 163 162 231 234 160 231 231 90 158 231 231 87 142 231 85 85 141 205 83 222 231 208 83 219 209 82 146 214 151 82 211 150 150 145 207 150 231 145 162 150 231 201 163 136 232 166 150 135 232 171 134 233 236 94 132 234 96 167 130 241 98 194 242 243 175 196 244 244 177 213 245 177 177 219 246 177 222 223 112 174 225 107 106 227 227 101 251 227 97 95 245 225 91 90
101 86 88 150 98 95 144 142 100 103 134 132 109 127 125 234 236 117 114 238 82 107 240 241 76 155 243 71 70 245 246 64 153 247 59 58 160 162 53 166 168 80 47 172 174 78 91 178 78 79 81 153 79 252 184 81 81 252 157 84 252 252 35 89 252 36 37 131 252 38 191 136 172 42 193 251 173 87 195 173 54 101 198 173 113 200 163 145 132 205 156 149 151 161 169 247 161 160 153 245 159 159 155 173 158 158 159 173 157 161 173 172 205 165 172 208 208 171 171 210 215 170 211 211 152 169 211 211 150 210 210 149 149 186 209 148 188 189 148 147 192 164 147 194 195 162 146 196 161 160 199 199 159 158 200 158 157 187 186 156 183 183 144 154 180 178 143 177 176 142 142 173 172 142 205 170 142 142 206 167 141 208 208 148 141 209 147 146 212 212 146 146 215 145 146 161 219 146 146 162 86 146 163 163 137 201 165 136 136 168 170 134 235 174 133 133 238 181 131 240 241 146 129 243 243 144 238 244 175 175 241 104 175 217 246 105 174 222 104 172 205 225 104 169 227 116 103 205 227 96 205 204 99 90 244 203
146 155 156 91 149 158 85 144 160 160 97 132 160 105 108 174 160 116 171 170 239 126 165 142 242 78 158 143 139 72 151 143 66 139 159 145 59 165 146 81 141 172 79 137 251 177 78 131 163 78 77 252 166 79 79 252 37 81 252 252 36 85 252 36 37 189 252 38 191 162 40 41 193 163 45 194 194 114 52 196 197 125 199 200 134 136 250 143 147 249 249 156 159 248 120 170 247 246 147 183 245 165 171 243 243 187 222 240 201 204 223 222 214 222 222 220 223 220 218 224 210 214 226 227 211 207 228 209 200 150 229 199 149 230 188 188 240 231 179 165 241 194 165 242 242 197 162 242 171 199 161 195 169 159 159 191 166 232 188 186 144 231 183 161 231 204 179 143 231 96 175 142 205 91 143 142 206 150 142 207 208 149 225 209 148 148 164 212 147 218 162 146 146 162 148 146 162 162 138 146 162 163 138 164 164 137 136 231 167 136 234 235 134 134 237 238 132 239 240 164 130 242 168 169 244 244 172 173 245 173 173 213 215 173 173 219 116 171 223 224 110 225 226 105 104 227 227 98 246 228 92 91 245 245 85 244
70 184 90 78 81 182 99 142 180 180 142 132 177 115 141 162 173 141 114 160 141 141 159 242 142 142 156 140 77 154 152 146 70 149 151 152 128 145 156 58 113 159 160 101 178 163 91 88 152 166 80 78 155 120 73 157 157 118 69 159 118 118 160 161 121 172 162 125 126 173 163 129 174 174 133 135 174 174 87 174 174 97 101 174 175 113 163 174 127 132 162 141 147 162 162 160 165 161 152 153 160 159 155 156 159 157 158 174 157 161 173 173 164 165 173 172 168 172 172 210 173 171 171 211 152 170 212 211 151 169 211 150 150 241 210 149 190 208 181 148 194 206 147 231 197 173 146 200 200 162 232 202 160 160 232 128 159 190 232 117 157 185 109 108 240 181 102 154 238 157 143 236 174 142 142 233 153 142 208 230 151 231 210 150 149 231 212 148 231 231 87 148 231 217 88 214 231 88 146 209 90 90 207 164 91 92 204 146 94 202 201 147 97 200 146 146 199 199 146 146 235 145 145 236 237 144 238 239 107 141 241 241 108 119 243 109 109 245 246 110 210 210 109 109 211 118 108 211 210 109 106 210 102 100 141 209
86 155 108 94 96 147 229 103 139 137 232 132 130 235 235 121 119 238 96 111 240 241 91 101 243 86 85 156 246 80 79 160 150 73 165 167 67 125 173 79 60 177 178 77 98 181 76 76 85 184 76 252 76 157 77 252 39 159 113 252 39 82 115 172 39 117 252 40 41 123 174 44 193 129 174 49 196 110 174 89 198 121 99 103 163 132 116 205 162 146 135 162 154 149 154 161 151 247 160 160 153 174 179 155 156 174 198 159 174 174 202 163 173 173 207 173 173 209 210 172 172 211 153 171 211 212 152 182 212 151 151 187 211 150 189 190 149 149 194 195 148 196 197 165 147 199 164 163 201 202 162 161 196 161 160 193 192 159 159 189 145 158 185 184 144 156 181 144 144 178 177 143 207 208 142 142 208 209 142 209 210 150 142 211 211 148 231 213 148 147 215 88 147 163 219 146 146 163 139 146 163 163 138 146 164 137 137 205 167 135 135 202 145 134 238 177 145 234 241 161 130 243 243 166 237 245 169 169 239 246 170 213 242 110 168 220 111 111 212 224 111 162 213 124 102 213 228 115 94 213 108 88 252 212 98 79
71 184 183 140 82 182 140 140 180 179 140 139 177 140 140 166 173 140 165 165 129 140 162 161 137 159 158 143 145 155 154 150 142 150 154 156 129 143 160 117 113 162 163 101 152 152 91 88 154 155 80 156 156 112 72 158 159 109 189 160 109 109 161 84 112 174 163 115 116 174 70 121 175 175 75 128 175 82 85 251 175 93 97 175 76 109 163 175 123 209 162 146 142 162 161 149 217 160 151 152 221 159 154 174 224 194 157 174 202 205 240 174 211 165 236 228 208 233 173 234 211 228 237 212 210 221 240 212 151 242 243 194 150 243 187 185 230 245 180 178 231 185 175 231 231 173 171 231 163 163 231 231 149 245 232 139 136 244 232 126 243 243 160 116 242 242 158 241 241 156 155 239 239 153 231 237 152 151 231 171 150 231 231 148 148 231 91 90 231 231 90 90 231 90 90 217 231 91 214 213 225 93 210 209 229 147 207 143 97 149 204 144 232 203 175 144 233 202 143 131 235 190 143 236 244 200 126 238 110 209 122 247 112 211 117 247 113 213 248 248 159 215 248 155 216 228 247 147 216 112 140 138 228 103 131 128
184 227 227 114 183 230 113 113 109 232 111 110 120 126 108 128 139 115 105 138 108 165 145 148 99 245 155 93 91 247 164 86 248 249 80 81 250 250 72 250 250 66 64 251 251 59 185 252 54 52 187 171 48 188 188 45 44 189 78 78 190 190 82 83 191 85 86 252 193 91 252 252 163 98 252 252 163 127 251 61 114 134 251 75 204 251 175 94 208 250 110 135 213 175 136 217 162 175 167 221 175 175 182 159 188 244 193 158 200 242 157 207 164 238 156 167 235 173 154 173 230 238 176 178 172 241 182 183 171 212 196 170 170 212 187 169 211 211 149 168 208 149 148 207 206 147 231 204 147 147 204 200 146 146 206 162 145 207 207 160 207 208 159 158 208 208 157 183 208 156 156 179 209 154 176 176 142 153 173 172 142 171 170 142 142 168 142 141 214 166 140 140 217 140 140 220 221 139 139 224 146 146 227 228 147 166 231 147 148 168 235 150 172 174 153 155 178 181 158 185 187 129 163 195 197 127 245 204 124 123 247 138 120 247 248 136 114 248 160 109 247 248 154 102 248 116 146 229 247 139 229 228 114 128 226 225
72 184 183 228 84 182 181 231 115 179 138 138 114 125 138 171 173 136 139 168 143 140 102 164 153 142 161 246 162 88 155 154 170 83 249 160 129 78 250 75 113 251 251 67 98 252 61 59 187 252 54 78 158 50 49 189 160 46 189 190 78 99 190 191 82 252 192 86 88 252 193 93 252 252 99 101 252 175 108 252 252 70 93 251 82 86 207 250 102 107 212 120 126 215 216 146 153 220 166 172 223 223 179 184 225 188 192 243 226 200 241 241 156 209 238 237 215 170 234 237 220 230 173 241 180 224 243 243 185 171 245 194 192 170 246 184 230 169 211 177 231 247 209 148 231 206 169 231 204 203 147 231 161 158 146 207 148 246 145 208 134 245 208 208 159 244 209 158 157 183 209 156 241 179 155 155 176 150 142 153 172 142 231 171 170 141 231 168 141 141 216 166 140 218 219 140 139 221 222 139 225 226 147 147 229 230 147 167 233 149 149 171 151 151 175 177 155 156 182 131 160 189 192 128 127 199 126 125 246 209 122 121 247 118 117 248 248 113 248 248 154 105 248 248 147 248 248 139 137 229 248 129 228 227 120 117
136 172 228 120 120 174 231 120 113 175 105 118 124 236 116 173 136 126 114 143 140 137 165 153 97 95 158 143 90 248 149 145 83 249 147 148 145 250 150 76 136 168 153 128 252 171 120 117 172 60 80 106 174 74 189 175 175 69 190 175 66 66 163 176 65 163 163 66 66 164 163 69 164 164 111 252 164 164 120 176 164 126 128 176 131 133 176 176 137 139 176 130 142 176 176 149 154 175 163 167 160 175 179 182 159 188 191 158 158 198 158 157 163 204 156 155 169 155 155 173 174 173 154 179 173 173 184 185 171 213 189 171 171 213 193 170 212 212 202 169 210 210 168 248 208 148 147 206 205 147 206 203 147 146 208 161 146 208 209 160 145 209 161 145 232 209 159 159 209 113 158 182 210 156 241 178 102 155 175 175 98 236 172 142 96 232 170 141 229 228 142 141 217 166 141 230 220 140 139 230 96 140 231 228 98 139 231 99 148 231 231 102 151 232 104 105 206 180 108 206 207 138 111 207 208 138 209 210 137 123 213 214 136 242 216 134 134 245 248 131 247 248 120 127 249 119 119 251 251 119 119 252 119 118 223 252
228 123 183 100 230 123 109 136 123 122 121 131 122 130 133 119 119 141 111 109 149 151 101 99 159 94 93 246 153 87 85 248 100 81 249 250 92 142 250 85 83 251 251 77 187 252 70 68 188 188 62 189 189 72 56 190 74 74 68 191 76 77 191 163 80 252 192 84 86 252 164 90 252 252 56 98 252 63 66 116 252 75 204 125 176 92 209 250 176 118 214 176 134 137 219 176 152 221 160 163 170 160 173 152 184 159 185 244 158 158 161 242 157 156 166 174 155 170 172 174 154 176 173 244 212 182 172 213 202 172 171 214 192 171 213 213 150 170 212 211 149 211 210 149 148 204 148 148 206 206 147 147 208 165 147 208 209 164 146 209 162 162 210 209 161 160 210 160 159 185 185 158 183 182 144 157 179 178 143 176 175 142 142 173 172 142 213 170 141 141 215 141 140 217 218 149 140 221 148 148 224 225 148 147 228 147 148 168 232 149 149 171 104 151 175 176 133 207 182 131 130 189 191 128 245 199 125 125 247 209 121 247 248 135 116 248 156 132 245 248 149 147 248 122 140 230 248 121 129 230 121 120 226 227 121 107
126 179 179 85 126 180 95 99 180 181 109 112 176 118 121 173 172 139 170 169 140 140 165 163 142 168 157 144 144 160 148 147 154 152 149 149 145 142 151 137 134 171 172 125 173 173 92 112 175 175 80 176 176 74 73 177 177 69 162 177 66 66 163 82 65 164 163 85 65 164 90 91 164 164 98 100 163 106 108 176 163 115 118 177 116 124 176 176 111 250 176 125 129 176 176 144 161 176 158 163 160 176 175 159 159 212 188 158 157 225 227 157 163 164 225 208 168 174 155 216 175 174 220 179 228 173 224 186 172 213 227 218 171 214 213 212 249 213 150 170 249 172 149 249 210 167 148 249 165 147 232 249 161 232 209 159 159 232 210 164 232 231 143 163 232 232 129 247 232 121 119 245 231 112 243 242 107 105 241 146 102 239 238 143 142 235 142 141 230 230 140 140 230 139 138 230 230 137 230 230 98 136 230 230 99 137 230 101 102 210 231 104 209 208 238 107 207 208 110 157 208 134 113 209 134 134 162 212 134 134 239 213 133 241 242 221 132 245 122 130 106 247 123 100 249 248 123 91 251 123 119 80 247 123 228 228
229 80 129 183 231 129 181 184 104 129 125 183 117 175 137 126 130 171 149 107 167 157 142 97 161 143 91 166 153 146 83 249 148 149 150 250 151 151 139 171 95 130 127 174 86 117 175 176 86 103 177 78 76 178 178 71 190 178 68 67 163 179 65 64 164 76 64 164 164 81 164 164 86 88 164 164 95 177 163 103 106 177 163 114 177 177 121 124 177 177 117 176 176 131 137 176 146 151 160 176 165 169 159 177 180 158 158 189 192 157 159 161 157 156 166 175 156 170 172 174 154 177 174 174 182 183 173 173 188 172 172 214 193 172 172 214 150 171 214 213 150 250 212 149 149 250 210 148 207 208 161 147 209 205 147 232 210 157 146 210 154 164 232 210 163 162 232 131 161 189 232 120 160 184 113 159 243 181 107 157 178 144 143 238 175 142 231 234 140 141 213 230 138 230 216 137 136 230 220 135 230 230 100 134 230 101 101 212 230 104 150 210 106 107 208 176 109 110 208 132 112 209 209 132 115 211 132 132 214 214 132 239 240 131 131 243 243 130 245 246 124 128 248 248 125 95 250 125 125 251 248 125 230 252 124 124
131 185 185 87 132 187 187 102 179 187 113 116 176 239 126 173 172 241 138 169 140 145 128 163 143 154 157 145 146 121 148 148 156 153 183 151 145 142 186 72 133 174 156 70 119 177 69 108 252 178 69 94 179 72 73 252 180 69 191 252 60 65 164 252 58 193 164 58 57 195 164 59 196 197 91 66 200 96 98 252 204 105 104 251 112 114 251 177 122 125 250 137 133 250 249 164 144 248 183 189 248 247 204 226 227 216 220 227 157 228 227 226 194 236 225 224 205 207 222 211 213 218 217 218 229 228 222 223 224 248 226 219 218 249 228 213 250 250 201 206 250 250 201 170 250 165 194 250 209 161 231 251 158 158 232 204 156 232 232 201 154 232 152 196 145 231 138 145 145 210 126 145 232 209 160 245 209 110 159 242 209 157 240 177 210 156 236 139 155 154 172 136 153 170 169 140 230 169 134 139 221 167 139 230 226 168 137 230 104 136 135 235 152 134 238 239 154 132 241 157 158 188 244 160 160 198 161 161 206 209 159 158 216 117 155 221 223 111 226 227 105 103 229 230 97 249 249 90 87 249 248 79 248 247 98 67
157 230 103 151 149 233 116 141 235 236 135 130 238 239 121 187 241 135 109 243 145 133 165 245 131 130 173 160 127 179 180 166 121 183 76 171 130 187 72 119 115 156 70 104 189 158 109 252 160 68 94 252 162 83 252 73 163 72 252 66 66 66 180 63 63 180 180 64 194 179 62 66 164 179 69 200 163 178 74 163 101 81 83 163 102 93 162 162 114 108 161 122 124 177 161 131 133 176 137 138 176 176 144 146 176 180 150 176 176 192 175 175 199 201 175 175 205 155 155 208 210 154 154 212 153 153 185 214 153 190 192 152 152 196 198 151 200 201 172 171 204 205 171 213 207 170 170 211 209 169 209 208 168 168 206 147 167 204 203 146 166 200 146 146 211 196 145 145 210 147 145 209 209 144 231 209 161 144 209 208 159 231 208 158 157 231 209 156 174 174 100 155 172 171 100 227 170 140 152 222 131 139 218 168 138 137 214 129 136 232 233 128 135 236 153 128 231 240 156 232 232 115 160 233 245 118 213 236 120 159 216 239 122 220 219 128 125 225 226 108 228 229 125 99 231 123 123 250 233 120 119 251 116 115 252 252
80 155 192 91 95 146 234 106 179 136 237 139 176 239 240 138 172 242 138 138 162 245 136 162 172 90 133 177 147 83 129 183 78 155 186 186 73 250 188 71 70 251 189 68 252 252 99 67 252 252 90 252 252 83 81 252 77 75 191 252 70 69 192 181 66 193 194 65 64 196 81 83 198 199 88 89 201 93 95 252 205 101 251 251 162 110 251 251 162 109 250 143 127 121 249 170 223 249 188 194 225 176 208 227 226 176 223 227 176 176 193 226 188 238 201 156 200 237 222 155 175 234 154 215 182 229 153 188 225 173 152 194 219 250 198 199 172 251 203 204 172 214 167 171 171 213 149 170 211 211 148 169 209 147 147 207 206 147 232 203 146 146 211 200 146 210 210 165 145 209 209 163 209 208 162 162 208 208 161 183 207 160 159 180 208 158 177 176 142 157 174 141 141 172 172 140 140 170 140 139 219 169 139 138 224 137 137 228 229 136 232 233 153 154 236 238 156 180 241 158 158 187 244 160 195 198 160 160 206 208 158 213 215 117 153 221 113 111 249 227 105 103 249 124 96 249 249 121 86 249 106 77 248 248 91 252
127 85 182 129 130 181 180 132 138 178 133 134 194 239 137 192 191 142 140 188 186 153 183 181 159 161 175 173 166 150 165 171 172 140 174 175 130 128 156 178 116 158 159 105 102 160 161 91 161 162 89 80 163 163 73 163 163 64 61 183 57 55 182 182 52 52 182 64 52 181 181 65 55 180 68 68 179 179 73 163 179 78 81 162 162 89 162 162 98 104 161 161 111 222 160 120 123 224 159 130 176 159 154 139 176 163 145 176 176 189 154 176 196 198 240 175 203 205 237 245 209 154 175 248 213 153 248 214 203 152 193 195 152 226 199 183 151 202 210 172 230 206 172 164 230 199 171 231 231 192 252 232 187 185 251 208 179 251 251 148 169 251 202 146 250 250 144 145 249 143 143 231 248 141 141 231 139 139 231 231 112 137 231 107 106 230 230 104 158 230 102 102 232 230 101 229 228 214 101 224 222 128 219 218 126 126 215 214 125 230 212 124 124 230 174 123 230 231 181 123 232 116 123 128 233 119 119 235 247 122 216 238 124 125 221 249 127 226 227 249 138 230 123 249 125 234 121 114 111 231 119 251 237 227 68 252
99 155 153 233 113 146 234 235 132 135 237 238 136 196 240 145 145 193 243 144 168 245 157 143 176 164 141 155 182 170 137 186 152 175 137 188 71 70 124 158 68 251 109 160 66 252 161 162 95 252 162 82 78 185 163 66 252 185 57 54 184 79 65 48 183 64 195 182 182 64 164 181 65 66 164 180 69 163 163 74 75 162 100 82 162 162 82 251 161 161 96 177 160 106 109 177 116 119 176 176 127 130 176 164 137 176 176 180 184 176 189 192 156 176 199 155 155 204 206 155 155 209 153 153 182 213 153 153 189 152 152 195 196 173 151 200 173 173 204 204 172 215 207 171 171 214 209 171 213 213 170 170 211 210 169 209 208 147 147 206 147 146 210 202 146 146 209 142 145 208 208 140 145 207 164 145 231 206 162 162 206 112 161 183 206 160 241 179 104 159 177 176 102 232 174 140 102 227 171 140 223 221 125 138 221 124 123 229 227 123 136 230 109 122 230 237 157 121 230 115 160 231 232 118 161 233 120 122 214 208 123 217 219 121 126 222 223 121 227 228 121 102 231 233 121 249 235 120 119 251 132 118 251 252 133 115
125 182 182 128 129 201 180 131 200 200 133 135 199 135 137 197 196 147 141 192 155 158 187 185 164 166 179 169 171 150 148 175 143 140 155 179 131 128 158 129 117 159 160 122 103 161 103 93 190 163 84 79 164 64 66 186 164 56 252 185 67 46 184 184 70 252 183 64 74 252 182 64 252 252 79 67 163 84 86 208 162 96 78 162 102 114 216 161 80 138 220 118 94 223 224 127 108 225 135 139 248 176 147 246 246 222 159 244 176 233 243 242 238 196 240 239 243 222 237 246 246 217 207 248 212 210 215 249 202 219 220 194 191 224 225 182 227 227 211 170 229 230 205 150 230 200 199 252 210 194 252 252 190 188 252 146 182 252 252 144 174 251 142 141 167 251 140 232 167 198 138 231 231 194 145 231 125 135 231 231 116 143 231 111 110 143 230 106 239 142 206 103 234 127 208 158 229 125 103 156 172 123 156 219 171 122 155 171 120 136 156 172 135 229 175 176 132 230 114 131 130 242 117 128 127 245 162 124 247 247 159 119 248 154 152 249 249 145 226 250 136 133 230 119 123 231 231 87 106 231 230 76 228 227 67 64
183 125 152 202 103 129 203 236 119 133 202 130 150 200 200 144 150 197 152 155 166 191 162 161 160 168 170 154 152 152 148 145 154 155 138 135 157 142 125 159 160 125 111 161 111 106 162 163 91 187 163 77 72 187 187 59 187 187 69 47 186 186 65 185 185 64 64 184 64 64 164 182 64 65 163 39 67 163 162 45 73 162 52 54 161 161 63 67 161 73 77 178 160 88 177 177 127 103 177 177 144 247 176 158 162 176 176 174 156 176 185 188 156 239 196 155 155 244 204 154 171 247 215 153 180 183 153 214 189 174 152 194 196 174 224 200 173 173 227 209 173 216 229 204 172 216 200 198 252 214 148 171 252 145 148 252 210 143 232 252 140 147 232 251 138 232 208 136 136 232 206 166 231 231 134 165 231 231 122 247 231 116 114 244 111 110 242 241 106 106 237 125 104 233 232 124 140 228 122 122 229 222 120 229 229 119 119 229 229 118 229 229 110 117 229 229 113 132 230 116 116 208 231 119 210 210 122 122 213 116 124 217 218 117 127 222 117 117 142 228 117 118 246 231 117 248 249 231 84 250 135 117 73 251 135 64
123 93 150 114 127 151 179 130 136 152 142 135 123 152 157 113 200 243 170 100 195 163 92 90 246 170 83 248 248 147 76 249 249 143 250 250 140 139 251 251 135 191 191 130 129 191 163 123 191 191 62 115 191 62 62 192 192 63 63 193 64 65 252 195 67 68 252 86 72 252 252 85 31 252 86 87 34 251 92 210 251 101 105 215 251 119 218 219 106 142 222 223 115 109 224 122 124 126 158 132 248 227 157 143 246 157 152 130 244 156 165 242 176 239 152 239 242 201 163 176 246 216 174 175 211 209 174 174 214 199 174 216 216 152 174 217 151 150 203 217 150 228 205 150 150 208 200 149 149 210 171 148 211 211 170 147 210 170 170 209 210 169 207 206 168 168 204 134 168 201 200 145 167 197 196 145 194 193 144 144 190 143 143 202 202 143 143 202 162 142 203 203 161 141 205 160 160 208 209 159 159 212 158 159 172 218 158 172 172 137 158 172 173 134 175 176 132 132 180 182 130 242 188 128 127 245 114 124 246 247 120 119 248 155 153 249 249 145 142 250 135 132 230 250 120 116 231 134 103 230 229 136 240 226 66 63
91 152 207 103 108 179 207 120 154 141 133 135 174 156 116 171 170 141 103 166 165 146 193 161 149 150 184 154 153 175 172 182 156 160 184 185 147 143 187 139 128 189 190 108 108 191 191 95 191 191 86 84 191 191 77 164 165 71 70 164 38 67 164 164 31 64 164 28 27 164 163 26 26 163 27 27 182 162 30 181 180 72 37 180 179 80 179 179 88 91 178 178 101 159 178 114 118 158 177 132 157 157 104 151 157 116 120 156 156 130 134 156 141 144 176 155 154 157 176 189 166 176 175 200 230 175 212 213 225 174 215 152 174 251 216 151 174 217 170 150 252 217 150 229 252 152 149 209 252 144 231 210 171 139 232 210 171 232 232 180 170 232 208 169 252 232 164 168 203 156 152 251 199 145 139 249 127 144 248 248 125 143 246 124 124 230 243 122 230 230 121 120 230 203 119 229 229 104 160 229 229 105 221 228 105 106 215 228 108 212 211 109 110 208 113 112 207 207 112 116 207 112 112 230 208 112 111 232 202 112 234 234 112 116 237 129 113 240 241 132 104 244 133 134 95 248 134 237 238 250 136 240 241 137 75 242
105 154 154 117 121 155 130 134 135 132 147 151 122 240 162 112 108 243 175 99 245 245 148 88 247 152 81 183 248 150 73 249 185 147 192 250 144 143 192 190 140 191 192 191 136 191 60 193 93 192 59 85 192 164 60 75 193 61 41 252 164 62 252 252 164 26 252 95 164 23 185 92 23 23 183 93 24 182 182 68 214 181 110 74 161 179 80 221 160 178 91 159 110 102 106 158 70 119 158 157 86 138 157 99 103 177 156 116 119 176 128 131 176 176 143 176 176 197 156 176 176 205 176 175 209 210 175 175 213 152 152 215 216 151 151 217 150 150 202 217 150 205 205 150 150 208 208 149 209 209 172 171 209 209 171 213 209 171 170 211 170 170 209 209 169 169 206 146 169 203 202 146 168 200 145 145 200 196 144 144 199 122 144 199 198 143 230 199 164 142 200 200 163 229 201 162 162 229 205 161 176 175 105 160 174 137 161 214 172 136 161 173 111 134 208 176 132 132 206 109 130 240 241 109 127 244 166 109 231 247 163 234 235 128 154 237 249 130 225 242 133 132 231 245 135 235 231 113 136 239 113 75 241 242 114 63
96 181 181 108 113 179 178 126 177 176 134 141 174 138 140 171 170 143 144 166 147 148 197 195 151 152 188 180 155 179 175 186 167 163 188 189 148 143 192 123 127 193 193 110 105 194 100 97 164 194 88 86 164 124 78 165 164 73 165 164 33 68 164 164 25 199 164 21 20 202 163 19 184 184 74 19 183 66 21 251 181 70 25 180 121 76 250 179 83 85 250 159 95 158 158 180 111 157 68 197 226 157 85 227 226 139 103 225 156 150 242 223 159 133 239 220 172 236 176 243 184 233 245 207 229 228 248 211 224 249 249 189 219 251 216 176 251 251 166 150 251 251 154 227 206 146 144 229 197 138 230 231 192 133 231 188 186 232 232 182 180 232 176 174 252 252 168 252 251 122 157 251 251 121 167 250 120 120 249 248 119 230 247 118 118 229 244 116 229 229 108 115 229 106 105 141 229 105 105 140 205 105 221 227 211 106 215 216 108 162 210 223 163 207 175 108 165 206 107 227 167 184 107 228 169 192 125 230 200 107 121 233 211 117 236 249 131 109 249 132 135 102 250 134 233 250 250 105 238 250 250 86 226 249 72 67
107 102 107 180 125 120 124 178 132 137 175 174 138 151 172 141 143 168 167 147 202 163 150 151 195 248 154 186 183 185 157 172 168 190 158 153 192 193 137 194 194 117 115 195 195 105 196 195 95 92 164 195 84 165 165 77 75 165 165 70 164 164 26 66 164 21 20 164 163 18 17 185 17 16 184 184 17 17 182 66 18 181 181 71 250 180 76 78 179 179 86 159 178 96 99 158 157 111 157 157 66 129 156 156 84 225 156 98 102 155 149 116 176 155 130 134 176 171 147 176 176 202 162 175 207 209 226 175 212 152 221 249 215 151 174 250 171 150 251 217 157 150 203 148 150 228 205 138 149 206 194 131 230 206 171 231 231 185 170 232 232 179 252 232 173 171 252 208 164 252 205 118 152 251 117 145 250 250 116 144 248 115 115 230 246 114 114 229 113 113 229 229 107 111 229 105 105 228 228 105 225 227 105 105 218 227 107 213 211 108 109 208 207 106 206 205 105 105 204 105 105 227 204 104 104 228 194 105 230 230 205 105 233 128 106 113 237 131 132 240 250 134 229 245 135 115 235 250 137 239 240 250 80 242 111 249
101 181 151 234 119 179 213 237 159 176 239 147 159 172 141 159 169 179 146 158 164 150 87 156 190 154 191 192 192 72 177 193 193 66 250 193 63 143 251 195 60 251 196 143 58 252 140 99 251 251 135 88 252 130 129 194 252 124 122 196 119 117 199 199 60 110 202 63 63 205 206 67 251 210 71 72 251 214 77 251 251 81 84 250 250 131 250 250 146 151 250 161 165 226 248 179 183 227 177 194 226 226 177 208 225 132 216 152 224 142 145 221 155 154 239 218 163 136 235 154 176 232 231 153 163 227 246 152 176 222 248 184 218 174 249 172 174 250 217 158 173 251 148 150 173 218 137 228 173 217 149 230 217 216 148 231 186 147 147 204 181 147 203 202 170 146 201 167 169 199 198 169 251 197 196 168 201 195 167 167 197 144 167 194 192 143 166 190 142 142 186 186 142 141 183 141 141 198 180 140 139 203 139 138 207 208 163 212 213 164 164 219 221 166 175 228 168 168 178 235 170 182 184 172 172 190 125 124 198 201 120 119 209 117 115 249 219 110 108 250 104 102 251 251 95 92 251 104 84 250 250 84 226 249 70 65
118 152 233 124 145 215 236 160 214 238 146 160 213 241 160 170 210 169 159 185 205 177 161 190 183 184 154 193 73 149 147 160 66 141 162 162 149 130 163 60 125 164 164 107 252 164 165 84 198 165 68 62 197 84 48 196 195 75 33 194 71 69 192 191 66 202 190 63 63 163 187 62 62 162 62 62 161 161 12 161 161 13 14 160 160 16 180 159 19 21 179 159 26 178 178 33 36 177 106 110 177 177 124 129 177 138 143 155 177 157 161 155 170 174 154 154 184 188 154 137 196 153 153 155 175 152 166 169 175 152 178 174 174 208 187 174 174 192 174 173 218 198 173 218 218 200 173 218 218 149 252 217 148 148 252 216 148 202 215 115 147 201 213 147 231 199 111 146 197 164 169 231 196 168 168 231 142 168 200 230 130 168 196 122 120 246 192 114 243 242 106 108 238 185 105 228 232 105 140 227 224 104 227 203 103 102 226 210 102 225 225 110 101 225 112 112 224 224 115 172 201 118 118 202 187 121 122 204 100 125 207 209 101 211 212 102 102 217 219 103 240 241 104 104 244 245 106 247 248 139 108 250 250 140 66 251
232 160 150 234 235 161 141 237 161 161 159 239 161 171 174 160 160 182 149 159 188 189 85 157 192 77 75 153 194 70 68 249 65 64 250 250 61 59 251 148 57 251 251 145 55 251 143 142 77 251 139 195 252 198 134 195 196 130 75 198 55 123 201 202 58 65 205 60 60 63 162 63 251 62 161 68 251 110 161 10 251 120 79 12 180 136 14 250 179 153 18 178 165 84 25 178 94 226 177 177 109 224 118 123 127 155 127 142 221 155 84 160 154 145 104 154 154 120 234 153 153 139 175 152 152 156 175 244 167 175 174 212 178 174 174 215 174 174 216 217 173 218 218 149 173 218 218 149 200 218 149 148 201 217 148 201 200 148 147 200 171 147 199 198 170 146 197 169 169 195 195 169 169 205 169 169 202 202 168 200 199 144 167 196 195 143 193 192 142 142 189 188 141 191 185 141 141 194 195 139 197 198 165 138 203 166 165 225 210 166 167 216 110 168 175 225 170 171 177 131 173 180 182 128 201 188 125 124 204 198 121 247 208 99 115 249 217 100 236 250 101 102 241 251 121 245 251 105 100 248 139 84 225 251 141 64
118 216 217 123 126 217 216 141 217 216 153 156 215 163 166 169 212 174 176 165 152 182 161 159 156 189 154 159 160 149 147 162 171 141 163 164 149 131 164 130 123 165 165 105 99 200 87 81 200 200 65 59 198 86 45 198 197 77 196 195 71 70 193 193 66 163 163 64 63 162 162 62 162 161 9 61 161 9 9 221 160 10 10 160 80 11 180 159 13 14 179 75 18 178 178 86 25 177 96 100 246 177 112 155 244 204 131 155 177 214 217 154 221 164 154 154 106 208 153 122 127 201 168 141 175 192 181 158 175 191 194 218 174 202 179 212 249 211 209 173 250 141 203 250 218 129 198 251 122 149 251 252 114 148 252 110 109 230 252 106 105 231 179 104 231 231 171 231 231 165 163 231 231 154 251 230 145 142 250 230 133 249 249 124 122 247 100 100 244 243 99 99 239 99 99 227 232 99 99 226 180 97 225 225 178 98 224 107 97 224 224 109 204 223 112 112 201 222 114 199 199 235 118 199 199 242 176 201 96 124 173 202 97 229 209 214 98 234 220 99 104 239 226 101 243 251 228 87 247 139 227 76 251 141 67 64
233 162 121 218 235 163 130 217 148 162 217 240 163 161 215 171 160 167 212 181 163 192 155 188 157 194 73 152 151 161 66 145 143 164 161 136 164 164 136 165 165 116 109 201 165 91 201 201 74 69 200 141 53 198 199 83 36 197 196 74 195 194 70 68 192 65 65 162 162 62 62 162 9 60 161 161 8 60 160 8 8 160 159 8 181 159 10 11 179 158 13 178 178 76 17 178 178 87 177 177 98 102 177 177 115 155 177 129 134 154 212 149 154 154 87 167 153 103 108 153 152 124 129 152 138 142 175 152 155 175 174 192 168 174 174 203 211 173 215 216 205 173 217 149 173 250 218 149 172 218 148 148 251 217 148 195 252 103 147 194 215 100 231 193 170 146 231 191 169 231 190 160 169 231 152 169 251 230 140 168 201 131 127 248 196 143 118 245 96 142 242 241 96 141 236 96 96 226 228 95 225 225 95 95 224 201 95 224 223 108 168 222 222 110 201 222 113 113 198 115 116 197 197 119 120 198 94 123 200 201 95 126 204 95 96 230 211 96 97 235 223 98 239 241 100 243 245 139 102 248 248 140 73 250 142 142
117 218 219 132 126 218 218 153 130 218 158 162 115 216 171 169 215 179 181 164 210 187 160 158 247 193 154 161 249 155 147 163 199 153 195 164 148 131 195 166 122 194 165 52 96 195 51 78 251 196 50 57 199 50 50 252 198 79 51 252 132 71 252 251 126 66 251 121 120 213 251 117 216 217 116 116 220 160 119 222 222 71 7 224 224 77 250 225 83 84 248 88 89 248 248 95 97 247 178 102 245 245 187 110 244 195 198 216 242 205 208 211 213 215 206 205 222 201 200 149 229 193 191 162 193 184 172 174 220 173 185 216 215 150 196 211 246 204 177 206 248 213 202 173 249 187 197 250 250 190 172 251 106 105 171 251 100 229 171 216 97 230 214 214 146 231 212 94 145 187 210 145 230 156 207 145 184 143 251 144 183 168 249 183 183 168 247 183 167 167 191 185 167 238 187 167 167 184 93 140 167 180 138 224 178 177 137 202 175 136 136 211 174 134 218 220 133 132 228 230 130 233 236 179 179 241 179 179 191 245 176 175 202 171 168 211 214 159 155 220 105 142 225 226 96 120 228 88 85 251 227 77 251 251 68 65
219 123 122 219 219 142 219 219 155 158 218 218 168 171 170 177 179 166 153 185 162 161 158 192 156 160 161 152 150 163 163 145 164 165 161 154 165 141 134 202 166 114 107 202 94 89 202 202 72 66 201 95 50 200 199 84 33 197 78 76 164 194 71 163 163 66 65 162 162 62 162 162 7 58 161 161 6 221 160 6 6 224 70 6 180 180 77 7 179 61 9 248 178 67 13 178 170 77 246 177 86 89 244 186 101 155 155 195 212 154 53 205 206 154 71 201 199 138 92 193 152 150 227 184 159 127 175 169 173 219 174 204 186 213 243 209 209 208 246 213 204 247 248 124 199 249 216 113 249 250 107 148 250 101 100 227 188 96 95 229 180 92 230 230 175 90 230 170 168 230 230 161 252 230 154 151 251 251 141 251 250 89 129 249 248 89 168 246 89 89 242 241 90 226 236 89 89 225 183 89 224 224 105 89 223 106 106 137 222 107 108 135 211 110 198 219 221 175 196 228 116 195 195 237 180 196 90 91 180 198 91 222 175 204 92 227 206 215 109 233 222 95 100 251 227 94 243 251 139 83 251 141 81 71 251 143
121 150 219 136 142 139 236 153 128 125 239 168 113 241 242 160 98 243 186 159 245 246 157 158 247 156 155 197 163 154 154 196 59 152 196 196 55 151 196 52 52 196 196 50 251 197 49 49 251 251 48 251 251 143 48 251 251 139 26 251 135 134 251 251 130 211 251 126 125 216 187 121 219 220 58 120 221 61 62 55 223 66 68 224 159 72 249 224 77 8 248 157 84 248 247 156 13 246 170 172 19 245 178 214 28 176 188 210 241 176 121 204 176 205 141 153 175 154 190 152 141 172 152 150 115 185 151 164 219 151 151 144 214 150 154 157 173 150 165 167 173 171 172 172 172 215 178 172 216 105 171 171 217 98 171 216 217 147 170 216 146 146 215 214 146 145 213 145 145 180 180 145 145 179 169 144 178 178 169 178 177 168 168 178 178 168 196 179 168 168 192 191 168 189 188 140 168 185 183 139 181 181 139 138 178 138 137 198 176 136 136 207 87 134 215 217 175 132 225 177 179 232 234 181 180 239 182 182 189 244 180 197 200 127 172 209 212 163 208 219 105 103 225 225 97 251 228 89 87 251 99 78 251 251 103 66
125 130 179 125 144 176 176 135 161 173 142 144 171 170 149 151 217 154 155 214 212 159 160 208 196 162 200 197 200 189 184 201 202 167 161 203 135 140 204 204 126 123 203 118 115 166 203 108 165 165 100 97 165 165 89 164 164 28 79 163 163 17 193 163 12 11 190 162 8 188 187 6 6 185 55 5 184 183 53 5 182 52 52 250 180 52 52 158 151 54 157 156 57 220 156 11 63 155 155 16 215 155 20 23 210 154 30 176 205 110 43 175 175 118 235 175 141 74 231 213 160 228 175 222 176 222 228 185 160 217 234 195 150 178 238 140 150 155 131 128 199 164 120 117 209 196 109 215 217 192 100 221 188 187 224 225 184 250 215 181 180 251 215 176 252 252 83 170 252 252 82 252 252 82 82 252 252 82 229 251 82 82 228 127 82 227 227 117 83 226 112 111 225 225 107 106 224 105 105 224 222 105 216 214 85 105 207 205 85 170 200 85 85 173 195 85 217 193 174 86 216 192 86 128 216 181 87 216 243 123 121 219 126 127 116 249 129 204 110 250 133 212 251 251 132 221 251 115 108 228 251 89 235 101 70 65
125 148 146 178 147 137 134 175 139 123 239 180 147 106 242 152 95 217 244 158 213 246 195 156 207 247 155 151 194 201 153 198 174 203 139 197 203 204 130 166 49 124 121 166 48 114 166 165 68 104 165 45 251 165 164 35 251 163 163 22 194 163 15 14 191 66 9 188 188 60 7 186 57 56 184 184 52 222 182 51 50 159 181 49 158 158 49 49 157 157 7 156 156 8 9 156 155 11 177 155 15 17 177 155 23 176 176 30 32 176 103 108 175 175 122 127 175 137 141 152 175 155 160 151 168 171 151 151 182 151 150 130 193 150 150 143 173 149 151 153 172 149 159 172 172 164 166 171 171 169 171 171 215 171 170 215 214 182 170 214 215 146 251 213 145 145 252 212 145 172 210 79 144 171 78 144 229 171 78 143 171 133 168 228 172 168 168 226 115 168 192 225 109 168 188 106 106 229 184 105 221 181 82 104 211 178 137 219 202 83 136 204 196 83 216 213 83 84 215 113 84 214 214 117 85 214 120 121 215 216 123 182 195 126 127 199 210 130 131 206 90 133 212 214 93 219 221 94 95 228 230 98 248 248 101 102
132 179 178 126 151 176 176 138 221 173 144 147 220 169 152 219 218 156 157 215 214 161 211 209 199 164 202 201 201 60 185 203 203 141 250 204 135 133 250 204 127 166 204 149 117 166 148 110 202 165 146 100 165 44 38 206 164 27 24 211 44 17 192 214 45 10 189 46 7 250 186 49 250 184 127 52 250 182 49 222 250 137 47 158 249 145 220 157 149 150 218 74 151 216 215 81 154 212 85 86 209 207 91 19 242 96 97 240 176 102 104 237 182 109 234 233 193 231 229 201 203 226 225 210 160 157 217 220 150 147 225 141 139 165 232 131 175 178 199 121 189 191 114 148 200 195 104 207 210 190 247 215 187 186 249 221 183 249 249 168 178 250 80 174 169 251 78 169 251 211 76 168 252 76 76 228 206 76 228 228 202 142 227 127 198 142 226 117 141 141 173 110 141 224 176 169 231 179 105 169 221 184 169 212 179 189 170 176 81 171 172 174 81 173 174 173 132 177 174 174 130 229 176 128 128 238 125 125 242 122 121 120 247 180 117 249 249 170 110 250 158 154 251 251 137 132 228 119 112 228 228 93 227 225 72 68
179 121 145 177 177 133 222 237 141 143 221 240 150 220 220 187 156 218 193 194 215 214 198 199 208 201 201 151 195 202 203 144 167 204 139 137 167 133 131 167 167 125 123 166 88 115 165 165 66 105 165 51 46 164 164 33 29 195 23 20 193 192 14 190 190 66 8 187 187 58 186 185 54 53 183 183 49 159 181 46 46 158 4 44 158 157 4 43 156 5 5 215 156 7 7 155 79 10 177 155 13 14 176 63 20 176 176 75 239 175 86 90 235 175 103 152 175 188 122 151 174 136 159 151 206 154 150 138 106 142 150 117 120 133 161 130 172 123 175 140 172 185 189 196 171 198 153 192 244 208 188 170 246 88 184 248 212 83 180 249 80 145 250 250 76 144 251 75 75 228 251 74 228 228 153 73 228 163 142 228 227 133 168 226 226 122 248 225 115 113 243 224 109 238 236 106 105 228 76 76 220 217 77 77 209 77 77 216 200 78 78 215 174 79 213 213 80 132 212 112 80 211 211 116 188 211 119 120 190 212 123 191 192 248 126 195 197 250 169 201 88 133 151 225 90 236 217 228 93 243 229 96 79 248 225 100
233 144 164 149 235 163 175 170 237 161 182 149 159 159 192 95 158 196 197 81 215 198 72 70 246 200 63 61 248 57 56 248 249 52 51 250 151 48 250 250 150 107 250 149 149 202 250 148 204 205 146 147 207 208 145 209 211 41 142 213 41 41 72 216 42 42 218 161 43 250 250 45 45 250 130 48 250 249 135 52 249 140 142 4 248 144 216 4 178 145 213 212 177 42 208 74 145 46 203 80 51 198 154 86 59 154 90 24 71 153 96 236 153 152 46 231 177 152 61 174 187 73 77 173 198 89 173 207 156 104 173 167 130 172 172 179 121 172 187 190 148 178 196 197 147 145 201 147 146 150 146 146 154 154 146 145 156 169 145 157 157 168 145 157 168 168 210 157 168 168 209 168 168 207 206 167 205 204 142 168 202 200 142 199 197 141 141 165 194 141 167 169 140 140 172 169 140 175 176 170 138 180 170 170 184 186 171 171 192 172 172 174 174 174 175 173 133 179 174 174 130 187 175 128 127 178 180 125 242 186 122 121 247 198 117 249 249 174 112 250 162 158 229 251 143 137 237 137 118 229 251 140 91 227 142 72
179 122 126 177 176 135 138 174 144 146 222 171 152 221 221 194 159 219 218 162 76 214 199 200 209 206 202 150 196 203 203 144 248 203 139 137 249 203 131 167 250 150 123 166 201 149 204 166 64 107 207 165 45 210 164 40 28 213 40 19 251 215 40 11 188 40 41 250 186 56 42 250 131 49 249 249 134 219 249 138 41 217 248 142 215 157 143 142 211 156 141 208 207 69 7 203 202 74 244 196 79 80 242 83 84 240 239 88 90 237 154 94 234 233 163 100 230 170 173 154 225 181 148 145 190 193 139 137 201 132 130 137 212 124 122 150 174 117 161 164 198 108 175 194 194 147 189 190 240 197 145 186 243 207 183 168 246 150 178 247 248 151 168 249 74 73 167 208 71 226 168 207 70 227 205 69 142 227 203 69 226 156 199 141 225 121 141 141 162 113 244 140 167 168 236 170 172 169 225 175 170 169 180 181 170 204 177 171 172 175 74 135 174 173 133 210 173 173 131 220 174 130 129 232 177 127 239 240 125 123 244 187 120 248 248 181 193 250 172 169 220 251 156 150 227 139 133 229 230 113 107 229 82 86 227 225
233 164 163 155 235 162 161 174 177 160 185 187 105 158 194 92 88 164 198 78 244 200 165 67 246 200 60 247 247 168 53 248 248 167 159 249 150 150 126 202 150 202 250 201 149 205 199 148 110 207 197 147 210 164 194 92 213 38 191 80 162 38 250 70 161 9 250 161 161 5 250 160 4 4 182 159 3 249 180 3 3 179 141 36 179 178 34 209 178 177 34 155 177 35 35 155 177 38 155 154 42 43 153 80 49 153 153 22 237 153 29 32 174 152 42 45 174 52 55 173 173 67 70 173 119 81 173 173 136 172 172 148 152 148 171 163 148 148 172 174 147 147 182 147 147 133 190 146 146 138 146 145 141 142 167 143 143 167 167 144 145 167 206 145 167 167 207 146 166 206 206 158 167 204 142 167 251 202 142 141 200 141 141 153 196 141 141 157 68 140 161 162 69 220 166 169 139 219 171 170 216 176 102 170 178 182 171 198 176 104 173 174 174 106 189 173 133 110 186 75 131 185 185 76 128 236 78 78 206 243 79 122 208 124 81 212 249 127 217 219 130 163 225 228 134 208 235 136 137 218 230 139 225 227 97 142
150 224 224 163 166 175 224 176 173 172 184 187 169 168 192 166 165 162 197 161 160 165 158 156 166 167 204 167 167 192 186 168 168 166 203 168 141 133 202 167 109 201 200 41 84 199 115 68 197 196 106 103 194 98 95 163 191 86 83 162 142 75 162 162 139 64 161 6 56 218 160 4 217 159 40 3 180 158 3 248 179 47 3 179 178 52 247 177 31 58 246 133 32 245 245 130 34 155 129 129 184 154 130 43 176 80 133 169 153 26 138 160 88 37 153 152 93 226 145 98 100 222 173 105 217 216 177 113 212 171 189 208 206 198 149 203 206 209 109 197 217 219 103 223 225 98 96 177 232 91 188 191 86 85 200 202 81 207 209 175 76 215 172 170 143 220 166 164 249 140 159 250 250 153 150 251 67 143 250 250 66 167 250 66 66 167 248 66 222 168 189 67 220 219 185 139 217 103 68 138 172 101 137 213 101 102 136 184 103 194 135 194 105 189 202 205 179 186 73 110 184 174 75 187 184 178 127 190 183 77 123 189 194 120 208 204 208 115 215 129 110 108 251 133 103 251 251 131 94 251 251 105 251 251 85 78
224 224 161 177 224 173 160 174 181 183 170 190 190 191 166 160 196 163 162 165 199 159 167 167 154 153 168 168 197 168 168 180 173 168 158 149 202 167 124 116 200 101 94 199 198 77 72 196 111 57 194 194 101 164 191 92 90 162 189 81 162 161 71 69 161 161 61 160 160 5 51 159 159 4 181 158 3 3 179 42 3 178 178 3 3 178 30 3 177 177 29 4 177 30 30 244 176 32 154 154 123 36 153 153 41 167 153 21 49 152 152 31 152 152 39 42 144 151 52 173 137 97 66 172 101 104 213 171 117 87 208 182 132 204 170 195 147 199 204 157 105 194 214 100 146 122 224 94 145 126 89 87 187 130 83 82 199 176 78 207 133 172 74 215 168 165 219 220 162 248 201 156 154 250 201 147 250 250 65 136 250 250 65 250 249 64 64 247 65 65 220 242 65 65 218 103 66 216 215 101 67 213 101 101 211 210 101 102 208 102 103 190 206 105 187 186 71 108 185 184 73 185 184 74 74 189 184 75 202 184 188 77 204 197 78 118 209 211 80 215 129 130 107 224 133 134 100 251 136 214 91 251 140 224 251 142
156 126 140 235 172 130 224 237 183 114 239 189 168 96 241 155 164 163 242 155 159 167 154 153 202 168 152 149 203 51 151 203 168 46 151 204 43 131 205 205 40 249 198 39 38 250 196 36 249 249 147 35 250 250 146 250 250 145 144 250 143 142 215 249 140 139 215 34 137 214 213 34 137 212 36 37 210 209 39 40 205 42 43 247 201 47 247 246 129 53 245 245 124 5 244 121 120 8 242 118 173 240 175 118 164 174 120 158 155 174 123 149 82 83 60 141 86 88 73 150 91 219 129 149 97 214 148 102 81 208 148 90 205 170 147 99 199 192 145 108 167 204 101 114 166 165 95 166 166 175 143 165 181 183 143 165 188 143 143 127 193 142 208 128 142 142 128 162 141 141 129 165 141 130 131 165 132 133 166 166 135 137 167 194 193 167 167 190 63 168 187 187 139 169 184 138 138 182 181 137 137 179 137 137 174 177 136 135 183 173 135 190 193 176 134 202 179 181 212 216 184 174 226 188 189 178 237 191 183 185 124 191 194 198 120 205 208 116 115 219 112 110 251 228 105 103 251 87 97 251 251 91 87 251 89 83
225 163 167 176 225 177 174 173 185 187 171 169 192 167 166 163 197 163 161 166 219 158 168 168 211 152 168 202 198 168 168 180 200 168 156 147 199 167 121 198 197 39 92 196 195 118 249 193 111 109 249 147 101 163 189 92 89 162 145 80 161 161 143 68 160 7 6 212 159 5 4 210 32 3 179 158 35 248 178 38 3 247 178 42 247 177 129 48 245 176 25 185 244 118 26 154 115 115 171 154 113 113 162 69 113 156 154 74 114 148 77 78 143 140 82 41 225 85 86 221 171 89 217 215 141 95 211 210 153 208 206 162 165 202 200 175 108 106 185 189 102 131 198 98 97 145 210 93 155 159 89 87 171 174 83 182 186 174 79 195 198 169 241 206 166 164 245 122 160 247 247 124 152 248 66 145 165 250 64 134 250 193 63 166 249 63 139 219 188 63 218 217 185 138 215 102 182 137 212 100 137 137 168 100 136 207 176 172 192 183 102 175 174 194 178 185 69 208 182 174 70 186 187 176 71 191 179 181 126 193 188 124 123 247 201 119 205 250 116 114 251 129 109 108 251 152 102 251 252 127 94 252 106 99 251 251
232 141 138 234 234 128 124 236 158 157 238 239 156 195 240 155 155 200 242 154 201 201 153 153 202 203 152 203 203 49 151 204 204 44 248 205 40 40 248 167 38 249 249 166 36 249 149 34 60 249 148 32 249 188 147 29 249 146 83 212 184 144 212 211 182 61 210 30 181 50 208 30 43 41 158 32 35 201 157 3 247 156 39 247 177 156 3 245 122 155 4 175 115 5 5 175 111 7 175 174 29 11 174 32 33 152 174 37 145 151 43 45 151 78 52 54 150 46 63 149 149 57 75 149 66 69 148 147 76 168 168 84 86 168 167 92 167 167 128 99 166 165 140 165 165 149 151 164 157 159 142 142 167 169 142 116 175 141 141 117 182 141 117 117 140 140 117 117 140 118 118 163 139 119 164 164 192 122 164 165 191 165 165 190 189 166 167 187 138 167 186 184 138 237 183 137 137 225 180 137 161 163 63 136 169 172 135 204 178 173 134 187 189 176 199 199 179 181 198 107 184 174 175 112 189 179 128 115 182 186 125 193 195 75 121 185 210 118 207 188 79 112 251 194 83 225 252 142 86 236 252 116 242 244 140 88
126 130 177 176 141 227 174 151 153 227 170 159 226 225 164 165 224 198 167 222 220 199 200 215 200 199 150 202 199 199 144 198 198 139 137 197 196 132 167 195 127 125 166 149 119 165 165 65 111 164 50 46 211 163 32 28 162 29 18 183 161 12 249 182 28 7 181 180 28 248 180 44 42 247 179 36 157 247 140 30 156 177 132 187 156 125 24 181 45 116 175 154 4 5 167 56 6 174 159 61 10 174 65 66 235 174 69 233 231 104 74 228 172 107 225 224 111 56 126 218 116 122 148 122 124 117 147 131 114 113 95 142 110 100 101 107 105 107 109 102 114 117 189 188 124 128 184 195 137 181 179 208 110 177 217 219 173 172 227 79 169 232 234 75 73 239 72 71 207 244 69 68 213 189 66 216 217 189 138 218 129 63 138 218 118 138 217 112 110 244 215 105 239 237 144 100 228 61 153 170 213 62 98 171 176 62 172 192 175 64 175 174 64 133 198 174 133 197 209 174 131 195 110 129 129 234 113 127 127 242 194 125 246 247 192 184 249 187 184 221 251 175 229 230 162 156 233 85 139 234 234 95 112 233 232 84
232 163 136 227 234 146 122 228 188 157 227 238 194 163 226 197 154 224 224 198 153 220 198 199 152 203 198 198 146 169 197 142 140 168 136 135 167 167 130 128 166 96 123 166 165 73 249 165 59 55 187 163 40 185 185 27 24 183 183 15 182 182 69 9 181 180 57 180 179 48 46 158 178 39 157 157 33 32 157 2 28 156 156 2 24 156 3 3 155 155 3 4 154 5 5 174 174 7 174 174 25 11 174 174 30 233 173 33 35 172 172 40 150 172 46 48 149 149 55 148 148 56 65 147 63 66 115 146 73 75 111 93 81 165 144 87 89 164 104 94 163 163 125 186 162 134 136 182 161 144 140 177 203 154 139 160 215 81 139 223 168 77 138 232 74 138 195 107 71 203 108 150 68 210 109 162 214 214 133 163 216 216 122 248 216 115 112 246 108 107 243 241 61 101 234 60 60 223 219 61 136 208 61 61 203 196 62 62 200 62 63 198 198 102 196 196 104 105 195 195 107 181 194 110 111 181 194 114 181 181 117 117 182 73 120 183 184 75 76 186 77 78 213 192 81 82 225 235 85 234 237 234 91 243 139 95
129 133 176 173 145 228 173 153 156 228 191 161 228 228 196 81 226 197 198 67 222 198 154 56 244 197 149 203 245 151 143 246 195 150 136 247 150 131 206 166 149 206 166 32 149 207 165 64 207 207 29 45 207 207 27 248 206 26 26 248 145 25 248 248 143 24 247 142 51 247 247 142 40 247 141 141 187 246 137 135 181 130 127 176 175 37 171 169 41 43 164 162 47 241 157 52 54 239 149 58 236 235 62 63 233 96 67 230 229 96 97 226 98 98 125 221 101 101 121 169 105 117 117 168 111 114 85 116 78 110 90 200 108 143 95 195 104 99 89 190 141 105 186 186 140 99 182 175 139 101 159 190 103 103 158 204 83 158 214 160 79 158 225 76 137 159 171 72 195 159 177 136 204 179 180 136 106 181 136 136 109 123 136 113 115 165 136 120 107 166 126 128 167 236 134 169 169 178 145 170 170 177 171 172 176 175 135 173 175 134 134 174 174 133 133 174 133 132 206 175 131 219 222 130 130 232 235 193 240 242 194 195 246 247 193 209 249 189 187 223 182 178 230 232 166 161 235 106 144 235 235 98 96 234 91 88
228 134 139 229 229 149 229 230 189 159 229 230 194 229 228 196 197 161 226 197 156 155 197 196 151 150 196 147 145 169 195 140 168 168 135 133 167 167 115 166 167 93 88 166 165 73 186 164 58 54 184 27 39 183 182 26 23 181 81 14 180 180 68 65 179 59 56 158 178 48 45 158 143 38 157 157 140 180 157 2 27 174 156 2 169 155 37 3 175 154 3 241 174 48 5 174 96 54 237 173 23 60 234 93 26 231 230 92 31 150 93 35 125 149 95 42 148 76 98 118 146 53 115 114 82 63 111 111 86 202 108 88 89 196 162 93 193 191 136 99 188 145 148 184 183 158 123 180 169 173 90 175 184 188 85 196 199 82 82 152 213 78 164 168 76 74 180 153 72 190 194 146 69 201 139 137 136 207 129 127 246 105 119 247 247 112 164 245 61 105 242 240 60 168 233 59 60 169 218 59 203 171 176 60 200 199 60 134 197 97 61 195 181 100 133 193 102 104 132 209 106 180 131 225 110 180 235 238 194 180 69 195 194 202 72 193 182 217 120 185 227 77 115 173 234 111 222 236 236 103 235 135 97 94 252 139
166 232 158 158 179 122 157 186 188 105 191 193 91 86 196 197 74 240 199 64 61 242 201 53 243 243 169 45 244 151 151 178 245 150 150 246 190 149 203 247 150 149 203 186 149 203 203 184 149 202 26 25 97 200 24 247 86 161 23 247 196 22 9 246 159 21 246 246 158 4 246 143 157 2 177 140 176 2 176 131 170 175 175 24 164 175 110 21 155 174 20 152 154 174 20 153 52 20 21 152 10 233 151 151 15 230 150 21 22 170 150 29 31 169 36 38 168 168 46 167 167 52 54 165 165 62 144 163 70 72 142 162 80 141 140 89 91 140 139 100 138 138 91 110 137 93 94 156 136 96 96 155 97 97 154 154 97 98 154 146 97 155 155 154 155 155 159 160 156 156 165 134 134 169 170 135 135 173 135 135 100 175 135 135 105 62 135 109 111 135 208 117 167 167 125 127 168 176 135 170 170 176 147 171 175 175 95 173 174 134 97 184 175 133 178 175 62 132 204 175 131 131 221 65 130 232 235 67 129 242 195 69 192 247 194 195 196 121 189 201 251 125 187 233 128 165 193 236 132 200 236 88 136 211 93 92
159 172 142 231 157 182 155 232 190 190 99 232 194 166 231 239 195 69 229 195 195 57 241 194 150 48 243 151 144 169 244 151 137 168 150 149 201 167 150 125 201 29 149 201 165 27 200 200 26 53 198 198 24 247 180 22 22 246 179 21 246 246 145 20 246 246 144 246 246 144 143 245 143 142 174 245 137 135 167 25 125 163 162 30 112 157 34 36 152 150 41 239 145 46 47 237 140 52 235 234 89 58 231 230 88 17 227 87 88 224 223 88 121 219 90 90 118 167 92 115 114 165 96 112 80 80 61 109 83 84 71 140 86 194 104 139 81 189 137 93 86 185 136 89 181 155 135 93 176 153 121 94 153 168 86 95 152 136 82 152 152 144 133 153 149 151 133 154 156 133 177 92 162 133 190 133 134 134 94 123 134 96 97 161 134 101 103 164 106 108 165 166 114 117 167 175 175 168 169 175 59 170 175 175 134 172 174 133 133 174 174 133 133 174 132 133 193 175 132 132 211 186 131 224 228 191 235 237 194 195 243 245 196 204 248 194 193 220 250 188 229 230 118 176 234 113 111 236 236 106 104 236 100 98 252 233
170 173 182 175 181 120 156 171 161 102 169 192 166 83 163 168 71 231 158 170 57 241 193 170 219 242 151 169 201 190 151 178 169 188 133 140 187 150 126 105 184 120 198 165 183 112 196 24 105 103 163 22 95 162 161 25 84 161 161 13 160 160 8 7 159 159 5 177 177 3 3 176 143 2 176 176 33 2 175 29 27 175 175 24 23 174 21 20 154 174 20 19 154 5 19 153 153 7 152 152 10 11 151 150 15 170 149 20 23 169 148 29 168 167 33 38 166 165 40 164 164 46 48 163 53 55 141 161 62 65 139 104 73 138 137 80 83 136 82 84 135 135 87 153 134 90 90 152 133 92 151 151 108 93 151 151 117 164 151 134 92 158 151 141 131 152 209 149 131 219 153 72 132 229 158 132 89 236 67 132 91 242 65 201 95 162 62 203 102 164 202 107 97 166 201 94 168 220 199 93 170 174 93 93 194 174 94 187 186 59 133 183 182 60 190 181 61 61 189 180 62 188 188 63 63 188 234 65 189 189 113 67 190 116 117 181 194 120 121 183 123 124 185 186 126 127 191 82 130 197 200 88 128 208 93 94
178 180 176 231 186 174 172 190 190 169 164 166 166 164 168 234 160 169 170 231 154 170 226 223 197 170 212 207 197 38 187 187 168 34 150 186 127 121 245 184 120 245 182 114 112 245 181 106 163 245 148 96 162 179 148 186 161 17 78 182 17 9 179 159 17 5 174 16 4 244 168 17 2 176 18 19 243 175 21 22 242 116 25 241 240 104 146 239 96 95 140 237 91 136 135 88 87 132 151 86 129 128 58 84 124 62 64 223 121 67 67 219 70 70 215 214 73 73 211 89 76 207 206 92 78 202 95 95 107 197 99 105 105 155 104 102 102 109 101 100 91 117 97 96 95 101 94 98 99 110 130 103 169 167 130 110 164 165 116 90 157 181 127 153 149 197 87 145 209 212 86 152 221 71 86 154 156 69 187 157 161 66 195 164 165 132 199 167 62 132 100 170 132 199 109 132 132 117 91 169 133 129 170 196 140 143 173 187 154 174 175 174 171 177 175 175 180 181 176 61 185 178 179 131 187 183 185 130 239 192 129 129 246 207 127 248 249 125 124 250 187 121 251 251 175 115 251 162 157 237 252 138 131 235 118 111
178 143 183 175 174 156 172 171 162 164 237 167 167 237 236 169 169 235 238 170 231 230 190 170 222 218 188 209 202 187 186 179 185 185 130 128 183 183 122 166 182 116 114 165 180 109 164 163 102 100 163 42 93 162 161 24 83 161 15 12 177 159 8 7 177 5 4 176 176 3 3 176 42 2 175 175 34 242 174 29 28 241 174 24 154 154 21 20 153 153 19 153 153 5 18 152 7 7 128 151 10 12 124 60 16 168 168 64 23 167 25 29 216 165 29 38 163 86 35 208 161 41 111 203 91 49 137 198 95 106 135 69 99 104 133 76 102 101 88 81 98 91 91 179 95 94 88 174 97 98 170 146 102 103 164 148 119 161 159 163 126 154 175 180 79 148 192 77 76 204 208 73 129 218 71 70 172 83 69 68 185 112 66 191 192 104 195 195 98 97 197 197 94 232 196 91 91 218 195 90 206 202 58 90 192 190 58 173 185 58 58 182 174 58 188 180 59 60 187 177 61 186 186 180 62 187 108 108 130 187 111 179 129 247 115 180 192 249 192 182 251 122 183 185 251 173 189 82 83 153 198 88 236 128 234 94
229 182 157 124 231 156 172 232 233 154 189 234 153 153 191 236 152 192 192 152 152 192 170 46 192 192 41 210 191 36 34 242 190 31 30 243 167 27 243 243 25 24 243 149 22 244 244 149 149 244 148 149 179 243 148 175 175 177 147 172 170 147 68 167 14 146 163 162 14 51 158 15 15 242 156 17 241 241 156 21 240 110 155 2 238 99 31 3 173 91 4 234 171 86 5 171 84 18 126 170 18 124 149 168 19 121 63 21 22 146 67 25 25 144 35 29 142 73 43 160 140 50 203 158 137 57 156 92 63 65 153 96 70 151 150 72 77 149 148 81 147 147 88 90 127 95 96 126 126 103 105 126 89 110 125 125 88 117 125 87 87 126 126 85 145 126 84 83 147 147 82 148 149 141 81 151 152 148 153 154 151 153 156 157 157 130 159 160 161 130 91 164 130 131 99 167 131 106 109 132 132 118 122 132 129 133 172 132 145 175 175 188 163 178 179 175 97 181 177 177 185 186 180 132 190 185 187 131 194 195 131 130 179 209 129 248 180 70 126 250 251 74 202 251 179 118 215 252 161 226 252 132 138 238 135 117
178 146 184 175 174 158 188 171 164 165 153 166 168 168 161 190 170 238 156 170 52 233 190 169 225 221 185 37 204 184 183 32 171 182 126 28 242 181 119 106 242 149 111 242 179 149 178 243 149 97 175 162 148 172 161 23 148 168 160 12 165 164 13 7 160 13 13 242 156 13 3 241 140 14 240 174 127 18 239 115 29 238 238 101 24 236 94 92 133 234 88 130 129 85 84 127 126 50 124 123 55 56 121 121 60 220 119 64 64 216 144 68 213 212 70 71 208 84 73 205 204 86 87 200 88 89 108 196 92 92 106 150 95 104 103 147 72 101 88 103 82 98 90 177 95 124 93 172 92 95 167 166 123 98 161 134 123 87 155 146 105 85 142 161 84 143 144 178 77 145 191 134 74 148 207 72 126 151 144 69 168 148 150 128 180 154 155 129 84 159 129 129 90 90 130 97 98 167 130 107 169 170 116 120 171 188 132 173 174 173 149 176 176 175 178 179 176 176 132 183 179 132 132 182 184 132 232 190 131 131 242 203 130 246 247 129 128 249 250 192 250 251 185 183 251 176 172 237 252 158 153 236 140 134 234 233
228 229 157 239 230 155 155 241 188 154 187 233 189 152 187 67 152 188 187 53 152 187 45 43 144 185 37 239 136 168 32 239 183 167 151 240 166 25 115 241 149 95 241 178 149 75 241 149 97 53 177 148 168 177 177 83 164 176 176 75 159 176 68 67 158 12 59 157 157 3 50 157 3 2 156 156 2 238 155 2 2 173 154 2 3 172 21 3 172 171 19 5 170 17 17 170 169 17 150 168 17 17 147 166 18 146 145 20 20 144 143 30 142 141 36 37 139 41 42 156 136 49 50 153 54 56 151 151 62 64 148 60 69 146 145 69 72 143 76 78 123 141 85 122 122 91 93 121 121 99 120 120 88 105 120 121 87 138 121 85 85 139 104 83 140 141 81 81 142 128 79 144 145 133 77 148 137 139 112 151 143 144 126 228 149 127 127 233 64 128 83 158 62 129 90 61 130 188 99 59 130 108 87 58 187 123 172 184 187 90 175 173 185 93 179 176 95 97 178 178 99 179 179 60 103 178 189 62 178 179 64 131 245 66 67 189 248 70 71 193 119 73 200 203 123 79 213 126 127 224 228 130 200 203 134 134
177 180 229 156 174 159 155 154 184 166 153 153 185 74 152 185 185 58 240 184 49 47 236 183 40 237 237 35 33 238 181 30 239 238 150 26 239 239 149 240 240 150 150 171 149 149 168 167 149 149 164 15 148 162 160 13 148 158 12 12 155 154 11 11 239 11 10 239 239 12 239 238 138 13 237 237 122 2 236 110 106 3 234 97 131 233 171 89 128 35 85 18 125 42 82 123 149 49 17 121 54 56 17 146 60 216 19 144 64 212 142 141 32 209 82 37 39 156 83 44 201 153 40 52 151 88 107 60 147 56 106 145 144 65 124 85 72 74 121 87 80 120 120 85 89 119 91 87 118 118 88 163 118 118 88 135 118 87 86 135 114 84 137 137 119 81 139 123 123 141 141 127 129 144 131 132 123 147 136 124 124 140 142 126 126 76 126 126 78 79 128 128 82 163 128 88 89 166 129 97 168 169 106 110 170 169 170 173 173 172 172 175 174 174 132 179 176 177 132 179 180 132 133 184 133 133 230 192 132 132 241 195 131 245 246 195 130 248 193 192 195 250 187 236 251 123 176 237 251 163 194 237 131 140 235 234
240 227 153 242 243 185 155 244 244 186 166 245 186 185 159 243 185 154 152 183 183 147 170 183 141 139 168 181 133 168 168 181 125 166 166 142 166 166 117 110 165 164 93 177 163 77 72 177 61 55 176 176 37 33 176 82 81 176 175 75 74 175 70 68 158 175 62 157 157 55 53 156 156 46 156 156 3 2 155 154 3 172 154 3 3 171 152 4 170 170 36 5 169 17 7 224 167 17 11 166 80 17 145 164 18 19 143 80 21 141 140 81 114 137 36 82 112 134 43 111 111 75 50 109 128 77 194 145 79 64 189 142 83 186 139 70 85 182 98 79 177 176 102 87 172 105 106 94 115 110 99 91 94 116 88 115 95 86 86 97 85 84 83 98 137 81 101 102 128 78 107 122 120 178 116 113 111 195 106 104 207 210 98 217 219 68 92 225 226 65 159 226 63 63 221 218 61 182 183 60 59 184 84 58 184 184 85 57 184 88 88 131 184 90 92 132 170 94 178 178 197 98 178 59 101 190 178 61 193 178 63 63 195 179 66 187 195 226 69 192 181 234 125 201 122 78 121 251 126 116 226 251 130 109 251 133
180 150 243 244 181 109 245 185 182 90 229 185 75 70 231 184 58 232 232 151 147 233 181 151 175 234 150 133 172 150 150 170 167 150 150 167 22 150 165 164 19 150 161 17 16 237 158 15 14 237 13 12 237 237 11 237 237 149 10 237 236 148 8 236 147 147 236 236 144 137 137 137 134 135 13 122 132 132 17 105 130 20 22 27 127 26 28 22 151 34 226 225 39 41 223 80 47 220 219 80 13 216 79 79 19 213 79 115 25 158 80 114 206 156 28 113 70 82 34 130 74 40 110 126 76 49 124 79 63 58 120 82 186 118 117 76 181 115 115 83 132 100 86 87 129 92 89 129 129 99 90 128 103 104 128 128 108 87 129 111 112 113 96 115 115 114 81 119 116 116 77 117 117 75 74 119 119 72 145 121 71 71 149 123 71 152 153 142 73 157 147 148 160 160 153 154 163 157 158 128 167 162 163 129 165 167 130 130 169 131 131 135 141 131 132 160 180 132 181 188 184 133 207 187 189 223 227 191 193 236 194 195 211 214 195 221 224 131 193 230 232 127 182 236 124 123 237 238 119 251 237 114 112 251 93 106
243 182 183 245 245 184 184 246 184 184 164 246 184 183 157 229 182 152 150 181 151 144 169 169 138 135 168 213 129 167 167 181 121 166 151 143 162 165 119 113 158 17 96 176 163 81 235 176 92 57 176 175 86 235 175 82 81 235 175 76 159 234 148 70 157 146 146 136 157 4 55 133 11 3 131 155 14 3 128 17 3 229 126 23 4 169 28 30 224 168 35 222 222 81 17 219 218 79 118 216 79 79 117 212 79 116 140 79 80 115 64 80 114 114 68 81 113 71 72 198 111 74 75 195 76 77 192 191 79 80 187 91 82 184 183 94 79 179 96 98 100 174 100 98 96 102 103 94 93 106 92 91 92 111 89 93 93 110 87 93 93 113 111 94 131 129 113 95 122 146 96 76 113 161 102 107 141 178 71 99 191 131 70 148 206 69 70 153 141 66 158 158 146 64 169 151 153 127 176 157 128 179 92 163 129 182 83 130 130 119 86 178 131 142 178 178 162 169 182 178 192 185 186 186 216 189 193 196 193 193 205 62 195 215 218 132 187 227 229 129 249 234 127 126 250 124 122 251 251 118 117 251 154 111 251 251
181 181 118 225 180 106 101 226 165 86 227 227 153 67 228 152 152 228 229 151 151 230 151 151 167 230 150 164 164 178 150 161 160 177 114 157 20 19 106 155 17 233 152 163 14 233 149 12 64 233 161 10 233 175 160 26 232 148 159 14 174 148 136 8 174 146 133 173 142 58 131 172 51 129 155 171 42 126 16 35 33 153 21 226 26 152 5 223 150 150 6 220 149 8 9 165 146 11 163 162 15 16 161 79 20 159 158 23 115 156 155 27 132 152 31 33 128 37 39 125 124 45 47 120 56 54 117 116 65 64 113 72 74 130 110 80 82 127 85 86 124 124 90 123 122 98 93 121 121 103 121 121 107 108 106 122 110 107 107 113 113 108 86 115 109 110 82 118 111 78 78 113 113 74 73 115 72 71 141 142 70 69 146 132 68 149 151 137 84 154 140 142 81 159 146 125 162 203 153 127 166 157 60 128 93 163 129 105 109 57 130 125 130 56 182 151 180 56 182 180 184 182 202 97 188 191 224 191 178 202 105 194 212 63 109 179 225 132 113 180 70 129 181 182 76 125 185 80 82 220 251 87 232 235 130 94
123 246 180 113 108 225 178 95 248 182 80 75 226 181 155 227 227 152 147 227 228 151 165 228 151 151 161 229 150 159 157 150 150 155 165 19 152 151 17 115 149 15 14 230 146 12 12 230 11 10 230 230 9 9 230 149 8 230 230 148 134 229 148 147 132 229 145 130 130 172 136 128 127 124 47 126 13 106 124 124 18 31 122 22 24 222 150 28 219 218 149 35 216 80 146 10 213 79 47 14 161 79 18 208 78 22 24 155 79 115 114 152 31 114 67 148 37 113 71 43 46 119 74 53 111 115 62 64 112 80 72 129 109 78 180 124 106 86 122 97 91 92 119 99 95 118 118 104 96 117 108 109 117 117 111 112 103 113 114 104 105 115 116 106 85 118 108 108 80 119 110 77 76 112 112 73 137 114 70 69 142 143 68 145 147 132 67 150 151 136 154 155 141 143 158 146 147 126 163 152 153 127 84 158 128 128 96 164 130 109 114 131 131 132 139 132 153 161 182 133 185 185 186 182 212 189 190 197 102 192 206 210 194 194 219 133 194 227 229 131 180 234 128 128 182 237 124 250 188 83 119 250 250 90 237 251
176 181 156 248 171 161 98 249 165 166 248 224 168 168 247 225 168 245 243 178 168 238 178 177 228 223 176 177 122 176 176 115 113 176 176 108 164 175 102 100 163 175 96 162 162 92 91 161 67 61 160 160 42 37 159 28 24 174 158 17 15 173 12 10 172 172 8 172 172 60 6 171 171 50 154 170 43 41 153 169 34 152 151 29 28 150 150 24 149 148 7 21 146 9 10 118 144 13 14 160 49 17 158 157 22 23 154 26 27 152 151 32 199 148 37 39 197 143 45 119 139 84 55 114 113 62 110 110 70 73 106 106 80 106 104 86 88 103 85 92 116 100 87 97 114 106 89 158 113 110 99 150 105 113 144 114 109 88 135 112 117 86 126 117 84 105 122 124 82 107 79 80 79 86 74 78 77 89 92 75 93 95 86 101 104 82 148 116 120 79 201 135 77 77 202 143 76 195 193 62 76 185 60 59 180 179 58 57 177 57 57 179 176 56 56 181 87 55 181 181 92 56 182 95 96 182 182 100 178 183 103 104 178 184 107 179 179 245 111 180 180 71 189 181 75 77 181 237 81 219 191 236 88 234 235 94
121 222 179 110 105 222 222 91 222 222 154 72 222 153 152 247 223 152 152 223 177 151 157 224 151 151 153 25 151 150 149 21 151 147 18 17 103 143 15 224 98 163 12 225 138 162 80 224 161 8 56 224 149 39 224 173 149 23 173 148 76 14 172 147 127 172 171 64 124 171 171 56 154 170 49 46 153 14 40 152 17 5 31 151 6 215 149 149 7 213 147 9 9 162 144 12 12 160 22 16 158 157 24 156 155 27 28 152 151 32 127 148 37 38 122 143 45 118 117 52 54 113 112 59 109 108 67 70 105 75 78 121 102 85 88 116 92 94 114 113 98 100 111 107 102 110 109 112 95 109 115 116 96 109 117 97 97 118 119 98 99 120 100 101 89 121 102 103 84 124 105 79 78 129 83 74 133 134 71 70 139 126 67 142 144 129 66 148 132 133 76 153 137 122 122 195 143 124 124 186 62 126 77 154 59 127 88 58 129 177 105 56 130 122 84 55 180 152 181 179 181 92 185 187 181 96 178 197 100 192 178 210 104 178 219 64 108 179 67 132 180 180 72 129 248 76 78 210 249 83 84 227 126 90 236 239
175 154 157 249 170 162 163 249 165 165 249 249 167 167 247 177 168 245 243 176 137 237 176 176 127 222 176 119 117 175 175 110 109 175 105 103 164 174 98 97 162 106 93 162 162 87 133 161 69 62 160 160 45 173 158 31 27 173 158 19 172 172 6 13 171 69 67 219 171 61 59 218 121 52 153 169 104 43 152 94 37 119 150 85 30 149 7 81 118 146 9 163 117 35 11 160 141 42 204 157 46 19 202 154 52 200 151 79 57 198 80 38 115 196 81 46 117 82 83 114 111 84 85 113 74 87 112 111 77 89 109 80 80 108 107 83 174 173 84 85 168 107 86 161 159 100 87 154 152 103 147 145 104 105 138 106 107 90 128 109 110 87 86 113 85 85 84 119 83 83 82 123 81 80 80 79 108 80 87 77 81 83 82 163 88 78 77 178 65 75 186 188 64 73 189 66 73 160 184 63 163 178 150 60 168 174 59 128 174 162 57 177 177 168 131 179 85 175 133 180 89 134 135 195 94 135 213 218 191 136 228 102 193 216 238 193 179 226 244 192 232 70 189 187 236 128 182 237 237 123 172 237 118 117 235 234
220 220 158 157 219 156 156 171 169 154 154 165 63 153 160 159 47 152 155 38 36 131 150 29 218 147 166 23 218 142 20 175 218 150 15 217 217 150 121 217 150 150 102 173 150 131 81 173 149 129 173 149 84 127 6 149 125 158 6 78 123 6 6 72 156 6 216 65 155 9 215 154 154 7 213 152 7 7 167 92 7 211 166 32 7 165 81 27 163 163 26 117 161 160 25 141 158 26 27 136 155 29 132 131 23 32 127 126 29 123 122 35 195 117 41 43 136 112 51 54 130 60 63 124 123 78 75 119 87 89 114 113 97 94 109 104 106 91 105 111 90 90 115 116 89 89 120 89 89 112 112 89 90 110 102 91 107 106 105 103 101 108 109 97 95 113 125 89 117 118 125 83 122 124 125 105 129 125 108 109 145 126 111 112 127 73 114 64 130 117 117 63 69 120 64 64 157 122 66 161 162 154 72 166 151 78 74 170 158 92 173 173 165 80 177 170 172 84 176 178 134 134 177 55 135 204 177 56 136 223 58 59 183 234 62 136 185 108 66 189 244 112 71 196 115 184 184 209 119 189 236 123 124 199 235 128
160 173 156 158 168 172 162 155 161 165 71 249 161 166 247 216 155 42 243 176 149 32 215 175 26 24 214 175 20 214 214 150 104 213 150 150 133 213 150 94 131 150 150 129 161 150 150 127 7 149 125 125 6 149 123 5 5 212 122 5 211 212 5 6 211 170 6 210 211 130 8 210 210 112 8 209 100 97 208 166 88 117 117 84 82 117 22 80 117 117 28 79 116 32 34 28 117 38 40 116 133 44 197 197 49 26 196 79 54 195 194 80 38 193 82 82 48 191 83 116 60 124 86 115 119 118 87 113 76 90 98 92 79 105 109 89 81 112 88 83 114 119 86 85 155 86 85 118 146 86 118 117 97 104 114 113 100 129 109 102 108 128 102 106 129 86 111 112 128 98 117 127 126 101 75 126 104 105 73 126 108 109 68 111 111 66 65 114 115 63 148 117 63 63 153 63 63 157 159 141 67 163 146 148 166 167 153 154 170 158 160 130 175 165 131 132 170 173 133 133 178 135 135 187 194 136 136 211 190 137 223 226 192 136 234 193 192 239 241 191 231 244 188 187 235 236 183 237 237 125 174 236 236 119 202 234
179 216 176 169 172 177 156 161 165 176 155 160 60 176 145 154 44 137 134 166 33 127 166 166 224 211 165 21 199 174 164 173 209 174 163 140 174 150 121 116 173 91 102 173 173 87 125 173 86 85 159 172 83 83 158 81 80 157 157 77 76 156 19 73 155 155 14 155 154 11 11 168 153 9 168 167 8 8 166 166 8 165 164 35 9 163 32 31 161 161 30 30 159 30 30 137 136 31 32 132 20 35 128 127 25 41 122 30 31 118 116 37 136 112 45 48 130 128 57 124 122 78 71 117 115 90 183 110 98 101 106 92 108 87 101 114 116 85 97 120 84 83 123 125 83 124 124 99 83 124 123 96 84 120 94 85 84 120 98 83 110 111 102 81 104 106 130 130 96 112 129 97 88 120 128 101 125 127 79 105 134 127 77 71 146 75 112 76 63 72 84 62 69 69 102 62 155 118 123 68 160 139 69 69 164 156 71 72 166 73 74 169 170 55 78 172 54 54 174 175 54 179 176 54 55 181 177 55 181 181 57 58 183 183 61 184 185 105 107 188 190 110 180 195 113 114 184 246 118 188 191 248 123 199 90 127
161 176 175 102 158 169 167 83 163 161 68 63 156 54 50 210 149 39 36 209 165 29 208 207 151 22 206 151 151 205 205 151 151 204 150 150 127 203 150 126 125 172 150 124 123 172 86 122 6 6 84 120 5 201 119 5 5 201 156 5 201 201 155 5 200 140 154 14 201 127 7 11 167 109 116 200 166 93 115 165 87 39 115 163 35 116 144 161 33 115 25 32 32 137 30 194 34 132 18 193 129 127 23 147 123 27 29 142 116 35 137 135 41 45 130 82 54 124 122 78 118 117 115 90 93 110 98 101 89 106 108 85 85 115 116 83 122 121 81 81 128 127 80 130 130 88 80 130 88 88 129 128 89 89 125 91 92 135 119 94 96 134 98 100 134 133 90 106 132 93 94 131 130 97 84 130 101 101 76 129 105 71 70 108 108 66 66 112 63 63 146 147 62 150 151 134 62 156 157 139 67 161 143 144 68 166 149 127 169 154 155 129 174 161 131 132 122 169 133 147 156 53 135 179 186 54 180 203 189 137 181 220 191 183 229 102 191 223 106 190 179 231 110 187 234 74 115 185 236 126 120 193 86 120 202 206
251 251 175 175 251 175 175 159 250 175 174 149 164 175 141 138 164 132 129 165 165 121 119 164 222 111 164 164 196 103 163 171 163 163 162 139 173 172 121 116 172 172 102 172 172 86 81 171 171 84 195 171 82 82 194 170 79 156 170 147 76 155 22 72 154 154 17 65 153 14 13 115 151 12 11 115 10 10 165 148 13 194 163 16 10 193 160 36 192 159 79 36 191 156 37 117 191 78 39 128 190 78 118 122 79 79 119 46 34 120 120 51 44 120 55 57 187 120 60 70 185 64 65 183 107 68 180 179 91 72 174 173 93 113 168 95 96 111 159 97 108 107 99 99 105 77 100 102 101 81 102 99 81 81 138 95 80 80 111 79 79 104 102 77 76 95 109 75 90 88 113 94 83 115 117 85 77 121 80 79 128 128 78 77 134 130 75 67 144 73 72 75 132 70 85 89 135 119 104 65 139 122 128 66 153 125 72 69 159 159 84 172 165 99 75 177 165 127 180 173 173 159 184 181 54 186 187 192 55 181 202 205 138 182 214 60 137 233 225 136 189 239 134 134 242 113 131 130 245 178 191 246 246 169 203 247
212 175 103 99 210 157 84 208 208 155 64 206 154 154 204 203 153 130 202 152 152 136 199 152 133 132 18 151 128 128 14 126 125 12 11 123 122 9 191 121 7 7 190 160 6 189 189 159 5 188 150 149 47 188 149 149 188 169 148 115 188 145 144 114 168 137 114 114 167 61 114 8 166 53 114 9 189 46 148 12 189 114 145 11 189 142 17 12 159 138 13 188 78 134 16 153 78 18 19 148 78 119 145 143 52 120 139 79 60 109 131 68 121 102 76 78 97 57 87 90 92 86 182 88 87 103 178 84 115 119 93 80 127 89 88 134 135 85 84 139 82 82 135 142 80 80 138 74 80 140 140 75 82 140 77 77 141 140 79 128 140 81 82 119 139 85 111 109 88 89 100 97 110 93 90 116 118 83 123 125 132 75 130 132 131 136 137 131 131 142 143 132 114 115 133 134 118 119 137 120 121 62 140 123 66 68 60 126 75 78 128 161 91 174 131 109 116 179 167 139 182 182 176 84 185 184 187 90 188 197 138 95 178 210 138 190 178 62 137 179 228 135 135 239 72 132 242 243 79 216 245 175 85 232 246 166
109 251 174 164 162 207 174 155 152 174 155 145 162 174 136 143 163 153 124 164 163 151 133 163 220 151 128 163 194 173 125 12 161 172 10 9 185 172 8 116 171 150 6 182 171 85 5 181 149 82 181 181 149 81 156 148 148 115 155 146 114 114 5 142 113 153 5 114 113 6 16 113 113 8 184 164 9 10 184 86 12 185 184 81 15 184 79 79 185 185 78 78 185 78 78 117 185 78 78 119 32 79 119 120 37 59 121 41 42 122 122 46 186 123 50 52 184 123 56 183 183 88 60 180 89 89 116 175 91 92 129 87 94 117 163 96 96 114 80 98 111 111 77 99 107 76 77 141 104 77 124 143 73 76 114 98 76 137 105 77 74 129 96 81 122 90 95 85 111 101 110 138 99 110 114 83 116 118 134 81 124 127 132 103 132 132 132 108 139 132 111 112 133 133 115 60 60 118 119 61 63 121 62 64 163 125 68 71 168 76 80 171 173 94 175 176 160 120 179 180 169 136 184 176 179 138 187 188 138 138 198 202 139 138 212 138 138 227 223 137 233 235 187 135 239 240 183 242 242 179 177 244 244 172 234 245
208 207 99 251 205 158 82 203 202 156 249 199 155 154 246 196 153 138 136 173 152 132 22 172 107 127 16 151 98 162 12 94 121 161 9 89 160 7 121 86 159 107 175 170 158 86 174 150 68 62 169 149 47 43 169 78 34 168 168 75 27 168 71 112 167 167 65 151 6 60 58 150 7 54 148 147 13 48 145 145 12 143 142 12 12 140 13 13 156 155 14 15 153 46 17 150 149 51 21 145 55 57 140 139 62 64 133 68 71 104 125 79 99 97 65 89 92 90 86 87 86 101 106 82 81 120 91 78 131 134 84 67 142 81 79 148 149 77 137 138 75 74 141 142 73 143 143 69 73 144 145 70 103 145 72 73 145 97 74 139 136 77 78 130 88 81 121 118 96 85 109 102 105 65 97 111 137 62 69 121 135 79 66 121 134 104 135 127 133 109 129 133 73 113 130 135 116 77 128 67 120 61 64 63 112 65 60 59 136 65 170 150 154 69 175 164 73 178 167 171 78 171 171 81 82 174 183 87 176 176 55 92 177 177 58 183 178 61 63 187 179 67 192 194 71 73 203 112 77 215 220 117 84 231 122 123
106 102 204 173 89 202 200 157 69 198 155 155 194 193 154 153 190 153 153 133 131 152 151 128 18 151 124 123 13 95 120 11 10 90 118 8 171 117 7 6 168 115 5 167 166 150 4 166 166 150 56 165 149 149 40 168 148 112 166 167 145 112 167 139 67 111 5 126 111 150 6 57 111 7 15 51 146 9 174 47 142 13 175 140 139 13 176 136 14 14 154 78 16 178 150 53 19 146 79 58 142 140 63 121 135 133 71 104 126 78 81 98 117 88 93 91 82 99 86 99 105 82 80 120 175 77 131 136 84 73 144 146 78 150 152 75 74 138 157 71 141 142 70 70 144 67 70 145 145 68 70 147 69 69 147 147 71 71 146 73 74 140 138 77 132 130 89 81 120 118 98 111 108 105 107 98 96 114 138 87 121 124 136 77 130 135 135 106 137 134 109 110 135 135 114 115 135 116 118 60 138 120 121 62 62 124 66 68 167 133 76 170 172 153 95 175 157 115 73 180 164 144 183 171 175 82 186 183 187 87 176 197 140 139 177 59 139 222 178 63 137 230 68 69 197 236 74 132 211 114 80 224 241 173 235 237
251 164 152 153 251 155 157 250 250 173 159 248 173 173 245 244 173 119 239 172 172 108 226 171 102 100 172 172 95 94 171 91 90 160 160 87 159 159 121 85 158 158 102 158 157 86 79 157 157 61 168 155 46 43 168 154 35 167 167 72 29 166 69 67 166 165 64 62 165 60 58 148 163 54 53 145 90 50 143 142 14 113 139 13 13 114 135 14 154 131 15 16 151 126 18 176 146 21 23 142 140 26 179 134 72 74 181 80 81 98 181 82 91 91 84 84 128 85 86 108 81 51 89 128 76 136 127 126 59 148 77 124 62 156 72 64 65 147 69 67 140 138 100 68 130 66 101 123 121 102 148 106 103 103 103 69 104 104 99 68 105 96 96 66 106 93 66 65 90 90 63 74 87 61 61 69 68 59 66 65 114 57 62 62 118 74 61 119 120 59 59 120 73 58 118 117 70 150 113 67 66 79 114 63 95 101 142 59 119 125 146 128 142 66 53 155 106 70 134 167 75 75 168 155 80 172 173 178 85 175 54 197 189 177 57 95 189 215 62 188 180 225 137 185 230 72 134 207 233 131 219 239 233 125 235 122
149 98 199 161 153 251 194 158 250 249 172 155 142 184 154 122 134 172 153 129 128 171 104 124 15 171 96 160 11 92 91 160 8 88 159 159 132 155 158 5 112 169 157 96 150 169 156 73 168 149 55 50 167 77 40 167 167 73 110 166 70 69 151 165 66 64 150 62 60 148 148 57 146 146 17 52 144 143 15 141 140 14 14 157 136 14 155 154 15 16 151 150 17 148 147 62 21 143 66 67 138 136 73 75 129 79 81 99 97 88 90 92 73 97 87 85 98 82 81 116 122 77 76 135 83 72 146 149 76 75 156 72 71 138 163 68 67 143 142 65 145 146 63 100 147 63 63 148 148 64 102 149 64 65 163 149 67 159 157 100 70 151 76 73 64 140 83 77 131 76 92 61 117 99 102 59 67 110 141 140 63 120 139 99 60 116 137 104 117 116 75 109 115 137 72 58 110 69 117 67 60 65 77 61 58 62 98 61 165 118 123 63 171 140 66 67 153 158 70 72 163 74 75 168 169 51 81 173 52 140 175 176 55 181 176 58 59 184 178 63 188 190 67 69 196 199 73 207 211 112 114 223 117 118 206 237
251 251 151 251 251 172 154 250 249 172 55 248 172 172 245 176 172 114 238 171 171 104 165 171 97 96 160 171 91 159 159 150 87 159 145 85 113 158 122 83 157 5 102 110 156 84 79 110 4 60 167 167 3 42 166 74 3 143 166 70 144 145 139 66 147 164 126 109 150 112 58 110 145 96 110 143 7 86 111 7 15 112 112 9 15 113 11 11 166 115 13 13 168 15 15 171 143 79 19 173 79 76 174 175 80 126 176 81 81 128 178 83 130 131 85 85 132 132 87 132 132 45 47 132 49 50 165 130 53 54 157 65 56 151 149 58 59 141 99 61 135 132 100 101 125 101 101 114 116 102 111 110 62 103 107 106 65 150 102 63 104 149 98 62 148 95 74 61 76 78 60 126 70 83 58 66 109 89 101 62 112 94 87 123 113 79 58 132 114 70 137 112 138 73 144 138 71 115 150 138 66 68 139 139 122 85 141 142 126 70 144 129 129 85 173 132 103 109 178 135 129 181 182 148 154 184 170 170 186 187 187 188 188 188 202 188 188 212 215 139 220 222 138 137 228 229 135 231 232 132 131 235 233 127 237 237
170 167 91 154 159 78 73 151 148 58 180 141 44 40 173 172 29 167 166 152 20 161 152 152 215 154 151 151 190 170 150 114 145 169 151 111 169 150 82 110 4 81 109 3 4 79 109 3 133 77 154 3 134 109 153 37 135 152 4 31 137 150 28 139 164 128 25 163 115 59 22 162 99 109 160 160 54 110 158 158 55 136 156 56 57 131 15 59 128 126 17 64 121 19 20 116 115 24 170 109 29 32 129 102 42 46 119 56 62 111 108 100 104 101 107 109 93 91 116 75 84 122 124 70 76 130 67 66 135 136 63 167 140 62 61 172 173 60 174 174 59 59 175 175 58 175 175 58 58 174 174 59 151 172 61 62 151 64 65 150 150 68 71 149 71 72 148 148 75 76 147 79 81 124 145 85 113 109 85 90 98 94 119 53 85 126 129 51 74 135 139 68 55 142 139 63 146 139 139 55 152 139 120 56 97 140 123 125 109 57 128 76 145 54 131 95 52 134 152 120 50 163 140 73 50 172 161 185 171 177 83 187 192 180 89 177 207 93 95 179 218 99 180 181 69 104 185 74 76 190 193 80 129 231 84 86
98 165 164 86 250 155 152 66 249 144 52 47 172 136 35 31 164 153 23 158 156 152 15 151 151 151 146 144 151 113 140 150 150 111 135 150 110 110 5 150 109 108 4 108 108 4 3 108 3 3 126 107 3 3 127 151 3 128 129 150 4 131 137 134 27 134 123 119 137 162 105 108 142 94 56 109 159 85 110 110 157 57 111 8 154 61 113 9 158 115 122 11 162 118 13 22 165 111 16 168 130 104 38 171 81 96 56 113 82 75 82 102 84 133 95 92 114 135 85 121 123 70 77 128 135 66 133 135 63 48 139 140 60 173 143 58 58 176 58 58 178 178 56 57 178 56 56 178 178 56 56 176 58 58 151 174 61 61 151 64 65 150 150 68 149 149 71 72 148 147 76 137 147 81 82 121 145 86 110 106 90 92 95 120 122 85 82 130 132 74 136 138 140 66 142 144 139 147 149 140 140 153 154 140 122 123 141 141 126 69 143 128 129 83 146 132 100 106 50 135 125 132 138 165 148 183 139 163 79 186 182 180 187 187 197 89 187 208 211 95 186 219 138 185 182 226 136 181 229 77 132 197 231 129 234 233
158 165 171 171 146 150 70 136 133 153 247 123 155 155 243 111 156 238 235 157 157 226 146 157 213 208 169 157 189 182 169 85 160 168 168 82 168 168 80 80 167 167 78 154 166 77 77 153 166 75 152 152 45 72 151 37 36 150 150 31 30 148 29 28 162 146 26 25 161 24 23 160 160 21 20 159 58 58 157 156 59 133 155 62 63 128 151 67 124 122 79 72 118 116 76 112 111 26 83 105 34 36 123 98 50 56 113 23 75 104 102 28 105 93 113 126 170 84 121 147 77 91 128 162 70 133 136 62 95 139 60 59 97 132 57 177 99 129 56 180 127 126 53 181 123 55 55 115 54 56 180 106 103 56 100 57 104 57 92 104 151 86 84 105 150 78 105 105 96 72 106 92 91 54 107 88 84 53 86 85 52 102 83 82 51 55 79 50 49 53 49 49 53 53 50 50 52 90 88 52 53 83 83 53 85 86 61 55 94 98 56 167 111 53 53 125 148 50 140 145 49 49 158 70 49 167 169 76 50 174 80 81 142 179 86 176 141 198 92 178 188 210 185 181 69 102 182 187 74 180 194 230 80 176 209 85
94 166 161 82 78 141 150 63 170 168 153 44 161 159 32 241 152 153 21 146 144 152 222 138 151 150 201 168 150 111 110 168 150 109 5 167 80 108 4 150 79 154 4 77 106 153 3 75 152 3 54 72 151 42 113 148 150 34 115 143 30 30 162 132 28 122 161 61 25 160 103 59 159 159 59 108 157 157 61 134 6 63 64 129 7 68 125 123 18 73 119 117 20 113 112 24 25 107 30 33 125 123 44 49 115 98 68 107 104 105 98 95 111 113 88 85 119 72 79 125 127 67 71 131 63 62 170 137 60 58 176 57 57 178 179 55 55 181 53 54 182 183 52 183 183 51 52 183 183 52 151 151 54 54 151 151 56 151 151 61 61 150 64 65 105 149 69 70 148 96 74 146 143 78 79 131 97 84 119 115 108 90 103 117 120 50 88 127 142 48 52 135 142 69 52 92 141 113 147 82 141 117 78 141 121 122 83 59 125 69 95 55 129 82 52 51 121 104 50 135 144 66 180 157 143 71 184 169 75 186 169 176 81 173 192 86 87 177 206 92 179 179 65 97 182 184 71 206 190 76 77 224 80 81 235 237
154 151 145 145 141 148 149 131 128 151 246 118 153 153 242 154 154 236 234 155 155 225 168 168 212 207 168 167 188 167 167 82 161 167 80 80 113 166 78 78 166 150 76 153 152 75 74 152 64 72 151 150 45 70 149 38 35 105 148 32 163 104 3 29 161 144 4 119 160 60 24 159 158 61 129 157 61 62 135 82 65 130 140 80 69 125 79 79 113 119 78 80 117 11 23 119 106 13 32 124 15 43 164 128 18 165 106 21 22 168 95 25 168 167 87 119 165 165 90 140 161 92 93 139 94 94 139 139 96 97 137 43 98 136 135 45 99 132 47 47 127 129 49 49 119 50 50 113 112 51 108 106 103 52 100 98 104 181 92 104 104 175 84 105 103 102 105 105 98 52 106 94 93 51 106 90 51 51 145 86 50 49 144 92 49 53 53 98 48 51 101 48 73 51 93 68 50 145 81 62 51 75 141 62 155 75 60 65 161 142 56 82 168 144 131 106 146 147 135 132 150 137 138 136 158 140 164 154 141 141 165 78 142 142 180 186 175 190 194 185 210 203 184 184 220 212 182 225 226 180 179 228 80 176 229 228
142 170 145 145 146 135 132 148 56 122 151 151 244 109 152 152 238 153 153 231 228 168 221 216 167 167 201 195 167 82 175 166 166 80 148 166 78 78 165 165 76 152 165 75 74 152 151 73 150 150 53 70 149 149 40 148 147 34 33 146 146 31 161 144 28 28 161 3 26 159 159 61 23 158 63 63 156 156 66 67 153 69 70 126 150 74 121 120 79 80 115 113 22 118 108 26 28 122 101 38 120 95 16 59 109 88 82 100 97 22 115 89 115 26 164 79 122 125 161 91 129 63 65 94 135 59 95 139 139 55 97 138 53 42 99 135 52 184 134 133 46 186 49 129 47 117 49 48 49 110 49 49 104 102 104 50 96 104 104 90 88 104 150 106 105 105 101 67 105 105 96 50 106 93 91 50 90 88 50 49 85 85 48 54 82 48 48 52 128 47 51 50 96 47 49 49 84 66 49 75 73 50 70 70 63 51 72 74 58 162 82 55 53 86 99 51 105 111 148 48 131 63 48 139 152 68 48 164 155 73 142 174 78 79 172 180 84 176 176 193 90 179 65 204 183 184 70 181 181 226 76 178 204 227 130 175
168 146 171 165 136 150 161 160 122 148 157 156 131 151 241 153 123 21 233 118 117 14 220 113 10 9 115 109 7 111 109 5 5 106 165 149 102 101 150 76 99 98 150 103 97 150 151 103 150 151 103 103 149 149 103 3 147 103 103 3 32 103 3 3 104 104 3 3 110 3 3 114 116 4 119 121 85 4 126 127 81 19 132 79 79 111 138 79 113 113 141 79 116 10 80 92 121 12 80 124 96 15 101 129 17 18 162 83 20 163 163 76 24 163 88 70 157 160 91 166 169 65 94 174 151 59 139 179 55 97 143 139 52 146 138 41 49 148 50 43 149 150 49 45 151 50 50 189 151 51 47 189 52 53 187 99 52 56 185 55 104 181 180 60 149 174 65 68 148 165 75 148 147 83 85 147 146 81 145 145 86 87 145 90 92 102 144 97 99 87 101 103 78 75 107 108 69 144 113 64 63 150 151 62 154 155 143 65 160 143 143 165 167 143 144 171 145 146 135 176 149 150 139 154 155 140 141 149 142 142 160 163 143 143 173 186 142 183 186 184 141 195 183 183 196 205 181 181 223 103 179 226 226 177 213 226
250 170 166 165 249 169 161 143 246 168 113 132 168 168 102 124 167 95 94 151 167 88 113 152 85 84 152 7 189 80 152 169 101 152 152 143 164 151 126 121 164 151 104 164 163 84 77 163 163 69 163 163 67 67 162 66 66 145 161 64 64 143 63 63 142 141 63 63 139 26 64 136 135 23 23 132 21 21 154 128 20 152 150 19 19 147 146 19 143 141 88 22 135 133 93 129 126 97 98 96 101 102 90 88 106 108 83 106 112 78 76 137 119 71 153 157 141 65 167 170 64 30 175 60 58 179 146 55 142 183 52 51 145 136 49 147 148 130 47 149 48 124 102 150 48 190 102 129 49 190 151 51 46 190 120 53 188 187 116 47 185 56 110 48 180 62 48 48 73 70 147 68 66 106 147 61 89 106 88 57 105 145 84 53 104 81 94 102 101 78 46 83 75 74 45 72 71 46 46 48 68 47 48 48 50 51 49 49 57 59 51 74 70 53 54 89 50 56 104 109 48 60 125 48 48 140 145 48 49 156 51 51 172 167 54 178 180 195 59 185 187 88 141 193 93 95 203 207 100 194 219 105 107 210 235 112
169 167 163 164 164 148 144 159 139 136 43 155 129 127 27 98 121 19 17 116 115 12 112 111 9 8 105 148 6 101 99 148 5 96 149 149 139 92 150 149 116 163 151 102 87 151 69 101 162 151 101 101 2 66 101 2 2 65 101 3 89 64 142 3 93 102 139 28 99 137 3 25 157 133 23 112 155 83 21 152 80 78 19 149 79 110 145 143 88 112 138 92 94 105 129 97 98 98 44 102 92 90 70 107 85 96 158 79 78 130 158 73 149 154 73 67 165 67 65 172 175 61 59 137 56 55 140 141 52 52 144 50 49 146 147 48 148 149 47 47 150 150 47 191 151 47 47 192 192 48 192 192 47 50 191 191 50 190 189 52 53 186 56 58 148 180 63 65 147 67 71 147 147 72 82 146 77 79 146 145 84 128 145 89 91 110 145 96 97 93 77 102 83 80 138 45 72 143 145 66 66 149 144 63 153 154 144 49 159 144 144 50 165 144 132 53 87 145 136 136 107 47 138 131 154 48 146 145 49 142 164 158 52 173 167 77 56 181 179 184 177 189 89 182 213 200 95 190 220 100 102 203 78 107 216 220
250 249 168 141 248 168 168 246 246 167 167 243 167 167 98 238 166 166 90 149 165 86 84 149 165 82 150 150 79 78 150 171 76 150 149 146 74 149 128 122 162 148 104 98 162 3 77 161 161 2 80 161 66 43 161 161 64 81 160 64 64 85 160 64 139 138 116 66 136 136 100 102 132 25 71 103 4 22 104 125 5 20 107 5 20 125 109 7 21 138 79 8 137 129 98 142 143 80 103 147 149 82 127 152 83 84 133 156 85 136 137 21 88 140 67 165 142 143 26 175 143 28 29 147 144 31 32 142 33 33 139 138 35 36 134 101 101 130 129 102 137 125 102 102 135 119 103 132 131 103 103 128 126 104 124 123 43 104 119 117 44 88 112 45 45 80 62 45 74 72 67 45 66 105 45 157 60 105 45 56 99 104 85 52 103 145 81 121 99 78 77 131 145 74 44 139 145 71 44 145 145 116 46 145 63 121 65 48 124 54 49 163 129 80 51 77 134 100 174 95 117 121 179 116 134 181 182 159 147 184 167 170 143 184 180 55 143 191 194 143 186 203 206 142 191 214 140 139 199 220 137 203 203 177 133 206
167 168 249 167 167 121 247 167 158 134 167 166 100 124 166 166 92 147 16 87 86 148 218 82 148 149 201 78 149 184 178 148 149 160 87 149 141 135 162 148 118 161 161 69 92 161 161 67 161 161 66 66 161 160 64 143 160 64 64 141 160 64 139 139 30 66 137 29 28 134 133 26 26 130 24 24 153 126 22 21 150 21 20 147 146 21 142 140 94 95 134 132 98 102 125 101 102 95 113 105 90 88 108 109 82 81 113 77 75 142 118 70 159 162 69 64 171 173 61 26 178 57 56 29 183 52 141 185 140 49 144 137 47 101 147 132 45 149 140 44 102 150 44 45 102 135 45 195 103 131 47 196 128 126 42 195 123 42 43 93 52 43 189 56 105 44 78 62 147 44 70 105 147 65 63 105 92 59 104 104 87 54 103 84 82 44 101 80 96 44 77 76 44 84 73 72 44 46 70 44 44 46 45 45 46 46 48 49 47 57 58 48 49 65 68 51 75 79 48 54 93 46 46 179 115 47 48 132 160 49 157 161 51 52 171 74 56 179 181 80 61 188 85 87 141 200 92 190 139 196 99 205 229 200 177 223
83 249 167 71 248 141 167 112 245 166 155 100 121 166 94 92 111 149 87 146 103 146 82 147 146 79 105 148 145 102 147 5 167 100 147 149 81 99 3 125 161 98 2 74 161 2 2 72 151 2 71 70 151 2 70 148 147 98 71 142 65 97 133 129 98 136 116 111 99 3 99 99 100 3 100 100 4 4 104 102 5 111 112 5 6 118 119 7 123 125 79 8 131 80 80 39 137 81 81 142 104 82 127 128 84 84 132 17 86 136 136 20 89 139 22 23 128 142 25 148 144 55 27 145 144 29 186 141 98 31 138 137 100 190 134 101 101 192 44 102 140 194 44 102 137 43 44 150 133 44 103 150 47 40 149 125 50 41 149 52 42 192 148 56 189 81 60 61 182 73 65 175 173 75 105 163 160 87 145 148 97 99 145 106 109 145 81 119 122 145 98 130 146 146 105 138 146 110 111 70 146 115 117 65 119 121 65 66 125 69 70 162 129 80 85 169 94 100 173 174 115 120 178 151 152 181 182 157 143 183 165 168 144 184 177 144 144 187 191 144 143 200 142 142 184 186 140 140 190 179 138 194 196 177 236 197
152 156 74 70 139 139 57 130 127 141 243 119 152 143 238 109 148 232 230 163 145 108 95 162 79 104 162 144 76 101 161 74 99 146 161 71 146 3 70 69 145 2 68 145 145 86 67 144 144 60 160 143 47 65 160 39 38 159 144 34 33 159 66 32 158 158 69 29 157 72 73 130 155 77 78 126 82 83 122 121 87 118 117 21 94 113 111 22 108 106 26 28 126 100 38 117 114 54 61 104 108 87 95 92 113 125 83 116 117 75 73 121 122 66 126 127 60 59 132 133 55 183 138 52 50 187 49 48 189 189 46 45 191 46 43 193 194 44 43 195 43 43 150 197 43 150 150 119 44 150 150 45 104 149 47 46 149 149 50 104 148 53 54 104 148 58 188 186 106 63 180 69 99 42 169 80 74 43 58 92 43 143 53 105 43 50 115 98 145 48 93 145 102 46 82 146 108 71 67 69 114 58 146 63 45 51 60 123 47 51 54 51 77 48 50 60 49 172 71 76 52 177 93 55 56 107 121 59 61 131 63 64 147 151 69 159 163 57 58 171 173 62 190 180 66 67 204 192 72 217 222 76 77 233 236 81
80 77 141 149 65 132 129 52 47 120 118 34 112 110 149 21 103 101 145 227 95 144 143 105 162 143 102 102 143 144 99 4 145 98 97 4 147 96 3 2 68 96 3 65 66 144 2 61 61 142 55 59 151 2 42 59 148 37 61 158 139 32 158 128 69 31 157 111 96 131 156 77 96 3 153 83 124 4 87 88 119 5 93 114 113 22 98 108 25 118 103 102 33 126 80 46 51 108 81 75 84 95 111 113 86 84 115 78 75 119 120 69 66 125 62 61 129 131 56 24 135 53 51 187 140 48 48 189 46 45 191 192 43 193 193 44 42 195 196 43 150 197 43 43 150 199 43 150 150 43 44 150 45 45 150 149 48 48 149 50 51 148 148 54 55 191 58 60 186 185 64 65 177 73 70 169 166 84 42 154 94 97 142 138 107 145 123 117 120 145 146 128 145 146 104 137 146 109 111 63 147 115 116 52 62 120 66 146 57 126 71 161 129 52 84 168 134 99 50 174 76 119 178 88 101 56 181 157 129 60 130 167 64 66 151 179 144 163 188 59 144 174 64 143 197 185 69 141 183 73 74 226 187 78 79 239
127 123 134 135 113 136 137 244 102 138 139 241 163 141 236 235 162 142 229 161 161 221 218 161 77 207 161 160 73 188 160 71 71 159 159 69 68 144 68 67 143 143 66 66 143 87 65 142 141 61 93 141 48 45 140 139 38 158 137 34 34 158 158 32 157 157 73 30 156 76 77 76 154 82 84 85 85 88 119 148 81 94 115 22 98 101 108 24 102 104 8 32 109 97 44 112 114 11 72 99 120 13 138 87 15 137 143 76 118 146 69 89 124 146 91 128 140 146 94 134 53 96 96 144 48 98 98 145 28 100 145 145 31 195 145 32 32 133 144 33 130 129 34 34 125 43 35 121 119 103 36 114 112 104 130 106 104 104 124 104 104 120 118 104 104 113 40 104 107 105 40 104 100 41 41 146 93 41 41 57 80 41 53 52 42 131 49 97 41 47 46 90 99 45 80 76 84 44 65 68 44 146 53 63 43 48 147 58 45 47 54 128 49 147 49 54 57 148 136 67 50 149 140 88 54 92 143 138 58 117 145 147 183 141 153 67 183 184 162 182 170 195 170 181 203 67 180 180 210 140 222 214 214 137 236 215
131 74 133 134 63 245 120 136 46 112 163 138 239 102 146 145 233 161 142 107 224 160 77 102 160 159 74 98 159 72 71 143 159 69 94 143 68 68 143 3 124 142 142 103 53 142 141 74 158 140 57 52 158 139 43 158 158 38 36 158 157 69 157 157 72 92 156 75 76 129 155 81 82 124 85 87 121 120 92 93 116 23 98 112 110 24 136 106 27 29 126 99 38 117 114 53 60 104 100 87 94 90 113 126 82 79 116 73 71 120 121 65 124 126 60 59 130 132 54 185 136 51 49 189 141 46 191 192 145 43 194 45 44 30 197 44 44 198 43 43 150 200 43 43 150 125 43 150 150 119 44 149 43 45 104 149 46 202 148 124 49 199 148 53 38 194 111 58 190 188 104 40 181 71 97 40 62 83 40 40 55 96 145 52 51 99 145 48 118 93 77 46 86 146 73 44 72 70 110 61 58 66 42 69 62 60 43 67 56 45 46 44 51 49 84 46 54 57 48 173 68 50 51 76 88 54 54 98 48 57 117 123 51 63 142 54 55 157 161 59 61 172 64 65 196 185 69 209 214 210 74 226 230 98 137 239
169 118 132 246 245 133 135 244 243 136 241 240 162 137 236 235 161 16 229 160 160 10 219 159 75 208 76 159 72 142 158 140 69 142 158 68 92 142 146 66 141 141 149 90 141 89 152 90 2 63 90 90 2 46 158 2 2 43 157 2 35 47 133 2 51 156 116 3 58 103 81 66 68 90 92 121 85 84 93 116 81 94 95 6 80 97 106 7 100 101 8 37 105 10 10 120 110 11 12 128 83 13 134 136 85 15 139 86 87 142 143 89 90 144 92 92 138 144 94 141 141 50 97 143 144 26 143 145 28 28 145 146 29 138 146 30 31 135 39 31 132 131 38 33 127 103 103 204 122 103 104 205 44 104 132 109 47 104 126 49 103 148 119 53 147 114 38 58 146 107 39 72 146 66 39 64 94 73 165 57 78 40 150 101 85 137 48 114 93 118 123 88 104 100 133 75 71 139 141 147 66 146 147 147 118 152 148 148 124 148 148 128 129 148 149 133 93 98 136 137 113 49 140 126 129 179 143 137 181 182 142 145 182 182 150 182 182 182 158 182 182 193 144 181 200 202 143 180 207 141 140 210 211 138 176 212
129 130 112 109 132 244 244 133 134 241 161 136 238 237 160 137 232 159 159 226 224 158 158 216 158 158 72 201 158 158 69 141 157 67 67 141 143 66 141 140 65 65 140 106 64 140 139 76 64 138 59 54 157 137 45 157 157 2 38 157 157 35 43 156 75 32 156 155 80 56 154 85 87 66 151 92 119 118 83 98 114 24 81 94 109 25 105 97 8 32 100 98 9 49 105 10 71 121 111 12 128 86 84 14 135 74 117 139 140 88 122 142 142 91 135 144 93 133 139 144 96 142 47 25 98 144 26 195 146 146 28 197 146 29 29 137 146 30 31 134 31 31 131 129 32 127 126 103 103 122 120 103 135 114 103 103 130 106 103 126 124 104 104 118 116 104 113 110 37 104 105 38 38 68 97 38 39 61 74 39 56 55 81 39 51 98 39 130 47 92 116 45 128 81 73 43 71 147 69 142 57 66 64 149 148 60 42 154 149 54 44 149 51 131 48 149 135 53 103 47 139 64 48 177 142 131 52 84 144 140 182 110 145 148 182 177 153 182 182 187 159 181 194 197 144 180 203 71 142 207 208 140 231 210 211 137
167 165 144 130 158 135 132 48 150 123 120 32 115 113 23 20 107 15 14 82 80 10 8 75 134 6 69 67 135 5 61 138 138 54 52 142 142 46 145 145 86 40 148 86 86 2 151 85 85 2 65 85 2 2 66 85 2 33 85 133 2 37 131 2 41 43 117 3 49 104 100 30 58 91 89 27 149 84 88 76 144 81 91 138 80 106 93 129 108 97 98 9 110 101 10 67 111 87 12 123 112 80 135 131 75 73 162 68 68 174 177 60 61 183 56 55 132 188 52 95 138 49 48 141 143 47 46 146 40 45 148 148 38 149 150 37 37 203 151 36 204 205 36 37 207 129 37 208 208 44 39 209 45 46 208 208 47 47 206 49 50 148 148 53 54 147 55 58 147 146 60 66 146 65 67 146 145 72 168 145 77 79 154 146 85 142 137 112 92 123 118 124 110 105 132 134 92 138 140 147 79 145 147 148 42 151 149 149 124 157 149 128 129 42 150 133 134 150 137 138 113 152 140 125 128 46 143 136 137 49 112 143 182 182 142 150 182 182 155 67 181 192 72 180 179 200 79 179 204 73 86 214 208 139 95 232
113 246 162 161 102 162 161 95 92 132 160 87 134 134 82 80 135 16 77 136 137 222 73 137 214 211 138 138 199 195 138 185 180 156 156 164 158 156 65 139 156 156 64 109 157 64 64 157 157 65 136 157 66 67 134 156 69 133 133 38 73 131 130 34 129 128 33 33 126 31 31 152 122 30 29 149 5 27 146 145 103 26 139 106 107 133 130 109 109 121 110 111 95 108 111 90 88 82 112 83 81 83 112 76 154 161 120 69 173 62 63 18 184 56 20 188 143 52 22 193 49 97 24 143 46 145 26 143 100 148 38 141 101 150 36 102 102 147 35 103 146 145 31 103 144 36 209 142 141 32 210 45 137 33 115 47 34 34 106 104 35 99 97 104 35 90 104 103 82 79 103 146 72 103 102 97 70 102 102 90 38 100 86 84 38 82 81 38 39 78 77 39 44 74 39 39 43 70 40 41 42 53 41 41 46 44 71 41 41 41 42 160 40 49 43 42 43 46 171 47 45 45 61 56 46 74 79 159 48 98 53 167 146 129 58 55 146 152 64 146 176 69 70 145 160 75 189 194 163 179 210 75 164 177 229 80
162 162 141 63 155 98 128 48 146 119 132 32 89 109 22 20 81 134 14 76 74 136 220 67 130 137 208 58 132 197 192 155 136 84 42 155 65 82 155 144 81 137 156 64 80 2 156 65 136 2 66 66 134 2 68 133 133 41 25 131 37 37 156 129 35 34 155 33 32 153 100 31 31 151 97 28 147 147 102 27 142 106 107 108 134 109 103 102 111 111 97 96 112 93 91 77 112 85 84 118 80 79 145 152 72 164 169 65 63 179 182 58 127 187 54 53 133 192 50 138 139 48 47 143 144 46 146 147 38 37 149 36 36 204 151 35 35 206 35 34 209 209 34 35 211 44 36 211 211 45 32 212 46 46 150 211 48 149 149 106 51 148 148 53 104 147 53 59 147 146 59 103 146 64 65 103 95 71 171 168 88 78 157 98 83 37 141 111 91 38 46 123 39 111 131 73 39 42 140 147 148 41 50 149 118 41 42 149 124 40 39 52 130 39 151 47 47 42 46 138 54 45 46 62 128 48 47 80 50 181 100 108 54 181 131 58 59 133 161 64 153 159 68 70 177 182 75 194 200 73 74 216 222 78 238 234
109 105 160 100 98 128 159 91 89 129 85 84 131 132 80 79 133 231 75 134 134 223 71 135 215 212 154 136 202 155 155 4 185 155 155 169 33 155 64 144 155 155 63 23 155 64 65 135 151 66 134 134 151 68 133 46 71 77 131 39 76 129 2 36 77 126 34 34 77 4 32 151 151 4 51 148 101 5 61 142 106 69 72 81 110 79 127 80 87 89 80 113 92 81 81 96 87 11 82 102 12 142 108 110 14 168 115 16 16 137 123 18 140 141 19 20 143 143 95 144 144 97 143 144 144 99 145 144 100 100 147 143 101 148 148 102 102 148 29 103 147 147 30 30 145 30 31 129 143 31 31 123 38 32 118 116 33 211 109 103 33 102 100 103 204 92 103 103 111 82 103 105 102 69 103 97 95 79 145 90 36 100 145 82 37 146 80 89 37 146 95 38 118 43 102 39 42 137 109 89 41 52 80 78 149 43 74 73 155 150 75 159 161 151 48 165 151 46 137 171 153 46 57 155 156 143 71 160 145 145 140 168 146 147 146 147 147 150 151 181 147 154 180 180 156 157 179 200 158 178 178 203 158 178 204 204
160 160 101 133 159 93 92 128 158 86 129 130 82 80 131 132 77 132 133 228 72 133 134 219 154 135 211 207 154 136 196 154 154 182 177 154 64 159 154 154 64 131 155 64 64 155 155 65 66 134 67 67 133 132 70 132 131 43 75 129 129 38 73 127 36 35 125 124 34 152 121 32 32 150 148 30 146 145 106 29 140 109 110 70 131 112 112 81 80 113 96 110 113 114 90 88 114 85 83 129 101 78 154 161 109 70 176 62 117 16 187 56 58 18 142 51 20 196 144 48 141 145 47 98 146 145 99 149 146 144 101 151 34 101 101 148 33 103 103 148 29 103 147 146 30 134 145 30 31 128 141 31 123 121 32 32 115 50 32 109 106 103 33 99 96 103 115 88 103 103 107 102 102 101 99 102 102 94 36 101 88 87 36 98 83 37 37 79 79 37 46 45 38 38 43 42 38 42 41 58 39 40 40 46 78 41 41 40 74 40 37 51 40 162 37 47 45 39 153 45 50 44 45 142 60 157 47 72 77 164 146 97 52 174 147 147 57 120 147 151 62 151 153 153 179 180 155 74 178 201 156 178 223 78 155 177
160 68 105 159 94 97 95 141 86 88 86 132 104 79 127 126 94 15 123 89 88 10 122 83 7 215 80 79 5 201 77 4 3 28 74 3 3 22 139 2 18 17 144 16 15 148 148 14 14 151 71 13 151 151 70 15 149 70 70 143 141 70 3 3 70 70 3 4 71 4 4 36 72 5 5 47 115 6 54 57 110 7 64 81 7 34 75 80 81 83 112 80 85 95 80 114 92 87 82 97 98 75 116 104 14 65 120 66 16 136 125 59 18 141 53 51 198 144 47 22 145 47 41 203 146 99 37 205 45 100 207 208 44 153 149 44 44 153 148 44 153 153 32 45 153 146 33 152 152 35 30 152 37 38 216 150 40 41 214 51 44 210 209 55 49 205 58 59 199 197 64 66 190 70 72 146 179 79 146 146 75 91 145 146 83 146 145 89 90 146 146 96 122 146 102 103 106 107 109 94 91 114 115 82 148 150 77 76 154 156 77 159 161 152 86 165 167 153 170 171 154 155 175 156 157 144 179 161 163 146 140 169 147 147 145 179 147 148 149 60 147 151 179 146 192 153 179 146 154 76 178 201 153 177 177 201
158 158 97 124 157 91 89 126 136 83 127 128 79 78 129 234 232 130 131 228 226 131 222 221 152 132 213 210 152 4 199 152 152 3 22 152 63 164 17 153 64 134 153 145 65 133 153 67 67 132 150 70 131 2 150 67 130 46 145 67 3 40 67 67 3 37 153 4 35 28 151 4 33 148 91 5 46 144 109 54 56 82 112 64 66 81 76 100 80 80 80 94 80 84 86 10 80 90 12 12 96 98 13 170 104 14 15 132 114 16 17 138 90 18 142 143 93 20 145 95 96 146 146 98 144 147 99 99 147 146 101 148 148 44 102 149 149 28 154 148 28 29 147 32 29 136 145 30 30 130 35 30 126 124 38 31 118 104 104 214 109 103 103 102 56 103 116 91 103 147 107 67 102 101 100 75 146 94 35 85 146 87 35 54 146 84 36 49 90 92 133 45 98 37 116 132 105 104 41 140 112 90 146 46 82 81 152 39 54 156 157 151 50 162 152 152 135 168 154 154 140 156 156 143 144 159 160 145 137 47 147 147 142 180 148 145 146 180 148 149 180 180 151 151 179 179 152 178 178 199 151 178 178 201 142 177
156 67 100 147 144 241 89 135 133 105 154 126 97 94 121 75 88 16 117 82 80 10 69 77 7 6 66 72 5 28 26 133 4 20 18 3 173 15 136 2 12 152 143 123 10 147 147 91 154 150 64 66 154 150 63 2 154 78 63 3 83 84 126 3 89 64 123 37 96 120 4 35 102 117 33 41 114 112 32 51 82 33 34 131 80 39 122 119 116 54 109 105 115 98 94 115 85 84 81 116 79 13 117 118 71 182 121 65 64 193 127 58 198 199 52 50 202 203 45 204 205 46 39 207 208 45 151 209 45 45 153 44 44 154 155 45 45 155 30 45 155 154 30 46 154 32 32 153 153 33 220 220 36 36 219 218 39 217 216 52 43 213 211 56 32 207 59 61 201 199 65 147 147 70 73 147 67 79 146 146 74 90 146 80 82 94 146 88 90 146 76 96 127 146 101 37 111 136 108 99 96 144 38 87 149 150 39 80 155 151 40 39 161 152 88 40 35 154 40 171 37 45 142 41 158 47 145 49 49 147 77 63 53 148 144 56 57 131 148 61 158 167 61 179 190 149 67 190 216 73 178 218 234 82 233 199
242 242 122 122 241 241 123 239 239 153 125 237 236 153 23 234 151 151 230 52 151 69 68 150 150 66 131 150 65 65 132 150 64 132 132 130 64 132 132 64 62 133 135 126 132 2 101 152 131 80 74 153 2 60 154 154 2 48 154 83 3 12 153 89 15 16 119 96 121 150 103 62 117 93 107 62 113 86 64 110 7 82 66 7 39 68 70 8 52 73 9 9 84 96 10 10 98 80 11 108 111 82 13 120 84 120 129 131 86 114 137 88 89 125 51 92 132 134 21 94 140 141 23 144 144 24 24 147 25 26 148 149 26 26 146 29 27 145 144 103 28 142 103 103 139 138 104 104 134 104 104 141 128 104 138 137 51 103 132 130 54 150 125 32 32 149 117 32 91 110 56 33 80 61 33 185 69 68 34 62 88 76 164 55 95 94 151 108 89 77 136 121 80 73 129 70 147 69 138 148 65 114 145 148 60 38 150 150 125 39 38 152 131 86 39 135 136 101 170 140 115 120 175 143 130 177 178 136 138 179 55 142 180 180 180 56 180 180 189 149 180 194 195 148 197 197 147 147 199 199 146 146 199 145 144 143
156 121 241 91 138 240 240 153 127 238 153 152 77 235 151 151 72 150 150 69 69 129 149 67 130 130 65 65 131 4 64 131 132 193 64 132 178 173 132 132 153 145 132 129 121 151 151 96 89 152 72 71 153 153 77 153 153 81 83 153 153 88 125 153 93 94 122 151 100 119 119 37 106 116 115 35 113 112 35 35 109 36 38 128 104 43 47 116 8 61 105 102 117 94 91 117 117 81 78 117 78 70 119 119 71 61 122 64 63 86 129 57 54 90 127 49 207 207 136 42 210 46 37 23 212 44 24 213 149 44 26 215 45 102 27 147 45 157 27 144 103 156 29 141 103 147 31 103 155 143 33 104 141 35 30 103 136 39 218 131 128 31 214 57 121 31 97 62 32 32 86 101 33 78 75 100 33 67 99 98 61 59 96 146 54 93 92 79 89 87 76 76 35 76 72 71 36 69 68 37 37 64 62 38 39 58 38 38 38 53 39 38 38 34 41 39 33 34 107 40 35 36 41 176 38 47 42 44 46 50 179 56 53 54 96 183 58 122 131 192 63 160 58 67 148 195 64 72 215 145 72 146 234 79 82 144
242 241 118 121 240 153 103 48 238 152 152 33 65 150 73 234 52 109 70 42 148 108 67 30 109 66 62 20 114 64 130 118 121 57 131 187 128 56 2 163 54 54 2 5 54 2 2 5 53 2 5 5 2 2 6 152 2 7 7 143 88 9 135 131 54 13 120 115 55 107 103 55 55 94 92 56 6 86 57 58 7 82 60 7 8 58 63 8 67 70 95 9 80 83 10 91 94 79 11 106 109 81 180 120 82 83 102 56 85 112 115 51 89 124 18 91 142 134 21 94 140 37 22 153 145 24 24 156 30 25 149 149 28 218 148 102 28 221 146 103 222 223 47 103 224 140 48 155 224 50 104 154 51 51 153 137 37 54 152 40 30 151 150 45 31 149 49 51 204 148 55 32 194 60 62 186 71 80 178 174 88 96 165 162 99 146 153 108 111 146 139 120 146 146 129 131 147 106 138 147 148 114 116 149 119 120 88 150 125 127 85 130 131 89 92 135 137 103 170 140 117 121 175 128 131 177 178 164 139 179 171 174 180 180 182 184 180 189 191 149 179 196 149 149 153 199 149 148 144 148 147 142 141 146 145 138
155 119 241 153 153 239 239 152 80 238 150 150 75 74 149 72 71 126 148 69 68 128 66 66 129 129 65 65 130 212 64 130 130 198 52 131 184 179 148 131 158 148 149 2 127 149 150 103 150 151 74 76 151 78 80 5 152 84 86 126 141 91 124 124 128 97 122 41 103 51 118 39 109 115 6 38 54 112 38 41 56 7 41 126 123 8 59 114 119 9 71 99 119 82 85 78 118 97 79 80 84 112 81 121 95 82 83 105 62 205 86 118 17 209 127 130 19 212 136 21 22 150 143 23 151 151 24 25 151 44 100 150 150 101 159 148 148 103 150 146 103 103 148 104 104 147 146 104 103 144 28 104 141 140 29 29 136 29 30 118 129 30 30 108 46 31 100 97 31 203 88 100 32 80 77 99 184 69 98 97 88 60 95 84 83 102 90 79 34 114 146 75 35 74 146 103 36 147 67 110 36 148 116 37 38 38 122 38 38 34 129 88 38 32 93 97 166 32 109 39 172 157 126 176 36 162 48 178 167 51 148 179 177 149 88 185 188 150 122 194 149 150 146 199 149 149 145 149 148 143 141 177 147 139 177 177
68 66 109 105 58 55 94 48 45 67 82 34 57 54 124 22 43 40 15 231 30 102 9 21 19 105 54 14 109 111 52 145 116 50 50 146 125 49 2 147 67 48 2 139 69 130 2 73 47 129 2 3 128 2 64 4 127 55 5 151 125 47 8 132 44 43 150 116 42 41 148 109 49 145 93 114 113 139 116 52 108 131 119 105 8 120 120 99 9 120 96 94 98 119 89 87 141 78 83 168 175 66 187 192 60 58 201 204 53 130 209 50 49 138 212 47 145 147 45 45 152 36 34 155 156 31 30 158 28 28 220 160 27 26 222 26 26 224 224 26 26 225 48 48 226 227 49 157 226 50 51 155 225 53 154 154 55 55 153 152 57 151 151 45 61 150 48 50 206 149 55 56 196 102 62 187 184 67 69 176 88 75 167 164 99 83 155 108 111 34 142 120 147 146 43 131 146 147 40 54 148 114 145 43 149 121 37 150 53 128 32 50 132 93 95 46 137 106 170 46 44 124 174 46 48 40 178 55 140 42 179 68 44 180 59 92 47 76 194 63 52 111 199 150 144 156 72 149 188 197 76 231 220 79 80 242
113 118 63 81 151 55 239 70 149 42 60 148 74 28 46 147 70 35 32 100 67 23 145 101 53 14 104 65 50 4 110 48 129 3 119 46 2 184 45 44 2 157 45 2 2 3 44 2 3 3 148 2 3 3 149 3 4 147 145 5 6 139 45 8 129 125 45 12 112 46 46 101 98 47 6 6 48 49 7 7 50 7 8 47 54 8 8 58 99 9 67 71 93 113 82 78 10 155 98 78 81 110 64 80 93 125 82 104 107 51 85 118 17 48 142 130 19 90 150 38 22 151 144 32 24 152 29 25 220 152 26 26 151 44 26 224 149 103 226 226 47 104 227 227 49 158 146 50 51 157 143 52 156 155 34 55 154 37 38 153 153 42 30 151 45 47 210 150 51 52 202 70 58 194 191 76 65 182 83 86 173 170 94 147 161 102 105 146 150 114 146 146 97 125 147 146 105 147 147 110 113 148 116 118 100 149 123 125 93 128 129 92 93 134 135 100 167 168 112 117 172 173 129 176 176 162 138 178 168 170 179 179 178 182 180 188 190 150 180 197 198 150 145 201 150 150 142 73 149 140 139 77 148 135 177 147
117 66 87 97 58 239 81 120 46 60 121 122 236 45 123 123 234 144 98 232 231 143 98 228 143 143 65 222 142 106 65 142 143 65 43 143 66 67 130 144 68 69 129 144 71 129 129 111 76 129 90 84 128 127 69 149 127 59 57 150 125 50 150 150 100 46 149 148 107 147 147 111 112 144 143 116 112 138 118 119 109 120 121 105 104 121 122 100 74 81 96 94 108 118 90 139 150 76 83 177 67 65 194 198 59 57 207 54 52 133 213 49 48 141 48 46 147 150 40 91 155 35 33 159 159 30 221 161 27 26 223 162 25 224 225 45 25 226 227 47 27 228 48 48 27 144 50 158 229 139 53 156 135 54 103 155 128 57 153 131 40 101 152 43 30 100 118 49 207 99 109 31 197 103 100 31 186 94 32 32 65 87 32 165 56 88 33 51 111 146 47 46 75 146 43 42 63 68 40 53 50 63 39 42 58 57 37 34 53 37 38 49 48 39 99 46 41 41 38 45 43 44 38 46 47 39 39 52 55 40 40 43 42 43 53 59 45 69 75 64 49 101 68 69 178 147 73 74 181 202 76 230 217 79 148 243
89 87 117 149 83 119 119 238 77 121 121 237 65 123 235 235 57 17 233 142 125 11 230 141 7 226 9 140 5 218 140 108 65 4 141 66 67 3 125 69 129 2 134 39 129 140 142 38 129 146 38 38 2 149 39 126 64 3 39 4 54 149 4 4 7 148 5 5 12 109 6 17 19 96 6 26 89 87 45 35 83 47 48 81 80 50 102 79 54 55 9 77 59 61 10 65 67 11 11 75 78 12 114 118 13 14 128 81 15 136 139 84 17 144 86 87 220 149 90 91 152 43 93 144 154 96 162 148 25 99 149 149 26 163 149 26 26 162 149 27 149 161 26 27 145 147 27 230 141 104 28 137 54 103 227 131 102 102 224 59 101 128 219 62 100 120 65 66 150 112 69 149 149 59 31 149 96 66 180 147 72 32 167 147 80 159 53 87 89 148 47 95 140 137 128 103 129 135 137 148 117 143 145 149 148 150 150 150 154 156 151 132 161 153 153 137 155 156 141 142 124 159 145 135 138 147 148 143 144 149 145 146 179 151 147 147 179 147 146 179 179 145 179 178 204 204 178 177 203 151 177 201 200 150 177 196
116 149 85 83 118 80 79 119 120 238 74 121 236 236 122 123 235 234 124 233 232 140 125 229 139 139 226 224 138 138 218 139 139 66 67 139 139 68 129 141 71 71 129 142 74 129 129 143 78 128 96 83 36 127 74 70 126 3 60 148 124 54 53 148 5 50 148 147 5 13 146 113 6 20 141 117 27 29 87 121 109 128 82 46 105 79 123 50 99 78 55 95 116 77 61 10 158 68 71 11 190 79 12 13 121 55 14 214 134 82 16 141 47 85 146 148 87 153 151 151 91 142 154 94 95 146 27 97 148 148 26 101 149 149 26 149 149 27 27 149 27 27 148 148 27 27 144 27 27 141 139 103 28 135 102 102 129 128 101 131 121 101 100 124 111 99 118 116 67 98 109 107 73 150 100 31 31 148 92 31 66 87 77 32 57 83 32 51 50 91 33 46 72 99 136 43 60 57 124 139 48 63 39 146 148 56 151 33 150 51 158 152 48 135 164 154 46 40 156 156 143 43 38 161 147 142 39 149 149 146 179 150 147 148 179 151 147 179 179 146 145 179 103 143 179 178 205 74 177 204 203 151 177 199 197 149
126 123 88 69 113 110 74 104 102 65 63 96 58 56 27 92 51 49 16 67 45 11 10 9 41 7 6 5 5 4 4 104 3 3 2 114 2 2 122 124 177 1 132 134 146 141 141 34 34 143 146 34 3 149 34 35 3 93 34 4 4 100 35 5 6 106 121 5 10 12 118 48 18 97 6 49 138 88 50 33 130 83 57 122 80 124 73 109 78 52 98 94 123 58 10 80 123 86 11 124 124 78 202 126 71 69 214 132 62 219 220 54 52 222 147 44 224 224 43 89 225 42 42 163 225 41 42 166 42 42 166 166 43 44 165 23 45 164 164 24 27 163 25 25 231 161 27 231 231 28 29 230 229 32 228 227 58 35 225 224 61 221 220 64 64 152 66 67 151 151 71 73 150 59 77 149 149 66 85 148 72 74 147 148 80 83 147 87 89 150 147 95 142 140 128 104 132 129 137 34 121 143 145 113 111 150 150 105 155 156 151 132 161 152 154 138 167 155 142 143 27 159 146 147 29 49 148 146 169 53 150 148 56 151 72 148 179 92 147 46 179 131 144 178 122 178 54 177 206 216 61 199 201 68 71 227
116 116 84 80 117 238 78 118 119 238 60 121 237 236 51 122 236 138 45 14 234 136 66 8 6 135 66 226 4 98 66 3 135 107 68 2 115 70 33 1 126 74 129 133 135 33 128 125 32 32 2 96 32 33 3 2 33 4 4 3 33 4 4 4 5 5 7 119 6 11 13 104 116 19 95 93 38 28 87 86 41 83 82 43 44 79 79 47 9 77 52 53 10 124 59 10 10 90 68 11 104 108 12 12 120 124 14 131 134 79 16 142 82 83 224 149 85 86 137 42 89 142 143 41 94 146 25 98 167 148 26 102 148 23 26 166 149 27 231 165 23 27 149 148 25 232 145 103 27 231 141 103 230 229 57 102 227 59 60 156 222 62 99 124 65 66 152 116 29 71 151 55 30 150 149 62 30 149 68 70 175 148 77 166 163 83 85 155 51 114 148 145 122 67 138 135 133 147 128 139 141 148 145 147 149 149 152 153 150 130 158 152 152 136 137 154 140 141 122 157 144 145 138 147 148 145 146 149 148 149 179 151 149 150 179 149 149 179 179 204 146 179 208 208 178 178 208 153 177 206 205 152 177 201 151 151
147 117 80 63 107 79 67 142 97 59 120 140 71 51 28 24 68 123 17 11 67 124 10 6 125 7 229 3 127 224 2 132 127 214 1 110 70 199 134 122 31 175 136 77 31 137 138 82 31 140 86 87 127 142 91 126 126 96 97 125 4 59 124 123 55 6 121 121 53 144 119 52 52 140 52 53 137 135 55 56 129 124 63 120 118 125 125 107 125 125 98 94 125 125 92 125 124 87 84 124 81 78 207 128 72 69 218 64 62 222 223 46 51 225 44 43 227 227 42 161 227 41 40 166 227 40 168 168 40 41 168 169 23 168 168 23 23 167 167 23 233 165 24 25 233 146 26 232 232 143 28 231 56 30 27 228 59 60 226 126 62 155 221 64 97 154 109 69 153 152 97 94 151 58 85 92 149 66 90 149 89 74 169 148 81 31 158 79 89 151 48 74 32 141 128 70 33 41 137 34 34 39 145 149 37 37 31 150 37 27 26 48 36 24 153 46 24 24 46 144 24 25 47 44 26 50 50 49 150 54 55 57 39 59 69 41 41 87 95 44 179 125 47 48 114 173 52 54 161 133 59 192 201 80 177 221
115 237 144 144 60 238 142 142 238 35 139 72 237 137 86 69 14 134 68 67 8 85 67 125 4 88 66 126 227 94 32 127 219 31 128 2 206 30 129 191 1 29 2 164 135 29 2 1 138 85 3 1 140 91 1 1 148 97 2 145 143 30 3 135 108 31 125 121 32 120 108 105 34 6 55 35 35 7 28 37 7 7 37 40 8 44 46 9 9 55 58 9 66 70 75 10 84 74 74 70 103 75 75 84 55 76 96 101 77 77 113 16 80 124 127 19 83 135 21 21 155 142 23 156 156 27 25 157 157 26 229 156 104 27 155 155 105 233 153 105 105 233 48 104 146 145 52 103 144 27 55 161 141 27 101 159 34 27 157 132 38 28 156 42 28 216 153 48 210 101 73 55 200 89 91 191 188 85 88 178 175 93 148 166 101 103 148 109 112 147 147 120 123 147 103 32 147 147 110 34 147 116 118 120 148 123 125 112 129 131 110 110 136 112 113 166 168 122 126 172 158 139 175 176 162 149 178 167 169 179 179 178 152 179 189 193 154 179 203 154 154 145 211 154 154 139 154 154 134 133 154 153 127 177 153 122
145 144 237 237 142 78 77 140 139 74 73 137 71 70 121 133 69 68 122 68 67 124 124 67 125 126 231 229 126 127 225 126 128 218 215 127 128 203 128 129 188 181 131 131 159 133 134 84 127 136 88 89 127 139 94 95 127 148 100 125 125 104 105 124 59 110 122 122 56 31 120 56 56 33 116 57 135 134 7 62 127 125 68 37 117 126 85 107 103 126 58 92 126 126 74 74 126 87 86 74 126 79 211 74 88 70 221 136 104 15 226 117 51 17 148 130 19 230 154 139 22 156 39 92 25 158 39 171 157 157 103 171 156 156 106 147 155 106 106 146 106 105 146 24 105 104 145 26 233 143 142 27 231 140 27 27 134 135 27 128 126 28 28 119 116 28 111 108 93 93 99 96 91 103 87 89 89 95 75 86 89 87 83 82 83 31 78 79 78 32 70 74 32 32 43 70 32 32 40 113 34 39 38 120 120 37 29 35 114 37 24 112 36 164 21 118 36 22 156 47 173 22 48 49 177 164 51 48 178 172 152 56 181 185 153 72 197 154 91 148 43 155 132 46 178 155 137 52 151 132 130 177 192 124 122 177
68 66 55 141 61 59 39 92 50 28 136 86 18 16 83 69 11 9 81 37 123 82 82 33 125 85 31 31 5 91 30 3 3 29 28 2 2 28 2 2 1 1 2 2 1 135 2 1 1 143 2 1 147 148 1 1 149 28 2 146 144 28 3 137 28 29 5 122 30 30 6 118 31 6 7 121 115 7 27 35 111 8 35 108 8 82 44 104 9 53 96 75 134 68 74 74 174 72 73 68 203 61 129 83 54 74 135 100 48 141 112 54 17 152 127 18 231 161 37 21 155 32 31 230 158 27 26 230 38 24 231 231 41 22 233 43 43 170 234 46 106 168 49 50 166 145 52 165 164 27 55 162 162 30 161 160 33 34 159 158 38 223 222 41 43 217 70 47 211 208 74 54 201 79 80 192 188 86 87 179 92 94 149 149 101 104 148 88 112 147 147 97 147 147 103 105 147 147 111 131 148 117 119 123 149 124 118 117 156 132 114 161 162 116 118 167 168 127 171 172 157 143 175 176 162 36 178 167 169 37 179 178 153 154 40 193 154 151 205 68 155 145 213 155 140 138 75 155 133 131 79 224 125 177 177 240
142 142 81 47 139 78 77 137 136 74 119 133 71 71 121 129 69 122 122 237 68 124 236 235 32 125 232 232 30 4 227 120 127 3 218 120 2 207 1 122 2 186 125 81 83 0 128 87 129 0 144 92 128 135 148 26 127 148 102 26 126 142 27 124 5 131 28 6 60 9 29 6 60 138 7 7 22 132 7 7 30 85 8 36 38 80 8 46 77 76 46 60 74 51 54 73 73 61 87 73 71 74 12 73 86 90 13 99 103 15 15 116 16 17 148 150 19 20 154 84 22 156 157 91 25 158 98 101 231 158 106 106 157 41 107 145 156 107 145 146 27 105 145 145 26 167 144 26 26 165 142 26 141 139 31 27 135 34 27 226 127 95 27 121 68 93 215 109 91 90 206 77 89 103 195 83 86 95 88 90 150 87 97 149 149 84 31 148 78 93 150 147 99 32 142 147 108 137 40 113 116 129 146 121 124 122 153 129 118 158 159 151 118 165 20 154 169 170 156 47 174 175 159 149 177 164 165 152 169 171 153 154 156 185 155 154 153 155 156 149 148 156 144 142 178 156 136 178 177 130 128 177 177 122 177 177
115 67 48 80 116 59 32 118 52 238 19 83 37 12 128 79 238 6 78 78 237 121 79 32 235 118 69 29 117 116 71 27 3 73 73 128 2 76 26 128 195 80 129 2 167 128 128 145 0 128 128 114 131 128 96 90 135 148 78 138 138 107 67 140 140 112 140 140 115 117 139 119 120 118 136 122 123 115 124 125 113 112 76 127 108 87 92 105 104 111 96 100 139 148 82 93 177 72 69 200 206 61 58 132 54 52 136 138 47 46 145 55 42 153 156 44 161 163 37 35 169 170 31 232 174 29 28 231 231 26 232 233 39 23 234 42 43 26 235 45 47 235 152 50 168 235 52 53 166 146 56 164 164 30 60 162 33 34 96 160 37 223 158 125 43 218 156 47 28 209 110 54 201 198 82 29 188 87 89 30 71 95 150 30 60 105 148 54 53 68 148 48 124 58 70 43 50 148 64 114 39 59 120 33 29 53 34 121 50 49 36 119 47 36 37 35 46 38 38 35 39 41 35 176 21 36 36 24 169 36 37 30 60 38 38 41 65 39 55 69 70 74 82 73 74 161 76 77 197 206 79 221 228 61 82 239
52 140 66 64 36 91 58 25 22 83 73 14 80 79 39 8 77 36 35 77 77 32 124 78 30 30 6 83 28 28 4 72 27 3 2 0 25 2 0 0 2 2 0 127 2 0 0 138 2 0 144 146 110 1 149 149 1 134 148 25 25 144 109 26 5 132 26 27 6 117 28 6 7 121 30 7 20 124 115 7 29 31 111 81 37 80 8 100 103 76 121 58 89 73 159 78 72 128 194 66 72 74 58 56 133 90 13 138 141 61 15 149 151 49 233 160 41 20 234 169 34 234 158 31 30 232 159 29 231 232 37 109 234 40 40 173 236 43 44 171 47 47 170 169 50 51 168 25 54 166 165 28 232 164 31 32 229 161 35 226 225 38 40 221 219 44 216 214 73 51 207 77 79 198 195 84 85 152 89 91 150 150 98 101 149 84 108 148 148 94 118 148 100 102 148 148 109 138 148 115 117 132 130 122 127 126 153 130 122 122 160 36 122 165 167 128 35 171 156 143 174 175 159 150 177 163 165 153 178 171 154 154 32 185 155 156 44 67 156 150 213 72 123 142 75 157 172 134 177 204 127 56 177 231 119 177
115 115 236 37 117 237 237 131 118 238 238 126 239 239 122 121 239 239 117 69 238 114 113 70 125 110 71 71 126 109 73 127 127 75 76 128 128 78 128 129 199 83 129 129 173 129 129 150 143 122 127 120 126 127 101 96 131 103 83 133 134 109 71 136 112 113 138 138 116 122 138 120 121 119 119 123 117 117 71 125 114 113 79 35 110 91 96 107 105 115 96 101 141 150 81 128 179 72 68 129 207 60 131 132 118 52 137 139 133 72 147 56 42 74 125 45 78 165 135 36 235 139 32 234 234 143 30 232 34 144 28 234 38 27 27 157 42 26 236 155 105 26 153 49 103 169 149 101 168 142 145 98 165 30 96 95 136 34 94 131 130 27 91 124 123 27 114 116 28 28 103 107 28 94 90 28 29 81 80 29 72 69 76 30 62 72 71 55 53 65 63 74 58 56 70 68 47 44 64 32 36 59 57 33 149 53 34 34 150 48 35 35 47 140 36 35 35 38 35 35 17 40 34 18 19 163 35 22 23 164 179 29 61 37 179 40 66 78 53 211 71 111 79 74 158 157 220 78 192 128 216 158 225 60 208 157
235 97 59 116 236 78 50 57 238 45 120 43 10 121 32 239 5 115 20 3 111 75 11 2 107 71 1 1 82 73 1 88 91 26 0 99 102 24 2 112 24 23 2 125 24 2 2 23 23 3 131 23 3 4 1 24 4 1 1 4 5 2 2 141 3 4 130 127 6 8 115 28 12 104 101 29 132 93 31 31 125 86 34 8 82 37 38 8 9 42 9 9 60 49 9 10 78 92 10 94 99 83 217 113 70 13 227 129 71 107 139 42 73 122 148 76 163 132 37 81 138 34 35 176 141 25 35 178 30 27 178 177 25 27 158 23 23 237 156 23 237 237 48 23 236 151 100 235 235 55 98 233 233 59 165 231 62 63 163 131 66 161 160 41 70 158 46 47 157 157 53 28 155 58 61 191 153 67 69 177 95 76 169 166 104 161 158 111 114 153 151 122 148 146 129 132 148 140 139 148 148 145 147 148 149 128 149 149 133 135 151 138 140 128 152 144 145 139 147 148 151 155 151 152 163 178 153 166 166 179 174 164 179 179 189 159 178 203 208 178 178 217 219 178 221 221 158 177 220 219 158 123 214 158 158 114
115 115 235 132 117 237 237 127 119 238 122 121 239 239 116 114 72 112 110 71 71 106 71 71 125 103 72 72 126 83 75 127 127 77 78 128 220 81 129 129 203 197 129 185 178 110 129 156 114 115 3 126 120 122 4 1 126 105 87 2 130 110 126 133 138 114 124 128 117 26 122 112 121 121 7 99 29 117 75 90 32 8 83 34 35 8 98 107 9 9 51 93 9 64 68 72 10 83 69 129 98 103 70 133 117 121 70 97 132 71 71 114 16 73 124 127 18 77 134 21 22 138 139 24 236 141 25 26 160 142 27 26 158 26 26 157 157 105 156 155 103 103 153 153 101 143 150 99 98 141 146 96 139 138 60 93 135 26 26 163 129 27 27 124 43 27 115 116 27 27 104 55 28 94 91 63 28 82 78 72 174 70 74 84 162 107 68 79 54 117 149 74 124 53 70 68 134 148 63 32 143 148 122 33 148 149 130 33 36 135 137 128 35 142 36 134 171 147 146 35 175 151 161 177 17 167 168 179 168 58 179 179 180 64 178 194 198 158 178 211 215 159 220 222 159 159 223 159 159 127 219 159 159 117 177 159
135 93 56 54 64 84 48 57 55 75 42 45 41 38 121 30 4 33 20 18 2 124 11 1 1 125 238 1 80 82 234 0 88 25 226 96 100 24 0 99 85 23 102 123 90 130 107 94 23 3 113 98 129 4 1 104 129 5 1 128 127 79 2 127 5 72 133 125 71 7 135 71 71 134 103 123 75 129 126 31 125 123 127 34 116 128 129 108 104 128 104 103 129 129 99 97 129 94 92 202 208 85 83 220 53 75 228 229 46 64 233 42 41 235 235 38 164 237 36 36 173 237 34 177 178 32 34 179 179 29 179 178 26 25 177 24 23 237 175 23 23 237 23 23 236 236 51 25 235 55 56 234 233 59 60 231 62 63 164 227 66 162 162 124 70 160 160 74 84 158 53 55 156 156 61 190 154 68 70 177 88 77 168 165 82 86 158 112 78 30 151 122 102 31 45 132 148 142 41 141 148 39 147 149 149 37 21 149 135 36 17 151 141 15 14 47 146 14 155 49 39 160 51 153 42 35 56 45 170 35 61 53 36 179 62 66 37 178 83 39 39 70 220 42 43 98 78 46 121 129 81 146 154 82 83 180
60 116 235 87 51 63 237 122 44 52 239 115 42 38 5 107 27 3 3 71 16 2 97 72 1 1 76 75 1 0 82 25 128 90 93 24 2 102 24 23 2 116 23 2 2 23 22 2 3 22 3 3 0 0 4 4 1 151 4 1 1 148 79 3 140 137 4 5 126 25 8 114 110 27 15 101 28 29 7 92 31 8 8 127 34 8 8 128 108 9 50 44 9 9 66 98 10 81 86 90 11 101 69 69 223 120 69 96 231 44 70 113 143 40 159 125 37 75 169 134 35 175 138 34 24 179 32 25 237 179 29 26 158 25 24 238 157 24 23 238 44 23 237 237 49 24 236 52 53 170 234 57 169 168 60 61 166 133 64 165 164 39 68 162 162 45 160 160 50 52 158 55 57 197 194 64 66 183 92 73 173 170 101 82 162 108 110 156 154 118 120 150 125 128 148 148 135 148 148 118 143 148 149 126 149 149 132 134 150 150 139 131 151 143 145 138 48 148 150 154 175 152 166 177 178 172 173 179 179 172 179 179 180 166 179 178 198 37 178 212 216 40 76 223 160 160 225 225 160 126 222 160 160 116 214 160
115 130 82 52 65 79 78 119 56 76 75 120 240 74 122 122 241 73 123 241 240 94 125 240 91 73 239 238 87 79 235 86 87 81 228 88 88 84 89 90 87 89 93 91 92 130 130 96 96 130 141 100 130 130 114 105 129 98 94 128 128 83 81 127 77 76 130 131 74 132 132 121 75 132 131 124 130 129 126 126 125 123 127 114 116 128 128 110 78 129 106 105 141 129 101 169 178 96 94 201 207 87 216 220 53 77 228 230 45 14 233 42 40 236 146 38 165 168 35 35 174 37 34 177 178 33 34 180 31 30 100 179 27 238 101 141 24 238 238 141 25 238 47 24 25 237 51 25 235 148 56 26 233 59 90 26 138 63 166 133 131 85 163 42 122 83 118 48 81 81 109 56 79 102 62 28 76 94 28 176 88 87 29 165 83 29 29 57 116 30 30 49 53 30 45 44 42 31 41 34 31 39 38 25 53 37 20 18 48 138 15 47 47 35 13 48 48 37 49 50 38 39 53 41 41 34 57 45 47 35 158 52 35 36 34 66 36 47 51 155 38 69 75 41 177 95 79 46 115 225 81 177 146 83 83 176
58 55 68 21 49 63 61 12 43 54 7 6 44 40 4 70 29 3 2 69 16 1 70 71 28 1 74 75 26 82 81 25 25 82 90 24 2 100 87 23 2 89 23 130 2 0 22 3 159 0 130 3 0 1 130 111 1 152 129 92 121 149 82 80 126 140 76 129 129 120 25 131 113 26 122 130 125 28 7 126 127 117 8 128 128 113 101 129 110 108 124 129 104 149 159 81 98 185 84 67 206 212 59 69 224 51 49 141 231 44 43 151 40 39 160 162 46 35 170 40 38 175 177 35 34 179 32 32 239 180 29 239 239 26 26 239 239 24 238 238 44 45 238 237 48 174 237 51 52 172 55 56 170 170 59 60 168 34 64 166 166 39 68 164 44 45 216 162 50 209 206 56 58 197 193 65 186 183 93 73 172 169 102 29 162 108 111 151 154 119 150 149 48 128 148 111 136 39 148 120 145 148 55 128 22 149 134 136 16 48 141 135 136 48 35 143 172 49 37 159 176 39 170 34 178 42 176 179 20 48 35 179 179 58 36 38 197 160 38 57 74 161 74 81 78 161 100 80 81 192 127 82 161 223 83 84
127 125 82 81 119 118 79 119 111 77 76 121 121 75 122 122 241 75 124 241 241 125 125 241 241 126 240 239 79 128 236 235 77 3 230 78 79 87 0 82 89 91 0 86 94 130 91 134 99 130 98 102 22 130 150 106 130 130 97 23 129 87 84 23 6 80 127 24 6 77 130 7 7 12 130 7 80 128 96 8 25 122 128 32 33 83 128 112 41 77 40 106 74 73 48 100 71 56 58 10 69 69 87 11 81 85 12 230 129 13 14 138 40 15 16 147 72 18 152 153 76 21 156 81 83 158 158 89 139 139 94 95 139 140 96 140 140 25 97 140 141 25 177 141 25 25 141 140 25 148 139 25 25 143 88 25 139 137 85 26 131 83 83 222 122 81 81 214 76 79 109 102 77 159 100 87 74 94 92 28 154 87 28 29 153 80 29 57 151 98 30 49 71 107 146 44 114 31 142 143 30 139 38 151 22 136 157 17 149 135 164 14 48 169 171 153 49 174 154 155 153 177 158 160 156 178 164 157 158 177 172 159 173 171 160 160 165 37 161 156 153 177 162 143 177 177 133 130 177 177 226 177 177 221 218 176
88 86 20 17 80 78 11 75 74 41 6 71 70 36 94 69 34 33 68 68 31 14 68 29 28 8 1 27 5 4 0 26 3 0 0 129 2 0 0 2 212 0 116 2 0 85 131 171 0 140 142 22 99 148 22 22 107 153 23 5 116 114 23 6 144 117 127 6 119 24 125 79 10 124 7 81 17 122 84 22 124 118 90 30 85 98 102 109 79 117 99 96 129 147 86 82 130 98 71 131 64 90 59 134 82 12 138 140 71 13 147 63 60 236 158 51 238 239 44 42 239 239 33 240 240 32 32 240 240 34 181 239 36 36 180 38 39 179 179 42 43 177 24 25 176 176 26 26 174 28 28 234 172 31 31 231 34 35 229 228 38 224 223 70 44 218 216 75 162 208 79 81 160 195 86 158 158 92 94 155 77 100 154 153 87 109 152 94 96 56 150 103 106 148 67 113 145 144 119 121 141 147 128 138 138 155 33 136 161 162 33 138 168 151 152 34 173 154 155 34 12 157 155 178 14 58 158 18 167 63 159 25 67 160 61 38 72 162 160 37 75 106 147 177 79 148 44 177 180 190 51 127 214 58 176 157
24 120 83 82 118 77 80 119 120 72 78 121 241 69 35 123 242 33 33 20 242 30 126 11 1 28 6 240 1 70 4 0 69 85 2 0 94 88 0 0 108 93 0 119 123 22 0 134 137 22 3 145 23 131 4 151 22 5 102 22 22 5 2 23 6 6 3 23 6 6 7 7 7 11 13 107 16 18 98 95 24 92 89 32 31 84 82 35 106 78 40 41 74 73 47 9 71 54 57 10 10 67 11 11 110 83 12 123 127 70 14 136 139 58 237 146 71 17 239 152 75 133 154 32 80 137 32 85 181 138 34 90 139 27 37 181 140 25 40 179 25 25 178 177 25 25 151 26 25 235 146 29 233 143 58 33 231 137 83 227 226 67 81 221 220 73 164 213 76 78 162 58 83 160 159 66 90 157 73 76 155 155 83 29 153 90 93 156 152 100 102 150 127 109 147 146 137 144 143 143 146 141 140 152 149 139 158 160 150 138 165 150 151 170 171 153 151 152 154 155 154 155 158 157 157 182 163 159 159 181 160 160 177 174 162 162 167 178 162 158 154 177 223 144 177 177 229 130 177 229 228 177 176 224 222 176
85 83 234 15 78 46 238 103 73 41 240 93 78 37 86 67 77 33 24 78 31 126 13 79 127 8 241 81 128 4 1 129 129 234 0 130 130 225 68 103 215 210 73 96 195 78 79 100 168 85 103 104 91 94 107 22 101 110 111 130 110 114 115 130 85 117 128 128 81 127 127 82 82 125 125 83 127 123 86 87 124 120 92 119 117 99 102 110 129 129 101 98 130 130 87 130 130 100 73 131 132 92 134 134 85 82 138 140 74 232 146 65 62 236 38 53 238 239 34 44 240 33 33 240 240 32 32 240 33 33 181 240 35 181 181 26 38 180 180 25 90 179 25 25 89 177 27 236 176 138 29 234 174 31 232 231 132 35 229 64 65 25 223 69 71 26 117 75 164 207 106 81 161 97 87 73 159 85 71 157 88 72 67 154 89 29 61 77 98 152 53 71 30 148 66 64 30 144 59 31 31 39 53 32 38 37 17 33 36 164 13 35 35 12 152 34 34 11 52 34 11 12 56 13 14 60 61 17 19 65 50 52 68 69 61 171 72 77 83 37 76 106 115 40 164 146 43 45 177 49 50 122 212 58 61 148
20 18 80 78 12 11 74 43 7 71 70 38 87 67 36 35 32 66 33 21 18 79 30 11 9 29 128 6 1 27 4 238 1 130 2 1 0 131 223 0 106 110 207 0 122 23 184 77 136 22 1 144 106 22 93 152 22 131 102 113 23 5 112 116 130 6 3 120 129 7 6 127 127 83 12 125 85 86 125 122 89 25 121 94 96 115 83 129 110 104 129 40 95 91 130 48 81 130 131 97 67 132 91 89 135 137 81 78 142 72 70 235 137 60 58 238 36 49 239 239 33 240 240 32 32 241 241 33 180 241 34 34 182 240 36 182 181 26 39 180 180 25 179 179 26 26 177 27 28 235 176 30 31 233 33 34 231 230 62 38 225 66 68 221 219 72 166 213 77 78 163 200 83 161 161 91 90 159 158 97 68 156 85 87 154 80 94 155 152 102 104 150 69 111 147 146 62 120 144 145 127 31 141 153 135 140 36 161 150 141 166 12 151 35 172 152 153 35 11 155 156 34 12 159 158 14 15 63 161 20 66 68 55 177 71 163 71 36 75 90 155 39 79 125 41 177 156 166 47 177 195 53 56 131 224 64
115 117 234 235 105 120 238 96 93 81 240 85 83 79 78 75 79 79 69 79 79 126 63 81 81 128 83 83 129 129 239 86 130 236 233 131 130 227 61 132 217 213 65 132 198 71 72 3 172 78 80 151 1 87 109 110 95 97 112 131 105 115 116 131 149 118 129 129 137 121 128 84 123 25 126 86 125 124 7 89 124 121 92 28 118 8 101 111 108 9 44 99 130 9 58 85 131 71 76 70 132 94 62 69 76 85 69 139 93 12 69 105 65 14 70 118 16 239 125 127 18 241 131 20 20 154 32 21 155 156 83 23 156 35 86 156 155 87 181 154 154 87 139 152 86 86 139 149 85 138 137 24 83 134 25 25 131 130 25 25 126 25 25 124 119 26 26 114 53 26 106 103 74 193 94 72 71 85 82 68 87 73 65 64 81 62 59 76 75 121 51 70 30 132 150 63 30 30 149 126 31 40 53 134 32 37 139 32 141 36 146 33 35 11 151 154 35 10 167 172 178 11 57 34 179 161 62 179 19 169 67 179 177 71 163 178 195 164 83 211 216 165 115 226 165 165 132 45 166 166 117 176 166 109 106 176
71 70 14 49 67 236 8 63 61 5 84 53 49 3 66 38 2 2 65 22 2 65 65 30 1 67 29 28 71 73 27 27 79 26 26 2 90 25 24 2 95 24 2 2 1 132 3 1 1 3 4 1 147 4 1 1 154 5 1 155 155 97 2 152 150 87 115 141 24 24 121 122 25 7 115 124 26 7 126 27 8 8 128 30 8 31 128 116 8 40 113 112 131 53 73 9 164 79 71 190 84 66 69 214 57 69 138 228 47 69 99 43 40 152 114 15 160 163 49 17 170 172 41 241 176 37 36 241 180 32 241 241 29 29 241 36 27 240 240 40 85 239 43 44 179 238 47 48 178 50 52 177 176 55 175 175 35 60 173 172 41 171 171 45 47 217 168 52 208 205 58 60 195 192 67 184 181 93 77 171 100 103 163 161 110 112 154 117 120 152 152 127 129 151 116 137 150 149 125 28 149 131 133 149 149 139 141 149 144 146 144 145 149 150 153 174 154 165 170 178 37 182 179 179 41 34 179 164 188 34 179 174 34 179 185 190 164 178 206 165 165 67 223 165 139 86 82 166 124 232 83 201 111 84 166 226
109 106 234 235 98 84 238 89 86 83 241 77 81 81 3 68 81 125 2 64 82 127 128 65 30 128 242 85 129 130 240 27 130 236 235 26 2 229 54 24 2 215 59 2 2 1 66 103 176 1 141 107 1 81 151 110 1 155 113 23 2 155 23 132 151 148 23 130 139 24 24 7 86 25 25 7 14 26 8 8 22 8 8 28 29 8 8 35 81 8 42 45 76 130 55 73 72 50 73 71 71 62 70 70 73 77 69 85 89 12 69 102 106 14 154 115 15 16 145 125 17 149 150 19 19 152 77 21 154 154 80 22 154 82 82 241 154 84 84 240 40 84 138 138 44 84 137 23 83 178 136 24 177 133 34 24 175 129 25 227 173 43 25 124 121 49 214 114 75 57 201 82 73 191 187 89 70 177 96 98 159 165 106 62 156 113 115 154 74 29 125 152 112 29 151 150 122 146 149 128 130 143 149 136 142 142 141 143 144 35 148 147 149 173 11 158 176 176 154 176 178 178 157 179 179 161 163 180 179 168 163 179 177 181 164 165 195 165 165 161 215 166 148 144 166 166 131 127 167 119 116 176 167 107 104 176
54 70 87 49 120 67 85 44 62 240 83 123 51 3 66 125 243 2 63 127 244 53 64 244 243 49 67 242 48 48 88 239 48 80 92 132 50 94 25 132 97 98 133 2 100 102 133 184 104 134 134 157 108 134 136 129 133 133 112 94 96 99 96 104 152 90 111 113 121 86 118 119 123 122 123 125 125 124 124 126 124 122 128 127 121 98 129 118 117 112 129 114 128 135 110 108 159 168 103 185 193 68 96 211 59 56 137 226 49 47 144 43 42 151 153 37 37 160 52 34 168 170 44 32 175 39 37 77 179 33 241 241 31 30 241 241 29 240 240 39 28 239 239 43 23 238 46 47 23 146 51 178 234 141 55 176 37 60 79 174 42 66 172 118 49 77 170 54 56 74 104 62 194 72 96 27 179 94 89 27 167 103 28 28 65 113 28 154 56 51 29 51 131 41 46 45 33 150 42 41 25 53 136 19 18 50 143 14 49 49 33 11 50 153 34 53 53 35 174 56 37 37 33 61 41 41 33 17 46 34 34 25 56 34 35 39 35 36 52 78 38 67 72 80 41 85 82 83 173 101 84 84 206 230 85 224
15 52 70 69 9 67 66 7 6 60 58 4 65 65 3 3 63 83 2 63 63 33 2 65 65 31 67 68 29 29 72 28 28 3 82 27 27 2 1 25 2 2 1 24 3 1 1 134 3 1 141 4 151 1 151 4 1 86 157 109 2 157 156 23 104 151 23 23 113 139 24 7 120 124 25 7 125 125 126 8 127 28 124 94 28 120 8 103 36 117 115 43 76 112 140 90 73 165 174 76 71 197 66 63 134 219 54 70 139 79 45 145 102 68 39 154 59 15 162 164 49 240 170 43 41 241 177 37 241 241 33 32 241 241 35 241 240 37 37 240 39 40 181 239 43 44 180 47 48 179 179 51 52 178 35 36 176 176 40 41 174 44 46 220 172 51 213 209 57 59 200 196 66 188 185 91 75 174 172 99 160 164 106 109 157 114 116 155 154 124 126 152 115 134 151 151 124 143 150 130 132 22 149 139 141 144 49 145 145 147 150 33 152 173 154 162 166 177 36 180 178 179 39 192 179 161 162 33 180 168 164 34 28 180 165 178 44 77 167 58 215 167 167 76 81 167 130 92 83 168 114 176 85 212 102 176
119 120 89 88 121 121 237 122 123 240 240 124 241 242 58 126 243 244 51 244 244 47 46 244 244 43 87 88 42 42 90 91 43 92 93 132 45 95 133 133 98 99 134 134 102 134 134 188 106 134 135 161 70 135 140 133 80 120 115 88 91 102 98 99 118 91 107 109 120 88 115 122 123 9 121 125 125 128 108 127 126 125 127 29 123 98 128 120 119 110 35 116 124 130 41 110 154 85 81 10 187 70 133 10 97 58 136 224 51 70 142 124 42 148 150 135 71 158 56 143 72 168 46 241 73 130 39 241 133 133 20 241 135 32 21 152 136 22 240 151 136 22 150 42 23 23 147 81 180 145 144 80 179 140 80 79 127 134 78 78 121 77 77 116 114 75 75 108 26 26 103 101 26 96 95 27 27 84 88 27 75 72 28 28 65 62 28 58 56 49 29 51 42 39 61 45 32 30 55 149 23 52 51 18 17 50 32 14 50 50 32 10 52 34 34 152 55 35 34 34 160 37 34 33 162 195 33 17 46 192 34 26 186 34 178 40 174 178 53 210 79 177 72 81 168 177 233 83 172 177 234 168 204 232 230 168
14 53 70 70 9 71 67 6 6 67 240 4 64 64 243 3 63 36 244 46 62 34 2 42 87 31 40 67 90 131 4 92 29 132 2 95 133 2 228 98 134 2 1 134 134 201 1 135 135 176 64 135 155 148 73 112 128 81 83 115 107 92 117 118 99 102 120 24 109 121 122 131 117 124 130 130 89 126 128 127 91 126 125 95 96 123 121 102 113 119 112 117 102 114 135 93 89 159 167 79 131 132 68 66 134 135 57 137 138 83 47 143 145 72 150 152 63 60 159 55 52 240 168 45 43 241 32 39 241 241 33 34 241 34 34 241 241 36 37 240 38 39 182 239 42 182 181 31 47 181 180 34 79 179 37 38 178 177 42 226 176 46 48 218 113 53 211 208 105 62 198 82 84 26 183 91 93 27 81 100 162 163 70 110 158 62 118 52 155 54 46 153 65 47 35 151 127 29 26 54 135 146 19 51 31 146 50 50 32 36 51 33 33 35 54 34 34 178 9 36 34 179 157 33 33 14 162 34 19 20 72 34 29 32 76 40 45 78 79 58 63 80 119 128 82 82 154 124 84 180 189 55 85 210 64 67
91 121 74 90 121 122 69 45 123 240 87 125 125 242 39 127 244 244 44 128 244 41 40 14 244 38 38 7 2 38 92 240 1 77 95 1 41 89 98 1 101 101 26 135 117 104 135 3 133 25 135 164 24 24 4 136 24 23 5 2 23 5 6 2 97 6 3 4 146 7 5 114 131 8 10 120 125 14 110 107 27 21 98 96 29 91 88 31 32 8 80 35 9 9 40 42 9 60 48 9 10 78 59 10 92 97 11 11 110 114 12 121 124 70 71 132 134 71 115 139 72 72 122 33 74 127 128 32 75 131 19 76 180 133 21 78 134 31 21 149 134 22 239 148 31 22 146 145 33 235 142 79 36 232 137 78 229 228 59 77 119 126 66 175 112 71 74 173 60 78 171 99 26 86 167 77 27 165 164 87 27 161 94 97 158 62 105 154 153 126 114 151 49 136 148 148 143 28 147 146 153 150 145 159 161 149 147 167 150 150 153 173 151 156 157 152 152 159 160 154 161 162 195 158 164 164 198 165 165 194 193 179 188 185 178 178 175 171 178 209 157 177 177 226 138 177 233 234 177 177 235 235 176 233 232 169
13 74 52 9 76 70 47 46 66 88 43 58 64 40 126 44 87 37 31 27 87 129 17 2 89 130 9 2 131 132 241 2 74 3 1 39 85 232 1 96 100 220 47 113 26 203 54 106 25 59 62 109 25 68 112 113 135 5 115 135 135 105 117 135 6 94 134 133 90 5 133 132 89 116 131 90 90 121 111 91 122 122 127 94 120 128 128 116 114 129 129 108 129 130 115 95 130 130 109 130 131 104 102 200 98 95 216 220 89 86 229 47 78 234 235 40 66 238 37 35 239 240 34 33 241 32 32 174 175 32 177 178 36 33 180 180 33 181 182 32 32 182 182 32 238 182 33 33 236 131 35 234 233 52 39 230 56 57 24 225 62 64 220 120 69 175 209 74 76 172 103 82 170 169 76 68 167 83 86 64 163 93 160 58 76 103 155 157 111 29 151 64 120 149 46 58 29 147 149 152 30 40 158 150 31 38 166 149 36 36 10 151 35 175 9 56 34 9 154 61 10 10 65 163 40 14 69 45 196 72 74 54 189 76 66 71 35 79 89 37 38 113 121 41 42 82 45 47 92 236 53 56 105 86 65 118
56 121 73 71 50 69 68 46 46 63 240 43 56 53 4 40 41 244 3 28 24 2 35 15 12 2 64 7 2 2 70 2 2 76 79 29 2 88 29 28 99 103 27 27 116 26 26 3 133 26 4 4 111 25 4 4 2 136 5 2 2 5 6 2 158 6 3 4 149 7 5 138 135 90 9 123 25 91 120 110 27 27 101 127 28 8 89 31 32 8 129 35 9 9 129 114 9 57 130 108 9 74 103 101 203 92 71 11 221 52 71 230 119 44 71 235 40 71 155 238 35 161 119 34 33 169 125 18 174 175 39 19 178 179 35 241 181 34 34 240 33 33 239 146 34 33 237 44 35 235 234 48 78 232 53 54 180 228 59 60 178 64 65 177 176 70 175 174 63 78 172 171 72 170 169 80 82 171 166 90 163 162 98 100 157 117 108 154 153 127 117 151 135 138 149 149 145 147 150 152 154 150 150 161 163 149 149 168 150 150 155 10 151 157 158 152 152 161 186 154 162 163 198 199 165 200 200 180 166 196 179 179 58 186 178 178 175 36 178 208 157 177 177 226 42 177 233 234 170 176 236 170 170 107 233 170
83 79 92 52 69 65 91 125 56 90 44 126 89 89 127 46 89 89 129 245 90 130 130 244 2 131 244 244 32 132 242 241 34 239 238 37 38 233 41 42 102 222 46 48 105 51 53 107 108 136 60 110 136 136 113 113 136 127 115 136 136 107 117 136 98 95 135 135 91 91 107 90 90 113 115 90 90 119 126 91 121 121 127 23 120 128 128 117 115 128 121 109 129 129 117 116 129 113 111 162 131 106 185 193 61 98 211 216 91 11 226 49 81 232 233 42 13 237 38 37 158 239 34 163 166 142 33 171 43 145 75 176 38 34 77 130 35 77 180 131 34 239 131 34 21 237 130 22 236 46 127 22 233 51 23 23 132 57 23 23 125 75 24 119 68 74 176 109 72 174 97 99 69 92 79 66 65 86 89 62 82 80 27 56 75 74 28 70 68 28 28 50 29 29 47 45 29 29 42 21 30 40 39 16 31 38 12 11 36 36 9 9 55 9 9 58 60 9 62 63 36 10 66 68 40 160 71 45 47 166 75 55 35 77 168 72 36 50 92 162 38 68 122 42 79 82 126 48 90 93 109 176 103 86 67 176
56 55 72 70 51 50 59 91 47 64 64 90 44 55 89 41 128 39 90 39 26 244 91 131 13 2 31 132 243 2 69 134 240 34 78 236 235 39 90 228 43 45 104 215 50 106 28 137 57 109 26 4 111 112 137 4 114 115 137 117 117 136 136 101 119 136 94 93 135 135 90 108 110 90 90 116 122 91 119 120 126 92 121 121 127 119 119 128 128 114 128 129 120 105 129 129 116 142 130 111 109 174 131 104 196 203 98 95 217 221 88 227 229 46 78 234 41 40 151 238 36 36 160 34 34 166 168 33 33 172 42 33 175 176 38 76 179 36 36 181 181 35 239 238 36 36 237 236 37 235 234 48 41 232 231 54 23 227 58 60 23 122 65 178 212 113 72 176 67 78 70 173 76 87 171 89 86 64 167 93 27 58 78 103 156 50 71 28 152 129 64 29 150 139 29 29 45 149 30 42 156 18 30 39 165 150 37 37 10 150 36 36 9 57 160 8 8 61 163 9 65 66 38 12 70 42 43 72 74 50 195 76 59 63 35 79 80 86 37 60 108 40 40 75 43 45 85 87 51 53 95 86 61 104 108 86
226 72 94 232 62 59 93 7 50 91 91 43 41 91 128 128 91 91 130 130 91 131 131 245 93 132 132 243 35 133 242 241 33 3 238 36 135 2 231 42 103 223 2 48 106 207 54 127 109 2 61 111 137 2 152 114 138 2 160 26 137 109 118 25 137 96 25 136 6 91 25 135 90 7 25 7 91 117 7 8 17 120 8 8 23 94 128 29 30 85 129 36 79 78 36 46 75 40 42 74 73 48 107 73 57 60 10 72 69 73 11 109 83 12 12 121 97 13 128 130 14 14 135 73 15 139 140 73 17 142 75 75 125 143 76 76 127 35 76 128 127 77 181 127 21 77 126 126 22 182 123 22 22 182 120 23 130 128 50 23 123 121 24 214 114 72 24 108 77 70 190 98 68 67 176 92 64 85 166 103 58 79 27 113 162 72 28 159 159 120 28 156 60 129 149 153 136 29 148 151 143 148 39 163 150 150 168 10 154 156 174 9 165 177 178 152 183 179 180 154 180 180 156 69 180 180 161 167 48 166 169 169 191 178 169 170 176 196 170 162 156 170 171 140 135 171 124 119 177 171 106 176 176 236 94 176
96 57 65 62 94 124 53 93 93 126 43 92 128 128 92 92 129 129 244 130 130 244 3 132 245 245 28 133 243 243 31 241 241 33 35 237 236 39 102 103 44 46 105 137 51 107 108 137 58 110 138 138 112 113 138 138 114 138 138 119 117 138 138 102 89 137 95 94 99 91 91 105 108 91 91 114 125 91 118 119 126 92 120 127 127 25 119 128 126 125 83 129 123 121 129 37 118 135 130 114 112 166 49 107 188 195 61 99 212 58 55 11 226 49 142 232 122 41 149 237 38 72 157 135 35 162 164 139 74 169 46 142 75 124 41 241 76 125 39 240 126 126 20 238 125 39 21 139 123 21 234 135 120 22 131 53 23 23 125 74 180 120 118 73 179 112 72 71 98 102 69 175 91 66 65 87 89 62 82 81 27 160 76 75 28 61 69 28 28 53 62 28 49 48 29 29 44 43 30 41 41 16 30 39 12 12 53 37 10 9 56 175 8 59 60 8 8 64 36 9 67 68 38 157 71 42 43 162 75 50 34 34 169 65 35 36 170 171 38 60 110 150 42 75 133 45 177 86 114 177 94 237 86 176 105 86
12 65 96 71 9 67 95 126 7 63 93 127 62 61 45 129 60 92 42 33 60 40 132 18 61 38 11 244 37 36 5 3 32 3 3 2 38 2 2 2 96 2 2 50 113 2 2 126 110 2 138 142 28 139 152 155 27 5 161 27 27 5 163 26 6 6 26 26 6 7 26 7 7 7 25 7 10 11 119 7 16 17 105 93 22 96 93 28 29 86 30 34 80 79 34 104 76 38 40 92 74 46 9 10 131 55 10 10 134 96 11 104 78 87 12 117 79 12 235 126 68 238 131 73 73 239 136 74 116 240 34 75 120 141 34 175 123 35 76 178 40 37 180 124 40 41 181 41 21 235 182 44 22 131 47 49 227 126 53 54 220 62 59 212 209 70 202 198 77 79 188 184 86 174 173 94 96 170 81 104 167 166 106 115 163 113 116 160 160 123 126 157 130 133 150 150 139 141 149 157 146 149 150 165 153 152 170 172 157 159 175 151 169 178 178 151 187 179 153 154 166 180 156 157 167 159 161 169 169 166 169 169 191 177 170 170 176 81 171 161 155 171 171 138 177 177 122 117 177 177 104 176 176 236 93 176
72 123 229 10 68 70 236 44 64 239 6 36 94 242 31 60 93 244 28 94 42 132 26 95 40 13 96 96 134 6 98 98 135 240 100 136 136 235 137 137 228 225 138 138 214 56 58 200 194 63 138 175 68 69 114 146 74 115 116 78 80 118 119 86 119 120 138 138 121 121 137 91 123 137 136 91 125 135 91 92 133 133 92 120 131 95 95 119 128 99 116 114 128 110 108 106 129 100 97 129 130 88 130 131 109 74 132 133 100 73 135 94 91 138 140 84 231 233 76 73 236 237 66 238 239 35 56 240 34 34 16 240 34 34 17 139 35 176 176 36 37 178 41 39 180 180 43 76 181 44 45 75 182 48 229 74 111 53 223 181 105 23 214 66 65 24 201 74 24 190 97 84 25 90 91 62 26 79 102 169 72 70 51 165 63 61 43 65 123 36 34 59 28 27 56 55 29 20 53 30 30 53 53 30 152 54 31 31 37 174 32 33 35 8 33 35 35 8 34 34 9 10 34 34 13 74 34 18 20 77 34 29 80 80 72 44 82 92 98 83 84 120 127 84 142 150 49 85 171 179 59 172 199 67 70 172
12 11 69 72 9 9 65 236 7 63 62 241 6 60 47 5 27 60 44 36 59 95 42 20 61 40 12 9 97 39 6 5 100 136 3 3 36 137 2 3 137 2 222 3 111 210 2 61 129 189 2 141 113 162 72 154 28 134 78 117 27 83 85 119 139 90 120 121 138 6 122 138 137 91 124 137 7 91 135 135 91 16 134 133 93 120 131 96 97 118 128 103 113 112 129 116 104 129 129 96 92 130 44 83 131 132 106 69 133 100 98 136 137 91 88 228 83 81 233 234 73 70 237 38 63 239 239 35 55 240 35 35 240 240 35 172 240 36 36 176 177 38 178 179 44 41 180 181 45 181 181 48 49 182 51 52 226 182 56 58 218 102 63 209 206 70 72 196 77 79 25 182 87 89 172 94 97 172 164 105 168 168 67 116 165 163 120 40 161 127 129 30 157 136 150 154 54 144 150 53 149 30 151 53 155 154 38 56 31 162 176 176 33 35 179 151 34 34 180 154 34 34 11 157 34 14 16 76 34 23 168 79 32 36 81 171 86 53 83 107 154 84 84 136 46 85 158 165 55 86 186 62 65 204 210 74
99 124 228 229 126 126 235 39 128 238 239 32 31 242 28 27 95 244 25 25 95 25 25 96 97 25 97 97 135 29 99 100 136 240 101 137 137 235 104 138 228 226 139 139 215 211 139 202 196 67 140 177 71 73 4 149 77 78 116 2 82 118 118 3 88 120 139 94 158 121 138 149 123 26 137 135 124 137 7 119 26 135 92 93 27 8 94 120 28 8 99 116 8 8 37 108 9 45 48 75 9 58 88 74 47 73 74 132 104 89 73 65 96 73 73 77 12 73 86 88 13 73 96 14 14 102 104 15 239 133 16 16 135 35 17 17 136 75 18 136 136 75 135 135 74 75 134 133 75 113 131 74 74 109 108 73 106 105 22 72 101 23 23 181 97 24 24 93 78 24 96 88 25 25 86 95 26 78 75 54 26 69 49 46 155 61 40 64 153 135 31 58 49 145 155 55 153 18 152 53 30 151 54 30 31 150 158 31 37 150 162 33 35 164 165 189 35 166 35 202 180 168 206 34 180 14 204 180 21 166 197 179 174 81 178 178 190 83 178 205 211 172 177 224 227 173 232 234 173 173 102 173 173 92 90 173
222 12 68 126 231 42 64 235 237 33 62 52 29 27 96 49 25 59 96 133 24 97 45 134 98 98 135 10 99 99 136 242 101 137 137 238 3 138 233 231 52 139 223 58 61 212 207 66 67 191 71 72 113 164 76 77 115 80 81 117 118 141 86 119 140 140 121 121 140 93 122 139 139 91 124 138 91 91 137 137 91 91 119 92 93 120 120 95 119 119 128 100 115 113 128 110 107 129 129 99 96 130 116 87 130 131 110 107 132 104 102 210 135 95 221 224 77 86 231 232 78 13 235 40 68 238 238 37 15 239 36 36 165 133 35 169 170 134 36 173 48 134 75 176 48 41 74 111 49 74 181 52 53 229 106 57 224 222 102 22 215 62 97 23 204 71 24 24 99 80 25 180 89 62 25 82 98 56 78 73 51 169 71 64 43 66 124 36 34 60 133 27 57 55 28 20 54 54 30 54 54 30 30 39 31 31 38 37 31 31 36 7 33 36 35 7 34 35 8 9 35 35 11 74 75 15 16 78 79 23 80 80 65 37 82 82 89 195 84 110 117 215 173 138 47 86 159 165 56 88 186 64 67 97 209 76
65 125 226 228 41 71 234 35 33 68 239 28 97 61 6 24 96 243 23 59 97 5 23 98 98 135 62 99 136 136 67 42 137 241 74 39 138 235 38 38 2 227 37 140 2 3 35 3 198 3 136 3 3 77 151 4 3 159 117 3 3 165 119 3 166 164 28 3 160 157 27 152 148 27 26 7 26 26 7 91 26 26 8 17 26 8 8 24 27 8 29 30 8 8 36 78 77 42 45 75 75 53 74 74 43 68 74 74 51 70 74 59 62 74 73 70 11 73 79 81 12 118 88 13 13 124 96 14 128 128 59 15 131 131 54 239 132 74 17 238 38 74 237 131 40 74 108 43 74 179 107 47 74 104 57 52 181 100 22 59 181 68 23 181 180 76 195 100 83 85 182 91 92 173 84 96 102 164 75 51 160 158 116 43 156 125 128 163 153 136 139 159 139 147 156 156 147 157 153 152 153 152 151 157 31 150 160 161 164 150 164 175 180 165 166 193 197 181 203 205 181 181 208 207 180 159 205 180 180 165 179 179 173 176 179 178 189 173 173 205 210 173 173 223 173 173 117 233 173 103 99 173 173 91 89 173
221 223 44 126 230 232 35 235 236 30 28 239 26 25 97 242 23 23 97 5 22 98 98 24 24 99 136 136 100 101 137 137 102 138 138 238 104 139 234 232 39 140 224 221 37 2 209 71 141 3 187 76 114 167 80 81 116 3 84 117 118 3 88 119 142 3 164 121 141 98 156 28 140 91 123 27 139 91 26 138 7 91 26 8 92 20 26 8 95 120 8 8 31 116 8 9 39 77 129 46 48 75 38 58 74 74 44 73 74 51 54 74 74 61 97 73 69 72 12 73 79 82 13 118 89 13 14 124 14 15 127 128 15 16 129 74 17 130 130 74 18 130 74 74 106 129 74 105 104 73 73 103 102 73 100 99 21 72 97 96 22 181 93 23 23 180 89 24 96 94 90 24 88 60 25 167 79 53 26 72 111 46 157 63 40 37 154 132 31 59 153 143 159 55 28 153 155 54 30 153 152 156 30 151 57 160 161 150 163 31 36 150 166 187 36 7 168 202 181 8 207 208 181 12 207 180 180 162 202 180 27 170 179 179 180 84 178 195 200 173 120 215 219 173 126 229 173 173 106 236 174 95 92 174 174 86
68 66 73 72 63 61 71 9 59 69 68 7 55 63 6 6 59 50 6 59 59 5 5 60 60 5 62 63 46 4 66 68 44 40 74 43 42 51 85 40 2 2 108 38 2 3 37 141 3 3 36 3 174 3 142 4 3 3 143 127 3 165 142 107 92 166 30 97 96 159 28 101 103 123 27 108 136 26 139 114 125 26 8 119 126 136 8 23 127 134 97 29 132 130 104 35 128 113 116 105 123 132 53 93 151 158 84 74 179 74 71 133 55 63 60 136 95 53 139 140 86 46 144 79 77 149 150 70 68 155 65 63 238 161 59 238 238 38 56 237 237 39 236 236 41 41 234 233 44 178 231 48 49 179 52 53 180 180 68 60 181 73 75 180 181 81 84 180 88 90 179 178 97 99 169 104 107 163 162 114 159 158 118 121 155 155 130 164 153 138 141 160 152 149 157 156 44 159 154 155 165 10 152 159 171 151 60 163 168 150 165 166 184 67 167 197 200 72 169 207 181 76 39 208 181 45 47 36 180 166 197 179 34 177 38 178 189 194 41 63 209 173 46 74 86 174 81 83 87 174 89 87 87 203 87 88
102 42 102 102 128 33 100 129 130 236 100 131 131 240 132 132 242 243 134 134 244 22 135 244 244 26 244 244 31 33 102 242 40 104 104 48 51 106 106 59 108 108 141 68 110 110 142 111 112 142 142 114 142 143 161 154 143 143 134 89 143 116 112 92 143 102 95 96 6 94 100 123 92 5 106 124 91 111 129 125 139 116 126 126 138 103 126 136 135 90 127 133 98 128 28 130 107 30 127 9 123 101 123 140 57 89 9 167 80 77 10 81 68 133 11 94 74 138 102 104 74 142 111 74 73 82 75 73 152 89 14 74 93 64 16 73 97 16 237 98 99 17 125 100 18 18 124 99 19 122 121 72 20 119 117 71 115 113 70 180 109 69 68 88 102 66 65 85 79 62 83 82 24 57 78 25 26 75 73 26 26 68 27 27 60 63 27 55 54 139 28 50 49 28 152 45 14 14 43 42 10 57 40 8 8 60 175 7 63 64 178 6 68 33 180 151 72 35 8 153 170 39 35 78 171 45 36 172 53 199 36 173 189 38 178 173 172 41 59 155 149 177 72 86 124 177 231 87 177 177 236 174 177 237 87 174
103 69 73 73 102 129 72 9 9 131 68 8 60 132 241 7 59 242 243 21 59 244 6 24 101 244 28 62 102 243 36 104 47 139 48 105 45 3 107 107 141 2 109 142 141 215 111 143 143 195 143 143 176 3 143 143 147 88 160 128 123 92 119 108 94 95 121 98 98 122 122 102 104 123 123 108 124 124 141 141 125 125 139 91 126 138 138 93 137 136 95 96 133 133 101 115 130 108 112 108 126 125 100 97 129 148 88 130 130 79 76 132 132 68 134 134 100 58 137 138 92 74 142 85 83 146 147 76 234 235 71 69 236 39 65 236 237 39 62 236 39 40 17 234 41 43 232 122 45 175 176 48 72 177 68 53 179 179 73 69 180 79 81 66 180 87 190 63 83 96 177 179 79 25 168 99 112 26 71 111 26 158 64 123 27 58 132 28 27 52 144 161 48 47 16 157 44 12 11 57 158 9 152 59 30 7 62 165 31 6 67 32 189 70 71 34 203 74 36 37 36 181 40 35 35 15 48 36 36 24 37 37 35 39 39 40 51 86 42 63 66 86 177 75 87 87 162 83 87 181 187 88 88 204 208 88
103 38 67 103 129 29 102 102 131 62 101 132 132 60 101 133 242 59 57 135 243 22 55 29 243 27 138 15 5 35 8 242 5 47 4 5 56 81 3 5 66 109 4 4 106 111 143 120 124 40 143 137 141 38 4 152 37 36 4 162 34 5 114 33 32 6 3 98 6 6 4 102 7 5 6 143 7 7 9 128 10 11 116 112 16 17 101 26 22 92 89 26 8 82 26 27 8 78 28 9 9 30 31 9 9 34 9 9 65 41 10 75 78 108 11 87 90 74 216 98 74 74 226 107 74 73 112 44 73 81 117 73 154 86 40 74 89 66 40 164 91 17 17 168 64 18 120 172 65 19 117 67 68 224 113 73 218 110 59 79 207 104 66 179 195 73 63 82 182 84 179 79 91 95 177 74 103 175 175 121 115 172 128 130 169 168 137 27 153 143 145 154 49 150 152 153 159 156 154 155 167 157 159 172 173 165 168 176 150 179 179 179 150 151 181 151 152 170 181 153 154 171 156 156 172 172 160 172 172 198 167 173 173 184 178 174 170 164 178 174 146 177 177 128 122 177 230 106 177 177 235 92 177 236 236 176
104 104 128 128 103 103 130 232 102 131 132 237 133 133 240 241 134 135 242 20 136 243 244 25 26 243 30 32 104 243 39 43 105 49 52 106 107 61 107 109 142 71 110 111 143 215 112 143 143 197 114 144 178 171 144 144 150 91 145 130 124 95 145 110 97 97 6 98 100 101 122 4 104 123 123 6 109 125 143 113 125 125 141 113 126 26 139 98 127 138 8 87 25 135 99 100 26 8 108 111 29 9 45 101 9 139 56 90 10 66 81 74 10 78 69 133 51 90 74 136 97 100 74 65 89 74 74 73 13 73 77 79 14 73 83 15 15 85 86 16 235 119 17 17 119 43 18 117 117 71 19 114 113 70 112 111 69 69 107 105 67 84 101 65 64 82 82 61 80 79 24 55 76 24 25 177 71 25 25 68 126 26 63 62 27 27 56 141 27 52 51 18 153 48 14 13 154 44 10 58 42 170 7 62 40 6 151 66 177 5 69 70 33 151 73 34 35 152 171 37 36 155 172 42 36 172 172 203 37 173 64 191 179 174 180 40 178 194 157 177 67 213 132 177 225 88 177 177 233 88 177 236 236 175 176 236
76 13 66 66 71 11 63 69 67 61 61 65 134 66 63 63 59 241 61 49 45 6 58 31 27 6 20 16 6 6 10 8 6 71 5 5 5 80 108 5 90 93 47 5 105 45 45 83 123 43 42 136 115 41 4 151 39 38 4 4 37 5 5 3 145 5 4 4 145 6 4 158 6 92 5 145 7 7 112 130 91 11 118 115 26 120 103 26 25 121 127 25 8 120 127 26 8 128 128 132 9 128 29 127 129 129 124 9 153 86 118 172 72 75 111 195 67 74 209 212 57 74 221 52 51 142 228 47 46 147 81 44 151 77 75 155 156 72 16 160 162 70 233 165 70 70 230 169 72 228 226 74 75 222 54 55 215 213 60 62 204 66 68 178 192 75 77 178 82 85 178 178 93 97 177 117 105 176 175 126 159 173 132 135 156 169 141 154 154 147 148 154 154 153 154 155 161 158 156 167 169 30 162 173 174 151 176 177 150 151 179 180 151 169 181 151 152 171 181 153 172 172 10 156 172 206 204 83 173 198 195 174 77 183 178 174 168 162 178 123 143 177 177 147 55 177 229 171 64 177 235 175 74 92 236 175
14 32 105 221 27 64 104 23 22 104 68 20 20 103 134 19 103 103 136 21 103 137 137 104 104 138 243 243 139 140 242 241 140 240 239 60 142 236 235 71 230 228 77 79 220 217 84 113 203 88 88 115 145 91 116 117 146 94 118 145 146 119 119 146 146 120 146 146 97 122 145 93 92 106 145 91 91 111 91 91 114 115 91 91 119 126 91 121 121 126 93 122 127 128 28 119 127 135 134 78 128 131 131 129 29 127 135 129 123 122 160 37 117 179 185 43 11 201 64 50 11 215 56 139 12 101 50 143 229 107 73 148 110 44 73 153 113 73 157 74 114 72 80 73 231 72 81 75 228 81 81 19 222 81 80 20 105 81 21 206 100 21 22 96 73 22 23 89 57 178 83 82 51 178 76 46 43 68 69 37 35 63 31 28 60 60 23 58 57 28 17 57 57 28 46 58 29 29 43 61 30 41 41 30 30 39 5 31 38 38 5 32 37 5 5 76 36 6 7 79 182 9 81 82 180 14 83 54 22 165 85 74 173 86 92 99 189 87 119 47 48 175 142 54 56 175 107 63 83 183 92 177 90 85 79 176
74 214 28 66 75 11 23 62 71 20 61 104 68 19 104 66 135 19 104 64 47 104 104 138 30 105 105 140 242 6 141 9 241 56 142 238 6 68 143 232 75 92 226 223 82 108 213 87 88 114 45 91 92 116 146 94 117 117 146 118 119 147 147 120 120 146 102 121 146 146 94 122 146 92 92 109 145 90 112 113 91 91 116 117 91 119 120 126 92 122 122 127 122 122 127 127 119 118 127 135 134 128 128 131 122 129 128 126 143 130 123 161 167 118 116 185 190 111 200 205 62 60 214 56 55 140 223 51 50 144 105 46 148 149 45 44 153 79 45 157 158 77 45 161 77 77 229 166 78 225 224 78 82 219 217 78 20 210 62 91 21 198 70 22 190 91 79 23 86 88 52 177 79 99 177 122 72 39 175 131 65 31 61 139 25 170 58 147 18 57 152 28 155 58 29 156 45 60 29 160 170 30 30 41 175 30 31 39 5 32 38 38 5 37 37 6 6 79 37 7 81 82 10 11 83 173 17 84 85 64 28 86 86 88 87 87 108 114 88 126 132 51 53 149 155 59 80 172 67 69 86 194 75 91 93 82
209 29 73 218 24 23 226 229 20 105 233 18 18 105 238 19 105 104 137 21 105 138 138 60 105 139 140 63 60 141 241 107 58 142 239 56 143 236 234 54 3 228 81 82 2 217 87 114 3 5 91 115 181 5 146 117 4 96 159 118 4 164 120 39 147 167 37 147 6 164 34 147 93 32 32 7 91 30 29 7 9 28 7 7 12 8 8 16 18 95 8 22 87 85 27 28 80 128 32 78 78 25 39 76 76 27 76 75 29 30 75 32 33 10 10 37 38 11 79 43 11 11 89 49 12 95 97 96 13 101 74 13 104 105 73 73 107 73 72 70 109 72 72 73 47 71 74 75 50 70 75 18 69 170 76 20 172 76 93 21 97 76 21 191 91 105 22 86 85 113 172 80 47 121 166 106 39 161 161 118 31 158 127 131 170 59 139 18 166 152 150 163 58 158 160 158 161 29 156 155 165 165 153 166 167 176 39 169 188 192 180 171 202 37 181 208 210 182 6 211 182 181 156 208 180 180 160 180 180 165 168 174 179 177 174 174 189 194 175 175 209 175 175 121 224 175 105 101 175 175 90 88 175 84 83 176
106 211 26 24 106 223 21 106 106 19 18 106 135 18 105 105 137 19 106 137 138 241 106 139 139 242 140 141 242 241 142 142 240 60 143 238 237 72 234 233 79 80 112 223 85 113 113 89 90 115 115 93 116 116 147 96 118 147 148 118 119 148 148 120 148 148 103 101 148 148 95 106 148 92 92 110 147 91 112 113 7 91 116 125 91 119 120 126 91 121 127 127 142 122 127 127 139 80 128 137 137 77 24 134 116 128 26 130 133 28 127 10 156 85 121 174 71 75 11 195 68 65 11 87 59 138 12 95 73 142 99 100 73 146 103 73 73 64 86 72 155 67 16 71 69 85 226 71 71 18 221 73 73 19 101 74 20 20 97 74 21 93 92 59 22 87 82 54 83 81 49 176 76 43 41 66 70 35 33 62 29 27 60 59 27 20 58 27 27 58 58 28 49 60 29 29 45 62 29 43 42 166 30 41 41 30 183 40 4 4 39 38 4 77 37 5 5 81 182 7 82 83 181 11 85 50 180 162 86 67 29 170 174 92 42 88 175 157 47 175 135 53 55 175 114 62 80 175 96 71 86 88 85 177 92 90
14 26 74 73 12 21 73 11 10 62 106 10 18 106 72 9 60 106 138 60 59 68 139 60 61 66 26 63 64 64 13 67 62 8 6 7 59 4 234 7 3 3 6 85 2 6 6 115 2 6 5 133 5 5 145 148 46 5 157 44 43 163 165 41 5 167 39 38 6 164 36 6 6 123 33 7 7 31 148 7 7 9 7 7 11 111 8 15 16 96 92 20 88 86 94 26 81 23 99 118 78 23 36 113 128 24 9 76 25 130 9 130 29 10 10 130 121 10 73 133 114 11 82 110 108 212 90 73 12 220 53 73 224 99 50 147 227 49 72 152 228 49 155 65 50 50 160 68 52 163 164 91 18 166 95 96 208 170 100 101 197 105 107 188 185 112 113 178 88 119 171 170 100 127 165 109 112 175 161 121 174 173 130 134 171 170 142 168 167 155 153 163 162 160 160 159 163 164 163 165 166 170 172 168 169 183 178 170 193 197 180 171 205 181 181 210 211 182 182 212 182 181 156 157 180 159 160 174 180 166 168 174 37 177 175 175 189 193 175 142 208 175 175 118 90 175 103 99 177 176 89 177 177 204 82 176
129 207 23 22 73 220 19 107 108 10 18 107 107 18 60 107 137 20 107 107 139 60 107 140 140 62 68 141 241 65 65 142 240 64 62 6 236 75 144 3 7 83 3 223 6 89 2 6 92 115 3 6 136 117 5 5 150 118 148 160 161 44 149 165 120 41 5 166 39 149 6 36 35 6 92 34 32 7 6 30 7 7 9 117 7 12 13 104 8 17 18 91 21 23 84 83 27 81 79 22 32 77 77 23 9 76 23 24 9 75 26 9 10 27 28 10 65 31 10 11 74 36 11 81 83 110 12 88 90 73 219 94 73 72 224 98 72 56 99 50 72 60 51 71 62 64 52 69 65 17 56 163 68 18 19 167 101 20 93 70 107 193 88 111 22 182 83 118 175 79 95 126 168 73 37 175 163 116 29 61 160 129 172 59 138 141 169 154 149 166 165 159 159 161 162 163 158 158 166 29 170 168 168 178 41 170 189 192 179 171 202 205 181 209 210 182 182 212 212 182 155 210 181 181 158 86 180 162 164 174 179 171 175 175 181 185 175 175 199 175 175 128 216 176 176 107 177 176 94 91 177 86 84 177 176 80
74 14 131 74 12 12 133 73 11 62 71 10 10 60 235 9 60 60 238 8 60 72 71 32 61 70 69 44 109 67 15 68 110 144 7 110 63 145 4 111 146 3 226 113 147 2 6 92 148 200 6 131 149 177 97 147 156 149 99 119 131 101 102 120 112 103 121 121 105 106 122 37 150 123 123 149 7 124 149 149 91 125 148 148 91 148 147 91 91 146 146 92 122 123 93 94 122 81 97 120 120 127 104 115 128 128 110 108 129 129 101 129 129 130 91 130 130 125 173 132 120 119 192 116 115 203 206 110 109 214 57 105 219 220 54 100 223 53 53 224 224 52 53 153 53 54 156 158 55 159 161 99 59 164 164 103 63 167 108 109 169 170 114 186 172 118 120 177 91 125 171 169 103 133 165 111 115 25 161 124 128 26 60 136 171 158 55 148 167 159 155 8 163 163 6 160 65 166 5 155 168 30 4 72 170 188 3 75 32 201 78 79 33 38 182 35 36 38 182 39 39 38 9 47 39 181 161 40 40 25 168 42 43 42 90 46 55 58 91 134 68 91 91 155 77 91 171 176 92 91 191 85 92 204 209 83
109 131 208 109 132 133 220 109 134 227 229 136 136 233 234 18 237 237 22 24 239 28 30 109 241 39 43 109 8 53 110 110 64 67 110 145 145 111 112 146 230 113 147 147 220 114 148 210 205 56 149 190 184 53 3 163 99 149 4 138 101 119 121 4 103 120 4 105 166 122 4 108 122 37 5 152 123 150 6 138 31 150 127 123 28 7 91 26 26 8 91 24 8 92 22 22 8 95 122 8 8 31 118 9 9 37 76 128 42 44 75 23 50 75 75 25 59 74 28 28 74 74 31 119 74 34 35 12 73 39 12 13 89 44 13 13 92 14 14 94 95 15 15 96 69 16 95 95 68 17 94 66 65 210 92 63 65 65 70 59 66 66 55 170 66 22 48 65 65 23 173 64 24 24 174 139 25 65 173 146 25 60 18 152 159 55 12 27 52 154 8 160 48 6 6 165 168 5 68 172 173 154 72 30 177 152 76 31 151 151 172 33 151 82 173 212 152 173 38 212 174 174 208 39 174 174 201 180 22 192 188 179 38 174 178 178 190 151 177 177 207 177 177 219 222 177 227 228 176 177 232 233 176 82 233 176
198 14 132 132 212 12 134 220 223 16 136 229 17 17 109 235 20 60 110 24 26 109 75 34 37 110 142 48 110 110 144 111 110 145 144 111 112 146 233 231 147 147 226 223 147 217 214 93 148 200 195 96 183 178 98 98 158 100 100 119 133 101 102 120 151 104 121 121 151 107 122 151 151 123 123 151 93 124 151 151 91 124 150 91 91 119 149 91 91 121 91 91 122 123 93 93 123 127 96 122 121 127 32 117 128 128 38 112 128 138 137 75 129 134 133 130 24 130 162 131 126 11 181 30 121 194 197 34 12 206 63 38 13 214 59 142 218 90 57 146 219 56 70 150 93 57 153 56 92 66 157 107 91 64 62 111 201 60 64 116 191 64 64 21 182 64 22 22 76 63 23 169 72 24 24 67 118 25 25 62 20 172 59 57 13 170 54 10 9 62 50 7 64 65 5 5 67 69 4 70 71 30 3 74 75 30 41 78 32 32 40 173 33 39 39 36 36 39 6 40 39 39 9 49 40 14 17 197 41 26 29 91 179 43 91 91 55 194 92 137 68 92 92 157 222 93 173 178 229 93 192 79 80 176 209 83
94 131 203 109 89 134 216 17 135 72 226 16 137 231 10 19 67 236 23 61 58 9 32 110 43 8 63 111 143 8 67 111 145 71 73 69 146 79 67 66 3 90 64 148 2 62 61 2 205 59 58 3 7 97 3 3 6 100 4 5 5 161 4 5 165 165 4 4 166 121 4 162 160 39 5 153 150 35 7 140 33 32 7 125 29 7 7 27 26 8 15 24 8 8 20 22 8 24 25 80 8 30 31 77 103 35 76 76 39 109 75 20 46 75 75 22 93 74 24 24 84 74 26 11 11 133 30 11 77 136 117 12 83 37 112 214 87 110 14 217 89 108 218 90 59 108 216 90 67 55 211 63 64 58 67 69 161 61 74 56 165 122 81 167 62 128 91 169 132 23 170 172 139 167 68 144 145 163 63 150 162 161 138 156 161 161 149 161 161 157 159 163 164 165 161 160 169 170 157 169 174 154 154 171 178 152 172 172 151 151 173 173 151 173 173 213 152 174 212 211 182 174 207 205 181 201 199 180 180 189 186 179 175 171 178 178 190 147 177 203 207 176 177 219 176 176 226 227 176 176 231 176 176 81 232 176
131 110 132 132 208 212 135 217 220 16 137 227 229 18 69 233 20 22 236 236 28 111 238 36 40 111 8 51 112 112 144 65 112 145 145 74 113 147 147 114 67 148 226 114 149 149 214 62 150 201 196 59 3 178 98 99 3 152 100 119 4 5 102 120 115 5 165 121 4 106 164 42 4 159 123 38 153 148 35 152 7 133 32 152 92 28 28 7 92 26 25 8 16 23 8 8 22 8 8 26 27 78 8 31 77 128 35 36 76 128 40 75 75 20 47 75 20 21 74 74 23 23 74 25 26 11 11 28 29 12 77 32 12 13 82 37 13 84 85 14 14 86 69 15 88 88 67 67 87 65 65 54 87 62 61 58 72 57 59 60 79 164 60 21 46 167 60 22 169 60 138 23 69 59 24 165 65 149 25 61 60 155 161 57 11 160 162 153 7 163 164 161 5 167 167 169 159 71 172 3 74 171 177 153 78 31 152 151 173 32 151 151 173 212 151 174 174 212 40 174 210 208 181 175 203 41 181 195 192 179 30 180 179 178 182 158 178 178 199 177 177 211 215 176 177 224 176 176 228 229 176 83 231 176 176 78
68 97 74 66 93 92 73 64 89 73 72 86 86 71 10 84 68 66 9 9 60 9 9 62 47 9 9 65 238 8 68 68 237 72 73 72 9 82 81 69 87 89 114 67 3 103 64 150 2 116 61 2 3 118 151 3 7 119 152 141 5 152 4 120 5 153 109 5 106 165 100 4 161 123 95 111 152 37 113 114 124 33 115 116 125 152 118 125 126 152 7 125 151 151 92 126 150 8 94 149 148 97 29 147 101 102 117 145 108 111 111 117 120 105 103 129 137 96 130 130 89 87 131 131 81 132 132 127 74 134 124 123 136 137 120 119 139 118 117 211 212 116 116 213 64 116 211 211 65 209 208 68 69 203 201 72 158 195 77 79 162 163 85 164 165 134 95 167 138 140 169 169 145 146 171 149 150 164 171 154 155 163 60 159 163 163 152 163 164 159 161 28 168 166 161 173 46 172 157 184 175 2 154 43 179 152 152 41 2 151 173 173 3 86 174 213 153 88 175 210 90 175 50 205 91 175 198 43 92 85 183 179 179 110 50 178 191 132 56 66 208 62 64 75 221 70 79 80 95 77 84 231 94 88 89 95
74 192 97 133 204 16 92 73 216 16 89 72 11 18 70 230 10 23 66 9 30 62 113 9 63 113 78 9 66 113 145 69 70 74 146 75 77 72 6 84 70 69 3 96 67 3 2 8 64 2 8 8 3 3 7 99 3 7 7 154 4 5 5 162 5 5 164 165 47 164 163 44 43 159 157 40 6 149 37 36 7 135 33 7 7 125 29 7 7 26 153 7 14 16 8 93 20 83 8 24 25 79 97 29 77 77 103 33 76 17 38 111 75 18 105 75 129 19 10 74 19 136 10 131 21 11 11 133 129 11 71 135 125 12 75 123 122 206 79 70 209 210 66 68 210 82 66 148 208 68 63 151 203 72 154 53 76 78 159 130 83 161 162 134 21 164 139 140 173 167 144 23 169 148 149 166 64 154 155 164 137 158 163 164 148 164 165 155 157 166 168 164 164 163 168 170 159 158 173 156 156 172 177 153 172 172 152 151 173 173 212 174 174 213 213 174 175 212 182 175 209 207 181 175 201 181 180 194 190 179 170 177 179 178 183 187 178 195 199 176 177 211 215 176 76 223 176 176 228 176 176 82 230 176 176 77
111 100 74 16 112 95 74 113 113 137 73 11 138 139 228 10 140 68 232 28 142 235 9 39 143 237 51 66 237 237 65 114 236 74 76 114 74 83 114 115 149 89 115 69 150 116 116 151 2 117 117 152 185 118 153 152 160 153 154 142 136 102 154 122 103 104 111 108 105 106 102 107 108 123 97 110 123 124 112 113 124 124 155 125 125 154 154 125 125 154 92 126 153 153 92 126 152 94 94 151 151 96 123 150 99 100 120 119 105 116 115 128 115 110 108 129 103 102 129 130 95 130 130 137 87 131 132 133 73 133 131 129 192 136 127 199 201 31 125 205 206 124 14 207 68 124 207 80 70 16 203 72 74 152 79 77 155 156 78 84 159 135 75 43 162 140 37 34 56 145 28 167 57 23 20 58 154 166 165 59 25 165 144 62 26 166 155 27 27 51 163 28 49 49 3 29 46 172 2 45 44 2 154 81 43 2 83 173 2 2 86 33 2 88 89 36 4 90 41 43 91 92 52 56 43 66 71 45 45 90 97 48 39 115 52 53 56 140 58 66 69 64 66 75 96 72 79 80 97 96 84 96 96 206 89 96
183 17 17 112 14 16 113 113 12 64 114 138 11 63 114 140 63 63 86 142 63 115 84 55 236 82 144 40 236 79 27 236 9 77 14 9 82 8 7 9 88 4 9 9 98 3 9 95 113 66 8 125 117 63 136 140 61 154 149 152 57 4 159 55 53 4 163 51 5 5 48 46 5 5 4 6 6 5 5 6 5 5 133 7 6 7 117 92 9 105 101 12 13 92 22 22 86 84 20 8 81 18 18 8 78 17 8 9 127 15 9 9 128 147 9 41 15 144 10 48 74 10 149 54 73 162 59 85 73 178 65 72 24 190 75 71 28 199 72 139 32 71 68 142 127 15 144 41 128 16 148 130 17 198 152 132 18 76 135 136 187 74 139 140 180 99 34 175 174 109 165 171 117 120 167 168 129 168 169 138 140 169 62 148 169 168 165 158 167 167 168 175 163 169 170 183 170 171 190 193 172 172 201 179 173 207 209 181 174 212 182 183 213 213 183 152 153 183 183 155 155 181 157 158 176 181 162 164 176 168 171 176 176 180 176 176 144 138 176 176 120 177 176 104 99 177 176 90 177 177 83 81 177 177 77 176
17 112 133 16 114 113 136 114 114 138 138 115 115 140 224 115 140 141 230 116 142 233 234 143 144 235 52 56 235 235 67 70 235 76 78 115 232 84 86 115 9 90 116 116 93 94 117 152 152 117 117 153 185 118 153 154 161 119 154 143 138 57 155 123 119 54 4 110 105 156 5 4 107 122 98 4 110 123 5 112 124 124 5 115 124 156 7 114 125 156 118 99 25 155 90 126 21 8 94 19 153 8 96 17 8 99 29 16 9 105 118 9 9 37 112 9 41 42 75 129 47 48 74 16 53 73 73 19 59 72 21 21 72 71 24 133 70 27 28 13 69 31 14 14 75 36 15 15 76 16 16 75 76 17 17 75 52 18 74 74 45 185 72 38 36 179 70 30 55 55 114 22 56 56 17 58 58 24 11 60 61 25 168 64 26 26 167 167 27 51 70 169 28 49 2 29 188 47 2 29 45 178 2 205 43 2 152 211 182 2 89 214 183 151 91 38 183 153 93 45 156 156 175 60 160 95 176 190 166 176 102 172 176 176 155 55 176 176 130 177 69 113 107 177 76 95 177 177 226 84 177 228 228 177 177 228
74 15 68 67 14 14 66 115 12 65 64 93 11 64 91 90 70 64 89 88 65 87 86 58 55 84 84 44 9 82 31 27 10 148 17 10 10 149 8 10 87 89 10 9 98 102 9 108 112 69 9 123 127 66 98 138 64 62 100 119 59 4 4 121 56 4 5 53 156 5 5 49 5 99 4 157 6 4 111 157 95 5 134 158 94 115 119 30 93 117 103 26 119 120 126 22 122 85 126 156 124 127 18 154 127 127 153 8 127 127 152 107 34 151 150 116 39 149 125 128 103 146 140 98 96 152 156 91 72 168 86 85 133 21 81 80 135 136 78 137 137 134 77 139 134 135 142 143 135 199 145 136 136 196 148 138 191 190 89 142 186 184 96 181 180 104 106 177 111 114 162 172 122 125 165 130 133 167 167 141 144 168 165 165 167 167 167 168 166 169 169 180 163 170 187 189 172 172 197 199 173 203 205 179 174 210 212 182 152 213 183 183 151 43 183 152 153 42 183 154 175 182 9 159 176 181 163 97 176 180 172 176 176 159 98 176 141 135 99 149 116 177 99 167 98 177 181 185 79 177 197 79 82 87 227 84
113 114 134 15 114 136 136 65 116 138 139 65 93 140 221 117 91 142 227 30 143 64 231 43 57 233 9 58 42 233 68 71 25 10 79 117 13 10 82 117 150 10 92 117 152 102 105 71 153 115 69 68 2 130 66 155 161 64 63 3 139 60 60 4 6 103 4 4 5 163 5 5 4 159 5 4 153 151 4 5 142 124 5 132 128 34 6 116 112 29 7 101 25 24 7 23 22 8 8 19 19 8 22 17 8 8 27 15 8 30 31 76 9 34 75 75 116 39 75 74 43 104 73 15 48 73 73 16 92 72 18 18 86 71 20 12 12 135 24 13 67 137 137 14 70 32 138 197 71 139 16 72 71 140 193 71 48 143 188 93 40 48 183 101 32 51 108 110 159 54 118 18 163 159 130 164 59 162 140 166 165 25 173 166 167 175 54 169 169 180 51 170 185 187 172 172 195 197 176 201 203 178 179 209 180 181 153 152 182 183 151 175 183 152 152 175 183 153 175 175 156 157 176 176 160 176 176 187 167 176 174 169 178 176 151 145 178 132 126 178 177 109 105 177 218 93 177 177 224 177 177 226 227 177 177 226
74 176 15 135 189 14 67 66 203 16 65 95 215 19 65 93 24 26 118 90 34 65 119 145 48 118 86 147 118 118 147 31 232 118 149 230 10 150 150 226 10 151 221 219 93 152 211 95 96 199 194 97 98 119 99 99 120 119 100 100 120 156 102 120 121 157 103 121 158 158 122 122 159 101 122 159 159 97 97 159 96 96 112 159 95 94 114 94 94 116 116 93 117 118 126 94 120 121 126 123 123 126 127 157 124 127 156 156 127 127 155 154 127 154 153 111 128 152 119 122 13 150 132 135 101 10 147 97 95 158 162 91 132 172 88 87 134 62 84 135 136 65 83 138 140 68 61 141 141 142 56 37 143 193 146 41 145 189 44 147 185 184 48 20 181 109 51 21 177 118 22 22 63 129 162 174 60 9 164 58 148 6 66 55 4 166 70 53 3 74 171 2 2 78 172 195 81 82 29 204 85 86 30 45 88 31 31 44 33 33 44 43 35 36 43 3 41 44 44 5 156 45 9 10 98 47 17 99 99 27 31 100 100 45 100 100 139 61 100 101 157 210 101 170 174 76 101 187 80 81 176 202 83 86 212 84
168 133 135 182 14 136 193 197 15 74 207 17 18 72 217 22 119 70 10 31 120 119 10 67 119 146 56 119 119 147 71 119 148 149 76 81 150 228 83 78 151 222 76 76 4 213 95 154 3 9 96 2 184 9 132 2 8 100 144 3 7 153 121 7 6 159 121 158 161 162 54 159 160 159 49 5 154 46 44 6 42 40 6 6 37 35 7 6 31 7 7 8 116 7 11 11 89 7 14 84 83 18 19 80 79 24 78 77 14 28 76 76 13 120 75 12 12 9 74 13 9 10 12 13 10 45 14 10 11 51 15 11 54 55 146 12 58 60 68 183 62 66 64 190 86 61 30 67 87 57 34 89 52 144 39 93 44 42 149 99 150 46 19 19 153 155 20 65 157 158 177 63 161 162 176 60 164 176 176 147 167 178 56 4 180 181 162 3 73 166 168 163 78 171 173 161 173 176 158 157 174 179 155 174 174 153 153 175 33 214 175 175 214 44 175 211 211 183 175 206 205 182 200 198 181 181 188 185 180 170 171 179 178 182 176 178 193 196 176 178 207 176 176 215 217 176 176 222 176 176 79 224 176 177 73 177
165 170 15 15 183 187 14 118 198 16 16 119 210 20 120 120 25 26 120 120 35 120 120 145 146 120 147 147 230 119 148 149 230 149 149 228 228 151 151 225 89 152 219 217 93 118 209 96 96 118 193 97 119 119 98 99 120 119 100 120 120 158 101 121 121 159 160 121 159 159 107 54 160 103 101 160 160 99 109 160 97 97 110 160 95 112 112 7 95 113 125 7 8 116 126 126 11 88 126 160 122 82 126 159 79 127 15 159 77 127 158 8 76 12 157 109 34 11 9 117 113 12 10 42 107 10 10 46 101 11 49 51 70 11 54 69 133 57 58 67 135 147 64 63 25 146 59 58 30 15 54 34 35 16 47 38 17 17 42 43 18 66 46 19 20 65 116 21 64 63 15 22 61 61 10 60 60 7 6 58 5 5 68 55 3 3 73 27 2 76 78 27 1 81 28 29 160 85 29 30 87 174 30 46 90 31 214 45 175 34 45 45 2 213 44 3 3 209 45 5 99 202 182 10 100 181 180 167 101 179 32 101 176 178 186 102 142 146 201 176 159 71 212 176 177 77 176 176 82 81 176 77 75 177 177 70
162 111 74 175 14 105 74 13 15 74 74 12 18 121 11 11 67 121 11 10 67 91 10 68 69 88 10 70 87 86 73 74 84 29 78 83 82 16 225 80 9 8 10 77 5 4 10 3 3 10 9 3 9 9 130 3 8 8 143 66 7 150 153 63 7 157 60 59 103 160 56 55 159 122 51 5 154 47 161 6 123 42 6 6 5 161 6 5 5 161 7 7 101 7 95 10 90 95 13 121 84 96 17 80 126 97 125 78 14 13 124 127 12 9 122 128 12 9 128 128 156 9 129 156 155 132 130 154 10 146 102 152 156 51 97 150 169 95 67 176 178 93 135 184 93 93 137 188 93 139 139 95 96 142 143 152 144 145 154 18 147 148 157 185 151 159 160 182 161 161 181 181 164 165 181 141 166 181 182 150 152 183 156 158 164 187 163 164 164 168 169 162 162 172 161 160 173 177 158 157 174 212 155 175 175 214 153 175 215 214 175 175 213 184 175 210 209 183 176 205 183 182 69 196 181 181 165 51 180 171 175 179 41 183 176 178 194 197 176 67 207 176 176 75 216 176 86 221 103 176 78 76 177 210 71 176
133 163 14 136 74 180 14 138 192 13 17 121 204 20 21 122 11 27 122 123 10 68 122 146 11 70 122 147 72 73 86 150 75 121 150 24 225 82 152 222 10 80 7 215 93 77 4 10 96 3 3 9 97 2 9 9 136 2 8 99 147 66 7 153 121 62 158 158 59 161 160 159 55 5 156 51 50 5 150 46 6 6 42 41 6 4 5 6 7 5 6 7 7 7 96 7 10 11 87 96 14 82 81 17 18 79 14 14 78 77 12 8 76 12 11 9 75 11 9 9 128 10 9 9 129 157 10 43 12 10 145 47 70 11 50 51 68 168 53 65 64 177 57 61 23 184 96 56 28 61 98 139 32 100 43 142 155 17 144 41 157 18 148 159 19 185 151 162 21 62 164 164 183 60 166 183 184 148 5 185 186 156 162 188 161 163 163 194 167 163 162 171 172 161 85 175 159 159 174 179 156 174 175 214 154 175 175 215 175 175 213 213 175 175 211 184 175 207 206 183 202 200 182 181 191 188 180 168 170 179 179 178 181 178 188 191 176 178 201 204 176 209 212 176 176 217 176 176 80 79 177 177 73 177 177 68
72 114 135 74 15 107 74 74 13 140 74 12 12 142 73 11 68 144 215 11 69 68 221 46 70 90 10 60 123 87 70 75 122 85 80 121 84 152 87 120 81 10 120 119 155 5 120 156 156 195 10 157 157 177 98 158 162 156 100 159 141 100 151 128 124 101 157 115 102 103 122 107 104 123 123 162 105 123 123 163 124 124 163 163 124 124 163 97 125 163 163 96 163 163 96 96 163 163 96 118 120 96 97 122 123 97 124 125 127 100 125 125 127 124 123 127 128 122 128 128 160 159 128 128 159 127 129 158 157 139 130 156 149 152 155 155 161 101 154 170 172 99 154 179 99 99 136 185 100 100 138 60 102 140 140 105 106 142 158 111 145 145 161 22 148 162 163 15 151 164 186 186 57 167 186 186 63 24 188 153 170 25 56 161 26 195 54 167 27 52 171 1 162 50 175 160 88 49 1 157 174 47 1 94 175 1 1 97 34 1 98 175 38 2 100 44 208 47 102 58 201 182 74 80 50 181 99 53 54 28 121 58 60 46 63 64 59 62 69 71 70 106 105 75 76 105 176 79 105 105 201 83 105 210 213 105
75 75 15 14 74 74 14 70 74 13 17 70 73 12 69 124 11 11 69 94 11 70 70 92 11 72 90 89 55 75 87 87 40 86 85 28 24 83 18 15 10 81 9 8 10 155 5 11 10 3 3 10 122 124 9 9 134 137 8 142 145 67 7 152 65 64 101 157 61 60 102 122 57 4 4 123 52 5 4 48 163 5 4 163 6 98 4 164 6 5 109 164 96 6 98 164 97 115 88 21 97 119 82 17 122 80 127 14 125 127 12 163 125 128 11 9 127 127 161 9 128 128 160 119 36 160 160 130 112 159 140 143 108 158 152 106 105 161 164 103 63 172 102 102 134 22 103 103 136 156 104 137 138 158 139 140 159 159 142 143 161 189 145 163 163 189 149 165 188 188 135 167 189 142 144 189 190 151 153 192 157 159 160 196 163 165 161 168 169 162 161 172 174 161 174 174 159 158 174 214 157 175 175 215 154 175 215 215 175 175 214 213 175 211 210 184 176 206 183 183 158 198 182 181 164 52 180 169 171 56 179 179 176 178 50 192 176 178 201 107 176 99 211 176 88 85 107 177 78 76 106 205 71 177 106 216
149 118 136 136 166 120 138 178 182 140 140 192 12 143 202 204 26 70 211 212 36 125 217 46 49 125 56 60 124 124 70 72 123 151 79 123 122 153 86 122 154 154 213 121 155 206 204 156 157 193 189 158 180 175 98 159 161 155 99 146 142 99 100 129 125 101 121 122 101 102 122 163 102 123 123 164 104 123 164 164 123 124 164 164 124 164 164 98 98 165 97 97 109 165 97 97 112 7 97 116 117 7 97 120 126 98 17 124 126 100 125 127 127 163 125 127 163 163 74 128 162 162 73 10 162 122 128 10 161 134 11 160 11 146 13 11 155 47 107 12 167 105 60 13 53 105 134 14 56 48 136 57 57 40 139 59 33 31 38 162 25 43 44 18 17 48 165 20 53 54 21 191 59 60 22 58 65 23 24 57 24 25 56 55 2 26 54 1 1 53 52 1 160 51 0 0 90 50 0 0 94 181 0 96 97 0 98 99 34 35 101 101 39 47 102 47 50 48 104 62 49 50 176 87 52 14 104 175 56 28 124 60 178 46 108 66 59 62 108 178 70 108 108 177 76 107 189 177 218 107 203 219 219 177 214 83
118 16 16 73 111 15 71 71 105 140 71 102 101 73 71 98 145 72 96 95 71 213 93 68 66 11 91 61 58 10 77 48 10 10 80 32 10 85 86 10 10 92 94 11 98 101 79 11 109 77 76 96 120 75 74 3 121 73 3 3 70 69 3 7 67 3 3 6 163 4 6 5 163 4 4 154 5 103 4 148 146 4 104 137 43 4 127 124 37 105 113 32 31 107 125 26 7 111 126 21 7 10 126 166 7 14 15 165 99 19 165 8 102 126 165 104 26 125 164 110 123 73 115 117 120 72 10 118 117 129 11 114 113 129 161 111 130 14 160 131 132 160 12 132 132 160 179 134 160 160 185 55 161 188 189 114 162 191 118 119 192 192 124 126 193 130 132 147 193 138 140 150 169 147 152 153 171 155 155 171 172 157 158 172 203 159 173 173 207 160 174 210 211 174 174 214 214 179 215 215 181 182 215 183 183 154 215 184 184 153 48 185 154 154 184 184 156 176 183 158 160 176 176 164 176 176 177 171 176 162 157 108 176 138 132 176 151 115 178 177 100 96 177 212 86 177 177 217 82 177 218 218 83 177 217 177
13 120 136 137 73 122 139 140 175 105 141 185 189 143 143 198 25 145 205 207 36 70 212 45 49 66 217 59 126 218 10 71 125 125 78 83 124 154 86 123 83 155 94 122 157 157 103 79 158 191 114 77 159 174 75 74 2 155 99 161 3 8 99 3 126 7 153 3 6 101 156 4 5 155 122 4 4 151 123 165 146 144 47 166 135 43 41 6 121 36 166 6 32 30 7 98 26 24 7 7 21 7 7 11 120 7 14 15 79 8 19 77 76 22 23 75 75 26 74 73 9 30 73 72 9 121 71 10 10 10 129 11 10 10 12 12 11 43 14 11 12 47 17 12 49 50 162 13 52 53 43 186 54 36 34 190 118 28 38 57 124 19 44 129 14 144 51 136 9 56 169 145 150 62 22 58 153 172 24 57 156 172 204 55 173 26 208 54 174 211 53 174 174 213 51 0 215 215 180 0 96 182 182 155 99 184 184 154 176 184 154 154 176 184 155 176 176 157 158 176 197 194 176 176 184 55 176 171 166 179 176 148 142 178 130 124 178 178 108 103 177 208 91 177 177 214 177 177 216 217 177 177 216 177 177 215
75 119 13 74 112 111 73 73 107 74 73 103 101 74 72 99 73 73 128 96 71 71 11 148 68 11 11 150 216 10 78 52 217 10 82 216 10 86 88 213 10 93 82 206 92 101 80 6 95 121 78 4 119 121 160 3 121 73 162 3 121 163 3 130 121 164 3 6 164 164 113 5 155 108 107 101 152 104 104 102 124 102 102 102 124 100 102 124 124 102 102 124 167 167 125 125 167 7 125 167 167 99 126 167 167 100 167 167 100 101 167 167 102 127 167 104 105 127 127 108 126 125 128 115 124 128 128 121 121 129 129 119 129 129 164 117 130 164 163 131 131 163 163 169 163 163 177 179 163 164 184 117 164 189 190 120 165 193 124 125 195 195 130 142 142 135 137 144 145 143 147 148 171 150 150 151 172 3 153 173 173 2 77 173 209 158 82 174 212 172 174 214 214 176 175 215 179 179 29 216 182 182 31 49 184 155 215 49 1 154 49 185 1 155 176 2 157 107 176 5 161 176 90 10 109 176 174 110 110 126 152 110 110 143 68 178 155 158 73 178 170 77 78 75 185 81 177 79 82 83 82 216 83 85 86 109
137 75 118 137 152 124 110 74 168 105 142 74 182 101 74 192 11 98 72 11 35 71 70 11 48 129 11 11 78 128 10 10 81 88 10 84 86 85 88 90 84 83 95 97 82 9 103 80 79 5 184 78 4 3 10 75 3 3 8 3 3 8 7 3 7 7 151 3 6 6 154 63 5 154 154 58 4 151 55 53 101 144 49 5 136 44 43 6 123 37 6 6 125 31 6 6 5 168 7 6 6 168 7 9 82 7 100 12 79 101 16 126 77 103 21 75 127 106 127 74 9 9 126 127 8 9 124 128 166 9 129 128 166 10 129 165 165 150 130 165 11 162 117 165 170 47 48 165 180 119 40 186 188 121 135 192 124 125 138 196 129 139 140 134 136 142 51 170 144 145 171 21 147 172 172 205 150 173 173 208 173 173 210 210 174 174 213 171 174 214 215 175 176 216 178 179 158 217 180 157 157 183 183 155 155 184 155 154 176 185 155 155 176 209 157 176 176 202 176 176 194 192 176 176 181 181 176 167 161 179 177 144 178 178 126 120 178 178 202 177 177 208 209 177 212 213 177 177 214 215 177 83 214 177 177 86
76 138 141 13 123 153 14 14 127 168 17 128 129 144 22 130 145 146 131 130 148 71 131 149 149 208 130 151 152 211 152 153 212 212 154 154 211 83 84 209 208 88 124 203 91 92 124 193 94 123 122 95 96 122 122 97 122 122 162 97 122 163 164 130 122 165 164 119 165 165 113 111 166 166 108 100 166 105 105 100 167 103 100 99 124 101 99 124 124 3 98 125 125 99 125 125 169 104 125 125 169 87 126 168 168 82 15 169 101 101 12 168 103 127 169 8 105 128 168 108 25 128 9 114 126 126 9 31 125 128 10 35 66 129 167 37 63 129 166 59 58 15 166 53 131 18 12 45 22 166 13 26 27 14 191 126 34 16 54 131 17 17 56 137 18 56 56 8 19 57 149 5 57 57 3 148 56 2 2 75 174 1 1 81 25 1 86 87 26 0 90 28 28 94 95 29 51 98 30 30 50 101 32 50 50 0 34 50 50 1 211 50 1 1 50 51 2 109 52 5 5 110 181 10 111 112 116 21 112 130 133 185 112 145 149 195 177 161 75 113 177 90 79 177 187 77 82 177 69 82 81 82 58 83 85 111
17 77 119 117 13 76 111 110 76 128 105 74 75 102 145 74 12 98 73 72 11 148 71 11 11 150 67 11 80 152 210 10 83 210 210 78 87 86 10 85 126 84 89 97 124 82 92 124 80 6 94 123 161 4 122 122 163 3 122 164 164 137 7 164 3 124 98 166 117 6 99 166 110 99 153 107 107 99 123 105 99 99 124 103 98 124 124 169 97 124 124 169 124 125 169 169 125 169 169 100 126 169 169 100 169 170 101 101 169 169 102 125 126 103 104 128 128 106 128 128 127 110 128 127 127 127 127 128 128 126 128 128 168 168 129 129 167 147 130 167 167 160 167 167 169 172 167 167 179 125 168 186 188 127 168 193 130 131 136 199 135 137 138 55 141 140 141 146 6 143 172 153 145 146 173 2 148 173 174 1 151 174 214 215 84 174 216 173 89 27 217 176 175 28 52 179 29 217 51 182 31 51 184 156 156 50 185 155 176 50 1 157 176 1 2 110 176 3 162 111 87 7 112 176 109 15 113 123 157 63 113 139 67 178 151 155 73 178 167 77 78 72 181 80 81 77 82 82 80 81 83 83 83 113 112 86
13 131 12 13 125 125 14 14 128 142 16 130 130 145 21 132 146 147 132 133 148 195 133 150 150 202 132 152 205 206 65 153 207 208 76 47 207 81 83 204 11 87 126 199 90 91 124 10 93 123 124 162 95 123 162 163 127 123 164 144 137 73 165 130 122 166 3 120 68 166 114 113 64 4 109 98 99 4 106 98 123 4 3 97 124 3 3 129 124 3 95 116 35 3 106 125 28 4 95 23 170 7 87 18 7 101 15 14 7 102 12 7 8 14 10 8 8 19 8 8 22 23 8 8 26 70 70 28 30 68 9 32 66 65 10 35 61 11 12 57 55 14 15 50 17 18 12 12 21 13 13 47 27 14 14 50 170 15 52 53 16 16 54 10 18 55 55 6 19 56 4 4 65 57 2 70 72 163 1 77 79 168 152 84 25 0 155 89 26 156 93 175 28 157 175 29 218 52 176 31 51 184 176 215 51 0 176 213 186 0 210 209 185 1 204 184 184 162 111 183 165 167 176 181 172 113 121 178 180 177 137 187 189 177 119 197 177 177 98 177 177 86 83 177 177 73 177 177 65 62 177 82 53 177 176 207
75 16 79 75 15 15 77 75 14 78 78 13 13 77 77 13 77 78 97 96 79 79 95 71 80 92 92 67 133 90 63 60 88 88 52 10 87 41 38 11 84 26 11 11 100 15 10 105 108 181 10 114 117 167 95 124 77 9 96 134 74 97 140 123 72 3 122 69 167 3 122 66 3 111 123 168 4 3 123 169 105 3 169 169 104 3 170 103 103 93 120 102 93 110 125 102 95 99 25 100 102 125 19 108 111 126 171 117 126 126 171 126 127 171 171 105 126 170 107 108 171 170 112 24 170 116 118 130 170 124 126 129 131 134 128 128 142 128 128 129 129 128 128 130 169 128 131 131 169 130 131 169 170 132 133 170 197 134 171 171 203 204 171 207 207 147 172 210 211 154 212 213 157 159 214 215 163 147 216 166 167 150 56 170 152 153 175 174 155 175 175 156 156 176 176 157 176 176 217 157 176 216 215 106 176 214 213 108 39 210 185 185 50 206 185 161 200 53 183 165 189 182 8 171 59 180 177 115 64 29 186 177 177 48 115 177 106 64 115 177 88 115 177 187 74 115 196 65 83 114 208 53 177 216 218 82
122 123 16 12 126 127 15 78 129 143 16 78 132 145 78 134 99 148 79 97 149 72 191 94 151 195 11 91 67 200 63 89 60 10 74 51 48 10 92 36 11 86 97 127 10 102 126 82 10 109 125 162 116 118 78 164 125 128 76 3 135 74 74 3 72 72 3 3 6 68 3 5 5 3 4 4 97 4 3 3 146 4 3 140 138 2 2 130 127 2 121 117 36 34 108 105 29 6 97 24 22 6 89 18 7 7 126 14 7 7 12 172 7 11 12 8 106 16 73 8 18 19 72 113 23 70 69 119 131 67 9 128 131 63 10 130 60 129 12 10 53 14 170 11 130 18 12 12 130 170 13 45 131 171 194 48 171 171 201 50 171 206 207 147 8 210 54 152 139 214 157 3 142 161 162 145 74 165 166 147 175 169 150 151 175 25 153 175 175 219 155 176 176 219 176 176 218 218 176 217 217 184 176 215 214 185 213 212 186 186 158 208 186 160 161 184 184 164 177 183 168 170 177 181 175 177 177 180 183 177 177 189 177 177 114 109 177 177 94 177 177 82 78 177 72 68 177 177 60 56 177 208 47 177 176 204
75 16 125 139 132 15 141 142 146 14 79 156 159 19 79 169 23 25 136 180 31 81 136 40 42 136 92 52 55 134 155 64 133 133 156 53 131 157 158 196 130 159 193 191 160 161 185 182 162 177 174 93 163 164 160 94 124 150 95 96 123 96 96 123 123 97 96 123 168 96 123 123 169 96 123 169 169 123 123 170 170 106 171 171 104 104 171 104 104 90 171 103 103 89 103 103 91 92 102 102 97 125 103 104 106 126 172 114 126 126 172 122 126 172 172 75 126 171 171 127 8 172 112 127 171 171 117 132 171 123 125 132 9 133 132 132 10 144 132 129 10 36 132 129 167 133 40 130 42 135 131 26 171 24 132 171 171 16 38 172 206 10 46 172 211 53 55 18 215 61 174 20 55 69 21 218 56 1 22 56 169 0 24 56 0 151 55 55 0 154 55 0 0 100 54 0 103 104 31 0 106 107 33 108 108 36 37 111 111 44 53 112 54 59 53 114 76 55 55 93 98 58 8 10 60 61 18 22 65 30 34 116 70 49 53 116 178 64 116 116 71 206 117 189 76 116 116 202 82 116 209 212 83 116 219 82
17 75 16 16 81 75 15 80 80 146 14 80 80 102 19 80 99 98 81 81 95 73 82 93 92 71 84 91 68 67 135 89 62 10 10 157 52 10 10 41 193 10 98 27 10 10 104 180 10 109 111 169 93 117 79 155 94 126 77 3 95 123 75 3 141 123 168 3 123 70 169 3 123 170 3 110 123 171 107 3 171 171 105 2 138 105 105 89 129 104 104 87 125 103 87 88 125 89 91 125 125 97 99 126 172 7 126 126 172 7 126 172 173 106 126 172 172 108 172 172 110 111 172 113 114 133 172 119 121 133 128 127 133 133 128 138 134 128 128 134 134 129 171 134 130 129 171 136 130 171 171 130 131 172 172 197 172 172 203 205 172 173 210 151 173 213 215 157 18 217 160 161 219 219 164 143 143 167 168 146 146 171 148 149 175 174 151 176 176 0 154 176 176 155 102 176 218 156 176 176 216 185 176 214 214 186 176 211 186 186 49 206 186 163 67 55 184 167 191 57 5 172 59 181 12 180 177 22 185 117 177 39 117 177 159 57 117 177 90 117 117 184 74 117 117 196 82 177 205 207 83 177 215 82 176 85
137 118 12 139 127 130 13 143 139 14 15 149 152 18 136 161 22 24 138 172 30 138 138 37 40 138 138 154 137 137 155 156 136 135 157 193 134 158 159 191 85 160 187 186 161 162 180 89 90 173 170 91 92 161 93 93 125 147 94 124 124 7 95 124 124 95 142 123 169 95 123 123 170 112 123 170 171 109 124 171 107 106 55 171 105 89 49 5 104 86 172 5 2 85 5 103 2 87 125 2 92 93 125 3 88 125 15 4 82 126 173 79 78 9 173 76 75 8 7 109 7 172 8 113 7 8 118 21 7 8 24 135 9 9 28 135 9 30 31 52 10 33 35 44 16 37 37 34 21 30 28 26 27 21 19 33 14 14 39 41 15 8 47 16 16 54 56 18 18 54 19 19 55 55 21 56 55 1 22 56 56 0 222 56 0 0 221 56 0 97 98 179 0 102 29 0 156 106 31 0 108 176 34 159 110 38 40 160 176 47 53 162 177 65 55 2 82 192 57 5 182 59 181 10 164 63 18 185 142 179 35 117 118 179 198 118 178 178 203 177 181 205 206 177 195 206 177 177 50 205 177 213 37 177 177 28
12 139 119 16 82 83 130 13 82 108 142 16 136 102 19 82 138 97 25 139 95 152 34 139 92 71 183 139 155 69 10 156 157 189 10 158 159 189 77 160 187 186 83 162 182 87 87 176 173 90 111 127 91 91 126 80 93 125 125 167 94 124 124 169 124 124 169 169 123 124 170 114 123 170 171 110 93 171 108 108 91 172 107 89 89 105 105 86 85 105 83 83 124 104 82 125 125 173 86 125 125 173 125 125 173 173 126 126 173 105 126 173 173 106 126 173 107 108 173 173 110 132 132 114 115 134 134 119 135 135 127 127 136 136 128 27 136 128 128 30 49 129 172 138 40 129 172 176 130 23 172 189 130 173 197 199 35 173 206 207 44 15 213 155 174 17 52 160 137 219 54 164 139 55 166 1 142 56 170 144 85 56 0 147 176 0 0 96 176 0 0 101 28 220 104 105 30 217 108 32 33 54 111 36 212 54 41 43 54 186 54 54 55 1 74 56 56 3 117 58 5 7 118 62 13 118 118 22 26 119 147 40 119 119 162 57 118 173 176 79 118 186 189 82 177 199 82 82 207 209 82 81 216 82 82 85
138 113 127 141 75 124 113 144 132 14 106 75 144 17 100 74 12 22 139 74 11 30 140 11 37 86 140 10 49 139 89 10 89 137 158 92 93 86 160 185 97 84 38 180 83 83 24 173 82 16 14 9 81 9 9 9 6 5 8 93 4 7 7 136 124 6 6 142 73 5 146 146 69 4 147 66 65 147 147 61 4 144 57 55 4 137 50 4 4 2 43 5 5 1 173 5 1 1 5 104 2 96 6 2 2 87 105 3 83 82 11 4 79 9 8 123 75 8 8 73 126 7 8 70 7 173 8 127 7 8 8 127 173 9 24 26 173 9 29 50 173 156 32 41 166 169 141 32 180 38 144 130 192 146 17 130 202 150 131 41 174 154 133 51 16 134 135 175 18 137 175 175 222 139 175 175 224 176 176 224 56 173 176 223 175 0 222 222 178 151 221 180 181 154 219 183 156 157 184 185 158 158 186 160 160 176 177 162 163 177 205 166 177 177 198 177 177 190 186 177 177 174 181 177 159 154 180 177 136 179 179 195 112 179 199 200 178 178 203 204 178 204 204 177 177 205 204 177 79 202 177 177 31 199 177 23
85 125 123 11 130 115 75 75 134 107 75 14 137 148 74 13 150 150 158 11 152 73 167 33 154 173 10 44 156 179 53 89 139 182 64 92 86 72 74 136 85 79 134 133 163 84 131 82 164 130 130 166 12 156 128 167 147 8 168 168 136 93 169 129 126 93 170 121 93 93 116 115 93 92 112 91 91 123 123 90 89 124 173 86 124 124 173 124 124 173 173 124 124 173 105 125 174 174 105 125 174 105 105 92 174 105 100 103 106 106 112 114 107 118 121 126 108 126 127 126 8 131 127 127 174 134 127 174 174 127 127 174 130 127 173 173 140 127 173 149 152 13 173 162 166 173 11 177 144 145 186 38 147 130 198 150 151 131 45 154 132 132 48 158 134 175 51 3 135 175 165 2 72 175 224 139 80 21 224 85 176 23 224 93 25 223 177 98 26 221 180 28 29 55 183 155 55 55 0 158 55 186 0 113 55 0 162 115 55 0 116 177 1 1 117 177 2 118 118 107 176 118 120 125 64 119 136 139 69 147 150 73 74 161 165 77 61 175 79 80 71 65 81 74 75 120 82 78 120 119 80 81 120 120 83 120
140 75 123 120 75 118 16 75 75 14 14 75 75 13 85 74 12 12 86 74 11 86 87 11 10 87 88 10 89 89 88 88 91 87 87 63 93 86 86 53 136 84 44 40 83 83 29 9 82 20 17 9 167 11 8 8 120 6 8 126 128 133 6 134 136 124 92 140 73 5 91 144 70 91 146 124 66 3 124 63 3 4 124 57 4 2 124 173 4 1 44 174 105 1 174 5 105 77 174 105 1 84 95 105 92 89 126 106 104 83 11 112 115 126 8 121 123 126 174 128 126 126 174 127 127 174 174 120 127 174 125 127 174 174 134 22 174 143 146 141 174 156 142 143 166 170 145 146 180 146 147 129 130 150 151 130 174 154 131 131 174 158 132 175 175 134 134 175 222 135 175 175 224 225 176 225 225 172 176 225 225 174 224 224 176 177 223 178 179 150 221 181 182 153 56 183 156 157 176 185 159 177 177 162 162 177 177 164 177 177 203 169 177 197 195 118 177 186 182 119 114 170 181 181 130 149 180 192 131 71 179 197 74 179 200 201 78 178 202 177 80 72 203 177 177 77 120 177 37 199 121 177 25 120 177 224
11 128 142 143 131 132 145 75 135 148 148 131 139 150 139 142 151 152 150 152 25 157 160 31 33 165 167 41 143 172 49 52 142 175 60 140 139 68 70 138 162 76 136 135 164 164 133 165 166 161 131 167 167 151 168 168 144 142 169 137 134 90 170 128 126 91 3 120 91 91 125 115 90 124 124 89 89 124 124 87 124 124 173 83 124 174 174 134 125 174 174 105 40 174 106 106 174 174 105 78 175 105 105 86 6 106 95 98 6 106 107 126 6 3 118 126 126 4 74 126 175 130 71 127 174 68 127 7 175 63 7 174 8 58 8 174 140 10 11 9 153 144 14 10 30 146 10 10 34 24 11 37 37 16 12 41 11 10 43 44 7 132 47 4 4 58 175 2 2 67 18 1 74 76 20 80 82 21 22 88 90 23 57 95 24 25 56 179 27 57 56 0 29 56 0 0 56 56 0 0 56 0 0 114 56 0 0 116 187 0 117 118 76 1 118 92 98 179 119 112 61 120 177 128 66 120 139 133 70 177 154 74 75 177 92 78 61 65 72 178 71 121 55 178 75 121 177 177 199 121 177 81 195 177 176 192
128 75 129 121 144 75 134 111 75 123 138 150 75 13 141 152 141 12 153 154 151 11 88 158 160 34 89 165 41 44 144 169 52 93 142 61 63 140 85 70 72 138 164 77 136 135 165 163 133 166 167 154 131 168 148 145 169 169 138 7 170 131 129 90 171 124 122 90 125 117 90 89 125 88 88 124 124 87 86 124 173 84 124 124 174 80 124 174 175 124 124 175 106 106 175 175 106 106 175 105 105 78 175 105 106 89 106 106 99 102 107 108 110 126 108 119 121 126 175 126 127 127 175 132 126 175 175 65 127 175 175 127 8 174 135 127 174 143 146 144 175 156 159 146 10 170 148 148 10 184 151 129 193 37 154 130 40 157 8 131 44 161 131 53 175 3 133 175 175 2 70 176 225 1 79 176 226 85 87 22 226 92 24 24 57 98 25 223 57 0 28 57 182 0 30 56 0 157 56 56 0 114 56 0 0 116 56 0 117 118 68 1 118 177 90 119 120 105 178 120 120 122 64 120 133 137 69 145 148 72 73 159 162 76 55 58 79 80 67 69 81 72 73 121 82 76 121 121 177 79 121 121 81 192 122 226
11 128 130 11 132 134 147 12 136 149 150 125 140 151 152 135 95 153 143 145 91 155 151 28 157 73 159 37 159 164 9 47 69 168 56 94 142 9 65 140 140 9 100 138 165 9 104 135 167 108 109 82 168 114 81 81 11 120 80 171 7 6 78 5 125 89 76 3 5 88 3 3 4 143 3 3 2 145 3 2 144 143 60 1 140 124 53 135 133 47 175 126 124 38 4 116 32 30 5 26 24 5 5 19 17 5 1 1 6 6 1 1 6 2 2 77 6 3 74 74 112 4 70 69 6 134 66 7 9 63 61 8 8 57 9 9 8 49 11 9 9 128 15 9 27 128 175 10 31 24 175 191 35 14 12 202 40 9 210 42 6 5 217 164 3 59 222 167 2 69 169 170 136 78 172 0 138 176 22 140 91 176 23 143 176 25 223 147 176 222 57 176 177 219 57 177 216 216 186 177 213 212 187 164 210 187 187 169 187 187 173 174 186 185 179 177 184 183 184 177 182 189 177 177 146 194 177 177 121 177 177 103 96 177 85 80 178 177 65 60 178 51 47 178 177 36 33 177 197 196 177 177 192 177 176 188
75 18 17 88 119 16 88 88 109 15 88 103 100 15 88 96 74 18 145 91 74 89 146 157 73 10 86 72 72 9 160 70 9 9 162 66 9 96 164 165 8 99 163 162 75 103 159 8 80 135 82 82 112 132 82 85 131 80 171 87 129 171 6 128 127 172 4 127 173 173 116 126 173 174 112 85 174 110 110 82 109 108 79 79 108 107 75 125 107 71 69 125 106 67 125 125 175 67 125 125 175 125 125 176 176 125 175 175 107 125 175 176 108 176 175 109 110 175 175 111 126 128 114 115 133 126 119 136 137 127 125 140 127 127 142 143 127 127 145 127 127 175 147 128 128 175 174 128 175 175 188 27 175 197 200 175 175 208 161 175 214 216 164 175 220 167 167 133 224 169 134 134 53 172 136 137 173 0 139 176 176 141 142 176 0 145 176 176 0 149 177 220 219 110 177 217 185 113 35 214 187 177 42 57 188 51 206 57 187 69 57 186 1 91 59 2 184 120 62 5 190 177 9 11 121 177 20 24 122 155 38 122 122 168 55 122 179 182 81 122 191 82 178 200 203 82 177 210 82 82 79 219 82 82 83 82
11 89 124 147 88 134 114 75 88 107 152 75 88 99 75 129 93 92 74 138 89 74 74 10 86 73 73 10 92 72 9 9 94 9 9 95 95 8 8 97 83 8 100 101 82 8 104 82 82 107 108 82 23 21 81 81 14 12 80 9 8 6 79 6 5 5 173 4 4 4 3 3 4 142 142 2 2 143 66 2 143 142 61 1 140 56 54 71 134 48 45 66 125 39 4 118 125 175 4 0 24 176 5 0 176 5 107 1 176 5 1 101 176 109 1 78 175 111 121 74 112 114 129 126 6 133 135 127 6 139 126 127 175 142 127 9 8 127 127 175 8 128 175 175 167 25 175 175 182 154 175 191 195 157 175 203 160 161 211 213 163 5 218 166 167 131 223 169 133 133 176 171 134 135 176 137 137 176 176 139 140 176 226 143 176 176 224 177 177 221 221 177 177 218 185 185 216 215 187 187 212 187 187 166 208 188 187 172 187 187 177 178 186 182 183 177 177 187 189 177 162 193 177 177 139 198 177 120 113 177 177 95 179 177 77 71 178 177 56 178 178 201 39 178 177 197 82 177 193 192 82 177 189 177 176 83
145 98 100 11 149 105 11 11 110 112 13 141 119 14 15 145 93 17 147 147 158 21 148 148 160 148 148 161 161 148 162 162 155 147 163 164 158 164 165 158 157 64 166 156 70 72 153 152 76 77 148 79 80 134 141 82 132 132 84 84 130 130 85 129 128 173 173 127 127 174 116 126 174 174 113 71 175 110 110 175 175 109 76 175 108 107 71 69 107 67 65 124 107 62 62 125 0 62 125 125 0 104 125 176 75 95 125 176 89 125 10 176 108 126 175 6 110 7 176 112 2 6 6 116 132 6 7 4 137 7 7 7 142 7 10 11 49 127 14 147 40 14 19 33 127 175 26 24 23 175 17 16 31 11 11 37 39 12 211 47 13 13 43 57 14 46 47 15 16 50 172 17 52 53 0 20 54 55 0 56 56 0 0 99 57 0 103 105 0 0 108 29 0 111 112 33 0 114 37 39 163 116 45 49 118 177 61 58 58 76 196 59 1 97 60 60 2 173 63 5 6 153 66 12 122 129 180 25 122 123 179 203 123 171 56 203 177 185 202 122 194 197 199 177 205 82 195 177 214 82 177 177 13 82 82 9
18 91 125 17 11 90 114 15 89 140 104 13 89 98 96 14 146 91 74 74 148 159 74 10 149 161 73 9 162 162 150 9 163 70 8 48 165 155 8 98 167 154 64 101 82 151 71 140 81 75 76 137 81 79 135 134 172 81 132 80 172 131 130 173 7 122 174 174 118 4 174 175 114 82 175 111 111 79 175 110 76 75 109 108 71 70 107 67 66 125 125 62 125 125 176 60 125 125 176 125 125 176 176 126 125 176 107 125 176 176 108 176 176 109 109 109 176 111 118 121 113 114 128 129 117 133 134 126 123 139 140 126 142 143 127 127 176 127 127 176 176 127 127 175 168 128 175 175 182 128 175 192 195 33 175 204 162 176 12 214 166 167 219 44 169 131 224 170 171 133 51 173 134 135 53 175 136 176 55 0 139 177 0 0 101 177 223 146 177 28 220 110 177 217 217 113 35 214 187 115 42 57 188 52 55 58 187 175 58 58 0 183 60 185 2 121 62 3 193 122 65 8 122 177 15 18 122 152 30 123 123 167 81 123 176 180 80 123 189 192 81 198 201 82 82 208 82 82 78 217 82 82 81 10 82 83
146 96 97 11 100 101 11 11 140 12 12 143 144 13 14 146 159 15 148 149 160 19 150 161 162 92 150 163 143 150 81 164 148 149 165 69 151 50 167 152 151 59 60 150 65 67 50 147 71 139 38 6 76 136 6 78 116 134 172 80 132 80 173 126 130 174 174 132 77 174 116 137 74 3 113 72 70 3 111 76 3 3 1 71 3 108 1 137 3 0 61 130 4 0 124 125 0 0 114 26 0 107 105 18 176 98 14 13 5 89 10 9 5 8 8 5 110 7 6 6 1 6 6 6 2 176 6 3 3 61 7 5 55 54 7 8 48 46 11 41 38 15 15 31 18 19 154 23 24 26 9 128 32 10 10 38 41 11 37 48 12 13 42 176 14 46 46 176 15 50 1 176 228 52 0 0 229 176 0 94 56 178 0 101 180 0 145 106 183 148 109 177 184 153 113 34 158 160 177 42 58 166 177 207 58 177 177 200 187 177 193 59 185 177 181 184 3 168 163 183 7 122 181 181 202 123 180 180 204 177 179 205 204 177 204 204 177 177 201 201 177 33 197 177 177 22 82 177 15 14 177 177 10 176 176 7
10 10 133 97 10 10 138 11 11 141 104 158 12 145 159 75 148 148 161 74 149 162 163 132 151 163 137 139 165 165 143 144 35 146 146 42 44 148 148 51 147 148 58 60 144 63 65 142 141 70 71 139 172 74 137 136 172 173 134 174 173 126 132 174 174 121 174 175 117 116 175 114 114 78 176 112 111 76 3 110 72 71 126 109 67 125 125 63 62 125 177 58 125 126 176 55 125 177 177 113 125 176 176 107 17 176 108 108 176 5 108 91 176 109 110 105 5 111 115 118 6 114 125 126 6 2 133 126 126 3 59 127 176 143 52 10 176 45 127 13 176 35 16 176 8 26 21 176 183 26 29 9 196 162 10 11 33 165 11 12 39 4 13 42 170 2 14 46 1 132 49 50 0 134 53 0 0 92 177 0 97 98 23 0 103 104 27 107 108 29 29 111 111 33 58 114 37 39 58 0 46 58 58 0 61 58 0 0 59 59 1 1 60 1 2 122 62 4 5 123 182 8 123 123 145 204 123 155 159 205 124 170 78 124 177 182 80 123 192 37 81 177 203 82 75 177 17 82 78 78 11 177 81 126 7 176
129 75 95 10 75 75 16 10 75 75 14 91 75 13 13 91 75 12 91 150 11 10 92 82 164 93 93 79 166 93 79 78 72 95 78 78 69 78 78 67 66 79 80 61 6 6 55 52 6 105 43 6 6 111 31 5 114 116 5 5 120 122 4 124 126 79 4 130 77 76 5 136 75 74 4 127 71 3 3 126 66 3 1 61 177 3 1 54 3 108 0 176 3 0 53 123 107 0 117 114 107 58 107 18 108 67 98 13 77 81 126 9 92 126 8 176 5 126 7 5 114 126 176 6 1 126 176 122 2 176 176 129 4 176 136 139 147 176 148 149 150 127 161 154 28 127 156 157 128 27 160 161 128 176 164 128 128 176 129 129 176 176 130 130 176 224 225 176 177 227 228 177 229 229 175 177 229 228 177 228 227 179 180 226 181 181 145 146 183 184 150 177 186 154 156 177 187 161 177 177 166 169 177 205 175 177 177 197 182 177 190 187 185 177 176 172 183 162 157 182 182 140 133 181 205 112 180 180 206 75 179 206 205 79 178 204 177 177 68 200 177 177 196 124 177 17 190 177 218 11 126 177 8 7 127 230
75 131 133 152 75 138 156 157 101 142 159 105 107 12 162 112 12 13 117 119 16 92 125 126 19 153 131 23 24 153 27 29 152 153 34 36 151 169 169 150 149 171 64 147 171 171 140 144 172 172 137 173 173 133 132 174 130 128 73 74 125 124 75 133 121 75 76 131 117 75 130 130 74 74 128 176 72 128 128 177 68 126 177 177 108 126 176 177 108 177 177 107 107 177 177 107 51 177 107 107 54 4 107 59 62 4 108 71 126 126 0 85 126 126 97 82 126 177 111 126 176 176 71 126 176 176 65 7 176 125 127 9 176 134 144 176 7 145 149 176 155 10 153 8 169 156 23 8 18 160 128 9 25 11 128 176 31 6 129 176 4 3 58 176 2 66 69 15 1 77 177 17 83 86 18 229 91 93 21 55 179 23 23 57 181 26 57 57 0 30 58 0 0 58 58 0 160 58 0 0 118 177 0 0 120 71 0 121 121 91 188 122 104 108 123 123 119 64 123 130 134 68 123 144 70 71 23 158 75 76 41 68 78 53 57 80 178 65 124 81 71 72 125 178 75 125 125 177 78 126 222 224 180 128 229 81
129 75 17 17 153 75 16 15 75 101 14 91 75 13 13 91 90 12 91 92 83 16 92 80 79 19 93 77 73 93 154 76 72 95 76 170 70 7 76 68 67 6 171 64 6 6 172 137 6 105 174 134 5 109 131 129 69 115 126 4 72 135 79 73 124 133 176 73 131 77 176 73 130 176 4 129 128 176 4 128 176 177 109 127 177 177 108 57 177 108 0 52 107 107 49 126 107 107 50 126 107 53 55 125 108 62 126 126 176 75 126 177 177 125 126 177 177 126 177 177 114 126 176 176 118 176 176 122 124 176 176 130 142 143 137 140 147 127 148 150 151 127 162 155 127 128 158 159 128 128 161 128 128 176 165 128 176 176 213 129 176 176 220 62 177 224 225 177 177 228 174 177 229 229 176 177 229 178 178 139 227 180 141 142 57 182 145 147 184 0 151 177 186 156 157 177 0 163 177 177 0 119 177 203 201 120 177 194 187 122 97 182 185 177 114 63 184 124 150 66 182 139 69 181 17 153 73 28 207 177 77 45 206 177 57 60 124 177 67 198 124 204 73 124 177 213 125 125 219 9 82 127 226 81 177 231
148 132 134 153 94 95 156 158 98 11 161 102 104 11 165 107 12 13 112 114 14 15 119 17 17 155 125 20 155 155 170 25 154 154 172 154 153 172 172 152 152 172 137 150 173 173 136 147 174 133 133 60 174 130 64 65 33 126 67 69 123 4 70 135 119 71 71 133 3 70 131 131 2 135 130 177 177 138 129 177 110 139 63 177 108 127 56 3 108 49 177 3 107 39 3 107 47 30 4 0 49 125 4 0 57 126 0 0 97 126 0 80 89 8 0 83 126 7 78 76 7 176 5 70 7 5 121 8 8 6 128 10 6 6 3 12 7 7 5 7 7 7 8 7 10 12 22 20 15 17 15 33 21 10 9 42 28 6 50 53 4 3 60 12 2 68 71 14 1 78 15 16 50 87 18 19 53 177 21 55 56 177 24 57 0 27 222 57 0 219 57 0 0 114 58 0 117 117 188 0 118 119 188 177 120 78 0 185 177 96 191 122 177 112 198 177 122 152 66 177 137 69 181 177 106 72 24 177 77 179 41 59 53 178 205 39 178 178 200 24 178 194 193 177 177 188 126 177 183 181 177 225 177 177 177 4
131 149 75 135 154 156 94 15 160 161 99 10 164 103 104 12 108 109 13 13 113 115 15 155 120 16 17 156 75 20 156 155 172 26 155 155 173 154 153 173 173 152 174 174 134 149 174 175 132 175 175 131 129 59 176 126 63 63 124 123 66 138 120 67 68 135 117 68 133 133 67 68 131 131 66 130 130 177 177 129 129 177 109 127 177 177 108 54 177 108 108 177 177 108 45 177 107 107 46 46 107 49 50 126 108 57 126 126 0 70 126 126 0 88 126 177 97 80 126 177 75 126 7 176 119 8 176 5 124 9 176 130 141 11 6 140 147 14 7 5 152 7 162 8 156 7 11 159 18 127 17 13 128 39 23 8 129 176 5 4 56 177 3 2 67 13 1 75 77 15 47 84 17 17 51 92 19 54 54 22 22 55 181 25 57 57 0 29 58 58 0 58 58 0 0 116 0 0 118 119 0 0 120 71 0 121 121 90 0 122 102 106 196 123 117 64 123 177 131 67 68 142 114 70 17 155 73 74 33 66 77 46 50 44 80 61 124 81 178 70 125 206 73 190 126 215 76 127 177 223 178 128 228 229 174 177
147 93 134 152 92 92 115 159 96 144 104 75 100 96 168 75 105 87 75 110 10 14 74 9 15 92 74 8 18 157 8 7 94 156 7 7 95 72 6 97 97 73 175 99 74 75 62 102 76 57 55 77 77 48 126 78 39 36 4 78 28 25 3 20 18 3 3 126 2 2 130 131 1 1 135 72 1 137 138 68 1 139 64 62 54 138 56 54 137 127 47 3 3 39 3 3 0 29 4 4 0 177 4 0 0 177 4 0 100 4 109 0 91 8 0 91 83 7 0 78 126 7 116 71 8 8 128 126 9 6 137 126 176 6 127 127 176 6 4 177 177 159 6 176 7 173 159 176 184 14 163 176 197 166 8 206 209 169 129 215 171 171 130 65 173 131 131 177 175 132 83 177 134 134 177 19 136 177 177 228 139 177 177 224 183 177 222 221 185 177 218 186 187 214 213 188 188 209 189 189 172 202 189 179 181 188 187 188 190 177 194 196 177 177 201 202 177 143 206 177 177 117 177 177 95 88 177 177 68 179 177 50 45 178 178 32 178 178 199 20 178 178 191 178 177 185 183 177 180 179 177 177 175 174 177 3
132 148 90 91 154 155 93 94 161 96 96 10 167 100 11 11 103 105 12 12 155 13 13 157 157 15 15 157 175 18 158 157 176 22 157 176 176 95 156 177 129 154 176 176 129 129 176 128 128 46 177 127 126 52 47 124 56 57 36 3 59 140 119 3 61 137 2 62 127 135 178 62 133 74 178 135 131 177 177 138 67 177 109 139 60 4 108 54 52 3 108 44 3 3 0 41 3 108 0 122 4 0 46 113 0 0 106 126 0 0 97 9 0 91 88 8 177 83 7 7 5 75 8 176 5 8 9 5 124 10 5 6 1 13 6 6 2 6 6 3 4 32 7 6 26 24 9 11 17 33 14 13 11 41 20 7 48 50 171 4 58 60 11 130 68 13 13 76 78 15 46 85 17 17 50 177 19 53 54 177 23 55 0 177 223 57 0 0 219 186 0 114 58 188 161 117 189 0 169 119 189 176 120 77 188 185 122 94 192 193 177 109 62 123 177 151 65 177 134 126 181 177 105 71 180 177 76 179 34 57 51 179 51 125 178 178 201 125 178 196 194 177 178 188 186 177 183 181 177 177 176 174 177 4 171 177
146 93 125 122 75 93 115 112 75 14 104 75 75 13 94 75 12 11 75 75 10 91 74 9 9 92 74 8 93 93 120 7 93 94 70 22 94 70 71 96 96 71 69 98 73 73 65 152 74 60 59 149 75 52 4 146 178 42 3 3 178 119 3 119 23 2 59 124 114 2 128 130 112 58 133 72 111 56 137 68 54 53 130 62 4 139 128 177 4 128 46 178 108 127 177 3 108 127 178 108 0 177 177 108 0 110 109 109 59 101 110 69 73 126 111 86 90 126 98 102 127 126 113 116 126 177 125 127 126 177 5 126 177 177 137 127 177 146 149 177 177 159 163 177 169 174 160 176 184 188 164 194 197 167 168 128 169 170 129 129 172 173 130 177 174 131 132 177 176 133 177 177 134 135 177 177 228 177 177 227 226 177 225 224 183 177 221 220 185 35 216 187 188 212 211 189 166 207 189 189 175 177 189 182 184 177 187 190 177 177 1 198 177 177 2 124 177 134 208 177 177 106 124 177 85 77 180 167 58 179 179 180 38 178 205 193 81 178 197 17 82 72 189 82 177 75 127 177 77 176 130 177 79 132 177 234
9 133 125 10 138 139 157 10 144 163 164 148 148 169 170 152 173 173 103 155 176 176 108 13 178 112 113 14 115 116 16 17 119 121 20 159 123 23 24 158 124 28 156 156 32 33 154 153 179 152 151 179 179 149 179 179 121 146 179 179 118 76 179 117 116 178 179 114 56 178 113 112 56 135 111 54 54 132 110 51 131 131 0 48 130 130 45 138 129 178 41 128 128 177 108 128 178 178 108 24 177 108 108 16 177 109 51 11 4 109 64 177 4 0 79 4 112 0 83 126 0 107 75 126 0 69 127 11 0 61 126 177 54 52 15 177 45 42 19 6 35 23 24 7 6 28 7 181 9 35 8 14 167 8 9 20 170 9 26 27 4 11 33 2 2 38 39 1 1 82 1 0 89 91 0 0 97 21 0 102 103 25 0 107 28 29 111 111 34 57 58 41 43 58 58 52 58 58 0 66 59 59 0 193 59 0 0 182 187 1 123 62 185 2 123 126 4 208 124 140 9 124 177 154 212 124 165 168 211 177 179 78 207 177 27 80 177 177 17 81 71 12 82 177 74 8 82 76 176 5 177 78 132 177 177 168
129 9 93 123 152 9 141 112 75 9 147 167 75 150 151 172 99 154 176 177 104 157 179 107 109 13 180 112 7 15 116 116 16 93 119 19 20 159 121 23 24 158 26 28 156 155 32 33 154 180 180 151 151 180 54 149 180 180 118 145 179 117 117 179 179 115 114 179 114 113 52 52 112 111 51 134 111 50 50 132 48 47 131 131 45 44 130 178 41 129 129 178 38 128 177 178 108 128 178 177 108 177 177 108 109 177 109 109 54 177 110 110 69 4 111 81 84 4 113 97 127 126 109 112 127 177 122 127 126 177 133 127 177 177 50 127 177 177 40 21 177 159 163 27 177 173 160 177 7 187 165 8 197 16 169 9 208 171 5 10 28 174 131 11 35 2 132 177 42 1 85 177 0 0 94 177 0 99 101 22 0 105 177 223 109 109 32 219 113 113 40 57 188 48 51 58 0 61 58 58 0 76 59 0 0 60 60 0 195 61 1 2 123 177 3 124 124 134 7 124 124 148 124 124 159 163 124 124 173 77 125 183 186 80 125 195 81 81 68 206 81 72 73 9 82 75 75 82 177 77 131 81 79 79 136 176
9 133 89 9 138 140 16 9 144 145 14 91 149 170 171 90 154 176 100 156 82 180 104 77 181 74 109 73 183 112 7 70 73 116 17 69 72 5 20 160 71 5 96 158 4 4 99 155 4 101 154 72 3 105 150 180 108 109 74 180 112 114 75 34 115 75 75 24 2 74 18 17 1 73 12 1 0 9 8 0 46 7 0 0 138 131 0 138 138 48 0 136 135 38 133 132 30 28 128 127 22 4 121 16 14 4 113 11 4 4 0 9 4 0 0 177 4 0 0 4 115 0 77 5 0 0 68 123 0 62 60 130 137 53 18 19 145 43 22 6 152 128 27 6 26 31 177 7 128 38 8 8 129 177 9 18 20 177 212 25 4 177 220 33 2 224 225 176 1 227 44 178 136 228 179 0 139 180 181 142 104 177 183 146 177 32 151 152 177 39 157 177 177 209 165 177 177 203 177 177 197 195 177 190 187 188 188 176 171 186 200 157 185 184 206 133 183 209 210 181 181 211 177 180 212 212 177 177 211 177 177 34 206 177 177 21 177 177 14 13 177 177 9 177 177 6 5 177 5 4 177 177 168 2 176 166
132 9 135 137 151 9 141 143 160 146 147 166 168 151 172 173 97 98 178 179 101 10 181 104 105 12 184 109 13 13 111 113 14 15 115 16 17 161 118 19 160 160 184 23 158 158 183 156 156 183 183 154 153 182 119 151 182 181 117 74 181 116 115 44 180 114 45 46 25 112 46 46 111 1 45 137 110 44 44 134 0 42 133 132 0 139 131 178 178 138 130 178 108 129 35 178 108 129 178 4 108 19 177 108 0 14 4 109 50 11 4 0 63 127 4 0 79 127 0 0 82 127 0 108 74 12 0 67 127 15 60 58 17 177 5 48 21 6 149 25 26 6 162 30 6 7 6 36 7 8 9 8 8 14 16 9 19 20 5 130 26 27 3 71 34 2 1 81 177 1 87 89 0 0 95 19 0 100 101 24 0 106 28 29 56 111 35 37 57 177 44 58 57 52 207 58 0 66 58 58 0 193 58 0 0 122 60 1 123 123 186 2 124 123 184 208 124 136 7 211 177 151 212 124 177 165 212 177 176 39 78 177 189 80 178 177 17 81 68 12 10 178 73 7 6 177 176 5 177 177 170 3 177 166 138 177
9 93 17 17 92 140 116 15 91 108 164 91 91 98 172 90 90 89 75 90 83 75 74 78 76 74 106 73 74 74 6 13 73 73 5 92 73 5 5 94 72 4 95 95 4 4 98 70 3 100 100 71 3 103 72 72 56 108 73 73 47 148 73 40 37 74 180 30 1 73 23 21 1 180 16 0 0 133 11 0 136 137 108 0 138 138 108 36 138 48 0 33 130 38 32 134 129 28 33 129 21 177 4 129 15 4 109 128 178 4 0 178 178 111 0 177 177 113 86 177 115 0 102 177 119 114 70 127 125 127 127 18 135 137 127 22 144 127 128 177 152 128 128 177 128 128 177 177 182 129 177 193 196 177 177 204 171 177 212 213 173 177 219 175 175 223 224 177 177 226 178 178 136 137 180 139 140 177 181 143 144 177 147 148 177 177 153 154 177 214 160 177 177 208 167 177 202 200 189 177 193 189 188 185 181 188 187 169 187 186 201 148 184 184 207 65 183 210 211 177 11 212 177 177 213 212 177 45 211 177 177 28 206 177 20 18 126 177 13 11 127 214 7 177 177 221 81 177 172 4 81 177 166 81 176 79
140 90 89 147 149 90 9 157 91 91 9 166 93 9 9 95 96 10 10 158 10 10 160 160 10 161 162 188 11 163 163 189 163 163 190 190 163 163 189 115 162 188 188 116 20 187 117 117 23 186 117 26 27 117 116 30 31 116 32 34 149 114 36 37 146 1 38 144 144 181 124 142 180 180 139 139 180 110 137 179 179 108 135 179 109 108 55 178 108 32 32 5 108 31 31 4 0 31 130 108 0 34 129 0 38 119 128 0 47 128 11 0 104 128 177 4 94 10 177 114 85 12 5 118 14 14 5 123 16 5 128 0 20 5 1 141 6 6 2 150 128 2 3 29 128 5 5 21 41 8 15 14 49 12 9 55 56 6 6 64 10 10 71 73 12 222 79 14 14 40 88 16 17 46 19 20 49 50 24 52 52 0 30 54 55 0 112 56 0 0 115 57 0 117 118 189 0 120 120 0 182 121 89 0 122 177 101 197 123 112 115 62 177 125 64 65 177 139 67 10 177 76 71 20 57 74 179 34 37 77 46 208 125 178 60 126 126 178 192 127 212 178 183 129 220 175 174 177 227 169 177 177 2 164 177 236
18 93 75 17 9 91 90 15 90 90 91 9 90 99 94 9 155 90 9 10 159 82 74 161 77 188 74 163 73 74 107 164 191 73 5 191 191 112 4 191 191 114 17 189 115 115 19 97 116 22 23 157 116 25 103 155 28 29 152 72 31 150 149 182 34 147 146 181 111 144 181 180 111 141 180 110 110 180 179 109 35 179 108 108 33 179 108 32 31 108 108 30 30 131 30 29 130 130 30 31 130 177 33 129 129 178 128 129 178 178 129 128 177 111 128 177 177 113 114 177 115 116 98 177 119 110 114 123 125 124 127 130 133 136 128 139 143 145 128 177 151 129 128 177 158 129 177 177 19 129 177 191 130 52 177 203 131 177 9 212 67 177 218 219 175 13 223 177 177 15 41 179 138 226 46 180 142 50 182 0 146 53 184 150 110 55 0 157 177 177 0 116 177 205 0 118 69 197 120 120 83 186 121 93 96 59 122 106 156 61 2 119 63 184 4 65 66 7 211 68 69 15 124 72 24 27 125 76 39 125 125 50 54 126 126 201 126 126 208 10 128 215 217 81 130 222 224 81 177 229 81 81 232 234 81 79
138 90 90 145 90 90 8 155 91 91 8 149 92 9 9 154 94 9 157 158 9 10 161 187 10 89 163 191 10 164 192 193 90 165 193 193 110 69 193 112 112 68 71 114 16 191 70 114 19 68 115 2 22 64 114 24 105 59 2 28 152 152 1 113 149 183 1 118 71 181 122 124 70 181 128 68 67 18 132 65 180 13 0 59 10 108 0 8 8 0 29 6 6 0 137 5 0 0 133 5 0 129 128 0 0 123 130 13 117 114 11 177 108 11 11 4 98 12 12 4 128 14 5 5 16 16 5 0 19 5 5 0 59 5 1 1 48 6 1 41 38 157 3 31 28 4 161 21 44 7 15 14 51 8 10 57 59 9 132 66 10 11 133 75 12 32 135 177 15 39 89 177 225 45 177 22 225 182 0 223 52 184 0 219 186 0 112 214 187 0 116 189 189 170 118 189 0 178 177 190 185 121 177 175 193 177 104 157 200 177 140 62 177 177 114 65 177 93 86 181 177 67 180 180 213 45 179 179 210 179 178 206 205 178 178 199 177 178 191 188 177 178 180 177 177 173 171 177 3 3 177 177 2 2 177 2
19 9 90 90 9 90 90 91 9 147 91 8 8 152 172 9 155 157 180 9 160 185 186 162 162 190 191 164 193 193 104 165 194 106 107 11 195 109 110 13 111 111 14 14 113 113 16 162 113 18 18 160 113 20 158 157 22 23 155 186 185 153 152 184 183 150 183 183 111 147 182 182 110 181 181 110 109 180 109 108 30 180 108 108 29 137 108 29 28 134 108 27 133 133 0 27 132 132 28 133 131 178 31 130 16 178 122 130 177 177 110 12 177 111 111 12 177 113 76 14 5 116 93 5 5 0 110 5 124 0 65 128 0 134 54 128 1 47 129 177 2 36 129 176 29 26 43 176 20 48 50 8 13 55 177 9 15 62 10 211 22 71 11 28 176 13 14 35 1 16 40 41 1 20 45 0 0 48 49 0 0 107 0 0 110 111 0 0 114 52 0 116 117 64 173 119 74 77 120 120 86 58 58 96 99 59 59 108 60 60 2 121 63 4 5 102 66 8 10 75 181 16 124 73 179 29 125 178 40 209 125 191 54 126 200 202 195 127 210 81 184 177 219 81 131 177 4 81 177 229 2 81 78 2 81 176
128 75 91 123 146 75 16 115 75 91 14 106 75 12 9 75 75 10 88 75 9 9 88 74 7 89 89 77 6 89 89 74 89 89 72 71 90 71 70 72 92 69 70 71 164 69 70 70 2 70 68 2 2 66 65 2 2 61 1 1 108 55 1 112 113 111 0 117 118 110 28 122 68 68 29 128 66 23 132 141 62 17 139 58 180 12 137 51 10 0 135 178 8 0 134 178 108 0 135 6 108 0 131 108 0 34 124 109 40 118 130 110 51 109 13 61 65 129 14 5 82 129 177 5 129 129 177 122 129 177 177 129 129 177 135 138 177 177 146 2 176 155 159 156 30 169 161 162 131 182 166 167 131 169 170 132 132 172 173 133 177 175 134 135 177 177 136 177 177 223 140 177 224 224 177 177 223 223 177 222 221 185 177 217 216 187 214 212 188 188 207 189 189 173 174 189 190 180 177 189 186 189 177 188 194 177 177 199 201 177 177 205 177 177 103 97 177 84 77 181 177 60 55 180 169 41 179 179 183 27 178 205 18 79 178 197 80 178 68 186 177 178 178 177 177 74 169 177 177 76 140 177 2 161 147 177
91 138 141 91 8 8 91 91 8 147 91 9 8 152 92 8 156 157 10 8 160 161 8 87 163 191 192 88 77 196 102 166 74 198 105 72 198 73 108 71 198 109 12 70 71 111 13 70 70 2 15 162 111 2 100 159 1 19 104 156 1 108 154 70 0 113 152 184 118 119 68 183 123 67 67 29 109 64 64 22 0 61 18 16 0 54 13 0 0 11 10 0 25 8 0 0 137 133 0 135 134 21 0 131 129 16 125 123 14 14 118 116 13 5 109 14 14 5 130 16 5 5 0 19 5 0 0 177 5 0 0 6 131 1 58 6 1 1 47 148 2 39 36 161 157 28 47 48 163 20 53 8 15 132 60 9 9 65 177 11 134 73 12 216 137 177 15 34 35 177 222 40 1 177 223 45 0 222 222 184 0 219 51 186 157 213 187 0 164 188 189 170 117 177 190 178 177 80 184 186 177 91 192 177 177 154 199 177 137 131 177 177 111 63 177 92 85 181 11 68 62 180 212 47 179 179 210 31 179 207 206 178 178 201 177 178 193 190 177 177 182 177 177 5 172 177 177 3 177 177 2 2 177 1 1 176
127 75 75 122 75 75 15 115 75 75 14 163 75 12 11 173 93 10 88 87 95 8 87 84 7 9 88 80 6 88 166 76 9 89 74 200 10 167 72 73 72 167 199 72 2 166 197 70 2 196 195 111 1 193 66 111 17 190 111 1 19 111 110 20 111 70 110 22 151 68 23 23 148 66 24 146 145 181 24 144 180 180 141 141 180 16 139 179 179 108 0 179 178 108 24 178 108 108 25 178 108 27 28 108 108 32 132 109 38 40 131 131 47 130 130 177 61 130 130 177 130 130 177 177 130 177 177 122 130 177 177 128 177 177 134 136 139 176 145 147 149 153 157 155 157 166 160 162 131 180 166 132 133 169 170 133 134 173 135 135 177 177 136 137 177 217 139 177 177 221 91 177 222 222 97 177 221 183 177 33 219 185 186 215 52 187 162 209 188 188 169 55 189 175 177 55 0 183 177 56 0 191 177 1 1 122 177 137 202 123 120 113 123 177 94 65 124 145 70 181 124 160 71 179 171 174 74 179 184 77 78 53 201 79 178 63 127 80 68 183 130 71 72 133 177 74 75 138 230 76 142 144 235 1 150 237
9 133 135 141 138 140 149 152 91 147 160 92 92 168 170 93 93 177 94 94 8 186 96 8 8 97 98 9 8 100 9 9 167 168 9 9 168 202 10 168 168 201 91 167 200 200 93 166 198 109 165 71 195 111 110 193 65 111 16 190 110 110 18 57 110 19 19 50 0 21 151 43 0 22 148 0 0 129 145 181 23 143 58 180 136 141 180 16 139 47 179 108 140 38 10 108 32 30 9 108 24 8 7 0 29 7 109 0 125 6 0 43 117 0 0 111 131 0 0 101 19 0 93 90 23 177 82 27 28 6 71 31 6 6 35 36 6 6 40 7 7 2 46 7 7 4 176 8 5 6 19 9 9 14 13 12 14 9 69 18 7 5 76 25 4 82 83 179 2 89 91 180 145 96 26 28 101 177 33 48 106 39 41 51 177 49 53 53 177 59 54 0 177 194 55 0 0 182 189 0 120 57 188 195 122 187 2 201 122 185 204 123 177 183 208 123 142 210 211 177 156 70 177 177 39 74 177 177 26 178 177 18 16 178 177 12 178 178 8 7 178 71 5 177 177 167 137 177 162 161 177 176 158 157 177 156
131 136 9 136 144 146 142 143 153 156 92 162 165 92 93 172 175 93 8 182 95 95 8 190 97 8 8 98 98 8 167 167 8 9 168 168 9 168 168 203 10 169 168 202 168 167 201 200 167 199 198 109 164 196 195 110 14 193 110 110 15 190 110 16 17 109 109 18 18 109 19 19 150 109 20 149 148 0 21 146 145 181 134 143 180 180 142 141 179 108 139 178 178 108 36 178 108 108 28 178 108 26 26 8 108 30 32 7 0 37 133 110 0 47 132 0 57 132 132 0 101 131 177 0 90 131 177 121 79 31 176 127 131 36 6 135 40 176 7 1 45 7 155 3 50 8 4 161 9 9 7 167 134 10 11 12 135 15 16 8 74 21 5 5 81 4 3 86 88 2 2 93 24 26 98 99 30 219 103 36 39 49 108 45 51 52 52 55 53 53 63 54 54 0 74 55 55 0 119 55 1 1 121 57 1 122 122 185 3 123 121 4 123 123 135 8 123 146 149 210 124 161 165 72 177 176 75 75 177 22 77 53 199 14 79 63 10 80 178 69 6 81 72 171 136 177 74 140 141 177 159 147 235 176 156 177
19 91 135 140 9 89 116 150 88 147 109 75 87 104 169 75 87 97 75 94 92 91 74 96 8 74 74 6 8 74 74 4 87 74 4 4 88 3 3 89 89 2 2 91 74 74 92 93 74 201 95 73 73 68 98 72 67 66 71 71 63 62 71 60 58 0 69 54 53 0 117 47 0 0 124 40 0 128 129 0 0 132 57 0 136 137 52 0 139 47 44 20 141 39 37 13 137 31 11 10 136 178 9 0 20 177 8 0 177 7 109 0 177 7 0 52 113 112 0 105 103 115 79 95 27 118 97 132 32 110 114 132 37 125 132 132 176 138 132 46 176 150 132 176 8 3 176 176 172 6 176 176 185 169 176 193 196 173 176 203 175 175 208 211 177 4 142 179 179 144 92 180 148 148 177 183 152 153 177 156 157 177 177 161 164 177 206 204 177 177 198 190 177 189 185 190 177 175 189 189 161 156 187 187 140 186 186 202 117 184 184 206 177 182 208 209 177 210 210 177 177 210 210 177 36 209 177 177 24 204 177 17 15 177 177 11 178 178 8 7 178 177 5 177 177 165 3 177 177 159 80 176 156 156 80 175
131 136 138 136 143 145 93 143 153 93 93 161 164 93 93 172 93 94 8 182 95 95 8 164 96 8 8 166 5 8 168 168 8 8 169 204 8 170 170 206 8 169 205 206 91 169 204 204 107 74 201 108 108 73 68 108 12 196 66 109 13 63 109 0 14 58 108 15 114 53 0 16 153 66 0 124 151 183 0 130 59 182 134 134 54 180 137 50 48 20 140 43 179 108 0 35 14 108 21 12 11 0 24 10 10 0 133 9 0 0 127 8 0 122 120 0 0 112 23 24 105 103 27 177 95 30 31 7 83 35 37 7 39 40 7 7 44 46 8 1 49 8 8 3 37 9 4 5 28 10 7 21 19 186 11 14 13 15 174 9 75 21 6 141 82 19 4 87 88 23 147 93 27 29 151 99 34 45 156 177 42 48 177 177 208 51 177 58 53 189 0 192 53 0 1 179 189 1 119 161 188 1 121 187 186 200 121 185 203 204 177 183 207 123 177 73 209 177 150 54 210 177 41 72 177 177 28 178 177 21 19 178 177 13 178 178 187 8 178 178 176 177 177 168 166 177 177 160 177 176 157 156 177 154 154 177
19 90 90 118 89 88 115 113 87 87 109 75 75 104 102 75 10 98 75 75 8 92 74 7 7 194 74 6 5 74 99 4 87 74 3 8 87 79 3 88 89 78 8 90 77 77 9 92 76 71 9 168 74 69 97 74 198 67 165 72 65 108 0 192 61 0 0 189 108 0 116 186 108 0 122 107 107 16 128 107 17 17 148 107 17 136 146 180 18 143 45 179 19 141 179 17 140 139 178 13 138 178 178 108 137 177 108 108 32 177 109 109 41 110 111 49 117 112 112 63 134 114 75 80 133 88 93 133 133 106 110 133 176 176 133 133 176 176 133 176 176 147 134 176 176 159 176 176 169 171 176 178 181 169 176 189 192 173 139 199 175 176 142 207 177 144 145 179 180 147 177 181 150 151 177 183 155 177 177 213 160 177 177 208 110 177 202 200 177 64 193 189 177 183 179 189 82 166 189 188 92 147 187 197 199 57 185 202 203 184 5 206 177 182 208 123 177 14 209 177 177 23 124 177 33 36 125 177 22 178 126 198 15 178 205 209 79 178 215 7 79 71 223 80 177 74 229 80 75 156 151 80 76 153 177 77
130 135 18 89 116 144 88 88 111 154 87 107 106 75 94 102 174 75 9 96 74 95 7 74 74 6 8 74 74 5 86 74 4 4 87 73 3 87 88 81 2 89 79 79 90 90 77 77 92 77 76 70 95 75 75 68 166 74 67 66 0 72 64 0 0 61 60 0 113 56 0 0 119 50 0 123 125 107 0 129 130 107 16 134 54 52 17 146 48 25 141 43 41 21 142 36 18 17 140 30 15 0 138 178 13 0 23 177 108 0 131 10 109 41 123 111 0 54 115 112 65 108 134 115 82 97 35 95 100 134 41 9 134 134 176 9 134 135 176 140 135 176 176 152 135 176 160 163 176 176 173 8 176 182 185 171 15 193 173 174 141 202 176 177 144 178 178 147 148 180 180 151 177 182 154 155 177 157 159 177 177 209 165 177 204 202 177 177 195 192 177 186 183 189 177 171 167 189 158 153 188 187 136 186 186 201 201 184 184 204 177 183 207 207 177 181 208 177 177 208 208 177 39 207 177 177 27 24 177 20 18 178 177 13 12 178 211 8 178 178 6 6 177 166 3 177 177 158 80 176 155 154 177 175 152 177
97 9 89 117 9 9 141 112 9 9 148 160 8 152 154 171 8 158 179 74 161 162 188 74 165 195 197 97 5 201 98 98 8 205 100 101 8 101 102 7 7 103 103 7 171 105 8 8 171 8 8 169 169 203 9 167 200 200 166 165 197 196 164 194 193 108 161 191 190 107 188 188 107 107 13 107 107 14 14 107 107 15 150 107 15 16 148 107 16 146 145 17 17 144 179 18 143 142 178 178 141 178 178 108 139 177 177 108 23 177 109 109 177 177 110 46 177 111 112 60 10 114 71 75 135 117 88 135 135 0 106 135 135 0 74 135 176 133 62 55 176 53 136 59 176 156 63 176 13 167 67 176 177 10 71 16 187 173 75 18 19 176 20 21 25 6 24 30 31 4 151 36 3 155 98 41 2 159 177 2 1 106 177 1 109 110 58 1 113 114 67 115 116 75 77 53 118 84 54 54 92 94 55 186 103 56 57 4 115 59 6 7 61 62 11 12 65 15 18 123 123 25 28 125 175 37 125 125 190 200 127 198 201 191 129 210 79 132 177 218 79 79 223 4 80 74 229 80 80 75 2 80 76 76 1 174
9 75 97 9 9 75 16 8 144 95 13 86 150 11 8 86 157 176 85 160 96 186 85 164 193 96 85 89 200 98 85 86 74 99 85 208 73 2 83 73 103 1 7 73 1 7 91 72 1 8 170 0 0 95 169 0 97 98 75 0 102 103 74 105 107 72 71 61 112 69 58 56 67 66 53 107 63 48 47 0 59 42 0 0 37 36 0 0 139 0 0 141 142 0 0 143 36 0 143 143 31 22 142 27 27 25 139 25 14 135 138 25 13 12 27 177 12 0 30 11 11 0 176 11 0 0 176 118 0 91 10 123 0 80 128 1 128 68 55 1 58 137 60 150 46 64 176 159 138 67 14 166 140 176 16 141 142 176 19 17 176 176 199 23 176 25 205 179 176 208 34 181 210 210 183 3 209 209 185 163 206 186 187 169 109 188 174 176 177 189 181 177 177 186 187 177 82 191 177 177 138 197 177 177 116 177 177 100 95 183 177 81 182 181 68 63 181 207 51 180 179 206 37 179 205 203 178 178 200 198 178 194 192 177 177 184 177 177 7 173 177 177 5 177 177 3 3 177 177 2 175 177 1 1 174 174
98 9 133 135 9 9 140 142 8 145 147 160 8 152 153 171 156 158 179 181 96 162 189 96 96 195 197 97 7 202 98 98 7 207 99 7 7 101 101 7 7 103 7 7 173 172 7 172 172 208 7 171 171 205 96 170 203 202 99 168 199 107 166 74 195 107 107 192 61 107 10 189 107 11 11 53 107 12 12 47 0 13 153 107 0 14 151 0 14 140 149 180 142 147 40 179 144 144 178 22 144 31 177 108 142 27 17 108 27 27 15 109 28 14 14 0 46 13 0 0 118 12 0 72 108 0 0 100 137 0 0 89 50 0 79 76 55 12 67 58 60 13 54 63 14 14 66 67 15 163 70 16 17 10 74 19 19 15 176 21 19 20 11 23 25 8 7 30 31 6 92 35 4 3 97 40 3 102 102 186 2 105 52 2 172 109 59 62 112 177 68 51 115 74 77 52 177 84 53 53 177 94 54 3 177 107 56 5 121 87 182 8 122 62 181 206 122 180 20 206 123 179 205 124 177 178 201 177 190 197 195 177 202 78 177 177 9 79 177 218 6 177 177 4 79 176 177 3 175 75 2 1 175 149 1 174
10 75 75 18 88 75 16 15 86 108 13 86 85 104 11 85 100 99 84 84 97 187 84 94 93 74 84 91 90 74 88 88 74 74 3 73 73 2 2 73 73 1 88 73 1 1 90 72 0 91 92 105 0 94 79 0 8 98 78 77 101 168 76 66 106 74 73 63 164 70 60 59 161 67 56 0 159 186 51 0 129 183 107 0 134 41 107 14 139 107 0 15 142 107 16 144 38 107 18 145 33 20 21 144 30 20 142 142 177 17 141 29 177 109 140 176 15 111 139 176 112 0 176 176 114 79 176 117 118 96 94 121 109 113 138 127 125 128 139 136 139 139 139 148 140 140 176 157 141 142 176 167 143 176 176 177 145 176 185 188 176 176 194 195 176 199 201 179 176 203 181 181 205 206 183 184 163 185 185 167 168 187 187 173 177 188 177 178 177 182 183 177 177 187 189 177 148 193 177 177 128 123 177 112 107 184 177 94 89 183 121 75 181 181 63 64 180 205 48 179 179 204 177 179 202 201 177 178 197 177 177 56 189 177 11 64 134 177 7 170 139 223 4 145 177 3 3 175 232 2 175 175 236 1 174 147
99 10 10 75 17 9 139 75 15 8 147 159 12 85 153 171 8 85 98 181 84 162 95 74 84 93 197 74 84 90 74 99 88 88 73 100 7 73 73 2 7 73 1 1 88 72 1 7 90 0 0 92 172 0 0 95 80 204 98 99 77 199 103 76 75 65 108 73 63 62 71 70 59 58 67 56 55 0 62 51 50 0 131 46 0 0 137 107 0 140 141 0 0 143 41 0 145 145 36 0 146 33 33 22 144 31 30 21 143 30 19 18 141 176 17 0 34 176 16 0 176 15 112 0 176 15 0 85 103 118 0 95 54 123 115 83 60 129 131 140 64 141 60 140 68 152 142 70 176 161 143 74 20 169 145 176 23 15 176 176 187 20 176 176 195 179 176 199 200 181 176 202 182 182 203 203 185 166 167 186 186 171 106 187 175 177 177 188 181 183 177 185 187 177 177 191 192 177 134 129 177 177 113 185 177 99 95 183 177 82 182 182 70 65 181 180 54 180 180 204 41 179 202 202 177 178 198 197 177 194 192 177 177 185 183 177 9 174 177 177 6 163 177 4 4 177 177 3 175 175 2 2 174 174 1 173
20 136 74 18 87 144 99 15 86 74 98 8 85 97 11 8 84 97 8 85 161 97 7 84 94 196 8 168 91 74 170 170 207 73 172 173 210 101 173 212 213 102 174 212 103 103 212 212 104 7 7 105 105 7 94 105 7 7 171 105 7 8 169 8 8 167 167 8 8 165 192 191 164 163 189 106 161 187 186 106 158 184 107 107 182 182 106 106 181 106 106 14 180 106 15 16 149 106 17 18 147 19 20 146 145 23 24 144 177 29 143 143 176 36 142 176 176 142 142 176 111 112 176 176 114 114 175 115 117 92 175 119 121 110 17 125 122 125 17 2 137 141 142 3 148 143 175 156 144 144 176 164 146 176 176 27 147 176 176 19 82 176 189 152 87 32 195 179 176 36 199 182 39 200 38 184 45 199 186 4 50 45 187 175 46 47 3 181 49 49 2 113 177 2 3 115 177 3 117 117 89 4 118 177 101 119 119 110 83 120 120 124 60 181 136 139 64 21 152 67 69 31 168 71 39 42 74 74 50 128 76 57 59 132 77 64 136 137 217 68 142 144 224 148 150 229 230 156 158 234 79 165 236 237 79 177
74 20 89 88 18 17 86 140 15 86 85 104 12 85 85 101 85 85 99 98 84 96 95 74 74 94 92 74 5 91 74 74 3 89 73 2 2 212 73 1 87 73 1 1 88 72 1 89 90 84 0 92 92 83 7 95 82 81 7 98 80 68 101 169 77 66 168 75 195 63 166 71 61 106 0 189 57 0 0 185 106 0 131 183 106 12 136 106 106 13 141 106 14 14 151 106 16 146 149 178 18 148 36 177 22 146 177 25 145 145 176 108 145 176 176 109 143 176 110 111 54 175 112 0 69 114 114 82 109 117 95 99 142 121 112 116 142 124 128 142 143 138 142 144 175 175 145 145 175 175 146 175 175 164 148 176 172 175 176 176 181 183 176 188 189 178 176 193 194 181 161 197 182 183 165 184 185 169 170 186 186 174 176 187 178 180 177 188 183 177 177 158 189 177 177 139 177 177 124 119 177 110 105 184 177 93 88 183 113 77 181 181 127 62 180 203 203 65 179 202 177 179 35 199 177 178 196 126 177 53 189 177 177 61 134 177 9 66 140 177 6 176 147 226 4 175 230 231 79 175 235 2 79 75 238 79
21 137 101 100 10 144 100 100 9 99 99 9 9 98 99 8 155 157 8 8 161 162 8 164 165 196 7 168 202 203 170 171 207 209 173 210 211 101 101 213 213 102 6 213 103 103 7 103 103 7 7 104 104 6 174 105 7 7 173 105 7 171 171 200 7 169 169 196 168 167 193 192 166 191 190 106 164 187 187 106 62 184 106 106 56 183 106 12 12 44 106 13 154 106 0 15 152 106 17 148 150 0 19 148 148 0 147 147 176 0 145 146 176 108 140 39 175 109 42 44 22 111 47 175 112 0 53 20 115 89 58 20 0 106 143 21 1 86 144 2 2 74 145 3 64 61 74 5 51 147 77 43 40 79 175 32 30 82 30 176 84 85 33 24 87 35 36 29 91 38 33 34 42 43 38 39 46 41 42 5 51 44 4 4 107 46 4 4 110 188 4 112 112 4 4 114 79 4 116 116 88 5 118 96 99 54 118 109 57 58 177 123 60 61 177 53 64 24 151 68 68 34 33 71 41 44 24 178 51 129 129 177 59 133 208 177 172 140 217 68 161 177 225 155 154 177 230 149 177 233 2 145 177 1 79 172
112 89 88 110 143 74 107 106 74 100 104 103 74 12 101 74 74 10 99 74 8 8 74 74 6 84 74 5 5 84 84 4 84 84 90 2 85 85 89 7 86 88 88 87 88 87 72 89 86 86 71 0 85 71 71 0 83 70 0 0 203 68 0 0 199 106 0 108 65 106 8 113 106 0 118 119 67 9 124 64 63 9 130 58 52 11 159 53 47 140 156 180 43 155 44 179 106 153 178 36 106 0 177 106 0 22 177 107 0 147 108 108 32 144 108 38 41 145 109 49 52 145 175 63 145 145 175 78 145 175 175 144 144 175 23 145 175 175 126 146 175 131 133 175 175 139 141 154 146 148 161 162 156 159 167 152 166 171 173 154 175 175 157 157 178 178 160 176 180 163 164 176 176 167 176 176 190 172 176 176 185 176 176 179 176 176 169 165 188 177 153 148 188 72 134 187 187 195 115 186 198 198 184 184 200 177 183 201 202 177 181 201 177 177 20 201 177 177 43 122 177 35 33 124 177 26 178 177 20 18 177 200 14 177 177 211 9 176 165 219 78 176 156 154 79 72 149 177 175 74 168 177 75 143 176 177
127 138 140 102 108 145 101 101 9 155 100 9 9 74 100 9 8 74 9 8 160 99 7 84 165 6 8 168 169 204 84 171 208 209 85 173 212 101 85 89 213 102 88 88 72 103 88 213 72 0 86 71 104 0 6 70 0 6 96 69 0 6 172 0 0 104 171 0 108 110 75 0 114 115 71 118 120 67 66 58 127 62 55 54 58 56 51 0 53 48 47 0 47 44 0 0 41 40 0 0 149 0 0 150 150 0 0 149 38 0 148 147 40 34 144 43 44 42 139 47 26 134 51 52 25 25 56 24 25 0 61 24 0 1 174 25 1 1 174 126 2 82 26 133 4 69 139 5 155 55 80 8 47 152 82 168 36 84 175 173 157 87 35 177 160 176 38 163 164 176 41 34 176 176 188 39 176 186 185 186 176 179 44 6 171 168 187 5 157 152 187 190 139 187 187 194 114 186 196 197 177 184 199 177 177 200 200 177 110 201 177 177 61 201 177 177 49 177 177 40 37 178 33 30 178 177 24 22 177 186 17 177 177 177 12 176 169 166 176 176 159 177 176 152 151 177 177 146 177 177 3 143 177 177 2 177
111 74 88 108 74 74 137 105 74 74 145 161 74 13 100 171 74 10 180 74 100 8 84 74 6 8 84 100 5 84 170 100 7 84 91 101 6 174 90 6 6 175 88 72 176 176 214 72 176 213 71 104 176 210 71 0 208 207 105 0 204 203 105 7 200 106 106 7 108 105 7 7 169 106 8 167 167 9 9 165 64 9 164 163 184 10 162 161 182 160 159 180 180 106 179 179 106 106 178 178 106 18 177 106 106 22 176 107 25 26 107 108 31 33 149 37 39 148 148 47 148 148 174 60 148 148 174 147 147 174 174 148 148 174 118 148 174 174 123 126 174 128 130 140 174 135 149 152 141 144 159 161 150 165 166 155 160 171 172 158 19 175 160 161 175 21 164 176 176 15 167 176 184 170 97 176 183 175 176 51 177 103 176 170 45 187 59 156 187 187 65 47 187 192 72 49 186 196 50 50 8 198 52 10 199 117 54 13 200 177 116 18 119 177 54 24 121 145 43 122 122 162 32 125 175 178 73 128 189 75 75 199 202 76 177 64 77 78 67 159 78 78 70 157 78 71 72 166 73 73 172 174 74 75 179 239
103 109 74 103 21 106 74 102 10 74 74 15 9 74 74 12 84 74 10 9 84 96 8 84 84 94 6 84 93 93 84 84 92 210 85 91 90 73 86 90 73 73 89 89 72 72 0 72 72 0 0 71 71 0 93 70 0 0 96 69 0 99 100 105 0 104 80 0 7 109 77 76 113 169 72 62 120 69 68 60 166 64 57 56 164 183 54 0 162 181 50 0 144 48 106 0 148 45 0 16 151 106 0 152 152 106 22 152 41 107 27 151 43 32 35 150 47 32 150 150 174 31 149 55 174 111 149 174 29 113 174 174 116 1 174 174 120 116 174 123 124 132 86 130 142 145 152 137 153 156 153 160 162 155 156 167 157 158 175 173 160 161 175 171 163 175 175 177 167 176 180 180 176 176 180 184 176 179 177 186 176 171 187 187 162 158 187 187 188 187 187 191 192 186 186 194 177 186 196 196 177 198 198 177 177 199 199 177 70 199 177 177 59 56 177 50 47 179 177 39 178 178 165 30 177 177 24 74 177 182 17 177 177 173 177 176 165 163 177 176 156 177 177 70 148 177 4 144 170 177 3 140 177 237 2 181
