P2
256 256
255
30 103 249 57 103 43 59 59 104 42 61 104 105 78 22 106 106 78 249 107 78 78 249 107 78 249 249 78 78 248 74 78 248 248 75 78 248 75 75 110 247 76 76 111 76 76 111 111 76 111 111 77 76 112 112 77 112 112 77 77 239 112 77 236 235 77 77 232 231 77 228 227 76 77 222 76 76 215 213 76 76 205 76 76 111 111 76 76 111 76 76 111 111 76 49 111 76 76 110 110 76 133 110 76 76 123 110 76 117 115 76 76 112 111 76 7 108 76 76 6 29 76 110 104 29 76 110 29 76 59 109 76 76 109 90 75 63 109 75 100 65 94 74 99 67 96 16 99 97 97 24 99 97 32 99 30 76 44 99 76 79 57 30 76 108 30 30 85 108 30 30 88 97 30 91 92 97 30 94 97 97 119 98 96 126 128 96 95 135 92 95 140 142 30 94 147 149 30 152 153 30 30 157 158 29 115 116 29 29 117 89 29 119 120 87 29 121 85 84 76 123 81 80 125 103 77 178 179 74 47 182 28 69 186 188 28 51 192 28 27 53 200 27 131 205 69 27 132 212 27 76 133 35 27 133 97
17 250 57 18 18 29 59 19 29 61 34 20 28 64 105 28 28 37 106 28 28 38 38 28 39 40 37 24 40 37 37 24 41 36 25 25 35 35 25 248 35 25 25 27 35 25 25 27 24 24 27 27 45 27 27 45 45 27 27 45 34 27 46 46 34 27 46 34 34 76 46 34 19 19 111 34 18 18 35 77 17 27 35 16 15 27 77 14 27 27 76 13 27 48 76 162 27 50 41 146 76 50 43 28 51 110 47 76 52 51 53 76 110 57 6 76 110 76 6 110 110 76 5 29 76 76 103 29 76 4 102 76 76 101 30 76 75 100 76 65 100 99 76 109 95 76 76 109 96 76 109 109 71 76 109 109 69 109 109 67 66 108 64 63 99 108 61 60 99 76 56 98 98 76 53 98 76 76 96 96 76 76 95 76 76 107 93 76 107 107 76 76 107 107 39 106 106 38 37 106 106 37 88 106 36 36 87 36 37 87 87 37 38 86 76 76 86 86 76 76 85 76 76 103 83 76 76 103 28 76 102 102 76 128 101 50 76 101 101 52 74 100 54 54 70 99 56 66 66 42 59 63 76 62 217 58
57 250 250 58 59 103 60 60 103 104 63 63 105 78 66 105 105 78 69 106 78 78 38 107 78 250 108 36 78 249 249 78 24 249 75 78 249 249 75 24 248 76 76 24 27 76 111 24 27 76 111 77 76 45 111 77 76 112 34 77 45 112 77 21 46 34 77 238 46 34 19 234 33 34 18 229 76 17 17 26 76 16 215 26 47 14 27 76 48 27 27 48 111 27 27 49 38 27 50 49 41 76 50 42 44 8 51 47 7 7 50 52 6 6 56 6 5 29 64 5 5 29 56 4 29 29 58 4 29 59 60 30 30 61 88 30 63 63 91 30 65 93 94 76 68 95 96 13 108 96 18 20 97 71 28 30 98 37 41 30 67 52 30 30 63 67 30 85 59 99 30 88 89 98 76 92 97 30 76 107 97 76 98 107 96 76 107 96 41 76 107 95 140 90 107 38 147 30 37 37 88 30 37 37 87 76 36 86 86 76 37 85 76 120 85 85 76 122 86 76 76 103 82 76 103 103 43 76 103 103 46 102 102 48 49 101 101 50 75 100 52 53 71 76 54 69 68 76 57 65 76 76 62 61 76 76
16 29 29 17 17 29 32 18 29 28 34 19 28 35 35 251 28 36 37 37 70 38 36 36 38 39 36 22 40 36 35 23 109 35 23 23 109 35 23 28 110 78 23 27 27 78 248 27 44 23 247 76 44 246 27 76 45 245 76 45 112 244 76 45 33 77 76 111 33 19 112 112 77 17 111 111 77 229 111 77 15 222 111 77 215 26 77 77 204 27 48 194 191 76 48 179 76 76 110 162 76 76 110 76 76 110 110 76 76 110 76 76 110 109 76 114 109 76 76 110 109 76 107 106 76 76 105 104 76 103 103 76 76 102 102 76 109 101 76 76 109 76 76 109 109 76 76 109 73 76 108 108 72 76 109 70 70 109 109 68 98 98 66 65 98 98 62 98 98 76 58 98 98 76 97 97 76 76 96 96 76 107 95 76 76 107 43 76 107 107 40 76 107 39 38 108 106 37 37 111 94 37 85 106 92 156 85 76 37 160 84 76 162 84 29 76 165 84 76 104 168 29 76 103 171 28 125 103 28 76 127 74 47 128 102 68 49 129 64 51 188 130 58 53 69 53 51 201 65 46 206 209 27 38 213 214
58 102 251 29 31 103 29 61 33 104 28 34 104 37 28 35 105 78 36 37 36 78 251 36 35 22 251 35 78 22 28 35 22 250 28 34 23 28 76 23 23 27 43 110 27 27 43 111 27 44 44 33 27 44 44 33 45 45 33 33 45 45 33 20 45 33 33 19 26 33 18 17 26 33 17 26 26 16 15 26 26 14 26 26 47 13 26 47 48 208 27 48 48 36 76 48 36 37 76 49 38 8 50 110 41 7 51 43 76 6 110 47 6 28 28 76 5 28 28 76 110 29 56 4 107 29 57 105 29 76 59 103 76 61 109 102 76 63 90 75 76 109 93 6 76 109 74 9 109 108 73 15 108 72 72 98 109 70 98 98 68 67 98 30 76 98 98 76 86 98 98 76 108 98 76 76 108 76 76 107 107 76 76 107 45 44 107 107 41 134 107 40 39 88 107 38 38 86 37 37 85 85 36 84 84 76 36 84 83 76 105 83 76 76 105 83 76 105 104 76 76 103 40 76 103 103 42 76 103 44 45 102 102 47 47 76 49 49 73 73 51 52 70 76 53 67 66 76 200 63 76 76 207 59 76 98
79 251 102 79 79 251 103 79 251 251 64 79 251 28 67 251 251 69 36 251 71 71 106 251 73 73 107 74 74 108 108 75 75 109 78 78 109 109 78 78 110 78 78 249 110 78 249 249 78 78 249 248 77 248 248 76 76 247 247 76 111 246 76 76 111 76 76 111 111 76 76 111 77 76 111 111 77 76 111 77 77 231 111 77 77 224 77 77 217 214 77 208 205 76 76 195 191 76 9 179 76 76 7 162 76 110 110 27 76 110 76 76 52 109 76 76 109 54 76 54 109 76 76 56 67 76 106 106 75 76 104 76 76 3 103 76 3 101 30 76 4 100 76 66 6 30 76 109 9 30 72 108 73 30 75 97 71 77 78 98 69 80 98 98 53 83 98 63 71 98 98 83 97 97 97 97 30 76 107 110 30 97 118 30 30 100 128 30 102 104 30 30 106 106 30 108 109 94 37 111 94 93 151 114 93 93 155 106 92 157 158 90 90 160 29 89 163 163 29 87 165 29 29 124 167 28 126 126 79 28 127 127 28 76 128 71 28 129 129 65 76 130 60 59 76 100 54 195 197 99 47 203 27 98 59 210
30 102 79 251 102 38 79 251 37 79 17 251 36 79 251 28 35 18 251 70 35 20 28 73 107 20 28 39 108 28 28 40 108 28 40 41 33 28 42 110 33 42 42 33 78 43 43 33 21 249 33 33 21 26 33 20 20 26 33 19 26 26 19 18 26 76 18 26 25 45 111 25 45 45 33 25 45 45 33 76 46 33 33 46 46 33 12 47 33 33 10 48 34 10 9 27 35 8 27 27 76 7 27 27 7 161 27 50 6 27 27 52 134 27 52 53 123 76 54 56 58 76 55 64 3 76 109 71 3 58 109 76 3 109 83 76 3 109 76 3 101 30 76 100 30 68 75 98 30 71 98 98 76 74 97 30 76 108 97 76 79 108 76 76 108 98 65 76 108 62 76 108 107 58 92 108 54 53 96 108 50 49 94 47 46 93 92 43 90 89 76 76 88 87 76 107 85 76 76 106 83 76 106 106 76 76 106 35 76 106 106 35 36 105 36 37 80 104 37 37 79 38 38 79 79 40 41 78 76 43 76 76 76 75 74 76 76 102 72 76 101 100 76 76 100 100 76 99 99 56 76 99 57 58 133 98
79 251 251 79 79 251 62 79 251 251 65 79 252 67 68 252 252 70 105 251 72 72 106 106 73 107 107 79 75 108 108 78 108 108 78 78 109 109 78 251 110 78 78 250 33 78 250 250 76 78 249 76 76 20 249 76 76 248 26 76 111 248 76 44 111 25 76 111 111 25 45 111 77 77 45 111 77 240 45 33 77 236 111 33 12 231 33 77 11 26 33 10 217 26 34 8 26 76 110 7 27 76 110 27 27 50 110 27 50 51 42 27 52 109 46 53 53 50 76 3 54 57 3 113 63 65 3 108 71 3 3 29 78 3 29 29 2 3 29 30 3 30 30 67 67 30 30 69 95 30 71 72 96 76 74 97 97 77 77 97 29 80 98 98 45 83 98 59 64 30 98 77 82 30 57 94 30 30 53 95 30 97 117 93 30 100 91 30 76 103 96 30 106 95 95 76 109 95 145 76 106 94 149 114 106 35 153 106 92 35 156 105 35 158 79 29 36 160 29 76 38 78 29 124 78 77 76 126 77 76 76 102 75 76 76 102 73 76 101 101 50 76 101 51 52 100 100 54 190 99 56 56 59 98 58 59
29 38 38 14 31 37 15 15 36 36 16 16 36 17 17 28 28 18 18 28 36 18 28 28 37 252 28 38 38 28 28 39 33 27 40 40 33 33 41 33 33 21 42 32 32 20 110 33 20 20 110 78 20 26 32 19 19 25 77 19 25 25 44 18 25 44 44 246 25 45 32 245 76 45 32 25 76 110 32 76 45 110 32 76 111 33 77 10 110 33 10 224 110 77 8 26 77 77 205 26 76 76 191 76 76 178 174 76 76 160 76 76 109 144 76 109 109 76 76 109 53 76 109 109 76 76 109 109 76 109 109 76 76 105 109 76 104 103 76 76 101 76 76 101 100 76 76 99 76 76 98 98 76 76 97 76 76 108 108 76 108 108 70 76 108 108 66 108 108 64 63 108 108 60 96 107 56 55 95 108 52 94 93 76 47 91 76 76 90 89 76 76 87 76 76 106 84 76 76 107 30 76 106 106 35 115 106 35 35 106 105 35 78 105 35 35 78 104 36 77 78 88 38 77 76 85 163 76 76 76 165 28 76 102 73 28 76 101 28 76 129 101 27 76 101 59 27 132 100 55 132 132 48 57 58 133
79 251 251 37 14 251 63 79 251 251 66 15 252 68 69 104 252 71 105 105 28 72 105 79 28 37 106 79 75 38 33 78 39 108 32 78 40 32 78 20 251 32 20 251 26 32 20 251 76 20 19 25 76 19 19 25 43 18 25 25 44 18 25 44 44 32 25 44 32 77 45 45 32 77 45 32 32 13 45 32 32 12 32 32 11 11 25 10 10 25 26 9 9 26 47 8 26 26 48 7 26 48 49 26 27 50 36 27 50 50 39 40 52 42 43 4 53 46 48 3 109 53 3 3 109 61 2 28 67 76 3 29 77 2 105 29 62 2 29 76 64 101 30 66 67 100 76 69 94 98 76 108 95 76 76 108 96 14 108 108 72 25 108 98 37 96 108 67 55 30 108 63 96 30 59 58 95 76 55 95 94 76 98 93 76 76 107 90 76 104 107 76 76 107 96 76 106 106 37 76 106 106 35 106 106 35 34 77 105 34 76 76 34 35 76 76 35 76 76 76 37 76 76 76 76 76 76 76 74 76 76 103 102 76 76 102 46 76 101 101 48 101 101 50 51 100 100 53 62 100 55 56 59 58 57 56
62 101 37 63 63 102 36 14 102 103 79 15 103 35 79 252 104 79 17 252 79 79 252 28 79 79 252 75 38 252 252 75 39 251 76 76 108 251 76 40 108 76 76 110 32 76 110 110 78 76 110 110 78 250 111 78 77 249 110 77 249 249 77 77 248 76 77 248 248 76 77 246 76 76 246 245 76 76 110 76 76 110 110 76 76 110 77 76 110 110 77 110 110 77 77 109 109 77 217 215 77 76 205 202 76 194 190 76 76 177 76 76 163 159 76 76 146 76 76 109 131 76 76 109 76 76 109 109 77 76 108 77 77 60 108 76 105 108 83 76 102 108 76 2 101 91 76 100 99 76 5 98 76 76 8 30 76 108 14 30 76 108 30 30 82 108 30 76 86 98 65 89 108 62 60 92 97 57 94 95 97 110 93 97 96 122 90 96 128 130 30 96 135 85 30 108 141 30 76 111 30 30 113 106 30 30 115 93 30 117 118 92 29 120 91 91 121 122 90 89 159 88 87 160 160 86 161 161 28 83 163 163 28 43 164 28 28 166 168 28 130 130 27 27 130 62 27 131 131 56 27 132 51 49 76 132
36 13 30 36 35 13 28 35 14 14 28 15 15 28 28 16 16 28 35 17 28 28 36 17 27 37 37 252 27 38 38 33 76 39 32 32 40 108 32 19 40 32 32 19 110 32 19 19 110 32 19 25 110 78 18 24 42 77 250 24 43 17 249 76 43 249 24 44 44 248 76 44 32 246 76 44 32 12 76 110 32 11 110 110 77 10 110 32 77 236 110 77 8 232 109 77 226 26 77 77 217 76 48 208 205 76 50 194 76 76 109 176 76 76 109 76 76 109 109 76 76 109 77 76 109 109 77 117 109 77 77 111 109 77 108 107 76 76 104 104 76 102 102 76 76 100 76 76 108 99 76 76 108 76 76 108 108 76 76 108 73 76 108 108 70 76 108 68 67 108 107 65 95 95 61 60 94 94 57 94 93 76 52 92 91 76 123 89 76 76 87 30 76 107 83 76 76 106 37 76 106 106 36 76 106 35 34 116 106 34 34 118 92 34 73 105 91 156 74 76 35 74 74 76 159 73 76 76 161 72 76 103 162 28 76 103 28 28 129 102 28 76 130 67 50 131 100 60 53 132 55 54 186 132 49 57
63 101 101 79 65 102 79 79 102 102 79 79 102 79 79 252 103 79 252 252 73 79 252 252 74 252 252 75 75 252 252 76 107 252 76 76 108 252 76 108 108 76 76 109 78 78 110 110 78 78 110 78 78 251 110 78 78 250 32 77 250 250 77 16 249 76 77 249 249 76 110 248 76 76 111 246 76 110 110 23 76 110 110 76 45 110 77 76 110 32 77 236 109 77 77 231 32 77 226 224 33 77 217 76 34 5 204 76 4 4 26 76 3 175 27 52 109 27 76 54 109 28 55 109 52 28 56 109 77 58 58 67 77 60 73 75 2 62 80 81 2 29 86 2 2 29 90 3 30 76 4 4 30 73 5 30 30 76 10 30 79 80 97 30 82 83 97 85 86 98 98 88 89 97 74 92 97 97 93 107 97 106 110 97 97 119 30 30 127 128 30 30 134 30 30 108 140 30 110 111 77 30 113 114 74 76 116 93 30 76 118 93 153 119 105 91 155 122 90 35 157 104 89 158 73 104 38 159 28 103 40 71 28 128 42 69 28 129 68 67 76 130 65 76 130 101 62 76 131 58 76 76 99 51 76 76
101 28 28 30 101 28 31 31 34 27 32 32 33 14 33 33 79 15 34 33 16 252 33 33 17 27 32 17 18 27 32 18 27 26 38 18 26 25 39 25 25 40 40 25 25 40 31 24 41 41 31 76 41 31 31 42 42 31 17 16 31 31 16 16 31 15 15 23 31 14 23 23 77 13 23 23 77 246 23 44 11 245 23 44 32 23 76 45 32 23 45 109 32 76 46 32 6 76 109 33 6 76 109 77 5 26 109 77 4 26 77 3 188 26 77 174 27 76 77 155 28 54 142 138 76 56 128 125 76 109 63 76 76 109 70 76 108 108 77 76 108 77 77 108 108 76 2 108 76 76 99 108 76 76 97 76 75 96 96 76 95 95 76 76 95 94 76 108 94 76 76 107 93 76 107 107 61 76 107 107 57 107 107 53 51 107 49 48 87 107 45 43 84 42 41 80 79 39 38 76 76 76 74 73 76 106 71 76 76 106 71 76 105 105 76 76 105 105 76 105 105 35 76 105 104 36 72 104 38 39 71 84 40 70 69 79 43 68 76 45 164 66 76 48 64 27 76 100 60 76 100 100 27 76 99 99
64 100 101 27 66 101 101 27 31 102 79 79 32 33 79 252 103 33 79 252 33 79 16 252 32 79 252 27 32 17 252 76 32 18 26 76 108 18 25 39 108 25 25 40 109 24 40 40 31 24 41 110 78 41 41 31 78 41 31 31 16 250 31 31 15 22 31 14 14 22 31 13 22 22 12 12 22 76 11 22 22 44 109 22 44 44 32 23 45 45 32 45 45 32 32 46 46 32 6 47 33 33 5 109 33 4 4 26 34 4 26 26 77 3 26 26 2 172 27 53 2 27 76 55 141 28 56 57 127 76 58 62 65 76 61 70 2 76 108 78 2 65 108 77 2 108 88 2 101 108 76 3 30 30 76 97 30 76 75 96 30 80 95 94 76 83 94 76 76 108 93 76 89 107 76 76 107 97 60 76 107 56 105 107 107 51 119 107 48 47 85 107 43 82 80 41 40 77 76 38 74 73 76 76 71 71 76 106 69 76 76 106 76 76 105 105 76 76 105 34 76 105 104 35 36 104 36 37 70 104 39 39 70 40 41 68 68 43 67 66 76 46 64 64 76 62 62 76 76 101 59 76 100 99 76 76
80 252 27 29 30 252 27 31 33 252 69 32 33 27 33 102 32 72 33 32 79 74 104 32 16 16 105 79 17 26 106 79 17 26 79 79 252 25 78 18 252 76 78 252 24 76 251 251 76 40 109 251 76 109 31 76 76 110 31 76 110 110 77 76 110 77 77 110 110 77 77 110 77 77 248 21 77 77 248 76 77 246 246 76 245 245 76 76 244 243 76 109 241 76 76 109 109 76 109 109 77 76 109 109 77 109 109 77 77 109 77 77 202 109 77 77 185 77 77 171 166 76 77 152 76 76 139 136 76 108 126 76 76 109 116 76 108 108 29 76 108 108 76 66 108 77 77 108 108 77 100 107 76 76 98 93 76 97 96 95 75 95 76 73 15 94 76 76 93 30 76 108 93 76 91 107 30 76 107 107 30 97 107 55 30 100 107 50 103 103 96 45 82 106 96 137 78 96 39 142 30 95 145 70 30 94 148 30 76 150 150 30 76 152 29 29 121 105 29 123 123 90 29 124 125 88 126 126 86 37 127 127 84 158 128 81 80 160 66 77 161 162 28 71 164 27 27 167 169 27 27 174 27 27 132 181
27 28 100 34 27 30 34 80 31 31 32 13 32 32 32 14 33 32 15 15 32 32 15 16 32 16 16 26 76 17 17 26 37 17 25 25 38 252 24 39 39 24 24 39 31 23 40 40 31 31 40 31 31 17 41 31 16 16 110 31 15 15 31 77 15 21 31 14 14 21 77 13 21 21 42 12 21 43 43 248 21 43 31 246 76 44 31 21 76 109 32 76 45 109 32 76 109 31 77 5 109 77 4 230 109 77 4 25 77 77 214 25 77 77 201 76 77 188 184 76 77 169 76 54 108 150 76 108 52 76 76 108 60 76 108 108 77 76 108 108 77 108 108 77 77 104 77 77 102 101 77 76 100 76 76 98 97 76 75 96 76 76 95 94 76 76 93 76 76 107 108 76 108 108 66 76 107 107 62 107 107 59 57 107 107 53 88 107 50 48 84 96 45 81 79 76 41 76 76 76 72 71 76 76 68 76 76 106 66 76 76 106 30 76 106 106 33 121 105 33 33 105 105 34 69 104 35 36 69 104 37 69 69 84 40 68 76 80 159 66 76 76 161 27 76 101 61 27 76 101 27 76 132 100 27 76
28 251 252 67 30 252 68 69 101 252 69 70 101 71 71 102 102 79 103 103 79 79 104 104 79 252 105 79 79 252 106 79 252 252 79 79 252 252 79 252 252 76 76 252 77 76 108 251 76 76 109 76 76 109 109 76 76 109 78 76 110 110 77 251 109 77 77 250 109 77 249 249 77 77 249 249 77 248 248 76 77 248 247 76 9 246 76 76 109 21 76 109 109 76 76 109 77 76 108 108 77 76 109 77 77 47 109 77 224 49 33 77 214 210 35 2 199 76 77 2 182 76 2 168 27 76 1 149 76 108 1 28 76 108 29 29 61 108 77 76 63 76 77 66 108 82 77 69 86 77 1 71 90 2 99 92 92 4 97 76 5 7 30 76 10 12 30 85 20 30 30 88 37 30 91 92 30 30 94 97 30 97 98 97 56 100 97 96 120 104 96 96 130 96 96 136 137 96 140 141 30 95 144 145 30 35 147 30 30 118 150 30 119 120 65 29 121 122 29 76 123 91 29 124 89 89 76 126 87 87 156 104 85 157 158 103 82 158 28 79 44 160 28 46 162 62 27 49 165 27 76 52 57 27 131 132
27 67 28 252 27 30 100 252 70 31 33 252 71 102 32 72 73 103 32 14 103 31 79 15 104 79 16 252 105 79 16 25 79 79 252 24 79 79 252 77 38 252 252 77 39 252 76 76 108 251 76 108 109 76 76 109 31 76 109 109 77 76 110 109 77 251 109 77 77 250 77 77 249 249 77 77 249 76 77 248 248 76 77 248 76 76 246 246 76 76 109 76 76 109 109 76 108 108 77 76 108 109 77 109 109 77 77 109 109 77 223 221 77 77 212 76 77 202 198 76 77 185 76 76 171 166 76 76 152 76 76 108 134 76 76 108 77 76 108 108 77 64 108 77 77 67 107 77 104 108 87 77 101 107 77 3 99 92 76 96 30 76 7 95 76 76 12 30 76 107 24 30 76 107 30 76 93 107 30 76 107 97 60 98 107 56 111 102 96 51 82 105 96 131 78 96 96 138 72 95 142 143 30 95 146 30 30 117 148 30 76 119 30 30 120 105 29 29 122 92 29 124 124 90 29 125 89 88 126 126 87 156 156 85 84 157 157 82 158 158 28 77 159 160 27 47 162 27 27 165 59 27 131 170 27 27
80 251 252 68 80 252 252 70 100 252 71 71 101 26 72 102 102 26 74 102 79 75 34 103 79 76 104 79 79 36 105 79 252 252 31 79 252 252 31 17 252 76 78 17 252 77 17 252 21 77 17 251 76 40 108 19 76 109 31 19 40 109 77 18 41 31 77 41 41 31 77 41 31 31 11 42 31 11 10 18 31 9 248 19 9 8 19 76 7 7 20 44 6 21 21 45 5 21 45 46 22 22 46 31 31 47 47 32 77 49 33 32 3 50 33 34 2 108 36 2 2 38 2 2 27 27 1 1 27 57 1 27 27 59 1 28 61 61 121 29 64 64 29 76 66 79 29 68 107 84 1 71 87 88 2 107 91 3 3 107 93 5 30 107 75 8 30 74 73 92 30 72 28 91 76 91 90 30 76 95 89 76 98 107 87 76 101 96 76 76 107 96 76 107 107 44 136 107 96 41 69 106 38 144 65 106 35 62 30 34 33 62 76 32 62 63 76 32 65 76 76 105 67 76 76 105 76 76 104 104 76 76 103 37 76 103 103 40 103 103 42 43 102 102 45 63 63 48 49 60 59 51 57 57 76 54
11 26 33 12 12 26 32 11 26 26 80 12 26 26 13 252 25 33 14 25 75 33 31 25 34 34 31 76 35 31 31 77 36 31 16 77 106 31 17 107 107 78 17 107 30 78 252 20 78 16 251 19 78 251 19 39 78 251 18 40 251 251 76 40 251 76 76 109 31 76 41 109 77 76 109 31 77 76 109 77 10 109 109 77 248 109 77 77 247 109 77 246 245 76 77 244 244 76 242 242 76 76 239 239 76 108 235 76 76 108 76 76 108 108 76 76 108 77 77 108 108 77 77 108 77 77 177 108 77 162 158 77 77 143 139 77 131 128 76 76 119 117 76 108 111 76 76 107 106 76 107 107 76 76 107 77 76 107 107 77 76 107 76 76 95 107 75 74 92 95 73 91 91 71 33 90 76 68 89 88 76 76 87 76 76 100 85 76 107 107 30 76 107 107 30 108 107 43 76 111 95 40 113 106 37 36 116 94 35 60 60 93 33 61 76 92 151 63 76 152 152 29 76 153 68 29 126 154 28 76 127 155 28 128 104 84 28 128 103 41 129 130 78 44 130 74 72 160 131 67 66 164 62 61 167 169
69 11 251 70 70 11 26 71 100 12 25 31 100 25 25 32 101 25 33 33 31 24 34 103 31 15 34 31 79 16 35 31 16 252 31 31 16 21 31 16 16 20 30 17 20 19 38 16 19 19 39 18 18 38 39 18 39 39 31 17 40 40 30 76 40 30 30 40 40 30 12 12 31 31 11 11 30 10 10 16 30 9 17 17 77 8 17 17 77 247 18 43 6 245 19 44 31 20 45 45 31 76 46 31 31 76 47 31 3 76 108 32 2 49 108 77 2 24 34 77 209 26 77 1 194 26 77 179 27 76 77 160 27 59 146 142 76 61 130 127 76 108 70 76 76 108 77 76 107 107 78 76 107 77 77 107 107 77 2 107 77 77 96 107 76 94 94 76 75 92 92 76 91 90 76 76 89 88 76 107 87 76 76 107 85 76 107 107 56 76 107 52 50 107 106 46 45 107 43 42 67 107 39 39 62 37 36 60 60 34 58 59 76 76 60 61 76 105 63 76 76 105 67 76 105 105 76 76 104 104 76 104 104 36 76 104 38 39 71 103 41 42 69 77 44 66 65 72 48 62 76 50 60 58 76 167
80 70 98 80 80 99 99 80 11 100 80 80 252 25 80 252 252 74 80 252 252 75 252 252 76 76 252 252 77 104 252 77 77 105 77 77 105 105 79 77 106 78 78 107 107 78 78 107 78 78 251 108 78 78 251 78 78 251 251 76 251 251 76 76 251 251 76 109 251 76 76 108 250 76 109 109 76 76 108 77 76 109 109 77 77 108 77 77 248 108 77 77 246 30 77 245 245 31 77 244 76 77 4 241 76 3 238 76 76 108 234 76 108 108 23 76 108 108 25 51 107 77 76 53 37 77 55 107 42 77 172 46 77 1 153 53 77 139 28 61 1 125 76 69 1 29 76 1 1 30 70 1 30 30 73 107 30 76 77 89 30 79 107 92 82 82 93 76 85 94 94 14 89 95 95 28 95 95 44 50 31 96 71 31 31 91 97 30 76 112 30 30 106 126 30 108 109 71 30 111 112 95 113 114 95 95 116 116 94 147 118 94 93 149 106 93 150 150 106 91 151 29 91 32 153 29 29 153 72 28 127 154 28 28 128 74 28 129 129 72 76 129 79 69 76 130 74 76 76 101 68 161 131 101 52 165
32 11 11 25 32 11 25 25 80 11 24 24 80 252 24 31 31 252 24 32 31 23 76 33 31 76 34 103 31 77 35 31 79 77 105 31 16 16 105 79 16 19 106 78 16 18 78 78 252 17 78 251 251 76 78 251 15 76 251 251 76 39 108 251 76 108 30 76 76 108 77 76 108 109 77 76 108 77 77 108 108 77 9 109 77 77 248 15 77 77 247 76 77 246 246 76 245 245 76 76 244 243 76 108 241 76 76 108 108 76 108 108 77 76 108 77 77 107 107 77 77 107 77 77 205 107 77 77 189 77 77 175 170 76 77 155 76 76 142 137 76 107 126 76 76 108 115 76 107 107 76 76 107 107 76 107 107 78 78 107 77 77 97 107 77 77 94 92 76 93 92 94 74 90 76 72 28 88 76 76 86 31 76 107 84 76 101 107 30 76 107 107 30 107 107 49 30 110 106 44 112 113 95 40 60 95 94 146 57 94 35 148 30 93 149 58 76 92 151 29 76 151 152 29 76 153 29 29 126 104 28 127 127 87 28 128 104 84 129 129 82 41 129 130 78 157 130 74 72 159 27 67 161 161 27 61
81 97 97 81 80 251 99 80 251 251 80 80 252 74 80 252 252 75 80 252 76 76 252 252 77 77 252 77 77 103 104 77 104 104 79 77 105 105 79 36 106 79 78 37 106 78 252 107 30 78 251 251 78 16 251 76 78 251 14 76 14 251 76 76 14 13 76 108 13 13 76 108 13 13 40 109 77 40 40 30 77 40 108 77 8 41 30 77 248 42 30 6 247 30 30 5 246 30 5 4 18 76 4 18 19 46 3 20 76 47 20 21 48 107 22 22 50 31 23 51 51 33 1 52 35 36 1 55 39 1 1 43 44 1 1 49 1 1 28 57 1 1 28 78 1 29 29 68 114 29 70 70 30 30 73 83 30 76 76 87 30 79 89 90 76 83 91 5 76 107 93 10 12 107 74 20 31 95 33 39 31 68 58 31 31 64 87 31 102 59 78 30 106 96 73 76 109 95 30 76 106 95 76 114 106 95 76 107 94 36 76 106 34 149 106 106 32 150 29 31 31 65 29 32 32 71 76 32 75 76 76 34 77 76 76 78 78 76 103 77 76 76 103 80 76 102 102 45 76 102 102 49 101 101 51 52
97 81 11 251 72 81 251 23 73 80 251 74 30 251 251 75 31 252 76 76 101 252 76 102 102 77 77 103 103 79 103 103 79 79 104 104 79 252 105 79 79 252 106 78 252 252 78 78 251 77 78 251 251 76 76 251 76 76 107 251 76 76 108 76 76 108 108 76 108 108 77 76 108 108 77 250 108 77 77 249 108 77 249 249 77 77 248 248 77 248 248 76 77 247 76 76 5 246 76 76 108 17 76 108 108 76 76 108 77 76 108 107 77 48 107 77 77 50 107 77 225 51 32 77 215 212 77 1 202 76 77 189 185 76 1 170 76 76 1 28 76 107 1 28 76 107 28 29 68 107 78 76 71 78 78 74 107 83 2 77 86 78 2 81 89 3 96 91 91 6 92 76 10 12 31 76 20 24 31 95 39 31 31 99 31 31 101 102 31 31 104 95 30 107 107 95 50 110 95 95 137 113 95 141 142 95 94 145 146 94 147 147 30 93 149 149 30 32 150 29 29 124 151 29 125 125 29 29 126 89 28 127 127 88 28 128 86 85 76 129 83 82 155 103 79 155 156 102 45 157 27 70 49 159 27 51
81 72 27 31 81 28 98 31 11 29 31 80 11 30 30 12 251 22 30 13 252 76 13 14 20 77 14 20 19 33 15 18 18 34 17 17 35 35 16 16 36 30 30 36 36 30 78 36 30 30 16 37 30 16 15 30 30 15 15 30 15 14 11 30 14 13 11 38 13 10 10 39 250 10 39 39 249 11 39 29 11 40 40 29 11 40 28 29 7 41 29 29 6 107 28 5 5 108 77 4 15 28 77 3 17 77 3 242 18 77 2 19 76 48 236 20 49 107 231 76 50 31 224 76 107 33 76 76 107 37 76 107 107 77 76 107 78 78 162 107 78 1 28 78 78 130 28 78 78 118 76 78 112 110 76 78 106 76 76 107 102 76 107 107 76 76 107 89 76 107 107 76 76 107 107 74 107 107 73 72 107 70 69 83 82 66 65 80 76 61 77 75 76 56 71 76 76 67 66 76 76 61 76 76 106 56 76 106 106 37 76 106 106 34 106 106 33 32 105 105 32 64 105 31 31 72 91 32 77 79 33 33 82 76 76 84 84 76 76 84 76 76 103 80 76 76 102 27 76 102 102 27 131 101 50 51
73 26 251 73 73 97 251 73 28 30 80 75 99 30 12 100 99 80 13 100 101 80 252 102 80 80 252 102 79 252 252 77 79 252 77 77 252 252 77 35 252 77 77 105 252 77 77 106 77 77 106 106 77 77 106 78 78 107 107 78 251 107 78 77 251 108 77 251 250 77 77 250 250 77 250 249 76 77 249 76 76 108 249 76 76 108 76 76 108 107 76 76 107 77 76 107 108 77 76 107 77 77 245 107 77 243 243 77 77 241 241 77 239 238 76 77 235 234 76 1 229 76 76 1 23 76 107 107 24 76 107 77 76 57 107 78 76 107 48 78 62 107 78 1 65 61 78 129 68 68 0 117 76 74 1 109 76 1 1 30 76 2 101 76 82 3 31 76 107 31 31 87 107 76 31 91 93 74 94 95 94 71 97 94 94 61 101 95 83 91 95 95 109 72 95 122 126 30 76 133 136 30 113 140 30 30 116 144 30 117 118 30 30 119 93 30 121 122 92 29 123 92 91 151 125 91 91 152 105 90 153 153 89 34 154 28 87 154 154 28 38 154 28 28 41 155 27 130 130 78 27 131 131 27 76 131
31 26 26 30 30 27 31 30 11 11 30 30 11 20 30 12 12 20 30 13 19 19 80 13 18 32 14 252 17 33 14 16 78 33 29 15 34 34 29 77 35 30 30 77 35 30 16 77 106 29 16 106 29 78 15 106 29 15 251 9 78 14 9 9 77 251 9 38 77 250 76 38 250 250 76 38 249 76 76 108 28 76 39 107 77 76 107 28 77 76 107 77 6 107 107 77 246 107 77 77 245 107 77 244 244 76 77 243 242 76 241 241 76 76 238 76 76 107 234 76 76 107 76 76 107 107 76 76 107 77 77 107 107 78 78 107 78 78 176 107 78 162 156 78 78 142 138 78 130 126 76 76 117 115 76 107 110 76 76 107 76 76 107 107 76 76 107 78 76 107 107 77 76 106 76 76 88 107 74 74 85 93 71 82 81 69 62 78 76 64 75 74 76 110 70 76 76 127 64 76 107 107 30 76 106 43 76 117 106 38 76 106 94 35 120 106 33 33 122 92 32 63 66 91 31 73 76 91 152 82 76 153 153 28 76 153 91 28 128 154 28 76 129 155 28 130 103 78 27 131 74 46 131 131 68 50
75 96 96 75 75 97 97 74 97 98 81 75 98 81 80 99 99 80 80 100 80 80 252 252 80 80 252 78 80 252 252 78 252 252 78 77 252 252 77 104 252 77 77 104 251 77 105 105 78 77 105 105 78 36 106 78 78 106 78 78 251 106 78 78 251 29 77 250 250 28 77 250 76 76 11 249 76 107 249 8 76 107 249 76 39 107 8 76 107 107 9 40 107 77 77 41 107 77 246 42 26 77 245 26 26 3 244 25 77 2 15 26 2 239 17 26 1 18 76 49 1 20 50 107 22 22 53 107 23 54 55 34 24 56 107 39 59 59 43 78 61 62 50 0 153 56 57 0 29 63 0 0 29 70 1 29 29 1 1 30 30 2 30 30 81 82 30 84 84 87 31 88 88 89 76 91 91 91 94 94 92 24 97 93 93 47 101 94 71 78 31 94 100 31 31 57 120 30 30 51 60 30 113 139 54 30 116 51 30 76 118 49 76 119 106 93 76 122 92 149 76 105 92 150 76 105 31 152 105 90 32 152 104 33 153 93 28 35 95 28 76 37 94 28 130 91 90 76 130 86 84 76 102 79 76 76
29 75 75 96 29 75 75 96 81 75 98 98 81 76 98 81 80 99 99 80 252 100 80 80 252 15 80 252 252 78 79 252 252 78 252 252 77 78 252 77 77 104 251 77 77 104 77 77 105 105 78 77 105 78 78 106 106 78 78 106 78 78 251 106 78 250 250 77 77 250 250 76 250 249 76 76 249 249 76 107 249 76 76 107 7 76 107 107 76 76 107 77 76 107 107 77 77 107 77 77 246 107 77 77 245 25 77 244 243 77 2 241 76 77 239 239 76 1 236 76 76 107 232 76 107 107 21 76 107 78 23 55 107 78 76 58 38 78 59 107 44 78 171 50 79 0 150 57 79 136 29 64 1 122 76 1 1 29 76 1 1 30 79 2 30 30 83 107 30 86 107 87 31 89 89 77 92 93 91 75 96 92 92 29 99 93 93 56 93 94 79 87 31 94 107 31 31 121 125 30 112 134 30 30 115 141 30 116 117 30 30 119 119 94 120 121 93 93 122 92 92 150 123 91 91 151 105 91 152 152 105 90 152 28 89 33 153 28 28 154 99 28 129 154 28 76 130 94 27 130 130 87 76 131 70 81
76 94 10 19 76 96 250 18 27 97 18 76 29 98 81 29 98 29 80 30 99 80 13 31 29 80 252 29 29 14 252 29 29 15 12 29 15 251 11 78 16 10 78 34 16 9 34 104 8 8 35 105 7 35 35 29 7 35 35 28 35 36 27 27 14 36 27 13 13 27 27 12 6 27 11 11 6 27 10 6 6 9 9 6 6 39 6 6 39 39 7 40 40 25 8 40 41 25 76 41 24 24 76 43 24 3 43 107 23 2 2 23 77 2 15 23 1 238 17 77 1 18 19 78 231 20 52 78 225 22 54 218 23 76 57 34 76 59 107 40 76 61 45 79 76 107 52 0 76 106 79 0 106 106 79 1 29 79 79 111 29 79 106 105 76 79 101 30 76 97 96 76 88 93 92 76 106 88 76 76 106 75 76 107 107 72 76 107 69 68 106 106 65 63 107 60 59 62 106 54 53 56 50 49 52 51 76 49 48 76 76 47 47 76 106 49 76 76 106 56 76 106 106 76 76 106 31 31 105 105 32 32 104 32 32 100 104 34 35 103 36 36 104 103 39 39 100 76 42 96 94 76 102 89 76 76
82 10 18 82 11 250 18 27 251 17 77 28 251 17 29 98 251 78 30 29 252 78 100 29 79 79 100 29 14 101 101 80 15 102 79 79 251 102 79 16 251 79 79 251 8 79 79 251 77 78 251 251 77 105 251 77 77 105 251 77 106 105 76 76 106 27 76 106 106 78 76 106 106 77 106 106 77 77 249 77 77 249 249 77 77 248 76 77 248 248 76 77 247 76 76 246 246 76 106 107 76 76 106 106 76 106 107 77 76 107 107 77 107 106 77 77 106 106 78 237 106 78 78 234 76 78 229 228 76 78 223 76 76 1 213 76 76 204 76 76 107 188 76 107 107 27 76 106 106 79 68 106 79 80 72 106 79 118 107 71 80 109 107 80 2 103 78 80 100 30 76 3 95 76 76 6 31 76 106 10 31 76 106 31 31 100 107 31 102 103 93 31 105 106 93 104 108 94 58 124 111 94 133 52 94 94 141 48 94 144 145 30 94 146 30 30 148 148 30 76 123 30 29 124 105 29 29 126 90 29 126 126 90 127 128 89 88 128 128 87 153 153 85 84 154 154 82 154 155 27 78 155 155 27 47 156
17 25 10 17 17 26 29 16 27 27 28 16 28 28 28 29 29 28 81 30 29 29 13 31 28 13 14 100 28 14 14 10 15 15 9 9 15 15 8 33 16 8 7 34 16 7 34 34 251 6 34 27 6 77 34 27 27 35 105 27 15 35 27 27 14 106 26 14 13 106 78 12 4 106 78 11 4 37 78 249 4 37 9 248 76 37 248 5 76 39 248 76 39 106 247 76 106 22 76 76 107 21 3 106 106 77 3 106 20 78 242 107 78 2 241 78 78 239 15 78 78 236 76 78 234 232 76 51 228 76 76 107 221 76 76 107 76 76 107 107 76 107 107 79 76 107 107 79 160 106 79 80 141 106 80 128 125 80 80 116 76 80 109 108 76 80 103 76 76 99 98 76 76 106 76 76 107 107 76 106 106 77 76 106 106 74 107 107 72 71 107 107 68 67 106 64 62 60 59 58 56 54 76 52 50 76 76 141 46 76 76 45 30 76 106 47 76 76 106 34 76 106 106 33 124 105 32 32 126 105 31 96 127 90 32 107 105 88 153 112 87 35 153 113 76 154 111 76 76 154 27 76 102 155 27 76
82 248 249 78 82 249 250 77 250 251 78 78 251 78 79 97 251 78 79 98 81 79 99 99 80 79 99 80 80 100 100 80 251 101 80 79 251 102 79 251 251 79 79 251 251 78 251 251 77 77 251 251 77 104 251 77 77 104 77 77 105 105 77 77 105 78 78 106 106 78 78 105 78 78 249 106 78 249 249 24 78 248 248 78 9 248 76 78 248 248 76 106 247 76 76 106 246 76 106 106 7 76 106 78 8 42 106 78 76 43 18 78 44 106 78 78 240 18 78 238 238 18 1 235 76 20 1 231 76 0 1 20 76 1 219 22 57 0 23 76 59 36 25 62 107 42 27 65 47 80 68 68 54 80 71 59 60 1 74 65 66 1 30 71 2 2 30 2 2 30 30 3 3 30 89 4 31 31 93 7 31 96 97 31 31 99 90 90 102 103 91 92 105 92 92 93 108 93 93 118 107 93 129 132 106 93 138 30 94 143 143 30 119 146 30 30 121 148 30 122 122 58 30 124 124 73 76 125 91 29 76 105 90 152 127 105 89 153 105 87 34 153 104 85 153 117 104 40 154 27 103 43 108 27 46 47
15 25 82 249 14 26 82 250 78 27 250 13 79 28 251 79 29 98 251 80 98 27 81 79 99 28 13 99 100 80 14 100 100 80 251 101 80 79 251 79 79 251 251 79 79 251 78 78 251 251 77 34 251 77 77 104 251 77 77 104 77 77 105 105 77 105 105 78 78 105 105 78 249 105 78 78 249 105 78 248 248 78 78 248 76 78 248 248 76 78 247 76 76 105 246 76 76 106 76 76 106 106 76 76 106 78 76 106 106 78 43 106 78 78 241 106 78 240 239 78 78 238 236 78 235 234 76 79 231 76 76 1 225 76 76 1 22 76 106 106 23 76 106 79 76 63 106 80 76 106 80 80 69 106 80 138 72 59 81 123 106 65 1 112 76 81 2 104 76 2 100 30 76 3 30 76 91 5 31 76 107 31 31 97 106 76 31 101 89 73 104 104 91 69 107 92 92 102 110 93 119 123 93 93 133 47 93 140 141 30 76 144 145 30 120 147 30 30 122 30 30 123 124 30 29 125 91 29 125 126 90 29 127 89 89 152 128 88 88 153 104 87 153 154 85 154 154 28 82 154 154 27 44 154 27 27
83 248 248 27 82 249 249 27 11 250 79 79 11 250 79 96 250 80 80 97 251 80 98 98 9 80 99 80 8 31 100 80 80 31 27 80 251 101 27 79 251 27 79 16 251 27 16 251 4 26 16 251 78 16 16 3 77 104 16 3 34 104 3 3 34 105 3 35 35 24 2 35 23 23 35 35 22 78 36 22 21 10 248 21 20 9 3 20 8 7 4 7 6 4 4 6 5 5 39 5 5 5 40 4 6 41 41 15 7 43 43 15 43 44 15 15 45 15 15 1 47 15 15 1 106 16 1 0 16 18 1 18 19 79 1 21 56 0 215 22 59 0 24 76 62 192 26 65 65 174 76 68 48 49 76 71 54 1 76 106 60 1 106 106 81 2 106 70 81 103 107 81 3 30 106 80 93 30 93 79 87 76 97 83 81 76 100 76 76 76 106 69 76 106 107 76 76 107 92 63 76 106 58 128 106 106 52 44 107 48 46 42 106 43 42 43 40 39 47 49 36 55 59 76 76 72 76 76 105 91 76 76 105 76 76 105 104 76 76 104 34 76 104 104 36 76 104 38 39 124 103 42 119 118 45 46
246 80 83 248 248 80 249 249 80 80 250 250 80 96 96 80 80 97 81 80 97 97 81 81 98 81 81 99 99 80 80 100 80 80 251 251 80 251 251 79 80 251 251 79 251 251 79 79 251 251 78 103 251 78 78 103 250 78 103 104 79 77 104 78 78 104 104 78 78 104 78 78 249 105 78 78 248 21 78 248 248 20 10 248 76 76 8 247 76 105 246 3 76 105 246 76 38 105 4 76 105 106 5 40 106 78 79 41 14 79 242 43 13 79 241 13 13 1 239 13 79 1 12 14 1 235 76 0 0 16 76 106 1 18 54 106 20 21 57 106 22 60 60 31 24 62 106 37 65 66 42 81 69 46 48 1 145 53 54 1 29 59 1 1 29 65 1 30 30 1 2 30 87 3 30 30 91 92 30 93 95 82 31 97 98 85 76 101 87 88 104 104 89 55 107 90 91 89 107 92 111 117 31 92 129 30 30 52 139 30 30 46 41 30 120 146 43 76 122 48 30 123 123 62 76 125 91 91 76 126 90 151 76 105 89 152 128 104 33 153 104 87 34 131 104 37 154 130 28 40 128 27 76 44 122 27
25 11 247 81 26 11 11 80 11 11 10 80 11 9 9 28 12 9 81 29 8 8 29 97 7 30 30 26 81 30 30 26 15 31 26 26 15 32 26 16 16 26 25 16 3 25 17 17 3 3 16 3 2 33 17 2 2 33 250 2 33 34 2 2 34 23 2 34 34 22 77 34 21 20 13 35 20 11 11 105 19 10 10 18 78 9 2 17 8 246 3 79 7 3 3 79 245 3 38 39 245 4 39 13 244 76 40 13 5 76 105 12 76 43 106 79 76 106 12 79 1 105 79 1 236 106 79 0 14 80 80 231 17 80 226 225 76 80 220 218 76 213 211 76 76 106 197 76 106 37 76 76 106 43 76 106 106 81 76 106 82 81 106 106 82 82 106 82 82 107 105 82 82 100 76 81 95 94 76 90 89 76 76 84 82 76 106 76 76 76 106 106 76 106 106 71 76 107 107 66 107 106 62 60 106 57 56 42 106 51 49 40 93 45 40 41 76 41 45 76 76 53 56 76 106 70 76 76 106 91 76 105 105 29 76 105 105 76 128 105 33 34 105 104 36 135 104 38 38 134 81 41 131 129 77 45
83 82 90 83 81 92 92 83 81 94 83 82 95 95 82 82 250 82 82 250 250 81 81 251 81 81 251 251 81 251 251 81 81 251 251 81 100 251 80 80 100 100 79 101 101 80 79 102 79 79 102 102 79 79 103 79 79 250 103 79 79 249 78 79 249 249 77 79 249 77 77 249 249 76 104 248 76 76 104 248 76 104 104 1 76 105 105 79 36 104 79 79 105 14 79 245 104 79 79 245 12 79 244 244 12 79 243 76 11 3 242 76 76 2 6 76 106 240 8 45 105 9 76 47 105 11 48 106 13 13 51 106 80 1 53 18 80 224 21 22 0 216 25 27 0 23 31 0 0 25 36 0 26 26 1 1 28 72 106 28 28 76 106 29 79 80 60 29 83 84 65 85 87 69 70 89 90 74 4 93 77 78 6 31 81 10 12 31 84 20 31 31 35 41 31 31 66 31 31 110 100 31 113 113 91 31 115 116 92 76 118 93 93 76 119 93 146 121 106 93 148 123 92 36 150 106 92 150 85 29 33 151 29 29 32 121 28 128 32 132 28 128 137 138 76 129 139 76 76 104 137 76 130 79 44 76
23 11 11 90 23 11 11 92 83 12 8 24 83 11 7 82 12 250 6 28 250 6 82 29 250 5 29 98 251 82 30 25 251 81 99 25 81 81 100 80 16 100 100 80 17 101 80 80 250 101 79 17 2 79 79 250 2 79 79 249 78 79 249 249 78 103 249 78 77 104 249 77 103 103 77 76 104 17 76 103 104 79 76 104 79 79 104 104 79 79 246 79 79 245 245 79 79 245 76 79 244 244 76 80 244 76 76 242 242 76 105 105 76 76 105 105 76 105 105 80 76 105 105 80 105 105 80 80 106 81 81 232 106 81 81 227 76 81 223 221 76 81 215 76 76 208 205 76 76 194 76 76 106 178 76 106 106 27 76 106 106 83 77 106 82 82 81 106 83 111 106 63 82 102 67 82 2 95 72 82 91 31 76 6 83 76 76 12 31 76 106 25 31 76 106 31 31 109 106 31 111 106 90 31 114 106 59 132 116 92 53 38 119 92 144 38 93 93 147 30 92 149 149 30 92 150 29 29 151 151 29 76 127 29 29 127 105 28 28 128 88 28 128 129 86 129 129 85 84 129 130 82 154 154 78 77
85 88 88 84 84 90 91 84 247 92 83 83 248 94 83 249 249 82 82 250 250 82 250 250 83 82 250 83 83 14 250 82 82 98 3 81 99 99 3 81 100 80 81 31 100 80 32 101 23 80 32 101 80 17 249 22 79 249 249 21 16 249 78 20 16 249 78 15 249 1 77 14 1 77 34 13 1 77 103 15 1 34 104 79 1 35 13 80 35 35 12 8 36 12 11 6 36 11 5 5 10 10 4 243 3 4 4 3 76 3 3 4 41 2 5 5 43 6 6 44 44 7 8 46 10 10 48 48 11 11 50 12 12 1 52 15 1 1 105 18 1 0 21 82 0 21 26 0 0 23 65 0 25 25 69 1 27 72 72 154 28 76 47 28 76 79 53 29 82 106 59 76 86 63 64 2 106 68 3 3 106 82 5 31 106 81 9 31 79 79 71 31 77 30 62 76 108 55 31 76 111 47 76 113 106 41 76 106 91 76 76 106 92 76 106 106 46 76 106 106 41 48 106 38 37 65 36 35 83 29 33 33 108 76 32 123 127 76 32 137 76 76 142 144 76 76 104 76 76 104 104 76 104 104 42 76
86 85 11 89 89 84 246 6 84 84 248 6 83 248 248 84 83 249 84 84 249 249 84 84 250 84 83 97 250 83 83 98 81 82 98 98 81 99 99 81 81 100 100 80 250 100 80 80 250 101 80 249 249 80 80 249 249 79 249 249 79 79 249 78 78 102 249 78 78 102 78 78 103 103 77 77 103 80 77 103 103 80 246 104 80 80 246 103 80 245 245 11 80 245 245 80 6 244 76 81 244 243 76 104 242 76 76 104 3 76 105 105 3 76 104 81 76 43 105 81 76 105 8 82 46 105 82 1 234 10 82 232 231 12 1 229 76 15 1 224 76 1 0 19 76 0 210 21 63 0 23 76 67 32 25 69 106 37 27 73 42 83 76 77 47 83 80 51 53 1 84 57 2 2 30 62 2 98 31 3 3 31 76 5 6 31 99 9 31 31 103 18 31 105 106 31 31 108 86 87 111 111 88 89 114 90 90 128 116 91 91 139 106 92 143 144 92 46 146 30 92 148 149 30 124 149 30 29 125 151 29 126 126 113 29 127 127 132 76 128 88 28 76 104 86 154 129 104 84 154 104 82 40 154 103 78
6 87 24 20 6 24 90 21 5 25 21 84 26 26 22 12 27 22 22 12 249 23 13 13 3 23 14 14 3 14 15 3 2 15 15 2 30 16 2 2 30 250 2 31 31 21 1 31 21 21 31 31 20 20 31 20 20 17 32 19 17 17 101 18 17 16 17 80 16 1 0 15 15 0 33 14 0 0 33 12 0 34 34 246 1 34 11 246 76 35 10 10 76 103 9 7 36 104 9 5 104 8 81 4 104 82 4 241 104 82 3 3 82 82 239 4 42 82 238 76 44 237 236 76 45 235 76 47 105 234 76 105 11 76 76 105 13 76 105 105 83 1 105 105 83 215 105 83 83 205 84 84 195 191 84 84 179 76 84 165 159 76 84 145 76 76 106 127 76 76 106 76 76 106 106 76 106 106 83 76 106 106 83 106 106 82 82 79 106 80 72 70 79 78 62 76 76 54 52 76 72 45 76 76 41 39 76 76 36 76 76 106 107 76 76 106 49 76 106 106 44 122 106 40 39 106 106 36 80 106 35 34 107 106 33 124 129 76 32 140 76 76 153 149 76 76 154 28 76 104 152 28 76 103 27 76
84 86 86 87 88 85 85 90 85 85 246 92 84 247 247 21 84 248 248 83 13 249 86 86 249 249 86 96 249 85 85 97 2 84 97 98 2 84 98 81 1 30 99 81 83 31 20 81 249 99 20 81 249 19 80 18 249 18 17 249 1 17 17 248 79 17 16 0 79 102 16 0 33 102 0 0 33 12 0 33 102 11 0 34 11 81 34 34 10 81 35 9 9 8 244 9 8 6 1 8 5 5 1 4 4 2 2 4 3 2 39 3 3 3 40 2 4 42 42 7 5 44 7 7 45 45 8 8 47 9 9 1 49 11 12 1 105 14 1 1 15 17 1 17 18 84 0 19 62 0 204 22 65 1 24 76 69 179 26 72 73 160 76 76 41 42 76 106 46 1 76 106 52 2 106 56 84 2 106 61 3 93 106 83 4 31 82 82 77 31 102 80 67 76 106 60 57 76 109 50 76 76 107 41 76 114 106 76 76 106 90 58 106 106 54 143 107 107 47 39 106 44 43 50 106 39 64 71 36 36 92 76 34 113 119 76 127 134 76 76 105 146 76 76 104 76 76 104 105 76 76 104 39 76 103 103
5 23 23 18 4 24 24 19 88 25 20 20 12 26 20 12 12 94 21 13 3 20 83 13 3 20 14 2 2 83 15 2 2 82 249 2 30 30 249 85 30 20 1 83 30 20 83 31 99 19 82 31 18 81 82 100 17 18 81 100 81 17 0 101 81 248 0 81 81 248 0 81 248 247 78 81 247 0 78 246 246 77 33 102 77 77 103 9 77 77 103 82 77 103 103 83 76 103 83 83 103 103 83 5 104 83 83 241 2 84 239 239 76 84 238 238 76 238 237 76 76 236 236 76 104 235 76 76 104 76 76 105 105 85 76 105 85 85 105 105 85 85 105 85 85 218 105 85 85 209 85 85 201 198 76 191 188 76 76 174 170 76 105 155 76 76 105 136 76 106 106 29 76 106 85 76 89 106 84 84 106 84 84 90 106 83 83 80 71 82 73 70 76 16 63 76 78 34 52 76 58 44 31 76 107 38 76 115 106 31 76 106 106 30 119 106 52 30 121 92 46 122 122 92 42 56 91 91 150 83 91 35 151 29 90 152 130 29 152 152 28 76 153 153 28 128 153 28 28 129 104 28 129 129 81 27
92 238 239 90 90 87 243 89 89 90 89 89 91 92 89 92 93 84 89 94 94 84 95 95 84 83 249 83 83 249 249 83 83 249 86 82 249 249 86 82 249 85 85 17 249 84 99 249 84 83 99 100 83 100 100 81 82 100 100 81 32 100 81 81 32 100 81 248 101 12 81 247 11 82 15 246 78 82 246 0 78 13 245 77 77 11 1 77 102 10 1 34 102 1 1 35 103 84 35 35 7 84 36 103 7 5 37 7 84 239 38 6 3 238 6 6 2 3 6 2 1 4 76 1 4 5 45 1 6 76 47 7 8 49 105 9 51 52 14 12 54 55 17 56 58 19 20 0 61 22 0 1 25 25 1 1 28 1 1 25 31 1 26 27 86 1 28 28 80 132 29 83 84 29 30 88 51 30 91 92 56 76 94 61 62 76 98 66 6 76 106 72 12 14 106 80 24 31 80 77 47 31 74 79 31 31 70 34 31 116 64 32 30 118 32 32 76 120 91 30 76 106 91 76 123 106 41 76 106 91 37 76 105 35 151 105 105 33 152 28 33 33 151 28 34 156 157 76 36 159 160 76 160 159 76 76
235 237 93 84 239 92 24 88 91 91 90 17 91 90 92 85 90 93 93 85 90 94 84 84 95 95 84 84 248 83 83 248 249 83 249 249 87 83 249 249 87 249 249 86 85 249 249 85 98 249 84 84 99 82 83 99 99 82 82 99 82 82 100 100 82 82 100 82 82 247 100 82 82 246 79 83 246 246 78 14 246 78 78 245 245 78 102 244 77 77 102 244 77 102 102 1 77 103 85 85 35 102 85 85 103 6 85 239 103 86 86 238 6 86 237 237 6 86 236 76 6 2 235 76 104 1 5 76 104 232 6 47 105 7 76 50 105 9 52 105 15 12 55 17 87 219 59 20 87 213 22 23 1 203 25 26 1 23 28 1 179 25 31 1 27 76 1 1 28 81 105 29 29 85 106 29 88 89 50 30 92 93 56 95 96 60 62 99 65 66 7 102 70 72 14 31 75 25 30 31 80 52 31 31 80 90 31 31 115 31 31 117 133 30 119 119 90 30 121 121 91 76 122 91 91 76 123 91 150 125 106 91 150 106 90 35 151 105 89 152 28 28 33 153 28 28 35 160 28 128 37 161 28 129 162 27
96 88 12 3 94 12 240 3 93 12 2 92 91 12 2 26 92 86 2 27 94 85 27 27 17 84 28 95 17 15 28 18 84 16 29 17 17 248 17 17 17 1 88 18 18 0 87 18 0 0 30 19 0 0 31 0 0 31 31 0 31 31 12 0 31 31 11 18 32 10 10 17 32 9 16 16 9 8 15 14 8 14 13 1 7 12 1 1 33 10 1 1 34 242 1 34 34 241 1 35 6 1 77 35 6 76 36 6 6 76 38 6 3 3 103 6 2 2 104 88 2 3 6 88 1 4 88 1 232 5 89 231 6 76 89 228 8 51 104 225 76 54 16 222 76 104 19 76 76 105 88 76 105 105 88 76 105 88 88 187 105 88 1 170 88 87 155 27 87 87 136 76 87 123 120 76 112 109 76 76 101 98 76 106 106 76 76 106 61 76 106 106 83 76 106 82 81 106 106 79 78 106 77 76 38 106 72 71 32 76 67 30 29 76 61 30 76 76 33 34 76 106 40 76 76 106 55 76 106 106 39 76 106 106 36 106 106 34 34 105 34 34 154 105 34 34 160 86 35 163 163 84 38 164 76 76
231 97 97 82 237 96 86 87 95 95 89 90 94 91 91 87 93 92 93 86 246 94 85 85 247 94 85 247 247 85 84 248 91 84 248 248 90 84 248 90 90 18 248 89 88 97 0 88 97 98 0 30 98 83 86 99 99 83 31 99 83 83 31 99 83 247 247 10 84 246 246 9 17 246 81 84 16 0 80 15 245 0 79 13 0 79 33 12 0 78 101 7 1 33 102 87 34 34 6 88 34 35 6 6 35 6 6 5 36 6 4 3 6 6 3 235 2 2 2 2 76 2 2 3 42 1 4 4 44 4 5 46 47 6 6 49 12 13 51 52 14 1 54 17 17 0 58 19 0 0 21 22 1 1 23 1 1 21 25 1 1 24 73 1 25 26 77 155 27 80 81 136 28 85 38 29 76 88 43 30 91 106 49 76 95 54 86 4 106 60 6 7 106 83 11 31 106 81 23 31 79 79 42 31 76 75 34 76 115 30 31 76 106 28 76 118 88 30 76 106 90 76 76 106 91 76 106 106 42 76 106 39 38 105 106 36 151 134 35 34 148 28 34 34 158 76 35 162 163 76 36 165 76 76 165 165
2 12 12 2 2 12 12 2 24 24 2 2 25 14 2 25 25 14 1 26 14 14 26 27 14 14 27 14 15 15 28 15 15 16 1 14 17 17 0 84 18 0 0 84 19 0 30 19 248 0 30 19 0 88 30 248 0 30 98 11 86 30 10 10 85 99 9 19 83 99 8 18 100 100 85 16 100 7 85 245 0 86 14 0 80 86 244 0 33 87 242 78 33 242 241 78 34 241 77 77 102 239 77 102 102 89 76 102 6 90 102 103 90 3 103 103 90 234 103 91 91 233 103 91 232 231 91 91 230 76 76 229 228 76 76 227 76 76 104 225 76 76 104 76 76 104 104 76 105 105 91 91 105 105 90 204 105 90 90 192 105 90 182 178 89 89 165 160 89 150 145 76 88 131 76 76 105 115 76 76 105 76 76 106 106 76 76 106 86 76 106 106 85 103 106 83 83 106 106 81 47 44 75 78 37 35 75 88 30 76 71 28 28 76 133 28 76 76 142 30 76 107 106 30 76 106 46 30 124 106 41 76 106 90 38 126 106 36 152 127 89 34 155 127 87 153 162 76 86 153 166 76 154 154 27 76
91 91 78 80 90 233 84 90 89 237 87 89 240 241 88 88 242 98 88 244 244 98 98 245 98 97 94 245 97 96 95 96 96 95 95 95 95 96 85 94 96 96 85 29 97 85 85 248 97 85 248 248 11 85 248 248 85 20 247 88 85 247 0 86 19 246 86 85 19 0 84 99 99 0 83 99 86 0 31 99 87 81 31 7 87 32 100 6 12 32 7 89 241 241 7 9 240 78 7 8 239 77 7 6 1 77 6 1 1 36 4 1 76 37 1 1 38 103 7 2 39 7 92 41 41 8 92 43 9 9 1 45 10 1 1 12 12 1 1 14 1 1 8 9 0 0 11 57 0 13 14 61 211 16 63 65 19 20 68 24 22 71 72 25 26 75 27 27 1 79 29 30 1 105 33 2 2 105 88 2 30 41 88 2 31 87 3 31 31 99 5 31 102 103 65 31 105 66 53 76 108 72 31 76 106 77 76 114 106 81 76 106 84 68 131 106 64 139 29 106 57 145 30 52 50 44 30 47 45 66 76 42 91 100 76 125 125 76 76 105 148 76 105 105 76 76 105 87 76 105 105 37 76 105 104 40
2 8 92 228 2 91 12 233 102 90 237 1 101 89 239 101 25 241 242 101 26 243 100 100 93 12 100 99 94 87 99 95 94 86 95 95 86 86 96 96 86 247 96 86 85 247 0 85 247 247 94 85 247 92 92 247 247 91 91 247 90 89 97 246 88 88 98 87 87 98 98 87 85 99 87 87 99 99 88 244 99 89 89 244 99 89 242 242 89 90 241 241 90 241 240 78 78 239 78 78 101 238 77 77 101 1 77 102 102 76 76 102 92 76 102 102 93 93 102 93 93 231 103 93 230 229 8 93 228 228 10 1 226 76 94 225 225 76 1 224 76 76 104 8 76 104 104 11 76 104 93 13 61 105 93 76 65 23 93 68 105 24 92 72 25 91 1 168 26 1 154 27 29 1 135 76 2 2 29 76 2 2 30 93 2 31 31 97 31 31 100 101 55 31 103 59 61 106 106 66 82 109 70 72 45 112 76 77 83 79 81 110 117 31 128 132 30 30 140 142 30 121 145 30 30 122 148 30 123 124 30 30 124 90 29 126 125 90 89 126 89 89 152 127 88 87 153 105 86 154 153 105 84 154 28 82
93 93 76 7 92 228 82 91 91 233 9 91 237 237 104 13 239 104 103 14 242 103 93 14 1 103 94 244 0 27 94 0 101 28 95 0 28 95 10 87 29 10 87 19 29 10 86 247 9 9 20 247 9 9 21 0 8 21 21 0 30 21 0 0 30 20 0 30 98 0 0 30 98 0 31 31 6 0 31 31 6 31 31 6 6 14 6 6 13 13 7 7 11 0 7 10 10 0 7 8 0 0 7 7 1 34 6 1 1 35 35 1 36 36 7 1 37 37 7 76 38 8 8 76 40 9 2 42 103 10 1 3 11 95 1 4 13 1 223 5 95 1 7 8 95 219 9 56 95 215 76 60 212 210 76 64 23 76 67 105 23 75 71 24 93 75 105 25 1 75 105 91 1 105 105 90 130 105 90 89 113 30 89 102 99 76 88 89 31 76 80 77 76 102 67 76 76 106 54 76 76 106 76 76 106 106 79 76 106 76 75 106 106 72 70 106 67 66 27 106 61 31 32 56 54 40 44 76 53 60 76 76 84 93 76 106 120 76 76 106 76 76 105 105 76 76 105 35 76 105 105 36 37 104 38 39
214 94 93 221 223 93 226 228 107 92 232 233 107 235 236 107 107 90 239 107 91 92 106 106 93 93 106 94 94 89 105 94 88 88 95 95 88 88 246 88 88 246 246 87 87 246 101 87 246 246 100 21 246 99 98 246 246 97 97 246 96 95 97 97 93 98 98 88 91 98 98 89 30 98 90 90 30 6 90 244 98 6 91 242 6 91 14 241 82 92 241 0 81 11 239 80 32 10 0 79 100 8 1 33 100 1 1 34 101 95 35 102 8 95 36 102 95 3 37 8 95 229 9 9 2 227 9 10 2 3 11 1 2 4 76 1 4 4 48 1 5 50 51 7 7 53 104 9 56 57 21 11 60 61 22 62 64 23 23 1 68 23 1 1 23 23 1 24 24 1 1 26 25 1 27 28 91 2 29 29 89 112 30 92 93 30 76 96 42 31 99 100 48 76 103 53 55 76 106 60 16 76 106 66 34 41 71 79 68 31 76 97 25 31 72 126 31 30 66 27 30 120 59 33 30 122 41 46 76 123 90 76 76 106 89 76 125 106 39 76 106 89 36 76 105 36 153 106 106 36 154 28 37 37 171 28
5 1 23 23 5 13 23 6 6 13 6 6 13 14 7 7 13 1 7 14 14 0 8 15 0 0 90 16 0 27 27 243 0 27 27 0 108 28 8 0 28 29 8 107 29 8 8 105 29 7 21 21 96 7 21 0 96 89 22 0 6 22 245 0 89 21 0 0 90 245 0 30 91 244 91 30 6 244 88 30 6 87 86 98 6 85 31 99 93 83 99 7 94 81 99 94 11 99 99 95 236 1 95 95 235 1 95 234 233 77 96 232 231 77 231 230 76 76 229 76 76 102 102 76 76 102 97 76 103 103 97 76 103 97 97 103 103 97 97 104 97 97 219 104 97 217 217 76 97 214 213 76 211 210 76 76 206 204 76 104 198 75 75 105 75 75 105 105 75 75 105 93 93 105 105 92 92 105 91 91 119 105 90 90 103 35 89 93 90 89 4 79 76 76 69 66 76 106 55 76 76 106 43 76 106 106 31 76 106 79 31 115 106 74 76 106 81 69 25 106 65 63 30 87 58 36 40 88 51 54 76 89 150 86 76 151 151 29 76 151 145 29 126 106 28 76 127 105 28 127 105 85 28 127 84 39
24 4 95 213 24 5 94 222 115 5 13 228 114 93 232 0 114 14 235 114 114 14 0 114 93 15 0 26 93 90 0 27 94 90 27 27 7 90 28 95 7 19 29 7 89 20 7 7 21 245 6 6 22 0 107 22 22 0 104 22 0 0 30 22 0 0 30 0 0 30 30 0 30 30 6 0 30 30 6 18 30 6 6 17 31 6 15 15 7 7 14 0 8 12 12 0 8 11 1 1 32 9 1 1 33 234 1 33 33 1 1 34 10 1 35 35 10 77 36 10 10 76 38 10 2 2 102 11 2 2 103 98 1 3 14 99 221 4 99 1 219 5 98 217 6 76 98 215 7 56 104 212 76 59 23 207 76 104 23 76 75 104 96 75 104 104 96 75 104 95 1 164 105 94 1 26 93 92 132 28 92 119 114 76 91 102 98 76 91 88 76 76 77 74 76 105 105 76 76 106 55 76 106 106 84 76 106 81 81 106 106 78 77 106 75 74 23 106 69 68 26 76 63 30 32 76 38 42 76 76 57 65 76 106 92 76 76 106 129 76 106 106 38 76 105 37 36 105 105 36 36 105 37 37 171 105
3 3 121 73 4 13 23 80 95 13 84 5 94 14 88 94 14 232 90 93 14 0 119 92 238 0 26 92 240 118 27 241 242 118 94 242 118 27 95 243 117 95 6 90 116 95 6 21 95 95 90 22 95 91 91 245 95 91 91 245 91 91 245 245 92 92 244 103 102 244 243 100 30 243 98 97 97 242 95 97 97 92 91 97 97 90 98 98 95 87 98 98 96 238 98 97 97 236 97 97 235 234 97 97 233 79 97 232 231 79 98 230 78 78 101 228 77 77 101 77 77 102 101 76 101 102 99 76 102 102 99 42 103 99 99 103 103 99 218 218 100 100 217 76 100 215 214 76 100 212 76 76 1 209 76 76 1 12 76 104 199 16 75 104 97 75 72 104 96 76 104 22 95 80 105 95 145 84 24 93 126 88 27 2 108 76 31 3 31 76 4 82 31 76 5 31 76 104 9 31 76 106 31 31 110 106 31 112 112 67 80 114 115 74 105 116 78 79 131 118 82 140 142 84 85 146 36 87 148 148 29 88 150 29 29 124 151 29 29 125 29 29 126 125 28 28 126 87 28 126 126 86 76 127 84 84
126 126 70 1 124 75 77 123 123 82 96 96 85 86 95 228 88 94 94 232 90 94 234 235 5 93 238 238 5 17 239 124 92 18 241 124 94 242 0 123 94 0 123 94 94 0 121 95 92 0 28 96 92 118 29 5 92 244 96 5 23 244 5 93 23 244 5 23 243 0 5 22 243 103 21 21 0 100 20 20 0 30 97 0 0 30 7 0 30 31 8 0 31 8 8 31 31 9 98 31 10 10 10 32 10 8 8 1 11 7 7 1 6 6 1 1 5 5 1 36 4 2 2 37 3 2 38 39 14 2 40 15 15 76 42 17 18 45 19 19 1 47 21 22 1 103 23 1 1 104 100 1 8 9 100 1 11 62 1 201 14 66 1 16 75 71 186 20 74 75 174 75 78 21 158 75 104 22 2 75 105 24 2 105 105 92 2 105 31 91 88 106 90 4 73 89 89 62 31 76 87 48 76 108 39 36 76 111 29 76 76 106 23 76 106 106 76 76 106 79 76 106 106 65 144 106 106 59 41 106 54 52 65 106 49 94 104 44 43 132 76 40 151 156 76 38 165 76 76 105 170 76 76 105 76 76
64 98 130 70 72 98 76 78 97 97 216 83 96 221 223 96 96 227 0 95 230 231 129 94 234 235 130 236 236 130 130 238 130 130 94 94 130 130 94 93 129 94 94 93 129 94 93 93 95 95 93 243 95 93 93 243 95 94 243 243 120 94 243 243 117 243 243 114 113 243 243 111 96 242 107 106 96 0 104 97 97 0 99 97 97 97 97 97 98 98 98 98 98 236 98 98 235 235 10 99 233 233 11 10 231 82 81 8 229 81 100 228 1 79 100 226 78 35 101 1 78 101 13 1 37 101 101 2 39 15 101 218 40 17 101 217 18 19 2 215 21 1 1 4 23 1 212 6 1 1 7 76 1 1 9 59 104 11 12 63 104 14 67 67 23 17 71 22 21 74 75 21 97 79 20 20 1 147 21 22 2 28 23 2 2 29 2 2 30 30 3 4 31 99 4 31 31 103 7 31 105 106 49 31 109 109 56 76 111 62 64 113 106 69 91 115 73 75 123 106 79 136 139 106 83 145 30 29 59 148 29 122 52 70 29 124 151 110 76 124 137 29 76 125 159 76 125 87 87 76 126 86 154 76 105 84
0 136 24 14 0 24 75 0 0 23 3 0 23 24 3 0 23 3 3 24 24 3 96 16 3 3 16 234 4 17 18 0 4 18 19 0 94 20 0 0 20 21 0 28 22 0 0 28 28 0 28 28 4 0 29 4 4 130 29 4 4 29 95 4 24 29 4 4 24 95 4 24 23 0 97 23 0 0 97 21 0 30 98 239 0 30 18 238 97 30 237 1 93 30 235 91 31 97 11 88 98 11 100 85 98 12 9 99 99 101 8 99 100 101 225 100 101 5 223 78 101 221 1 78 102 219 77 38 218 218 76 39 216 76 76 102 215 76 76 102 76 76 103 103 102 103 103 102 102 103 103 102 207 104 101 101 203 104 101 200 199 100 100 194 75 100 188 186 75 75 177 75 75 104 163 75 75 105 75 75 105 105 75 75 105 94 75 105 105 92 92 105 91 91 76 105 90 64 60 89 89 50 47 87 40 37 76 85 30 76 76 54 24 76 76 106 30 76 106 106 76 76 107 69 76 106 106 62 76 106 58 56 123 106 52 85 124 88 46 126 135 88 152 154 76 40 153 166 76 153 171 28 76 154 28 76
60 100 141 67 69 99 139 75 99 99 23 82 98 98 85 2 98 220 89 97 15 226 3 97 229 230 143 17 232 143 144 18 235 144 94 19 0 144 94 239 0 27 94 0 144 28 3 0 28 94 3 96 28 3 96 242 29 3 96 242 3 3 25 242 4 25 25 0 4 25 242 0 30 24 0 119 30 22 0 30 96 0 0 30 96 1 30 30 8 1 30 9 9 30 30 10 11 14 11 11 12 12 12 13 11 1 13 9 9 1 101 8 1 1 7 6 1 33 5 1 1 35 35 2 36 36 17 2 38 38 18 76 39 19 20 76 102 22 2 43 102 24 1 4 26 103 1 5 27 1 6 6 103 1 8 57 103 202 10 61 1 197 75 66 192 15 75 70 21 75 74 104 20 75 78 19 98 75 105 20 2 105 105 96 2 105 105 94 102 105 93 93 85 30 92 73 69 76 90 58 76 76 47 44 76 108 36 76 76 106 26 76 76 106 76 76 106 106 77 76 106 73 72 106 106 68 30 106 63 61 43 106 56 63 71 52 50 102 112 76 132 139 76 76 157 76 76 106 168 76 76 105 76 76 105 105
0 0 25 176 0 24 24 191 145 24 2 0 146 23 2 15 23 2 2 15 24 2 16 16 92 2 17 0 93 97 18 0 3 97 235 0 96 20 237 0 27 238 0 153 27 239 0 28 94 240 151 28 3 150 149 95 3 147 146 95 98 144 95 95 98 26 95 98 98 241 95 99 240 240 99 99 240 0 100 239 239 118 100 238 238 112 96 237 108 107 96 235 103 97 97 99 98 97 101 94 97 97 102 90 98 102 102 98 98 102 102 224 102 102 222 222 102 221 220 80 103 218 218 78 217 217 78 78 215 214 77 101 213 77 76 101 102 76 102 102 103 76 102 103 103 103 103 104 104 103 104 104 204 104 103 103 201 76 103 199 197 76 1 194 75 75 189 187 75 104 180 75 75 105 167 75 105 105 25 75 105 105 97 88 105 96 95 92 22 94 95 105 26 92 78 30 91 5 63 36 90 52 31 42 13 39 76 109 25 31 76 106 51 31 114 106 30 30 116 106 30 118 118 77 30 119 106 81 120 121 84 60 52 86 86 150 87 87 87 151 29 88 151 152 28 88 153 28 28 153 153 28 125 125 27 27
57 1 0 25 66 101 24 24 2 100 23 23 2 15 23 2 2 15 213 2 16 16 0 2 17 0 0 17 18 0 160 19 0 0 26 20 0 0 26 0 0 27 27 2 27 27 2 2 28 28 3 25 28 3 3 26 29 3 26 27 3 3 27 27 0 26 26 0 0 26 0 0 29 25 0 0 29 239 1 29 30 238 1 30 6 1 118 30 8 19 30 96 9 17 30 11 102 15 97 12 14 13 97 103 12 1 97 103 10 1 103 103 222 1 33 221 220 82 33 218 2 80 100 216 79 35 20 214 78 101 21 77 77 101 104 2 101 102 104 2 102 104 104 207 102 104 1 205 105 105 203 6 104 104 201 76 104 199 198 76 103 195 76 75 104 190 75 104 104 75 75 104 104 75 104 104 99 75 105 99 98 105 105 97 97 122 96 96 107 103 94 94 89 76 93 76 72 76 92 60 76 76 49 46 76 106 106 76 76 106 106 76 106 106 83 76 106 106 80 106 106 76 75 106 73 71 27 106 67 65 39 76 60 55 63 76 54 93 76 76 151 134 76 106 154 28 76 105 167 76 124 105 28 76 105 105
146 0 102 160 164 159 25 176 180 159 78 190 159 159 84 202 160 87 88 162 162 90 99 164 91 92 99 166 92 99 99 228 93 99 99 231 99 99 233 234 99 99 236 171 99 237 237 170 238 238 170 169 239 239 168 94 94 166 166 94 94 163 94 95 100 159 95 100 100 95 95 101 101 95 101 101 239 238 102 102 238 135 102 236 236 128 103 235 122 120 19 233 115 96 232 1 108 96 230 103 30 96 103 97 97 97 104 31 97 104 104 31 17 104 220 33 18 104 218 19 19 6 215 20 104 5 2 79 4 211 3 78 3 3 77 101 2 3 41 102 4 4 43 102 4 46 46 32 105 49 102 32 1 53 31 104 1 31 30 1 195 28 28 1 11 25 1 1 14 22 1 17 18 75 1 21 21 80 23 24 83 84 26 86 87 18 28 90 92 20 75 94 22 23 97 98 26 5 5 30 32 7 31 37 11 12 31 44 19 31 30 86 40 31 31 83 21 30 115 116 20 30 117 73 30 76 119 78 76 120 82 83 76 121 85 150 76 106 87 151 123 106 47 152 28 87 43 164 28 41 153 171 28 40 173 27
1 103 146 151 1 16 164 165 1 15 0 166 16 16 0 167 16 0 0 23 89 0 171 24 1 0 24 92 2 24 25 2 100 25 25 2 21 26 2 2 23 27 2 24 24 0 2 25 25 0 26 26 0 0 27 0 0 28 28 0 0 29 239 0 29 29 0 0 29 3 3 29 29 4 27 29 5 5 26 29 5 25 24 95 7 23 22 95 104 21 1 1 19 19 1 30 17 1 1 30 228 1 30 30 225 1 31 16 223 94 31 18 1 89 98 19 8 33 99 105 7 99 21 105 5 100 104 5 210 100 105 3 3 105 105 206 3 105 105 204 77 42 203 202 76 102 201 76 76 102 199 76 103 103 76 76 103 32 76 103 103 105 1 103 104 104 187 104 103 103 181 103 102 173 171 101 101 162 75 101 150 146 75 99 133 75 75 105 113 75 105 105 75 75 105 105 76 105 105 93 76 105 106 91 106 106 89 89 106 88 87 27 25 86 85 22 76 83 19 19 76 79 20 76 76 23 25 76 76 32 76 76 106 106 76 106 106 56 76 106 106 50 123 106 47 45 106 106 43 168 106 41 41 173 85 41
128 173 172 142 147 172 172 160 172 172 76 175 174 173 82 0 175 86 87 177 23 89 101 101 91 91 101 216 92 101 101 221 93 101 225 225 1 100 228 229 2 24 232 189 101 233 0 189 94 235 189 188 94 0 188 94 94 0 185 94 102 0 29 94 102 29 29 3 103 238 94 3 28 237 4 104 27 237 5 26 236 1 6 25 234 147 23 23 1 138 21 1 1 30 95 1 1 30 12 1 30 30 14 1 30 16 105 31 31 18 11 31 19 19 10 32 20 8 8 2 21 7 7 2 6 6 3 3 5 4 3 36 4 3 3 38 204 3 39 40 32 3 42 34 34 44 45 35 35 48 36 35 1 51 35 1 1 103 33 1 1 103 105 1 10 11 105 1 13 68 1 178 16 73 1 18 75 78 160 22 81 104 144 75 85 16 126 75 105 17 2 75 105 20 3 105 105 94 5 105 93 6 53 106 91 10 31 90 89 32 31 110 87 24 76 112 21 20 76 114 19 76 76 106 21 76 106 106 76 76 107 80 76 106 106 61 150 106 106 55 112 106 51 49 147 47 46 162 165 43 42 171 76 41 173 174
1 1 17 0 1 16 17 0 103 16 0 0 24 16 0 23 23 0 0 23 23 0 24 24 1 0 24 1 1 192 24 1 1 194 93 1 22 22 94 1 24 0 1 102 25 0 1 26 233 0 102 28 0 197 102 235 0 29 103 237 193 29 2 237 190 29 3 186 29 94 3 182 94 4 105 176 94 5 28 94 94 106 26 1 94 106 233 1 106 107 231 1 107 230 229 134 107 228 127 125 226 225 119 30 223 112 110 96 17 104 102 97 106 97 97 98 106 98 98 106 106 98 98 106 209 99 106 106 207 99 106 205 204 79 106 202 202 78 201 200 77 77 199 77 77 101 197 76 76 102 76 76 102 102 107 76 103 106 106 103 103 106 189 103 106 105 185 104 105 181 180 104 104 174 172 103 167 164 75 75 154 150 75 104 138 75 75 104 27 75 104 105 28 75 105 95 75 98 105 94 76 105 28 92 48 106 91 38 35 39 89 28 26 46 40 22 76 54 76 19 76 107 19 30 76 106 23 76 118 106 29 76 106 80 29 120 106 59 28 121 85 54 122 122 87 48 123 87 87 153 169 86 154 154 27 85
18 115 1 17 17 0 1 16 147 186 16 17 0 188 81 0 0 24 86 0 0 24 1 0 24 23 1 0 24 1 1 24 24 1 102 22 1 1 23 224 1 25 25 0 1 26 27 0 27 28 0 0 29 29 0 28 30 0 0 29 2 0 29 29 2 1 29 3 3 194 29 3 3 29 94 4 30 29 5 5 28 94 6 27 26 1 108 25 1 1 108 23 1 29 108 227 1 30 19 225 132 30 223 2 30 95 221 115 30 18 18 106 96 20 11 99 97 22 9 97 98 107 7 98 25 106 206 99 106 5 204 81 106 201 3 79 107 199 78 39 198 197 77 41 195 77 77 101 194 76 102 102 76 76 102 102 107 103 103 106 106 103 103 106 185 103 106 106 181 104 105 177 175 104 104 169 75 103 162 158 75 75 148 75 75 104 131 75 75 104 75 75 104 105 75 105 105 95 75 105 105 94 55 105 93 92 42 106 91 34 31 89 89 25 24 87 21 20 76 84 19 76 76 117 20 76 76 106 30 76 106 106 76 76 106 64 76 106 106 59 121 106 54 52 122 106 49 160 122 86 45 171 172 86 154 174
46 1 105 115 57 104 17 133 68 104 146 0 104 104 163 0 104 173 177 199 104 186 201 201 194 196 204 205 92 206 206 93 93 209 209 93 103 210 94 94 103 212 94 103 103 94 94 104 229 229 104 104 231 231 104 232 232 211 105 233 233 209 234 234 207 206 234 204 203 94 234 200 199 94 108 195 94 94 108 189 94 109 109 94 94 109 109 95 109 109 229 95 109 227 227 11 109 225 225 144 19 223 136 133 221 220 125 95 218 118 116 96 2 109 96 96 2 101 97 107 95 32 98 107 107 98 27 107 203 99 107 107 200 32 107 198 198 35 3 196 78 38 3 194 77 101 2 4 77 102 191 5 48 102 5 76 51 39 6 54 103 36 8 58 32 107 62 63 28 106 177 25 24 1 171 21 20 1 18 18 2 2 21 2 2 24 75 2 2 26 90 2 28 28 94 105 29 96 98 20 30 100 24 26 103 104 30 31 106 34 36 19 109 41 43 38 30 48 63 73 30 56 104 30 30 127 131 30 117 141 30 29 118 147 29 119 120 64 28 120 121 84 76 121 85 85 76 106 86 153 122 106 85 154 105 85
19 0 1 18 18 0 0 18 0 0 26 17 0 24 24 158 0 24 24 0 205 23 1 0 24 24 1 20 24 1 1 22 24 1 23 23 93 1 25 0 94 104 27 0 1 104 224 0 105 29 227 0 27 229 0 219 27 231 218 28 94 232 216 28 2 214 213 94 3 210 209 94 109 206 94 94 109 31 94 110 31 231 94 110 230 1 110 110 229 1 111 227 227 170 111 225 225 160 95 223 152 149 95 144 140 95 95 132 129 95 109 121 96 96 108 111 96 108 108 97 97 108 108 205 108 108 203 202 108 201 200 85 107 198 197 82 196 195 80 79 194 193 78 101 191 77 77 101 108 77 102 102 108 76 102 108 108 102 102 108 108 102 107 107 182 103 107 107 178 75 106 175 174 75 1 169 75 75 162 160 75 104 151 75 75 104 136 75 105 105 26 75 105 99 98 94 105 97 97 98 20 95 58 105 25 93 44 29 92 13 34 35 90 27 31 42 40 21 76 106 77 30 76 106 115 30 115 106 29 76 117 106 29 118 106 78 29 120 81 62 120 120 84 56 135 85 85 152 161 85 85 153 27 85 154 154
43 105 105 97 54 105 105 114 105 105 128 132 105 105 145 207 105 157 161 210 87 171 213 214 90 184 216 91 91 218 219 92 93 221 93 93 105 223 93 93 105 216 93 105 105 220 1 105 223 224 106 106 226 225 106 228 228 224 107 230 223 222 34 231 221 94 94 1 218 94 94 1 29 94 111 212 29 94 111 30 94 5 112 30 94 112 229 30 8 112 227 185 9 25 225 175 111 23 2 165 21 220 2 154 18 2 145 30 16 2 30 96 20 2 30 96 109 31 31 24 108 31 31 27 9 32 29 30 7 33 32 6 6 35 35 5 3 3 4 4 4 79 4 4 4 41 3 5 5 43 5 5 46 46 5 48 49 43 6 52 53 39 1 56 36 35 1 61 31 1 1 103 26 1 1 22 105 1 16 19 2 19 20 80 2 22 23 84 128 25 88 89 109 27 92 15 28 75 96 18 75 99 105 22 75 102 26 93 11 105 31 16 19 105 90 31 30 106 88 60 30 85 85 19 30 82 20 21 76 78 26 29 76 106 38 76 119 106 64 76 106 83 76 76 106 55 76 106 106 49 76 106 47 46 106 106
1 0 33 32 0 30 29 1 1 27 27 1 19 25 1 1 19 24 1 19 19 87 1 20 0 1 105 21 0 1 22 192 0 24 24 0 0 25 206 0 25 26 213 229 25 1 218 230 26 1 230 27 94 1 33 27 1 109 34 94 2 35 35 94 110 36 1 94 111 230 1 111 112 230 1 113 230 230 215 29 229 2 210 94 228 205 30 94 200 198 94 8 192 190 94 113 183 94 94 113 173 94 113 112 217 95 112 111 214 111 111 212 2 110 209 208 124 110 206 205 113 203 202 105 103 97 199 96 98 98 92 90 99 109 86 99 99 108 82 99 108 109 100 100 109 109 101 109 109 184 184 109 109 182 77 109 181 180 76 180 179 76 76 177 177 76 103 175 76 75 103 172 75 103 103 106 75 103 105 105 75 104 104 104 104 15 102 135 104 102 101 116 14 100 100 95 75 99 79 75 75 5 61 75 105 50 30 76 105 38 76 106 106 30 76 106 106 30 110 106 87 86 112 52 84 20 115 60 80 24 66 68 144 33 73 71 148 29 79 150 79 28 82 151 28 76 120 152 27 121 106 27 27 121 106 27
37 42 107 33 51 1 107 29 62 106 19 114 1 106 127 0 1 20 144 220 0 20 0 223 21 21 0 226 22 0 0 24 92 0 24 24 1 0 25 94 1 25 26 1 107 25 25 1 32 26 1 1 33 27 1 35 35 1 1 36 1 1 37 37 1 231 37 1 1 29 37 1 1 29 228 1 29 29 2 220 29 5 5 29 30 6 32 30 7 7 29 30 9 27 27 94 10 25 24 12 114 22 2 2 20 215 2 30 18 2 2 30 209 2 30 30 206 3 31 25 203 118 31 28 109 107 97 31 9 33 98 109 7 98 37 109 6 99 109 5 187 100 109 4 4 109 110 183 4 110 181 181 77 45 180 179 77 102 178 76 51 102 176 76 102 38 76 76 103 108 75 103 103 107 1 103 106 106 162 104 105 105 153 104 104 143 140 103 102 128 75 102 113 108 75 97 92 75 75 105 72 75 105 105 75 75 105 105 76 106 106 93 76 106 91 91 106 106 89 89 106 87 87 19 19 84 83 21 76 80 24 26 76 76 34 76 76 49 56 76 106 85 76 76 106 106 76 106 106 53 76 106 106 48 121 106
1 1 217 46 1 217 31 57 1 218 66 1 20 220 76 1 20 81 83 107 20 86 107 107 158 0 106 22 170 231 107 179 0 234 107 190 235 24 196 198 236 93 204 237 238 94 1 238 94 94 110 238 94 94 111 94 94 111 112 94 94 113 224 93 114 114 225 114 115 226 226 232 116 227 230 229 226 226 227 225 226 223 222 93 225 219 93 93 215 213 93 94 209 94 94 117 117 94 94 117 217 94 115 115 214 94 115 212 211 114 113 209 158 113 206 205 143 140 203 133 130 96 199 120 116 97 3 108 97 97 100 33 98 109 93 98 98 110 35 99 109 109 184 100 109 182 181 49 110 180 179 50 2 177 77 110 1 5 77 1 174 6 76 1 7 76 102 103 8 76 103 108 10 65 103 107 68 69 22 106 73 104 18 2 78 16 104 2 134 14 2 120 25 13 2 100 75 3 4 28 75 4 29 29 99 7 30 30 102 30 30 104 105 29 30 107 34 36 109 109 41 61 111 47 49 102 113 55 126 131 61 63 141 143 69 146 147 29 29 149 150 28 118 151 28 28 119 146 27 119 120 166 27 120 84 27
41 1 1 22 35 1 1 21 1 1 21 21 1 21 20 0 1 21 21 0 107 21 0 0 24 22 0 24 24 0 0 24 24 0 24 24 1 0 24 1 1 240 25 1 1 241 94 1 34 34 94 1 36 1 1 37 37 1 113 38 1 1 115 39 1 28 116 223 1 29 40 224 236 29 4 2 233 29 4 230 29 93 5 226 93 6 121 222 93 7 32 93 93 120 29 3 94 119 217 3 118 118 214 193 117 211 211 183 115 209 174 171 206 205 161 30 203 150 147 95 26 136 132 96 111 122 97 97 110 97 97 110 110 98 98 110 187 98 110 110 184 99 110 181 181 82 110 179 80 79 177 176 78 78 174 77 77 101 172 77 76 102 76 76 102 102 110 76 103 109 109 103 103 109 164 103 107 107 160 104 106 154 152 106 105 145 142 104 135 131 75 75 118 75 75 104 96 75 75 104 28 75 105 105 29 75 105 96 75 105 105 94 76 106 92 92 26 106 91 22 21 41 88 19 19 48 106 20 76 83 133 24 76 143 31 29 76 106 29 76 117 106 28 76 106 81 28 119 106 56 27 119 84 51 120 120
56 57 225 224 65 224 224 54 77 225 225 66 108 227 73 76 108 79 81 108 108 85 86 108 141 89 109 109 154 91 108 164 167 109 109 176 241 241 184 186 242 242 193 243 243 94 201 243 243 94 1 243 94 94 1 243 94 115 243 27 94 117 218 94 118 118 220 94 119 222 222 3 121 222 222 4 41 222 235 123 39 3 232 38 221 3 228 93 3 225 30 93 3 219 93 10 3 30 93 121 3 30 13 119 30 30 15 22 208 16 17 19 204 19 17 17 4 22 16 199 4 14 13 4 134 12 4 4 32 10 4 4 32 39 4 33 33 43 4 35 47 48 36 36 50 110 38 52 52 4 40 53 3 3 101 53 2 2 6 1 1 6 6 1 1 7 54 1 8 8 59 164 10 62 63 161 11 67 25 23 75 72 19 18 76 104 16 2 80 14 14 2 104 13 2 2 104 101 3 27 104 99 4 28 97 98 51 29 100 9 39 75 103 33 29 76 106 25 76 108 106 21 76 106 44 76 76 106 52 124 106 106 81 141 106 66 76 41 106 72 149 69 68 66 104 28 62 60 146 76 118 163 166 76 119 172
1 1 25 25 0 36 23 0 0 32 23 0 29 28 0 0 26 79 0 25 25 0 0 24 0 0 24 24 1 1 26 1 1 28 28 1 1 30 0 1 32 32 0 112 34 0 0 113 36 1 26 26 205 1 26 27 1 245 27 2 1 28 28 2 244 28 2 3 243 94 3 43 241 93 4 42 3 93 126 41 3 5 126 219 3 126 38 218 230 126 217 4 30 126 216 222 30 214 213 215 30 12 210 209 94 14 202 30 94 119 193 94 18 117 95 95 116 17 95 95 114 196 4 113 113 192 4 112 190 189 121 111 186 110 107 184 183 100 97 181 93 91 99 178 87 85 100 111 83 99 100 111 80 100 111 111 101 101 111 167 101 111 111 165 102 111 164 163 110 110 162 162 76 160 160 75 75 157 75 75 103 152 75 75 103 75 75 103 103 75 75 104 103 103 104 104 102 102 104 101 100 74 105 99 60 57 17 98 46 43 96 10 36 76 94 30 28 76 105 23 76 76 106 30 76 106 106 29 76 106 84 29 114 106 80 76 115 68 75 116 106 71 69 86 78 65 122 133 81 153 156 76 83 153 171 76
27 47 230 39 42 0 230 51 54 230 32 63 110 231 71 1 110 27 79 110 110 25 0 110 124 24 0 111 138 241 1 27 152 243 29 30 0 244 31 173 245 25 34 0 246 93 36 1 25 94 1 1 26 94 119 27 27 2 120 27 2 2 44 28 2 124 44 3 3 45 216 3 4 44 3 242 44 43 3 29 43 4 4 30 41 4 30 30 4 4 30 30 4 30 30 10 4 30 30 11 30 31 12 13 26 94 14 24 24 16 17 21 4 18 20 19 4 21 17 4 4 115 15 4 31 31 190 4 31 31 186 126 32 40 4 33 33 44 103 34 48 49 93 35 52 5 5 99 55 5 5 100 112 3 6 56 112 166 6 111 1 164 7 112 163 7 76 111 160 76 57 102 159 76 61 33 75 75 103 26 75 75 103 107 75 103 103 106 75 103 105 104 104 104 103 108 103 102 102 87 26 100 71 66 75 99 54 50 75 44 42 75 75 35 76 76 105 27 76 76 105 91 76 106 106 89 76 106 87 86 106 106 83 82 106 80 79 36 106 75 52 60 76 69 92 104 76 128 138 76 76 159 163 76 106 171
1 1 28 46 0 40 26 0 0 34 63 0 31 30 77 0 28 1 1 236 26 0 25 238 86 1 26 24 90 112 28 91 1 113 30 92 113 32 163 93 115 171 0 247 116 181 1 25 188 189 248 26 195 197 248 94 201 248 248 94 206 248 93 2 247 247 93 129 46 94 94 130 46 94 132 132 215 93 133 134 215 134 134 215 214 134 214 214 237 236 213 213 234 93 212 231 229 93 209 226 93 93 222 220 93 94 215 94 94 124 208 94 122 121 198 95 119 119 195 117 117 193 192 115 115 189 156 114 186 186 139 12 184 126 123 181 180 111 98 98 102 99 98 98 93 99 98 111 86 99 99 112 39 100 112 112 100 57 112 163 162 112 112 160 77 112 159 158 76 111 157 76 76 1 155 75 103 1 11 75 103 150 13 71 103 107 75 75 103 106 79 104 13 104 83 104 103 3 88 12 102 78 12 13 4 59 15 16 7 28 75 9 10 29 75 15 29 76 105 28 29 106 106 29 29 108 106 29 110 110 48 29 112 112 57 142 113 63 65 148 114 71 150 151 75 77 152 27 79 153 153 27 82 153 27 27
30 30 1 234 28 0 0 39 26 0 34 33 0 0 30 29 0 28 27 0 0 26 25 1 26 25 1 1 28 90 1 29 30 91 1 32 0 1 34 34 0 1 36 1 1 25 39 1 1 25 186 2 26 26 193 249 26 2 2 249 27 2 249 28 93 3 48 29 3 133 48 93 4 48 211 94 137 47 4 93 138 213 4 139 139 212 5 138 212 211 238 30 210 5 235 93 209 232 30 93 229 227 93 13 223 222 94 128 217 94 94 125 210 94 123 122 195 95 120 193 192 118 117 189 4 116 187 186 158 114 184 183 140 181 180 127 123 97 176 111 98 98 102 99 98 111 93 98 99 112 86 99 112 112 100 100 113 113 101 112 112 159 158 112 157 157 77 112 155 155 76 155 154 76 76 153 152 75 103 150 75 75 103 146 75 103 103 107 75 104 106 105 104 104 104 104 104 103 103 91 105 102 101 70 12 100 57 53 75 7 44 75 75 11 34 75 106 29 29 76 106 24 76 107 106 29 76 106 106 29 110 106 85 84 112 56 81 32 113 65 77 52 71 72 151 92 77 67 153 27 80 153 160 76 154 154
36 30 116 116 40 115 115 46 47 234 114 55 235 235 64 67 237 74 77 238 239 82 91 240 85 86 242 243 89 89 245 90 91 116 116 91 117 117 147 93 118 119 160 119 120 167 170 122 122 177 250 124 183 186 250 127 191 250 250 94 197 250 94 94 249 249 93 93 249 93 93 139 248 93 93 140 30 93 142 142 210 6 143 209 209 7 143 209 242 143 43 208 239 141 207 5 236 37 205 233 232 34 5 228 93 94 5 31 94 130 5 31 94 126 30 30 20 123 31 95 121 19 31 27 118 186 30 31 15 183 159 36 14 4 141 12 12 5 123 10 5 5 34 8 5 99 35 5 5 36 99 59 38 39 60 113 40 41 59 3 43 58 57 1 47 54 2 1 51 48 1 8 44 1 1 9 10 1 10 11 65 1 12 13 69 142 14 73 74 17 17 78 14 20 81 82 12 75 85 12 11 4 89 12 4 4 105 14 7 7 105 98 10 29 19 14 32 29 94 24 29 29 105 22 29 107 107 20 29 109 43 21 76 110 52 28 76 106 60 76 113 106 76 76 106 73 70 152 106 66 153 151 106 60 154 26
118 34 1 54 117 38 1 44 43 45 235 36 1 0 32 68 1 237 29 1 1 240 82 1 29 242 87 116 30 89 89 117 32 91 118 118 133 0 119 37 146 249 121 155 1 250 124 165 251 25 172 175 251 93 181 251 251 93 2 250 94 94 136 250 93 93 139 93 93 142 142 93 143 144 204 93 146 146 206 147 147 207 207 246 147 207 245 244 206 206 242 242 205 240 240 93 204 237 93 93 235 233 93 93 230 94 94 135 135 94 94 132 194 94 129 127 192 125 124 190 188 122 121 186 192 119 184 183 178 173 181 165 160 96 178 146 141 97 5 127 97 98 115 34 98 113 101 98 98 112 36 99 112 113 160 100 113 157 157 60 113 154 79 113 1 153 77 113 151 8 77 1 149 76 76 1 9 76 103 103 11 75 103 109 13 69 103 107 73 74 16 106 78 104 14 2 82 13 104 3 89 12 4 73 26 13 5 26 75 7 7 28 75 10 28 28 100 17 28 28 103 29 28 104 105 32 28 107 37 89 108 109 45 127 110 51 53 143 111 60 148 149 67 68 151 151 73 152 152 27 27 153 26 26 115 154
31 31 120 33 34 237 118 38 39 235 30 45 236 236 53 0 237 72 64 239 239 79 0 241 83 84 118 244 88 118 118 24 90 120 118 91 1 121 131 92 122 40 144 1 125 153 156 1 45 164 251 251 48 173 251 93 50 3 251 93 3 3 28 94 4 251 28 3 5 29 93 4 148 29 5 150 53 30 5 52 203 6 6 51 203 7 49 49 7 8 47 46 7 45 44 7 240 31 40 7 31 93 7 7 31 14 7 31 31 16 6 31 18 18 31 31 20 21 31 22 23 21 21 26 19 19 5 31 17 17 5 117 15 5 5 14 13 5 32 12 5 5 33 33 5 34 34 58 5 35 61 61 91 37 62 62 85 100 62 3 42 100 60 2 100 57 114 1 8 113 1 147 8 113 1 9 57 111 145 10 62 110 143 75 66 140 14 75 72 134 75 75 104 15 75 104 13 104 75 104 12 3 104 104 102 4 104 104 100 50 105 99 99 39 75 98 34 32 75 95 28 76 76 24 23 76 105 21 76 76 106 21 76 76 106 76 76 106 106 82 106 106 78 77 106 106 73 98 106 69 68 143 106 63 162 166
1 1 37 32 1 34 34 1 1 32 0 1 31 31 0 0 30 0 0 30 31 0 27 27 77 0 26 26 90 245 25 1 0 248 25 1 248 24 91 1 41 92 1 43 44 92 2 46 2 93 132 49 2 2 136 170 3 139 53 179 4 144 184 5 252 28 189 251 29 93 193 250 29 4 250 250 93 6 250 249 93 158 249 93 93 158 200 93 158 157 200 93 157 199 199 155 155 198 8 152 197 196 238 149 195 194 234 193 193 231 230 94 227 226 94 94 222 220 94 129 215 95 95 125 206 95 122 121 95 95 119 178 96 117 116 174 173 115 171 171 140 114 168 167 121 165 164 109 106 161 160 97 99 157 90 89 99 113 84 99 99 113 81 100 114 114 101 101 114 114 101 113 113 144 102 113 143 143 38 111 142 141 75 1 139 75 75 2 135 75 103 129 17 75 104 117 75 104 104 21 75 104 103 24 88 104 102 101 92 13 100 45 105 15 98 36 18 96 17 30 22 25 26 28 27 47 22 76 106 82 28 76 106 119 28 109 106 27 27 110 106 27 111 111 66 27 112 71 73 113 113 77 67 153 79 80
41 77 1 37 29 1 1 35 33 1 33 33 1 1 32 32 0 33 32 0 0 29 33 0 27 27 0 0 26 1 1 25 25 1 1 25 1 1 41 24 1 2 44 2 2 46 47 2 48 49 2 2 51 51 4 141 53 4 4 145 55 5 28 28 181 6 28 29 6 251 29 5 7 30 93 5 251 30 6 6 250 92 7 55 249 93 8 53 9 9 163 50 9 162 48 196 9 159 44 9 241 156 193 8 32 151 192 235 31 190 190 231 32 19 227 226 94 21 222 94 94 130 215 95 27 125 95 95 122 19 95 96 119 175 5 117 116 171 160 115 168 167 140 114 164 125 120 161 160 108 105 157 99 96 99 154 90 88 99 114 84 99 100 114 100 100 114 114 101 101 114 143 101 113 113 142 102 113 140 140 111 111 139 75 75 137 136 75 75 133 75 75 103 124 75 75 104 75 75 104 104 75 75 104 103 102 104 104 101 52 105 100 100 41 105 98 35 33 18 96 29 28 95 32 25 76 93 22 28 76 106 21 76 76 106 28 76 106 106 27 76 106 81 76 111 106 76 76 106 72 71 113 106 67 154 162
25 1 239 238 32 125 37 39 42 124 33 52 123 123 40 63 123 46 48 123 123 56 1 123 64 67 243 124 76 79 246 87 89 247 248 89 249 249 90 91 250 251 91 133 251 92 92 137 252 92 140 141 149 92 144 156 159 147 148 165 167 152 171 173 252 156 178 179 252 182 183 251 251 186 187 251 92 93 251 251 92 168 250 93 93 169 249 93 168 168 32 93 168 167 93 166 165 192 93 163 192 191 242 159 190 190 239 38 188 235 235 33 187 231 94 185 7 227 94 183 223 31 94 7 216 95 30 126 31 95 122 121 31 39 119 172 31 45 116 168 49 51 13 164 55 11 11 5 119 9 157 6 35 7 6 95 37 5 7 39 99 7 7 42 100 7 44 45 59 8 47 55 53 1 51 48 113 1 42 40 1 138 34 32 1 12 26 1 1 14 2 2 15 16 2 2 18 78 79 20 20 82 83 22 85 86 11 24 89 90 13 75 92 14 14 95 105 17 15 17 19 20 25 28 24 39 46 27 30 71 28 27 90 110 27 107 87 25 27 108 144 36 76 110 61 27 76 111 70 76 112 107 75 76 112 78
45 88 1 42 41 34 1 39 1 1 126 36 1 1 35 38 1 35 35 1 1 31 54 1 28 28 65 244 26 1 1 246 26 1 41 248 89 1 44 24 90 134 47 91 2 138 51 92 141 53 136 92 145 144 4 26 150 154 5 27 160 163 253 28 168 7 252 92 175 252 29 93 252 252 92 6 252 252 92 172 60 92 92 174 59 93 174 174 189 93 173 173 189 172 172 189 189 171 189 188 244 244 188 187 241 93 186 240 238 93 185 236 94 94 233 232 94 144 228 94 94 137 223 95 132 131 177 95 127 126 175 123 122 173 172 119 119 169 179 117 167 165 158 163 162 142 137 159 158 122 98 98 109 106 98 98 96 98 98 114 88 99 114 115 42 100 115 114 100 59 114 139 138 114 114 137 77 113 136 136 76 112 135 76 76 1 133 75 103 1 14 75 103 124 16 74 103 106 75 78 104 105 82 104 104 103 86 11 102 54 89 12 101 43 13 14 12 35 16 98 19 27 75 27 26 27 76 49 27 76 103 85 27 104 106 27 27 107 106 27 108 108 55 26 109 109 64 151 110 69 71 152 74 75 154 154
25 26 131 29 31 130 129 38 40 128 28 49 127 127 33 127 127 38 40 127 127 46 240 241 53 56 243 244 64 245 245 86 76 247 87 88 2 249 89 89 251 25 90 139 140 91 91 143 123 91 147 148 134 92 151 142 144 3 157 151 252 3 61 160 253 165 63 9 252 92 171 252 252 92 11 252 92 92 12 31 92 178 13 32 92 179 32 32 9 179 32 92 11 55 185 12 176 52 185 13 49 185 13 15 45 12 242 42 40 11 239 37 10 10 33 94 9 9 32 24 8 32 32 27 32 32 30 31 32 32 34 21 31 39 40 19 32 44 17 16 5 50 15 14 5 13 12 6 6 11 6 6 34 8 7 7 36 147 7 38 38 144 7 40 65 64 42 43 62 2 46 58 57 1 49 52 1 1 101 44 1 1 102 112 1 11 11 111 1 13 67 2 125 15 71 119 16 75 76 104 19 79 104 84 75 83 11 64 75 105 12 7 75 105 100 10 105 105 99 15 105 97 97 28 106 95 39 24 93 93 22 27 91 91 22 76 105 24 25 76 106 32 76 76 106 52 76 106 106 76 76 106 72 76 106 106
136 240 27 133 133 33 35 131 42 42 130 130 28 53 129 129 33 129 129 38 40 239 45 46 241 242 54 56 244 83 64 245 246 86 75 248 88 88 250 250 89 140 251 89 90 144 145 91 147 149 120 91 152 154 131 157 158 139 141 162 163 148 252 167 154 156 253 65 161 252 252 92 167 252 92 92 252 252 92 92 252 92 92 183 251 92 184 184 33 92 184 184 181 11 182 181 181 12 181 181 246 178 49 181 244 173 181 243 242 42 180 240 93 37 11 236 93 93 9 33 94 146 228 32 95 138 32 95 33 131 32 36 126 21 31 41 121 167 45 47 17 163 176 53 14 6 154 13 12 6 132 10 6 6 35 8 7 36 37 7 7 38 99 66 40 40 65 115 43 43 61 1 46 57 55 1 52 50 1 1 44 42 1 11 35 1 1 12 75 1 13 13 68 2 15 15 72 113 17 75 76 19 79 80 12 21 83 84 11 75 86 11 12 7 90 13 10 12 105 15 17 26 18 97 28 26 22 42 24 26 93 74 26 26 103 23 27 104 105 26 26 106 50 37 76 107 59 76 76 106 68 76 109 106 72 76
113 26 2 97 31 2 1 76 39 133 63 59 2 132 28 46 2 41 34 2 2 42 41 2 42 43 1 2 44 1 1 45 46 2 247 26 2 3 25 88 3 3 25 2 3 25 26 3 26 26 3 3 26 26 3 62 27 3 3 64 138 4 65 66 10 5 66 66 12 67 67 14 14 67 15 15 31 67 17 17 32 171 18 32 33 9 18 33 10 10 250 34 11 60 34 92 12 56 34 13 184 52 93 15 49 48 15 176 45 14 14 171 40 12 33 163 176 11 34 176 175 232 33 174 8 227 95 173 223 32 95 36 216 95 40 21 206 96 121 18 96 96 118 16 96 117 116 157 97 115 12 152 115 115 148 7 111 115 144 100 37 141 140 91 99 137 86 84 100 134 81 100 100 80 79 101 101 115 101 101 114 114 102 113 113 129 102 112 112 127 110 110 124 122 109 108 117 75 107 106 102 75 75 87 75 75 104 66 75 104 104 75 75 105 105 75 105 105 100 75 105 105 98 105 105 96 96 25 95 94 23 22 93 92 22 76 90 24 24 76 87 30 76 76 148 45 76 76 106 25 76 106 106 76 109 106
21 2 109 103 20 238 87 2 21 236 43 2 235 235 54 2 236 61 63 134 237 69 2 134 74 76 135 45 49 80 137 56 2 139 140 66 248 142 73 75 250 146 84 251 251 91 94 252 252 89 253 253 90 90 253 90 90 167 253 90 90 172 91 91 176 177 91 91 181 149 91 184 185 155 156 187 159 160 253 190 164 252 252 166 167 252 252 169 252 251 92 171 250 250 92 250 249 92 92 189 93 93 188 186 93 93 184 174 93 179 178 174 93 173 174 174 22 165 174 174 235 33 173 231 231 173 9 227 95 171 223 221 95 7 216 95 95 7 205 96 121 6 32 96 118 158 32 59 116 153 97 115 11 148 66 115 145 144 68 7 141 99 68 5 137 90 3 3 9 84 99 9 9 45 100 9 78 49 51 10 52 102 43 10 56 37 113 59 60 28 1 124 23 22 2 118 18 2 2 16 15 3 3 19 3 3 20 21 5 5 22 85 6 23 23 88 12 24 90 92 15 25 93 17 18 96 96 21 22 98 25 26 74 100 30 103 112 106 37 133 138 26 86 146 26 26 150 150 26 106 152 25 25 107 154 25
125 120 3 109 104 2 2 88 2 2 48 68 2 2 46 55 2 46 46 2 2 46 1 2 47 47 2 30 48 2 2 28 51 3 27 27 62 3 26 26 72 250 26 3 5 26 88 3 252 26 3 3 64 89 4 66 66 90 4 68 11 90 177 69 14 5 182 138 16 185 70 145 253 190 150 20 253 32 155 253 33 91 159 252 33 10 252 252 91 11 252 91 91 196 251 91 91 195 168 91 194 193 169 92 191 170 20 187 186 171 18 182 171 171 241 175 171 239 239 171 171 236 234 94 232 232 94 94 228 226 95 137 222 95 95 129 95 95 125 123 96 96 120 160 96 118 117 155 154 116 151 150 146 115 147 145 124 143 142 110 107 138 100 97 99 134 90 88 99 116 84 99 100 116 80 100 115 115 101 101 115 126 102 114 113 126 102 113 125 125 29 111 123 121 75 2 116 75 75 108 103 75 104 89 75 75 104 20 75 104 104 21 75 104 102 23 88 105 100 100 90 14 99 31 105 18 31 27 21 95 53 23 26 78 23 26 32 116 24 76 102 139 25 76 106 149 25 105 106 25 25 106 65 25 107 107
20 20 240 144 19 238 238 19 19 236 235 21 235 235 52 23 235 235 61 138 236 67 69 139 239 73 140 140 77 78 142 47 81 144 145 55 83 147 62 64 250 151 71 73 251 62 81 252 252 65 7 252 88 98 253 253 89 12 253 89 89 14 253 89 182 184 29 90 188 189 30 6 192 141 90 7 72 147 8 197 71 152 9 71 154 27 10 69 158 252 35 67 28 251 91 27 27 36 91 26 26 36 15 24 36 36 17 22 36 19 19 48 36 21 182 168 23 24 40 169 26 37 36 12 30 33 32 10 30 29 9 8 27 26 8 33 33 7 7 33 48 7 32 32 54 6 32 58 59 33 33 63 64 33 67 67 10 35 69 69 7 7 70 5 5 8 115 4 8 9 116 2 9 43 2 127 9 46 1 10 78 50 47 11 53 102 38 77 58 32 30 76 102 25 1 75 103 19 2 104 104 107 3 104 13 106 75 19 104 5 20 75 103 48 22 85 102 39 75 89 35 34 75 92 30 75 75 105 27 76 105 105 94 76 106 29 92 106 106 90 133 106 106 87 34 106 85 84 54 106 81 83 95 76 77 131
242 131 19 239 239 33 18 236 95 2 235 234 47 2 234 234 56 140 51 62 64 141 29 69 141 142 34 75 143 39 41 145 145 46 3 148 53 54 248 152 61 250 250 86 70 251 251 86 252 252 87 87 252 253 87 173 253 88 88 179 253 88 183 185 116 88 188 123 125 192 193 130 132 196 136 137 253 199 141 143 253 145 146 253 253 149 252 252 90 90 252 252 90 204 251 90 90 203 251 91 202 202 91 91 199 199 92 197 196 163 92 192 164 164 244 186 166 166 242 41 167 239 238 36 167 235 94 168 11 231 94 9 227 33 95 8 221 95 46 128 33 96 123 122 32 55 119 154 32 60 117 149 64 65 12 144 68 10 10 7 118 7 136 106 37 5 8 94 99 3 9 40 99 9 9 44 59 10 46 47 52 10 50 46 44 1 54 38 113 1 32 30 1 120 24 23 2 14 19 2 2 15 3 3 17 17 3 4 19 78 79 20 21 82 83 21 85 85 12 23 88 13 14 75 91 16 17 93 105 20 46 53 23 24 78 25 29 107 116 25 35 135 25 25 87 147 25 103 84 57 24 104 153 100 76 105
70 19 240 64 18 3 237 37 18 235 89 44 3 234 51 53 2 57 59 143 2 44 67 143 39 71 3 145 33 3 147 57 41 3 150 46 4 3 62 54 249 4 64 6 251 66 67 8 27 69 10 10 27 71 13 28 28 5 16 28 88 6 29 29 6 190 30 30 7 75 31 7 8 76 8 8 75 75 32 9 75 34 34 74 74 35 35 73 36 36 36 71 35 37 37 151 35 38 38 33 251 38 16 17 38 38 18 57 38 19 19 53 37 21 49 48 93 24 44 18 26 178 40 15 30 37 166 12 35 32 11 10 34 165 9 34 33 164 220 33 48 160 212 33 54 203 199 96 59 186 33 96 117 14 97 67 116 11 97 116 9 136 97 116 133 8 116 116 128 8 116 127 126 86 42 124 124 81 100 122 79 79 101 78 78 101 42 77 77 102 113 76 102 102 111 76 103 110 110 109 103 108 108 92 107 106 77 72 105 63 59 75 104 49 47 75 42 40 75 75 36 35 75 105 105 75 75 105 98 76 106 106 95 76 106 94 93 106 106 91 91 106 90 89 31 34 87 86 47 76 83 70 81 76 153 119
5 4 70 68 4 149 63 4 3 147 18 3 84 145 19 3 65 21 21 234 50 3 3 236 68 3 238 36 73 3 242 76 3 151 245 79 154 63 81 81 158 66 82 161 163 61 8 167 168 69 252 172 76 13 253 82 84 253 29 91 93 253 87 100 253 253 87 108 253 88 87 199 253 88 88 203 88 88 205 206 88 207 208 133 88 209 209 138 210 210 140 141 252 210 144 252 252 146 146 251 90 149 251 250 90 151 250 91 91 249 248 91 92 247 92 92 194 192 92 93 186 162 93 179 176 164 171 168 165 165 158 155 165 229 146 164 163 224 135 162 219 217 95 158 210 96 96 7 197 96 96 183 33 96 117 160 97 97 116 34 97 116 116 35 98 116 130 128 69 116 126 91 67 2 124 84 116 1 10 81 1 121 11 78 1 11 77 53 101 12 56 102 112 12 60 102 111 63 64 20 109 67 103 16 3 72 14 106 4 76 12 5 53 20 11 7 20 75 10 12 22 75 16 23 22 89 25 23 23 91 24 24 93 94 24 95 95 27 28 97 97 34 135 98 39 41 147 100 48 151 152 55 57 153 153 63
77 75 5 4 69 5 4 65 64 4 4 61 3 3 79 59 3 3 61 21 3 50 47 3 235 41 4 4 36 35 4 62 32 4 4 65 30 4 67 67 81 4 69 8 82 167 71 10 11 172 65 13 28 75 74 17 29 80 20 253 29 88 253 29 86 97 253 31 8 200 253 87 8 79 253 87 207 78 87 87 209 78 88 211 211 129 88 212 132 46 213 213 135 46 39 138 139 252 39 142 142 251 89 144 250 250 90 249 249 91 91 248 248 91 201 246 92 92 195 47 93 189 186 160 93 179 176 162 170 167 163 163 157 164 164 229 144 162 162 223 96 160 218 216 96 156 208 96 96 198 193 96 118 178 96 96 116 155 97 116 116 97 97 116 116 130 116 116 127 126 116 116 124 89 116 122 121 84 1 120 81 80 119 119 78 101 119 77 77 101 102 77 102 102 112 76 103 111 110 63 103 109 109 68 15 107 80 104 13 106 61 75 104 6 48 75 103 41 21 75 12 36 75 86 19 22 75 106 30 23 91 106 23 23 93 106 94 95 106 28 92 97 34 90 141 98 41 88 41 48 50 152 70 57 60 154
33 33 156 155 36 154 153 17 40 151 151 17 233 150 17 18 232 149 19 232 233 21 22 235 66 25 237 237 71 28 240 74 74 242 243 77 77 159 78 79 162 163 80 81 167 51 82 171 173 58 6 177 64 66 182 183 72 253 188 78 80 253 253 86 253 253 85 94 253 85 86 39 253 86 86 43 34 86 210 253 35 87 212 119 87 12 214 124 87 215 77 128 14 215 131 252 15 73 135 251 17 70 47 251 67 140 44 250 89 40 249 41 90 36 40 91 24 30 40 92 196 39 39 29 187 39 38 34 39 37 37 38 35 162 42 32 31 9 46 29 8 8 26 25 7 215 23 7 7 33 20 7 7 33 65 7 33 34 69 34 34 71 71 35 35 72 7 36 71 71 4 38 69 3 3 99 65 2 1 11 116 1 11 11 1 118 11 50 1 11 12 54 116 12 57 58 114 13 61 22 14 75 65 18 3 68 103 14 4 72 12 105 5 104 11 7 8 105 103 10 20 105 101 16 21 85 100 31 22 88 28 27 76 91 25 23 76 106 23 76 95 106 25 76 106 37 76 76 106 87 151 106 106 84 154 106
160 83 6 157 76 17 5 154 70 5 233 152 17 5 91 85 18 231 70 4 19 233 62 4 234 235 67 4 237 71 72 155 241 74 5 158 76 76 162 72 40 165 167 44 11 171 172 50 251 177 55 57 252 182 62 252 252 68 70 253 253 84 253 253 84 8 253 84 84 204 253 85 85 208 85 85 211 211 85 85 213 110 86 215 215 115 253 217 119 120 252 217 122 252 252 126 126 252 252 129 251 251 88 133 251 251 88 250 250 89 89 212 90 90 209 208 90 91 203 149 92 199 196 154 92 189 157 157 34 178 160 237 235 36 162 232 231 162 228 227 95 159 223 221 96 7 215 96 96 7 204 96 119 191 33 96 117 139 96 70 116 133 97 116 9 128 72 116 126 124 71 4 122 94 68 3 10 87 2 1 11 82 100 11 11 47 101 12 78 50 40 12 53 102 32 12 58 27 111 60 62 21 2 96 17 16 3 77 14 4 4 16 12 6 49 18 7 8 19 75 11 20 20 83 17 20 21 85 14 21 88 88 17 22 90 21 22 92 92 26 27 94 30 32 137 96 37 146 149 106 46 152 152 22 83 154
158 37 160 19 19 158 157 17 17 155 16 17 232 153 16 17 230 67 18 231 232 67 20 233 64 21 5 236 69 155 239 37 72 158 242 74 5 163 31 76 166 167 30 5 171 43 29 6 78 49 6 6 79 56 252 80 81 26 253 81 68 32 31 82 37 253 32 83 43 33 83 48 49 34 11 211 35 36 11 214 37 12 13 82 38 13 218 81 14 14 80 115 15 79 78 63 16 76 76 62 42 74 60 59 43 70 55 43 43 52 51 43 43 46 43 43 24 39 42 26 27 246 41 29 30 47 93 33 43 42 37 38 39 14 42 36 35 11 150 32 9 8 137 28 8 34 34 154 7 34 34 148 201 33 65 7 182 34 68 165 34 97 71 141 97 72 8 120 97 71 5 9 98 117 3 10 67 117 118 10 117 1 116 81 116 116 11 79 115 115 78 51 114 114 77 55 30 76 76 103 23 76 75 103 109 75 103 104 107 104 104 106 105 104 104 104 45 43 103 103 38 19 102 35 34 75 100 31 75 75 29 28 76 76 26 76 76 106 24 76 76 106 93 76 106 106 90 76 106 88 87 106 106 86 72 106
164 163 39 40 160 18 18 158 157 17 232 155 16 17 230 154 17 230 230 17 18 231 232 19 233 233 65 22 236 237 69 158 239 71 72 162 33 74 165 166 75 76 170 37 77 174 175 43 78 180 47 49 251 186 53 252 252 83 60 253 253 65 38 253 82 72 253 253 82 50 253 82 82 56 253 83 214 215 36 83 217 97 38 13 219 102 84 14 82 107 15 221 80 111 16 79 115 69 18 77 68 252 44 74 65 251 86 61 60 44 87 55 54 44 23 49 44 89 25 41 43 28 205 52 42 31 48 151 34 35 43 156 39 40 39 14 44 35 35 10 33 31 9 8 29 8 7 34 34 7 7 34 62 7 33 34 67 7 34 70 70 34 34 72 72 35 72 72 7 36 72 5 4 10 69 3 3 10 117 2 10 10 116 1 11 45 1 114 12 48 114 12 77 52 35 12 55 102 28 76 59 23 22 75 103 18 3 75 104 14 4 104 13 105 6 104 104 8 41 18 103 12 19 75 102 34 19 83 100 31 76 85 28 27 76 105 25 76 76 106 24 76 106 106 92 76 106 35 90 106 106 87 152 106 106 85
162 160 5 163 153 5 5 81 139 5 5 76 5 5 74 74 5 73 73 6 6 73 73 6 58 73 6 6 47 75 7 40 39 8 9 35 34 10 33 32 6 13 31 6 6 81 30 7 7 82 77 7 83 83 79 8 84 33 8 196 84 40 200 85 46 48 33 85 53 34 35 76 60 36 36 83 253 37 12 69 253 38 13 253 40 82 14 253 82 15 222 82 83 16 81 107 83 223 79 75 84 223 115 72 222 222 119 251 221 123 124 250 219 128 250 250 87 133 249 45 89 248 247 90 30 245 245 92 196 243 93 93 184 94 94 172 168 159 95 156 160 159 144 141 157 8 132 154 153 216 125 149 208 205 144 142 193 188 137 178 172 96 96 154 148 96 117 131 97 97 117 112 97 117 117 98 98 117 116 99 117 117 115 99 116 114 114 80 116 114 113 78 113 113 77 77 111 77 77 103 107 76 76 103 14 75 103 103 108 75 104 107 106 69 104 105 105 104 104 104 39 105 103 36 35 12 101 32 32 13 31 30 76 76 49 26 76 105 25 21 76 106 21 76 91 106 21 76 106 37 21 95 106 87 21 96
42 24 239 239 43 236 235 45 46 160 232 48 158 158 51 52 157 75 55 157 157 17 60 157 18 19 158 159 20 21 161 23 23 239 240 25 26 243 72 28 245 246 74 32 248 75 75 250 250 76 184 251 77 77 190 252 77 195 196 52 78 200 202 59 204 205 63 65 209 68 70 253 213 74 76 253 86 80 253 253 80 86 253 80 80 253 253 81 81 253 81 81 224 253 81 224 225 45 82 225 225 46 20 224 112 113 21 224 116 251 222 70 121 250 67 125 59 249 63 131 248 45 57 43 247 90 52 33 43 92 195 24 42 93 181 40 40 46 165 38 49 50 34 37 53 138 155 56 57 27 150 215 61 24 7 202 21 20 7 34 17 7 7 34 13 8 34 35 8 8 36 97 9 37 37 69 117 38 39 65 2 41 61 59 1 56 54 1 1 48 46 1 12 40 1 1 12 33 2 12 13 56 2 13 59 60 87 14 63 64 14 75 67 13 15 70 70 12 75 73 11 11 12 76 11 17 19 105 12 27 19 105 99 42 20 17 98 26 20 97 93 20 21 94 25 20 91 91 30 76 92 39 44 76 94 49
242 164 6 96 158 46 6 88 147 6 161 82 8 6 80 80 7 158 78 7 7 158 17 7 67 160 18 8 52 20 21 236 43 6 11 240 69 7 243 35 7 172 246 72 7 84 249 74 182 85 74 74 188 86 76 193 194 46 42 199 50 51 253 204 56 57 253 61 62 253 36 67 68 253 78 73 253 253 79 78 253 79 79 222 253 79 224 224 80 80 225 225 80 225 225 97 81 226 226 101 226 226 105 106 252 108 109 251 251 113 114 251 84 118 250 250 85 123 249 86 86 248 248 88 89 247 89 90 204 202 91 196 193 151 93 182 178 156 169 165 158 158 152 148 158 227 137 155 154 221 28 149 215 212 96 142 202 96 96 7 184 96 96 166 34 96 117 143 96 97 117 35 97 117 117 37 70 117 115 114 65 117 114 87 59 1 112 82 117 1 12 79 1 111 78 50 1 12 77 102 102 13 56 103 111 13 60 103 108 62 63 15 107 66 104 12 6 70 12 104 10 11 11 13 36 17 11 20 18 75 29 32 18 76 45 19 19 85 71 19 86 87 20 20 88 89 20 90 90 33 35 92 92 42 153 93
46 46 239 47 47 166 235 48 49 163 50 51 161 161 53 53 160 17 56 160 160 17 59 160 18 18 231 161 19 234 235 82 21 238 239 22 13 242 69 25 244 245 70 19 247 72 72 182 32 73 187 188 32 73 192 40 74 9 198 45 75 202 88 51 10 208 55 66 11 89 61 253 253 89 80 253 77 88 86 253 78 89 90 42 78 92 253 44 16 94 45 79 18 46 46 19 227 84 48 20 82 99 21 21 80 104 22 78 77 86 23 74 81 79 71 70 74 71 49 67 64 48 86 55 52 47 32 43 46 46 36 31 44 40 41 43 42 45 42 40 49 50 38 37 53 35 33 8 57 31 30 7 125 26 7 7 24 140 7 34 20 7 7 34 128 8 34 35 74 8 35 73 72 117 36 71 70 103 98 67 2 40 99 117 1 99 57 117 1 100 116 0 111 12 115 1 12 77 114 107 13 54 103 100 76 58 88 83 75 104 68 75 75 104 13 75 104 12 105 75 104 11 12 104 104 103 18 105 102 101 31 105 100 100 29 99 98 27 26 76 97 25 76 76 25 25 76 106 28 76 76 106 39 76 106 106
242 241 48 7 237 50 50 165 233 51 164 163 52 53 161 161 55 161 161 16 57 161 161 17 229 161 18 18 232 164 19 235 236 20 21 239 67 23 242 243 68 25 245 69 70 248 248 71 71 186 71 72 190 192 72 195 196 40 73 201 202 45 10 206 49 50 209 211 55 253 214 59 60 253 253 64 253 253 76 70 253 76 76 96 253 77 77 99 45 77 226 253 78 78 228 89 78 228 228 93 21 228 96 97 22 228 100 252 24 78 105 251 226 74 85 251 71 115 76 250 84 68 249 50 86 56 48 88 34 42 47 90 202 45 44 42 188 43 42 48 42 40 51 52 37 9 55 34 33 8 59 30 7 7 27 26 7 206 23 7 7 34 19 7 7 34 73 8 35 35 73 35 36 73 72 36 36 70 3 38 67 65 2 40 61 1 1 56 54 1 12 12 0 1 12 12 1 12 12 51 1 13 12 54 97 13 57 58 79 13 61 16 13 75 64 13 6 67 104 12 10 70 11 104 14 105 11 20 22 105 101 30 17 105 100 28 17 82 98 26 18 84 25 25 76 86 26 19 76 106 31 76 89 38 45 76
169 112 16 238 51 14 14 158 52 12 11 147 7 11 135 130 7 86 115 7 7 85 92 7 85 17 7 7 85 18 7 86 86 14 7 86 87 17 40 88 20 20 36 23 24 35 34 29 30 34 9 36 34 33 10 46 33 10 10 34 35 11 91 91 12 12 91 91 12 91 91 85 13 91 91 92 220 90 96 98 223 90 101 43 90 74 104 45 18 105 253 47 19 106 48 76 20 253 50 21 21 252 77 23 83 252 77 229 80 99 79 228 77 93 227 227 110 85 225 70 78 250 222 121 66 50 218 129 248 48 135 137 245 90 41 243 242 93 46 239 94 94 165 234 95 54 147 96 96 136 33 96 128 126 146 96 122 121 138 202 118 133 131 183 117 127 166 160 122 121 143 137 118 127 123 97 115 110 97 97 117 97 98 98 117 98 99 117 117 100 100 117 110 101 115 115 109 115 114 107 106 113 112 101 76 76 90 85 76 76 70 75 75 104 52 75 75 104 75 75 104 104 75 104 105 103 75 105 105 102 32 105 101 100 30 105 99 28 27 17 98 25 76 96 112 25 76 94 27 18 76 106 34 76 76 106
242 241 51 171 237 53 53 168 158 54 165 165 55 56 164 18 17 163 163 17 17 163 17 17 228 163 17 18 231 87 18 233 235 88 15 238 64 21 19 242 66 176 245 37 67 181 248 68 9 187 34 69 191 91 34 10 198 35 35 10 92 40 11 12 92 45 253 92 49 85 253 92 54 253 40 91 98 253 73 103 104 43 73 107 108 45 17 227 47 47 19 228 48 20 20 88 50 21 87 87 22 22 85 90 23 84 83 106 25 81 80 102 54 78 98 96 54 74 90 53 53 83 80 52 31 69 51 51 34 54 49 37 38 246 47 42 43 50 92 47 46 45 51 165 41 11 55 38 37 8 136 34 7 7 126 29 7 36 36 137 7 35 35 7 183 35 73 8 35 96 74 143 35 73 73 123 97 71 4 106 97 67 2 11 98 117 2 12 117 117 110 12 116 1 109 80 115 108 13 78 114 105 77 51 98 95 76 55 21 76 76 104 17 75 104 104 107 75 104 104 105 104 104 104 104 105 105 103 34 15 102 101 31 76 100 29 28 76 99 27 76 76 25 25 76 76 25 76 76 106 29 76 76 106 91 76
171 119 20 168 167 28 17 163 160 8 231 153 7 7 143 57 7 91 125 7 7 89 59 7 89 89 60 8 89 14 15 167 89 16 17 90 20 19 44 91 23 243 39 23 28 38 37 26 248 36 9 28 250 36 10 92 251 68 11 93 69 69 207 93 70 12 211 45 70 215 93 50 70 219 54 101 221 222 59 107 43 63 64 253 45 67 253 253 72 73 253 253 72 253 253 73 21 253 253 73 231 87 73 73 231 90 74 231 231 95 75 231 99 100 230 229 104 106 228 108 110 250 226 115 116 249 82 122 248 248 85 247 247 88 89 245 244 91 192 241 93 93 174 236 95 159 154 95 95 142 154 152 132 129 147 145 124 141 139 208 119 134 132 192 21 126 177 171 122 121 154 96 96 137 132 96 117 118 97 97 117 103 98 118 117 39 99 117 117 99 54 117 109 100 116 1 108 79 115 107 106 77 1 101 77 77 2 87 76 103 3 13 75 104 53 13 61 104 12 75 64 12 105 67 105 11 104 70 11 103 25 72 12 101 30 13 13 50 28 15 70 78 16 76 104 25 16 83 134 17 76 85 149 17 86 106
40 38 174 174 32 30 171 27 26 232 168 22 22 229 96 20 227 227 18 14 226 59 59 227 227 59 165 229 60 60 167 232 61 169 170 53 62 172 174 63 9 177 22 22 181 93 24 248 187 25 26 250 93 29 251 251 94 32 252 67 94 73 252 68 81 84 39 68 214 253 40 14 218 42 69 15 222 43 16 224 93 45 17 92 64 18 18 92 69 19 92 91 119 253 91 90 120 52 89 119 119 54 88 118 55 72 116 116 55 26 114 56 56 28 231 56 29 29 77 56 30 31 73 32 32 69 68 34 66 65 63 37 61 60 45 207 56 33 29 46 50 20 44 43 14 12 41 41 9 40 39 59 7 38 61 62 218 37 65 66 208 96 69 24 22 96 73 19 8 74 117 13 8 117 10 114 10 117 6 10 110 117 111 11 38 38 110 91 40 57 109 85 42 49 81 44 101 42 79 101 37 114 77 102 29 2 103 103 111 3 12 104 109 57 12 108 108 45 75 106 40 40 75 105 37 76 76 35 34 76 70 33 76 76 105 12 76 76 105 99 76 106 106 97 106 106 96 96 106 106 94 28 106 92 92 39
242 177 38 24 169 32 31 234 164 26 231 230 59 22 228 227 59 226 226 59 59 165 226 59 165 165 59 60 166 93 60 168 168 18 60 171 19 19 174 175 20 21 178 21 22 246 247 23 24 248 64 26 250 250 64 251 251 65 65 252 252 66 207 252 66 66 212 253 67 215 217 46 67 219 221 51 222 223 55 56 225 58 59 253 227 63 65 253 93 68 253 253 69 73 253 70 70 253 253 70 232 252 70 70 232 252 70 232 232 57 71 232 232 57 28 232 100 101 30 230 105 251 229 74 112 250 70 117 79 249 65 125 248 51 60 46 246 88 55 29 47 92 182 17 44 53 162 42 95 57 143 39 60 133 36 38 63 124 141 66 66 28 132 200 71 23 7 181 19 18 8 36 13 8 9 35 9 10 36 36 10 11 37 97 11 38 38 61 117 39 56 54 1 41 48 47 1 43 41 2 2 36 34 2 12 29 2 2 12 23 3 12 12 56 5 12 58 59 43 12 61 62 12 76 65 11 13 67 68 11 76 70 11 12 35 105 13 48 52 106 15 72 14 17 97 104 15 21 129 25 15 94 147 16 16 92
46 44 9 175 37 237 9 112 30 232 231 105 19 228 60 22 17 142 60 16 225 124 60 16 108 60 8 18 87 59 168 74 69 9 171 19 56 9 95 19 9 9 94 33 10 95 95 40 10 95 48 50 95 95 59 251 95 67 71 38 64 80 39 39 13 91 40 40 14 41 42 14 15 43 43 16 95 45 17 17 94 47 17 94 94 124 19 93 126 126 231 93 127 127 92 127 127 54 91 127 126 55 81 125 56 56 26 252 57 28 28 252 58 29 83 58 70 30 80 58 32 231 76 73 33 73 72 76 225 69 77 72 219 126 56 51 210 136 37 48 143 146 242 46 152 15 236 95 155 231 41 96 227 226 96 62 127 220 96 122 31 96 96 118 26 96 117 117 122 95 117 16 117 117 117 114 10 131 112 111 118 37 110 110 103 97 109 96 93 99 108 88 99 99 84 83 100 116 80 101 101 114 114 102 113 113 94 103 112 111 74 110 110 59 55 108 108 45 76 107 41 40 76 38 37 76 76 105 35 76 105 105 76 76 105 105 76 106 106 100 76 106 99 98 77 106 97 96 25 96 95 27 28 93 93 34
242 178 45 239 238 38 36 234 60 31 231 230 61 61 227 61 61 166 225 61 61 165 60 60 166 166 59 59 167 18 59 168 169 19 9 171 18 18 238 175 20 242 242 95 21 245 246 22 247 248 60 24 249 61 61 65 251 62 62 203 40 63 207 209 40 63 212 38 63 14 217 43 64 220 95 48 16 224 51 122 17 95 56 253 253 95 128 253 65 94 129 253 65 130 130 54 66 130 55 56 24 129 57 66 26 58 58 27 234 89 58 28 86 94 30 30 83 99 32 81 80 113 33 77 106 103 74 73 93 249 55 79 74 54 81 57 52 51 43 36 49 48 48 46 46 53 54 44 43 57 45 41 59 60 40 39 62 37 35 6 66 32 30 6 118 27 7 7 22 121 8 36 17 8 8 36 113 10 36 36 71 11 36 68 67 103 38 62 2 93 99 56 2 40 99 117 1 100 43 115 1 101 114 2 12 12 113 2 12 50 111 70 12 53 55 51 76 56 43 11 76 104 38 76 61 105 11 76 105 11 103 76 105 102 34 105 105 101 49 106 100 99 27 106 98 98 25 97 96 25 25 76 94 28 76 76
134 132 10 9 124 121 9 117 115 25 9 109 22 21 168 104 20 20 100 22 20 133 98 20 20 113 9 20 97 93 9 230 78 9 9 234 64 9 96 239 58 10 96 48 58 182 96 59 11 188 97 55 192 97 26 67 199 27 77 251 205 31 89 41 34 35 253 42 38 39 253 62 15 253 45 62 223 253 62 17 226 253 63 228 95 64 64 230 95 64 231 231 67 64 232 232 72 253 233 76 77 253 80 81 252 252 85 86 252 65 90 252 252 65 95 251 65 66 251 251 66 232 232 68 69 231 230 71 228 227 117 75 224 222 123 218 215 130 132 206 202 140 244 243 148 149 239 94 154 234 233 95 153 228 96 96 224 222 96 96 217 95 96 119 205 96 117 117 123 95 117 117 117 74 117 114 113 117 117 111 126 117 110 110 110 117 109 100 98 2 108 91 98 99 12 85 100 100 13 43 101 115 79 45 102 114 47 103 28 112 50 23 110 60 55 19 108 45 76 15 8 39 76 13 12 10 76 16 35 10 76 25 11 76 67 36 11 69 105 13 12 72 106 99 73 74 17 97 76 76 22 139 78 26 27 152
11 180 131 34 238 124 42 29 233 114 26 230 63 108 23 227 63 22 21 145 62 21 225 128 9 21 113 59 9 98 92 9 170 97 75 9 97 19 10 10 97 20 10 97 97 42 10 97 50 52 44 97 61 63 42 70 73 42 42 82 86 42 13 95 43 43 14 106 44 14 15 45 45 16 97 97 16 16 97 97 17 96 96 132 19 96 96 134 231 95 135 135 232 68 135 56 94 73 135 57 25 134 253 59 27 133 59 28 28 252 60 30 88 252 63 31 86 61 63 234 83 121 34 232 80 114 231 77 114 101 228 72 87 249 222 124 63 53 130 132 246 50 140 143 243 92 53 238 237 94 57 232 96 96 137 226 96 128 126 96 96 121 35 95 118 118 127 95 117 117 120 177 117 116 115 156 117 113 140 135 111 110 121 96 109 110 107 97 108 98 98 98 117 90 99 99 117 100 100 115 115 101 115 114 101 102 113 113 88 112 112 72 67 110 110 52 76 76 43 41 76 76 39 76 76 105 36 76 105 105 76 76 105 105 76 105 105 102 76 105 106 100 28 106 99 98 26 17 97 25 25 22 95 27 76 94
181 136 60 11 128 48 62 174 119 29 171 170 34 26 168 168 28 225 151 25 24 224 136 22 225 225 60 20 227 102 58 229 230 57 9 233 56 56 174 238 55 55 178 20 55 182 184 21 56 188 23 23 192 194 25 250 198 27 28 251 204 30 252 252 58 34 253 253 58 253 253 59 59 253 253 59 223 253 59 59 226 59 60 228 229 60 60 230 61 63 231 232 66 68 233 70 72 253 234 75 253 253 79 80 252 252 84 252 252 60 89 252 252 61 235 252 61 61 235 61 61 234 234 63 63 232 111 65 231 230 116 70 226 120 121 249 219 126 128 248 63 134 245 244 59 21 241 93 151 12 235 95 9 230 41 96 7 225 96 64 123 39 95 120 34 38 70 117 123 36 73 24 117 74 74 17 113 73 13 11 10 71 8 109 11 37 4 11 103 97 12 12 38 99 13 13 40 48 13 41 41 41 13 43 37 35 2 45 30 3 3 25 24 4 57 20 5 6 10 16 7 8 10 10 12 10 10 16 18 10 61 62 10 10 64 11 10 66 67 12 11 69 13 14 76 71 16 17 73 106 19 134 75 23 95 151
61 61 180 240 62 176 175 46 63 172 171 38 9 170 33 32 9 106 28 225 167 103 24 224 101 23 24 226 100 21 228 98 57 28 232 56 55 32 69 54 176 38 58 10 181 53 51 11 186 48 11 11 98 46 12 197 25 81 12 98 29 252 98 98 102 252 98 98 113 46 98 120 122 48 98 127 49 49 17 132 51 18 19 52 53 19 230 54 20 21 97 56 22 22 96 23 23 95 95 25 26 94 138 138 93 93 137 61 92 135 135 61 90 134 62 62 99 131 62 62 128 251 61 36 124 60 62 37 79 59 37 37 75 70 39 72 71 77 42 67 49 84 202 62 27 50 182 148 15 46 53 10 233 43 152 7 42 41 146 223 40 65 136 215 38 69 205 202 95 72 189 95 95 116 21 95 74 116 111 95 117 10 109 95 117 109 11 117 117 107 12 117 107 107 91 117 106 86 85 100 105 82 81 101 80 79 102 102 78 77 103 112 77 103 103 110 104 104 109 108 41 104 107 38 37 106 106 35 35 105 34 34 76 104 33 32 76 31 31 76 76 29 76 76 106 106 76 76 106 98 76 106 106 95 76 106
182 242 62 62 177 63 64 174 174 45 65 171 40 38 169 168 33 32 167 30 28 224 167 25 224 224 23 23 226 227 21 228 229 56 55 232 233 54 174 237 54 53 178 241 53 181 183 53 53 187 22 53 11 193 24 25 197 99 27 251 204 29 30 252 99 33 252 253 99 117 253 55 98 126 253 56 130 132 51 56 226 253 52 19 229 54 57 20 231 56 21 232 66 57 23 96 71 24 24 95 77 26 95 95 139 253 93 87 137 62 92 136 252 62 135 134 62 57 132 131 62 35 129 62 62 37 234 61 38 38 79 59 38 39 74 39 40 71 70 42 67 66 41 47 63 61 23 180 58 14 12 45 53 9 43 43 7 7 42 63 5 40 39 67 5 38 69 70 201 37 72 73 183 95 74 21 20 94 73 15 10 72 117 9 11 117 7 11 12 117 4 12 38 117 106 13 39 39 106 85 41 43 13 81 101 37 79 44 102 31 77 103 26 111 77 103 21 5 104 104 108 8 10 104 107 37 9 106 105 35 76 104 34 33 76 103 32 76 76 30 30 76 66 28 76 76 106 15 76 106 106 97 76 106 106 95
175 175 12 46 174 173 10 172 171 10 9 169 9 9 113 164 9 9 108 65 9 105 105 27 9 103 28 28 101 101 29 107 101 31 32 89 100 35 77 73 20 41 65 63 21 243 56 11 11 246 52 11 100 49 12 12 99 52 12 99 99 52 14 99 106 53 211 99 116 119 217 39 125 50 99 43 253 51 48 136 253 53 52 253 54 54 58 253 56 21 253 253 55 22 97 253 55 234 96 55 55 235 80 55 236 236 86 55 236 90 92 236 236 96 136 236 100 102 252 62 106 252 252 56 112 251 251 58 251 251 60 61 250 250 66 226 250 71 73 217 69 80 207 203 135 87 188 144 146 171 165 152 153 149 152 152 229 133 148 146 223 141 139 217 215 95 210 207 95 95 196 191 95 116 177 95 94 116 157 94 116 116 95 95 117 117 95 117 117 107 106 117 106 106 95 117 106 106 88 3 105 84 83 102 101 80 101 94 78 78 102 112 77 103 103 110 76 104 109 109 51 104 108 108 53 14 106 36 105 12 105 35 11 104 31 33 76 40 31 8 76 55 29 76 66 78 9 76 106 110 9 70 106 10 10 73
183 181 64 12 178 63 65 175 174 53 10 171 46 44 9 169 39 226 9 108 33 224 64 105 29 224 61 26 30 121 58 31 228 102 55 34 89 53 10 39 74 51 177 66 63 11 182 21 11 11 100 23 12 12 100 79 12 100 100 91 13 100 101 104 100 99 113 50 99 120 122 50 52 129 51 52 17 135 53 53 18 54 54 19 19 55 56 20 98 57 21 21 98 54 23 97 97 143 25 96 143 142 96 96 141 141 95 140 140 63 93 139 63 63 98 137 63 63 35 252 63 36 36 252 62 38 85 61 56 38 82 60 39 230 78 65 39 74 123 73 216 70 49 42 201 136 27 49 179 146 14 46 151 152 233 44 151 228 227 97 144 223 41 66 217 215 96 69 38 202 95 116 32 95 95 116 25 94 116 116 110 95 116 109 109 117 117 107 11 112 106 106 103 38 106 106 93 99 105 88 86 99 84 83 100 101 80 80 102 114 78 102 103 112 111 103 110 110 44 104 109 108 38 108 108 36 36 106 36 35 76 105 34 34 76 33 32 76 76 105 31 76 105 105 76 76 106 99 76 106 106 98 76 106 96 96
244 175 12 52 174 65 11 236 172 10 172 231 66 9 116 114 66 168 111 32 65 166 107 31 166 104 28 31 167 26 32 227 168 24 35 98 53 22 234 82 10 22 239 50 11 242 243 49 11 246 49 49 190 249 48 194 195 49 49 200 100 29 205 206 32 111 211 212 35 253 215 39 40 253 42 43 253 253 48 49 253 51 53 253 253 51 52 253 52 52 232 253 52 52 234 52 52 234 235 52 235 235 81 52 236 236 87 236 236 92 94 252 237 98 252 252 103 104 252 52 109 252 252 52 115 252 53 53 251 251 55 57 232 60 61 228 226 67 68 220 126 75 211 207 132 48 193 139 141 53 171 149 238 153 58 152 231 230 149 6 225 97 141 220 41 96 5 211 95 96 6 39 95 116 7 38 94 116 37 94 73 116 109 95 116 12 107 67 117 107 12 62 5 106 100 56 4 13 91 3 3 13 85 100 13 13 41 101 12 43 43 31 11 44 103 25 46 46 21 110 48 49 17 10 51 14 14 15 36 12 21 23 8 11 29 7 7 38 41 7 76 54 7 8 64 74 8 8 66 25 8 68 68 18 76 70
183 84 242 241 136 72 237 236 63 44 232 67 53 229 168 66 36 226 66 66 34 156 65 165 33 145 62 166 29 130 10 167 26 10 168 102 24 10 171 23 43 11 101 22 241 11 101 58 245 47 100 68 248 47 77 80 54 47 90 53 53 13 102 52 48 14 52 52 15 214 53 52 16 100 43 16 17 100 137 18 99 99 141 19 99 143 144 99 99 144 145 99 145 145 60 98 145 61 61 25 144 62 62 27 253 63 29 29 63 63 30 94 63 32 33 93 63 34 92 91 136 36 90 134 133 237 88 131 129 85 122 123 60 82 111 106 58 124 87 56 55 126 249 53 45 47 247 50 51 65 242 92 55 61 46 95 141 57 96 61 128 53 96 122 49 134 96 118 127 5 203 116 119 7 38 115 113 173 38 111 110 153 95 109 139 135 95 126 122 96 95 111 108 97 117 5 97 98 117 4 99 116 116 103 100 115 115 96 114 114 84 79 112 67 61 77 77 48 44 76 104 38 76 76 104 36 76 104 105 76 76 105 105 76 105 105 104 76 105 103 102 30 105 102 101 28 100 100 26 25 99 98 24 76 97 24
245 244 85 82 240 66 66 236 235 66 67 231 67 67 169 227 66 66 167 66 65 166 165 64 165 165 33 32 165 166 29 227 167 27 26 230 169 25 233 235 24 24 238 239 23 242 243 47 24 245 46 46 188 248 46 46 194 55 46 198 200 47 47 205 32 47 209 211 36 15 214 39 40 16 219 44 253 253 100 49 253 253 53 142 253 49 59 253 253 49 145 253 49 49 145 61 49 234 235 62 49 235 83 63 27 236 89 49 29 96 95 31 237 94 140 33 93 107 138 35 92 136 252 62 90 134 252 50 131 129 61 52 122 118 59 39 103 58 57 40 56 55 42 210 53 52 47 69 138 51 53 65 147 56 62 61 8 60 58 6 5 55 54 5 5 51 5 5 40 40 5 6 39 73 7 39 38 74 8 38 73 72 37 38 70 16 37 67 66 11 38 63 8 7 13 57 5 5 13 117 4 13 13 115 102 13 41 3 93 12 42 80 11 78 44 56 10 45 103 21 76 47 18 17 76 104 14 16 76 105 106 22 105 105 105 32 105 104 41 31 7 102 55 7 76 101 27 7 63 26 25 76 66 23 24 76
148 146 63 242 138 136 55 173 129 49 233 172 44 43 170 67 40 39 164 9 166 160 158 9 165 150 9 9 106 137 10 104 104 10 10 103 103 10 103 102 45 47 102 101 52 76 102 59 61 67 101 69 62 61 78 81 59 12 91 57 56 13 104 55 14 14 101 55 15 15 101 46 15 101 100 47 221 100 138 18 225 100 142 227 100 58 144 229 99 146 253 61 69 146 61 61 74 253 62 25 80 253 48 27 253 63 48 29 253 48 30 237 95 48 33 94 107 48 238 93 137 238 238 119 135 238 238 124 252 236 125 125 251 233 125 251 251 60 125 250 56 69 250 249 76 45 248 84 86 182 244 91 92 159 94 95 144 139 96 97 129 146 144 123 121 136 218 119 128 126 207 116 120 196 192 115 114 179 174 111 165 160 94 94 146 142 94 117 129 95 95 117 96 96 117 117 97 97 117 104 98 116 116 103 100 115 99 96 82 114 86 80 79 69 62 78 77 48 77 77 104 38 76 76 104 8 76 104 104 7 76 105 105 105 53 105 104 32 105 11 103 31 105 102 29 28 12 101 27 26 14 110 24 76 76 140
245 244 66 64 241 66 67 237 236 67 172 232 67 67 169 227 67 167 167 51 65 165 45 43 9 164 38 37 9 105 34 226 165 104 30 230 103 28 44 234 102 26 238 48 47 55 242 46 180 64 68 45 185 248 63 12 192 60 44 13 198 58 13 203 101 57 14 101 37 123 15 101 41 253 101 101 136 253 101 100 141 59 100 143 144 60 100 145 60 60 22 146 62 23 23 62 62 24 235 63 26 26 98 63 27 28 97 29 29 97 96 31 96 96 140 140 94 94 138 63 93 137 136 62 91 135 61 61 126 131 60 60 125 251 59 38 109 57 38 38 79 55 41 42 75 77 46 72 71 86 51 69 14 54 155 65 8 141 63 150 5 44 59 5 223 42 134 5 42 41 124 206 41 72 117 191 39 73 177 173 94 73 159 94 94 116 20 94 67 117 106 95 117 10 106 96 117 105 13 117 117 104 91 116 102 101 85 115 94 81 81 101 75 79 43 102 78 77 103 23 77 77 104 109 76 104 104 108 104 105 106 106 34 105 105 33 33 104 104 32 31 103 30 30 76 102 28 76 76 26 26 76 76 24 76 76
184 147 69 66 179 137 60 175 131 78 52 172 123 48 229 170 60 43 166 166 52 224 161 9 45 223 62 9 224 224 59 10 105 56 55 166 104 52 10 169 28 49 172 103 27 175 176 26 62 180 182 27 247 186 28 28 249 62 29 251 251 43 32 252 252 43 252 252 44 44 253 44 44 216 253 44 44 221 45 45 224 225 55 45 227 59 61 229 229 65 253 231 70 71 253 234 76 253 253 80 82 253 253 46 253 253 45 45 253 253 46 238 253 46 46 238 45 45 238 238 46 46 238 122 46 238 238 127 129 238 128 128 252 234 127 251 251 83 126 251 251 126 70 250 73 128 249 248 82 25 246 88 90 162 240 94 146 142 46 96 131 147 97 63 122 138 97 119 56 127 69 116 120 119 197 45 115 184 180 38 8 167 94 29 10 148 94 11 11 39 95 12 120 38 60 13 39 96 54 117 39 50 116 5 40 44 5 97 39 38 5 81 33 6 6 11 28 7 8 10 9 9 9 76 46 8 8 48 104 7 6 50 13 6 51 52 11 6 53 11 11 55 56 12 12 67 12 12 83 90 13 104 112 5 15 135
77 245 144 142 67 175 135 61 58 174 67 53 172 172 9 47 169 9 9 166 165 9 164 160 9 9 109 152 9 9 107 58 10 105 105 42 10 104 45 46 103 103 51 94 103 56 58 82 102 65 76 73 28 75 69 67 85 250 64 12 13 62 42 14 102 61 14 14 102 43 15 101 101 43 16 101 135 43 221 101 141 142 225 57 144 61 101 62 253 62 67 147 253 63 73 253 63 45 80 253 64 26 253 253 45 27 98 45 45 237 97 45 45 238 108 45 238 95 115 45 238 120 136 239 239 126 134 239 130 131 252 59 129 252 252 51 127 251 251 58 251 251 65 68 250 250 76 198 248 83 85 175 140 91 158 153 149 95 139 150 149 129 126 144 142 121 136 133 217 117 126 209 206 120 118 196 192 94 183 179 94 94 165 161 94 116 147 94 94 117 131 95 117 117 95 96 117 105 96 117 117 104 103 116 102 100 87 115 95 92 83 5 77 80 80 59 11 78 103 42 77 77 104 110 76 104 104 108 76 104 107 107 49 105 106 105 52 11 104 32 105 11 54 30 12 102 71 28 76 88 26 5 76 117 23 76
184 182 109 72 179 99 96 238 174 87 85 233 79 76 229 228 69 67 225 65 60 224 223 64 163 223 62 62 163 224 59 163 163 56 55 164 165 52 166 167 32 48 170 171 30 172 174 29 29 244 29 29 247 247 30 30 249 42 31 251 251 41 34 252 41 41 252 252 41 209 253 42 42 214 215 42 218 219 50 43 222 224 56 18 226 60 61 228 229 66 253 231 71 73 253 44 77 253 253 44 84 253 44 44 144 253 44 44 143 64 44 238 253 64 31 238 63 44 33 238 119 35 239 124 126 38 239 131 252 40 90 131 252 88 88 118 252 85 127 97 56 82 75 250 53 72 45 52 80 47 23 50 88 165 48 48 56 144 46 59 59 67 45 62 62 63 4 65 61 60 5 69 56 5 5 52 50 7 41 45 8 8 40 36 9 40 40 10 11 39 39 64 39 39 61 59 39 39 55 10 39 51 50 7 99 45 6 7 100 39 6 12 35 114 7 11 11 8 10 9 43 11 8 44 45 35 8 46 47 34 76 48 13 6 76 50 12 37 52 105 11 50 54 11 102 65 106 12 80 26 106 101 107 5 106 99
120 175 12 180 107 67 11 135 95 10 172 127 55 231 122 76 50 226 117 47 224 166 113 44 223 63 43 42 153 60 42 145 142 10 44 132 128 10 104 117 10 10 104 103 11 103 103 11 11 103 31 11 103 103 78 12 102 86 90 102 102 99 101 66 107 110 64 64 118 121 63 15 127 63 63 16 253 63 17 17 253 63 18 101 63 19 19 101 101 20 101 101 146 22 100 100 146 234 100 146 145 235 88 145 65 99 95 143 64 29 141 253 64 31 139 63 43 32 253 62 34 238 253 45 37 93 252 45 238 92 45 46 235 89 122 232 231 128 104 225 127 127 251 215 127 54 52 129 129 248 50 134 137 245 91 144 240 238 95 58 232 96 97 125 226 97 120 119 96 97 117 61 96 116 115 117 95 115 115 112 180 115 109 108 162 108 107 149 145 106 106 133 94 105 122 119 96 105 108 96 97 100 98 98 98 115 99 100 115 115 100 114 114 72 102 113 112 49 112 112 40 38 110 110 35 77 109 35 34 76 105 34 76 76 105 34 76 105 106 76 76 106 106 76 106 106 102 76 106 106 101 25 106 100 99 22
184 182 118 244 179 109 106 239 174 97 235 233 89 86 230 229 66 227 226 65 65 224 64 63 162 223 62 61 161 153 59 161 161 56 55 163 41 52 164 165 37 36 167 35 34 239 171 32 242 243 103 32 246 247 103 80 249 40 34 92 251 40 195 251 68 40 202 66 40 14 208 65 40 212 102 64 16 218 52 64 17 102 57 18 18 101 64 253 101 101 145 253 101 146 146 65 100 146 253 42 145 144 65 42 144 143 65 27 142 64 65 29 98 64 31 31 97 63 32 96 96 34 35 95 127 37 93 93 131 37 92 91 126 90 89 119 115 57 105 100 55 55 79 72 53 40 49 52 51 45 26 50 49 51 244 48 54 73 72 95 58 71 70 61 123 68 4 64 66 65 4 116 62 5 5 115 57 6 42 115 111 7 41 72 108 161 40 69 10 144 94 65 132 40 61 60 118 96 56 14 105 97 116 10 98 98 115 8 12 115 115 83 12 114 8 60 80 112 45 10 78 111 36 77 44 34 34 76 105 16 76 76 105 13 76 105 105 105 76 106 106 104 106 106 104 103 106 102 102 27 106 101 101 24 76 100
246 175 12 12 141 175 11 135 133 67 10 128 126 9 167 122 54 9 118 117 49 163 114 46 46 161 61 45 157 155 53 44 147 9 47 227 135 10 48 232 50 10 235 111 45 169 240 43 11 104 244 41 178 103 76 40 184 103 88 188 190 36 99 195 102 39 252 202 42 119 253 45 46 253 66 40 50 253 40 17 253 253 40 18 253 40 41 226 253 41 229 229 42 41 231 232 42 233 233 85 87 234 235 93 253 235 97 100 253 236 105 253 253 110 112 253 42 117 253 253 43 123 253 44 44 238 253 44 44 237 44 44 235 234 46 232 231 129 51 225 224 128 218 215 127 128 250 201 129 249 249 132 134 246 245 140 242 241 94 148 235 96 96 5 227 97 97 223 44 97 117 116 97 96 115 118 96 115 115 112 72 115 109 109 71 115 107 155 68 35 106 139 116 26 12 124 95 105 13 111 97 13 103 97 98 13 41 99 115 12 41 101 114 41 41 34 113 42 103 28 11 37 24 110 15 8 19 18 34 7 16 24 6 76 31 33 5 76 40 4 4 51 106 4 4 53 11 3 54 55 12 56 56 13 13 58
13 182 127 175 12 139 115 239 10 132 104 234 127 125 58 229 121 54 53 170 116 49 224 166 47 47 162 61 45 45 154 9 160 146 144 9 107 135 10 9 105 122 10 104 104 10 10 104 104 11 104 103 71 73 103 103 81 81 103 90 92 76 38 101 73 72 110 112 70 14 120 69 68 15 128 68 15 16 102 67 17 102 102 40 18 102 102 40 226 101 145 20 101 101 145 231 101 145 145 233 101 144 66 66 95 142 65 27 102 253 65 28 139 253 42 30 253 63 43 32 253 43 34 238 95 44 238 94 132 44 236 92 125 234 233 130 115 229 227 129 252 221 128 128 251 209 128 250 250 76 130 249 84 86 246 244 91 54 240 95 95 131 232 96 97 122 97 97 118 117 97 116 116 123 121 115 115 115 195 115 111 111 179 115 108 166 162 107 106 150 146 106 138 134 94 95 123 95 96 116 110 97 97 116 97 98 115 115 99 99 115 84 101 114 114 61 33 113 46 42 79 111 36 78 77 34 34 77 77 34 76 76 105 34 76 76 105 4 76 105 106 4 51 106 104 104 106 106 102 27 106 101 101 25 106 100
184 246 68 12 142 67 67 174 134 67 67 170 103 66 167 165 93 65 163 85 83 224 161 76 223 165 69 67 223 158 61 224 224 56 54 226 227 52 230 231 49 49 234 47 46 166 167 44 43 171 38 41 174 176 38 39 181 38 38 185 187 40 40 192 41 42 252 252 44 252 253 38 48 253 253 38 253 253 39 39 253 253 39 221 253 39 39 225 68 40 228 228 76 40 230 81 82 232 232 87 89 234 92 95 253 235 100 101 253 100 106 253 253 111 137 253 41 42 253 253 42 238 253 42 43 238 253 43 237 236 58 43 234 131 56 33 230 130 129 33 87 128 252 215 85 128 251 83 128 35 249 80 132 248 49 78 11 243 93 7 6 46 96 126 4 45 61 119 45 45 66 116 44 69 115 67 44 71 63 113 72 72 57 109 71 51 49 9 156 43 41 11 42 34 11 12 42 26 13 42 42 13 13 42 49 13 41 42 44 115 42 40 39 11 42 35 33 12 30 29 13 14 25 15 16 8 21 20 21 7 108 26 5 6 46 34 5 48 49 32 4 49 50 3 76 51 11 3 53 106 12 76 55 12 12 76
13 13 147 86 11 140 138 76 10 132 70 67 128 126 62 173 122 57 56 171 118 52 169 168 9 49 164 162 9 223 158 9 9 225 149 9 107 141 51 9 106 48 10 163 105 56 10 105 42 63 170 104 69 71 175 39 79 88 182 40 250 82 42 42 251 77 44 252 75 38 14 253 72 15 208 253 38 15 102 253 38 218 102 39 39 222 67 39 225 226 74 40 228 79 80 253 231 85 143 253 90 92 253 67 97 253 253 40 104 253 253 41 253 253 41 41 237 253 42 237 237 42 42 237 237 43 237 236 131 43 235 132 131 233 232 131 131 228 130 130 252 252 129 128 251 62 128 251 251 74 250 249 82 84 247 246 90 148 242 94 94 132 234 96 124 122 142 97 118 135 132 116 116 124 122 115 118 115 198 114 112 111 183 58 108 171 167 94 106 155 94 94 11 140 94 116 129 42 95 116 116 96 52 116 42 97 115 115 42 44 115 85 80 38 13 61 83 32 13 42 80 15 36 9 78 18 34 77 45 23 6 76 105 30 5 47 105 106 4 48 12 105 49 50 11 104 51 11 11 79 53 12 101 101 12 12
247 246 68 68 244 242 67 174 239 66 66 169 168 65 165 164 103 64 162 94 93 160 159 85 83 158 79 76 222 157 70 69 224 109 62 226 226 53 49 229 50 49 52 235 46 163 238 115 43 167 243 41 11 172 97 39 177 178 42 12 184 43 44 12 103 45 252 13 103 48 253 103 103 121 253 102 55 253 73 102 134 253 38 17 138 71 39 224 141 70 19 227 70 69 20 229 69 22 22 101 69 23 233 101 24 25 100 103 139 100 100 137 253 99 99 135 64 98 133 133 62 97 131 60 59 129 129 58 33 32 57 57 32 32 56 32 32 91 55 32 32 88 55 33 86 86 36 37 84 36 41 82 82 19 48 81 11 10 47 79 7 46 46 146 4 46 45 141 224 45 64 4 45 97 68 209 45 70 71 67 95 71 63 61 94 70 56 8 94 115 49 10 64 115 105 11 115 33 104 121 42 103 13 109 42 100 101 42 98 92 93 42 40 87 86 101 35 83 102 102 112 80 103 104 111 34 104 110 110 33 104 108 33 33 108 107 33 4 106 32 32 76 105 32 76 76 30 30 76 76 106 76 76 106 106 76
173 173 93 90 174 174 83 174 173 10 73 174 173 9 231 173 8 8 172 171 8 117 169 8 8 114 50 8 112 111 49 9 109 48 48 156 108 49 50 106 56 52 133 106 55 236 122 48 60 113 110 10 244 103 11 11 248 95 11 103 250 38 12 103 85 37 192 103 37 13 199 51 117 204 103 55 125 210 59 130 253 215 64 136 72 68 69 253 72 74 253 253 39 80 253 253 39 230 253 39 23 232 253 39 234 101 40 40 235 100 40 235 236 114 40 236 118 119 236 236 124 125 253 127 128 253 253 130 131 253 41 131 253 253 43 252 252 45 47 252 252 52 217 214 58 61 205 201 69 192 187 129 79 171 165 134 154 149 140 142 136 145 146 234 125 145 143 227 97 136 222 220 97 126 213 97 97 204 201 96 114 190 95 95 114 175 95 115 115 44 94 115 115 105 62 115 105 104 115 115 103 117 115 102 101 106 21 97 99 96 17 84 90 100 101 11 85 102 102 10 43 103 112 79 44 24 110 44 105 19 109 45 16 108 34 46 14 107 33 4 13 51 32 76 11 63 2 76 73 77 2 52 91 2 76 54
99 246 68 68 177 173 67 173 172 174 66 168 123 173 9 163 113 8 8 120 102 8 158 116 53 8 113 86 50 222 111 49 223 157 109 49 151 52 50 50 141 49 52 134 130 9 56 123 120 10 105 112 10 169 104 103 11 104 46 11 11 104 90 12 104 104 101 12 103 109 111 103 103 117 120 78 124 125 76 76 130 75 75 17 135 74 74 18 253 73 18 18 72 72 20 102 71 21 21 101 101 23 101 101 139 24 101 138 137 235 100 136 135 235 115 134 64 99 121 131 62 29 130 253 60 31 253 58 41 31 253 56 31 231 253 43 30 92 252 47 221 90 53 55 211 88 57 200 86 128 33 181 129 20 249 159 135 10 47 141 142 239 47 145 146 231 97 142 226 224 97 116 218 97 97 114 209 96 113 113 96 95 113 67 95 114 114 107 95 115 115 106 151 115 105 105 137 104 104 127 123 103 103 114 96 100 106 103 98 92 96 99 100 90 89 101 114 114 102 102 112 112 103 112 111 33 104 110 110 33 109 109 33 33 108 108 33 76 107 32 32 76 105 32 76 76 106 30 76 106 106 76 76 106 106 76
172 173 149 94 173 11 141 241 173 10 132 236 65 9 232 173 64 8 121 62 8 157 117 60 155 115 93 58 154 112 50 154 153 78 49 154 154 70 227 147 65 63 231 47 59 235 236 45 54 240 42 42 244 245 40 11 247 39 38 176 250 38 38 182 50 37 188 190 52 193 195 54 55 200 202 58 253 207 61 62 253 213 66 253 253 70 71 253 38 38 253 253 38 38 253 38 38 229 253 39 39 231 39 39 232 232 39 39 234 108 40 235 235 114 253 235 119 120 253 235 124 253 253 126 128 253 253 130 253 253 40 131 253 41 41 228 253 44 45 222 53 50 216 214 51 58 204 129 66 36 186 129 77 171 131 132 46 149 137 244 242 82 144 236 234 81 4 228 97 138 4 222 97 4 215 46 97 4 46 96 70 5 46 95 113 67 45 69 114 106 45 66 55 105 63 62 47 104 58 41 38 13 54 32 13 13 45 25 13 100 45 12 12 45 100 12 11 44 34 10 45 44 29 45 45 25 24 45 45 21 29 31 18 16 37 33 15 43 45 3 13 53 55 2 105 64 3 2 73 2 2 51 90 2 2 53
102 100 172 172 92 90 173 10 83 173 173 9 235 173 9 9 124 172 8 121 119 61 8 116 116 8 154 113 52 8 112 87 50 153 110 49 49 153 73 50 147 144 66 53 137 9 60 237 127 9 61 119 41 10 245 110 11 171 248 38 11 104 250 37 182 104 96 37 190 103 106 195 197 57 115 202 61 61 253 208 65 127 253 68 70 253 77 38 75 253 38 18 253 253 38 20 253 38 38 229 253 38 231 231 38 39 232 233 39 234 234 112 134 234 235 117 253 235 121 123 253 124 125 253 253 128 129 253 40 130 253 253 40 131 253 42 43 225 252 46 47 218 51 53 209 207 60 199 195 129 71 181 175 130 165 159 133 135 246 141 140 241 239 144 144 233 97 142 227 226 97 133 220 97 97 4 211 97 96 202 46 96 113 113 95 70 114 107 95 114 114 106 65 115 105 105 61 115 104 131 115 40 102 119 115 100 13 107 97 92 100 45 99 12 92 100 101 11 45 102 113 9 45 103 112 45 45 23 110 46 20 19 34 33 16 108 42 4 14 49 32 3 12 58 2 76 67 70 2 76 80 1 1 51 107 2
247 181 155 154 245 175 148 241 240 66 141 236 235 64 233 232 63 62 228 61 60 156 224 59 59 153 58 57 152 152 94 55 151 88 85 151 151 79 226 152 73 72 230 154 67 234 235 106 61 239 240 58 63 244 41 40 247 247 38 171 249 38 37 178 97 37 184 185 92 36 191 57 36 13 198 61 36 203 103 65 253 209 68 128 253 103 74 253 253 102 135 253 37 102 136 253 38 137 137 73 38 229 253 72 22 231 70 39 24 101 68 25 234 100 66 26 100 120 27 27 99 125 28 98 98 126 253 97 124 122 56 96 119 253 54 113 110 53 44 100 95 52 28 79 51 50 31 53 49 34 35 87 48 39 86 86 44 45 85 85 49 84 84 5 54 84 83 4 118 82 3 3 46 128 4 46 46 4 4 46 70 5 47 47 70 7 47 69 69 169 47 66 61 154 94 62 54 52 94 115 46 13 54 115 37 13 115 32 94 13 115 26 12 46 114 61 11 46 45 42 84 46 30 9 81 104 25 79 46 105 21 77 105 18 108 77 105 108 47 106 106 106 57 106 106 105 31 2 104 104 29 76 103 26 25 76
150 148 100 11 142 153 91 137 136 84 238 131 130 75 172 126 69 67 172 121 62 171 171 8 57 170 8 8 167 167 8 8 164 8 8 110 159 8 8 108 50 9 107 107 53 154 106 55 57 106 106 60 124 105 65 67 115 105 73 109 108 56 82 102 101 56 251 96 12 12 252 36 12 103 89 36 14 103 36 14 103 103 37 15 103 129 37 216 103 132 219 221 83 134 77 102 89 253 75 94 135 253 73 100 253 71 38 107 253 70 24 253 253 39 25 100 39 39 234 100 39 39 234 127 39 233 232 129 39 231 131 131 229 228 132 253 225 132 131 253 52 131 252 252 54 130 252 252 64 252 252 72 74 251 79 82 154 249 87 89 137 92 93 127 125 143 96 119 141 139 116 115 132 129 114 124 121 211 113 115 202 198 111 110 188 184 95 177 174 95 95 163 160 95 114 150 94 95 115 47 95 115 115 96 96 115 98 97 115 115 87 83 115 72 66 93 114 50 45 86 26 37 83 82 28 8 80 105 32 7 78 105 5 77 106 106 108 76 106 107 107 48 106 106 32 49 11 105 30 106 11 84 28 11 103 102
247 247 160 160 245 67 155 242 241 65 148 237 64 63 73 232 62 158 66 172 60 154 154 171 7 151 113 57 150 150 104 8 149 97 96 8 110 89 225 8 108 81 229 108 107 53 234 46 70 57 132 43 61 242 123 41 67 116 40 10 75 109 11 174 104 102 11 181 98 12 12 104 62 12 13 103 112 14 103 103 120 103 103 124 125 103 103 129 81 103 131 132 79 37 133 78 77 20 134 76 76 21 74 74 22 22 72 23 23 101 70 24 24 101 39 25 100 100 127 26 100 126 126 99 99 124 59 98 122 121 57 97 118 55 54 131 109 53 52 131 253 51 27 27 252 50 29 90 49 65 33 89 74 37 164 87 83 43 87 135 90 133 86 5 4 122 142 4 46 117 138 225 46 130 127 217 47 120 209 206 97 113 196 48 96 186 183 95 68 69 169 95 114 64 95 94 114 103 95 115 115 102 95 115 100 99 115 115 94 13 115 83 78 99 48 60 92 91 101 42 86 85 103 83 82 104 104 80 79 105 110 78 105 105 109 108 106 108 108 33 106 107 32 32 106 106 31 31 105 30 29 76 103 27 26 76
13 148 68 12 176 141 66 10 136 154 64 165 130 77 234 160 141 69 172 155 132 225 171 126 123 222 170 116 221 221 55 107 222 165 53 148 223 52 8 148 50 49 149 108 48 47 151 75 45 153 154 69 43 157 66 65 161 162 63 248 248 62 62 250 107 61 251 251 37 62 252 252 36 253 253 36 36 253 253 36 202 253 36 36 208 75 36 212 214 81 37 218 85 86 221 222 91 92 224 95 97 253 227 101 253 253 37 107 253 253 38 253 253 38 38 253 253 38 232 253 38 38 232 253 38 231 231 58 38 229 130 131 227 226 131 132 223 132 132 253 217 131 131 252 92 131 252 252 91 42 252 70 130 23 251 80 154 250 46 88 136 245 92 49 125 45 96 119 118 45 59 115 133 46 63 83 123 213 67 81 115 201 78 77 5 188 74 107 7 49 70 8 164 49 10 10 49 95 11 11 49 56 115 49 49 51 115 49 48 47 37 49 44 114 32 40 39 31 45 35 30 30 9 30 31 33 8 48 35 7 7 48 41 5 48 48 4 4 48 15 3 48 49 13 2 49 12 11 74 50 11 11 86 106 12 100
108 12 146 144 99 141 139 92 90 134 133 83 171 171 76 74 172 61 69 171 172 7 62 171 171 7 170 170 7 7 168 7 7 112 164 8 8 110 51 8 109 109 51 8 108 52 53 150 106 55 138 106 72 60 130 105 65 245 121 65 72 116 114 11 250 109 11 11 252 103 12 104 252 36 12 104 36 36 196 103 36 14 203 75 120 208 103 79 125 214 83 128 83 218 89 253 80 93 94 253 78 98 253 253 37 105 253 74 38 229 253 38 23 231 253 38 231 101 38 38 231 124 38 231 231 128 38 229 130 130 228 227 131 131 253 132 131 253 253 131 253 253 49 131 252 252 57 252 252 64 67 252 252 75 163 158 81 84 144 140 89 132 129 139 93 122 141 140 118 116 137 135 114 131 128 218 113 121 118 208 97 113 199 196 96 189 186 96 95 176 172 96 114 162 95 95 114 149 95 114 114 50 95 115 115 98 51 115 92 89 115 39 76 102 114 59 54 94 33 41 89 88 33 34 84 103 104 8 80 105 110 6 49 105 109 78 49 16 108 49 106 107 107 49 13 106 31 50 11 105 29 76 11 90 26 76
182 180 68 68 175 174 163 170 169 160 159 164 155 154 234 158 148 147 229 143 141 225 225 135 132 222 56 55 221 221 54 54 221 53 52 145 222 52 145 145 50 50 146 147 48 147 148 84 46 150 151 77 240 153 74 73 244 70 69 247 247 68 67 250 38 66 251 251 37 67 252 37 36 98 253 36 36 192 95 36 198 199 36 15 204 78 36 209 210 83 17 214 86 88 17 219 92 253 253 102 98 253 37 102 129 253 37 108 253 73 38 128 253 37 38 126 68 38 230 125 64 38 230 126 62 26 229 129 26 26 98 130 26 224 97 109 25 96 132 97 25 95 83 253 93 93 60 48 61 43 37 47 71 23 46 46 38 12 45 45 44 45 45 47 49 45 45 53 87 86 56 58 86 3 62 84 84 3 66 82 4 4 80 79 5 5 76 6 7 49 72 8 51 51 63 10 51 51 59 145 51 56 55 51 51 52 50 51 49 48 43 51 44 39 38 99 40 36 11 11 113 35 10 9 112 32 8 50 40 32 6 50 32 5 78 50 33 78 50 106 15 76 50 13 107 76 107 12 75 76 107 104 86 107 107 103
110 12 146 144 102 168 139 94 92 170 162 85 170 170 156 76 171 7 149 228 171 7 64 224 56 7 221 170 55 146 114 54 7 144 112 52 144 111 107 50 144 109 51 145 145 92 52 147 147 85 237 150 80 79 242 42 75 245 245 41 72 248 39 39 249 250 38 11 251 37 37 178 252 37 184 185 71 36 191 193 74 197 198 77 78 204 205 82 253 209 85 86 253 215 90 253 253 94 96 253 37 37 253 253 37 37 253 37 37 227 253 37 37 229 37 37 229 229 37 229 229 124 37 229 229 128 253 228 129 130 253 225 131 253 253 132 132 253 253 132 253 253 48 132 253 53 56 192 252 63 65 176 46 73 161 157 80 82 143 133 87 132 129 137 47 122 139 139 53 116 137 228 226 86 129 220 218 84 3 210 97 113 4 198 97 5 189 49 96 7 50 96 65 8 51 95 114 67 52 58 114 101 52 54 57 98 51 50 50 13 47 45 43 13 42 40 12 97 52 38 11 90 102 10 9 51 103 8 51 51 24 6 51 51 20 50 50 17 16 51 50 15 62 64 13 13 70 31 12 77 80 1 11 89 1 1
69 180 166 68 174 173 167 9 168 166 64 163 162 161 8 157 156 155 230 153 149 226 225 119 142 222 222 116 57 220 54 127 53 168 52 52 221 165 51 51 162 49 8 144 157 48 145 108 150 8 147 86 9 9 106 80 9 9 105 65 9 105 105 72 249 105 77 80 114 104 85 252 108 92 94 104 37 100 101 100 13 107 97 96 14 94 93 15 15 103 90 17 103 103 17 17 103 125 19 103 103 126 20 102 126 126 102 102 126 126 102 126 125 72 71 124 124 69 24 123 66 65 25 253 62 25 25 253 59 25 99 57 38 25 98 54 24 217 97 96 24 96 132 77 201 94 61 55 188 131 38 47 170 131 21 45 131 131 250 44 41 7 247 91 46 242 45 95 117 233 96 56 87 225 97 112 85 97 98 112 82 97 112 112 109 5 112 107 106 180 112 105 8 167 104 103 158 52 102 102 146 96 100 137 134 96 95 125 97 97 114 113 98 114 114 99 100 114 114 101 113 113 34 103 112 112 31 112 111 32 32 80 32 32 79 79 33 33 78 106 33 77 77 107 32 76 107 107 76 76 107 107 76 107 107 103
112 163 11 106 245 166 9 9 167 64 8 132 169 8 158 128 60 7 125 123 58 150 121 64 56 146 118 59 144 144 133 55 169 113 53 220 167 119 51 164 50 110 225 159 8 102 230 47 8 233 235 45 8 239 43 43 150 106 41 154 155 77 40 159 105 74 164 165 74 81 171 172 74 252 178 74 75 253 104 77 253 253 36 80 253 36 36 253 253 36 36 253 36 36 212 253 36 36 217 36 36 219 221 103 222 222 107 108 224 225 112 253 226 116 117 253 227 120 253 253 123 124 253 253 127 253 253 37 37 253 37 37 222 253 39 39 217 41 41 212 210 46 47 203 132 53 194 190 132 26 178 131 131 252 160 131 251 251 90 132 249 248 135 5 244 93 137 238 236 96 2 230 97 97 113 46 97 112 112 48 97 111 112 49 68 112 108 97 112 76 105 65 112 104 8 62 70 103 153 150 66 11 142 96 61 13 130 97 13 13 55 98 13 110 55 42 12 55 100 38 54 54 34 112 43 54 29 45 31 26 25 49 32 22 53 54 5 18 58 3 3 63 65 2 2 52 2 2 52 107 1 1 52 11 1 52
12 179 163 163 10 141 165 9 8 135 170 8 131 130 82 7 127 161 73 123 123 68 225 120 119 62 171 117 58 58 170 55 55 169 168 7 52 167 7 7 164 163 7 7 160 8 8 108 154 8 107 107 45 8 107 106 58 150 106 62 63 106 106 68 126 105 73 75 120 105 80 116 114 76 88 110 12 77 253 105 12 13 102 36 14 103 98 15 15 103 36 15 103 103 36 212 103 121 36 216 103 122 219 219 105 123 81 102 110 253 77 113 122 253 74 118 253 71 36 122 253 36 24 253 253 36 24 100 37 37 222 99 37 38 218 132 40 214 212 132 209 207 132 77 198 195 132 253 185 132 131 253 46 131 252 252 78 132 251 250 85 249 248 90 91 244 93 94 117 236 96 96 113 97 97 112 112 122 97 111 116 114 111 111 109 196 111 107 106 183 112 105 173 170 103 103 161 158 96 152 149 96 96 141 138 96 114 129 97 97 114 56 98 114 114 99 100 114 42 101 113 113 34 33 112 32 31 85 112 31 82 82 51 32 80 79 33 5 78 107 33 78 77 107 2 76 107 107 106 77 107 106 105 53 107 104
246 246 68 11 245 244 66 168 242 64 8 162 62 61 157 128 60 59 152 162 57 148 147 155 64 145 150 148 220 142 142 140 219 137 135 219 219 128 220 221 50 120 224 225 49 227 228 47 47 141 233 46 143 144 45 44 146 89 42 150 151 85 41 154 81 81 158 160 79 79 251 78 78 251 252 78 79 253 37 80 253 253 37 102 253 36 36 253 253 36 202 253 36 36 208 209 36 212 213 99 36 216 103 104 20 219 108 109 221 102 112 253 224 116 117 253 102 120 253 253 36 124 253 36 36 118 253 36 222 115 59 37 219 253 56 24 214 54 41 22 207 132 23 200 95 133 23 94 132 253 25 93 131 252 92 92 16 252 91 91 8 44 90 5 246 43 93 3 44 95 52 2 45 56 112 45 46 61 111 47 65 65 82 48 67 67 79 67 67 77 76 7 75 74 8 8 72 71 10 55 69 11 11 56 65 12 57 57 13 13 57 57 46 57 57 43 41 57 40 39 48 57 35 34 48 103 30 49 50 105 26 52 6 23 110 57 5 55 61 33 3 54 67 3 54 54 32 2 54 53 30 77 54 11 1 76
12 11 246 160 10 10 243 65 8 136 165 62 7 131 61 7 154 126 58 7 123 162 56 145 120 63 222 143 150 59 170 140 143 218 169 137 135 219 168 129 221 222 49 121 224 48 7 139 230 47 8 107 46 45 143 107 44 44 146 90 42 150 151 85 40 155 83 82 159 161 81 251 251 81 80 252 114 81 253 253 37 82 253 253 37 253 253 36 36 253 36 36 203 253 36 36 208 97 36 212 213 101 36 216 105 107 218 219 110 111 221 114 115 253 222 118 253 253 35 122 253 253 35 253 253 36 36 253 253 36 219 253 37 38 215 55 40 211 209 42 44 203 132 133 195 192 132 132 182 133 132 253 165 132 132 252 92 132 251 251 91 7 249 89 135 4 244 93 117 238 44 96 113 228 97 58 111 46 97 111 84 48 65 111 109 50 67 79 105 185 66 76 103 173 74 74 9 161 72 10 153 57 68 11 142 97 12 13 58 98 13 13 59 45 114 59 59 41 114 59 38 37 50 59 33 50 51 30 28 53 31 25 55 56 6 21 60 61 4 56 65 3 3 55 2 2 55 54 2 1 55 12 1 54 54 11
180 246 68 179 245 244 66 100 242 63 63 239 238 61 156 154 59 58 150 149 57 147 146 163 55 143 142 156 6 140 151 149 6 114 143 218 137 113 135 219 50 129 51 223 49 120 226 161 47 51 231 46 140 53 152 45 143 56 145 8 146 91 42 9 151 87 9 155 105 84 10 161 83 79 11 104 83 252 104 104 91 253 104 104 98 107 37 103 104 102 36 108 100 98 16 112 96 17 17 92 91 18 213 89 19 20 103 84 20 21 102 119 21 102 102 119 23 102 118 118 102 101 117 68 101 116 116 63 100 113 60 59 24 108 56 56 23 253 53 22 22 51 46 21 96 49 22 22 95 60 24 94 93 69 27 92 16 14 140 91 9 7 90 134 5 43 90 3 241 44 132 2 44 45 127 225 45 60 119 216 48 64 83 205 97 66 80 97 97 111 77 97 64 112 102 97 113 73 100 97 113 98 11 146 113 92 138 59 84 81 127 60 67 119 116 99 47 108 106 101 101 99 102 35 93 91 104 112 54 105 105 111 31 106 110 110 32 107 109 33 33 108 108 33 33 107 32 31 77 106 30 77 77 107 28 76
69 11 245 245 67 171 243 65 64 164 240 62 158 157 60 59 153 151 172 148 147 168 70 144 165 163 221 141 158 156 218 152 151 217 217 145 143 218 50 49 219 220 49 136 223 48 48 136 228 47 137 138 46 46 139 140 45 141 143 98 43 145 146 93 247 150 89 88 249 87 86 251 251 85 85 251 37 85 252 252 37 86 253 37 37 96 253 36 191 192 104 36 198 199 36 16 204 98 36 208 209 102 18 212 105 106 20 215 110 253 253 102 115 253 35 118 118 253 35 122 253 71 35 116 253 35 35 115 63 36 216 110 59 23 212 131 56 22 206 133 22 21 97 133 22 189 95 55 22 94 132 35 24 93 22 252 92 92 12 43 83 7 6 43 90 4 43 43 46 2 44 95 51 44 45 57 111 46 60 62 84 112 64 64 81 4 66 79 79 5 66 77 7 7 75 75 8 9 73 10 10 58 70 11 59 60 52 12 60 60 49 126 61 45 45 62 62 41 55 62 38 37 55 103 34 55 55 104 30 57 7 7 111 60 6 6 110 33 5 58 67 33 3 58 33 2 77 57 31 77 56 108 12 77 56 11
115 245 68 144 107 157 65 167 99 160 63 160 162 163 7 153 165 58 6 125 167 6 144 122 168 5 120 163 5 5 117 58 217 116 115 54 217 113 52 52 169 111 51 221 166 50 50 163 48 51 161 159 7 137 155 154 8 107 150 8 8 106 144 8 106 106 9 9 105 105 9 105 105 74 10 104 79 80 120 104 86 87 115 88 92 112 111 97 98 107 14 102 104 102 15 253 100 16 17 253 96 18 103 103 35 19 103 103 35 215 103 116 21 217 102 117 218 102 120 116 218 123 116 70 68 126 114 65 23 129 253 61 23 107 253 38 22 253 55 42 200 253 46 21 190 253 52 181 95 133 61 165 94 26 153 149 133 14 138 134 134 251 126 134 135 248 134 133 243 240 131 130 234 96 96 227 224 97 60 217 97 97 110 207 97 110 111 97 98 111 111 97 111 111 101 100 112 112 99 160 113 96 95 149 113 90 141 139 81 77 130 98 63 122 120 100 45 112 101 101 113 102 103 103 112 104 104 112 112 106 112 111 31 106 110 110 32 20 110 33 33 108 108 33 78 78 32 32 77 77 30 77 77 108 29 77
151 178 184 110 155 141 183 243 157 183 96 239 61 181 236 163 58 178 230 57 6 145 225 55 5 121 53 53 138 118 51 52 136 157 51 134 134 149 134 133 143 141 133 133 135 222 223 130 128 227 162 122 231 232 46 113 236 45 45 240 242 44 43 245 42 42 147 148 41 40 152 91 39 157 158 89 39 164 88 88 169 171 89 252 177 90 90 253 184 92 253 253 36 95 253 253 35 253 253 35 35 253 35 35 208 253 35 35 212 87 35 214 215 35 35 216 118 119 217 217 122 123 217 125 125 253 215 127 253 253 101 130 253 253 100 102 253 40 41 253 253 44 194 253 49 50 182 49 56 172 168 47 65 156 133 44 26 140 133 81 31 91 134 250 121 90 134 245 89 132 2 237 88 2 230 45 86 2 221 97 2 2 48 97 3 4 50 65 110 52 53 64 77 55 63 62 75 57 60 73 73 57 56 71 90 53 69 68 12 135 66 65 13 63 62 13 13 64 12 12 65 64 11 11 64 33 10 64 63 30 8 63 26 25 63 63 22 66 66 19 18 70 71 16 73 75 2 14 79 80 1 106 85 1 0 105
116 114 151 144 108 107 154 185 100 157 158 183 92 160 6 86 233 163 6 126 165 56 6 123 167 5 120 120 52 5 118 117 51 134 116 55 5 133 113 53 132 112 144 50 168 137 50 223 165 130 50 162 47 121 233 158 7 113 238 45 8 242 243 43 142 246 42 42 147 106 40 151 152 92 39 157 105 90 163 164 90 82 170 172 90 253 178 92 92 253 37 94 253 253 36 97 253 35 35 253 253 35 18 253 35 35 208 253 35 211 211 35 35 213 214 117 214 214 120 121 215 215 124 253 214 126 127 253 212 128 253 253 130 131 253 38 132 253 253 42 42 253 45 47 187 253 52 54 174 58 61 163 158 67 151 147 134 76 136 133 134 32 125 135 134 249 118 134 245 242 88 129 236 234 123 229 226 97 115 219 97 97 2 209 98 97 110 51 98 110 110 54 98 111 99 98 61 111 96 59 112 73 92 55 113 86 11 51 69 73 134 132 65 13 124 100 62 13 114 102 12 12 66 103 10 66 66 32 9 65 106 27 65 65 24 110 66 64 20 68 33 18 17 73 3 15 76 78 2 13 82 1 1 87 89 0
69 177 187 186 171 170 186 243 164 186 186 239 238 184 236 235 58 182 231 229 56 226 225 54 53 222 53 53 137 218 51 51 134 163 50 133 132 156 50 131 151 150 131 131 144 141 131 137 135 225 131 129 228 231 108 121 234 236 45 53 240 45 44 56 244 43 142 247 142 41 147 138 40 9 153 132 39 157 104 127 10 165 92 92 11 104 93 253 12 104 94 253 104 104 98 253 103 101 102 102 103 105 253 98 18 108 94 35 207 110 89 21 210 86 84 21 103 81 22 22 102 75 23 102 102 23 23 101 128 110 101 101 106 253 100 100 99 57 99 90 86 54 78 74 52 51 60 55 49 21 40 47 46 22 23 45 25 26 92 43 29 91 90 86 35 90 89 39 115 88 2 46 87 87 2 111 86 2 2 45 84 2 47 48 104 3 50 64 101 192 53 64 5 180 98 62 171 58 98 60 74 98 57 72 72 98 113 70 12 99 113 67 13 113 113 46 13 113 63 35 110 113 32 11 101 67 31 96 67 105 31 89 107 26 86 84 107 21 82 108 108 109 80 109 108 108 109 108 107 107 31 106 106 29 29 105
188 115 147 173 188 243 151 188 187 240 154 7 238 237 59 6 233 161 57 145 228 55 6 141 54 53 138 120 52 52 134 169 51 133 132 163 55 131 158 156 215 130 151 217 218 145 144 221 222 137 225 226 47 129 230 232 46 235 236 45 45 136 242 44 138 139 43 42 142 101 41 145 147 97 40 151 95 94 156 158 93 94 252 93 93 252 252 94 253 253 36 96 253 253 36 253 253 35 35 253 253 35 198 253 35 35 203 204 35 206 207 113 34 208 116 117 21 210 120 121 211 102 123 253 210 125 127 253 101 128 253 253 36 104 253 38 38 96 253 41 192 82 54 47 182 253 51 20 170 48 60 159 155 134 22 144 134 134 26 91 135 252 31 90 135 250 89 89 3 245 88 128 2 43 86 2 228 44 56 2 45 97 61 2 48 63 109 50 51 64 110 54 64 63 77 57 62 61 75 60 58 74 73 10 72 72 11 11 70 70 12 66 68 13 13 67 65 13 68 68 12 12 68 36 36 69 69 33 31 68 29 28 65 67 25 24 68 108 21 70 71 108 109 74 3 15 77 78 1 63 82 1 1 62 89 0
12 177 189 189 243 141 189 242 241 136 189 239 61 132 90 235 58 186 231 161 55 76 225 54 53 138 166 53 135 134 168 5 133 169 170 5 130 163 5 5 113 156 5 129 112 50 6 111 143 49 167 109 49 228 164 109 50 161 46 51 52 156 45 53 153 151 8 57 147 145 8 143 141 9 9 105 9 9 105 95 10 10 104 77 11 104 104 83 12 104 87 88 104 104 93 111 110 96 97 106 105 100 103 102 18 104 98 96 19 253 93 20 20 89 88 21 103 84 22 22 102 111 22 102 102 111 23 102 109 108 204 101 105 103 200 132 97 60 99 132 253 56 133 74 253 52 20 253 50 57 20 253 47 21 147 253 73 24 91 253 80 125 90 86 87 118 134 3 114 114 130 2 111 123 2 232 110 114 2 45 108 106 214 47 102 206 203 97 98 194 190 97 110 181 98 98 111 170 98 111 111 98 98 112 73 99 112 113 70 100 113 58 54 113 113 43 40 121 36 34 114 111 31 31 104 105 30 99 96 106 93 92 107 107 87 86 108 110 110 108 109 109 109 109 108 108 32 109 107 31 31 107 106 29 29 106
190 190 243 173 190 191 242 190 190 240 240 190 238 237 59 188 234 232 56 81 228 55 54 224 223 53 136 136 52 52 133 133 51 131 131 169 50 129 164 163 5 128 157 156 5 112 150 219 128 111 143 224 47 137 228 230 47 50 234 46 46 51 239 45 134 54 152 43 138 246 146 8 142 102 41 9 147 98 9 152 105 97 10 104 96 78 11 104 96 253 104 104 87 253 104 104 93 111 35 96 97 106 16 100 102 101 18 104 97 19 19 93 92 20 204 88 21 21 102 82 22 22 102 110 23 102 102 109 102 101 106 105 101 100 101 63 100 94 92 59 98 82 56 55 20 64 53 20 20 49 49 20 20 47 21 22 92 44 24 25 90 82 29 90 89 87 34 88 3 2 112 87 2 42 86 118 2 43 84 2 220 45 103 2 47 48 97 201 51 64 95 188 98 63 77 177 98 61 76 98 98 111 74 99 55 112 75 99 112 71 12 100 113 48 13 69 113 37 121 70 33 32 111 71 31 104 102 105 31 96 71 107 91 90 108 25 86 108 109 110 72 109 109 109 33 109 108 108 32 109 107 30 30 106 106 29
12 11 144 143 9 9 140 105 7 137 135 97 6 132 91 89 155 128 83 158 159 77 76 162 163 71 164 165 5 64 167 167 5 214 169 5 5 213 170 5 114 114 49 5 112 51 5 127 111 49 6 110 143 49 128 109 49 49 129 128 50 160 131 120 241 155 7 113 245 150 8 247 248 42 8 250 140 9 148 251 39 9 105 252 38 160 104 78 37 167 98 83 172 174 99 89 180 101 102 253 186 104 97 253 107 107 253 100 110 253 253 34 20 253 253 34 202 253 34 33 203 253 34 203 203 34 34 202 201 35 199 199 130 36 195 131 132 253 190 132 133 253 134 134 253 253 134 134 253 57 135 253 253 66 253 253 72 74 131 253 80 124 122 84 86 117 116 89 114 113 130 92 111 111 120 110 109 112 110 109 105 103 216 213 98 97 205 97 95 195 192 98 92 183 98 98 7 172 98 111 165 62 99 111 155 99 53 112 65 100 113 113 50 47 113 41 39 43 113 34 117 39 66 31 108 66 66 10 100 107 30 94 72 108 7 88 108 109 6 71 109 110 4 70 17 108 69 68 15 107 68 13 13 86 29 13
69 243 68 67 170 242 65 164 162 193 62 157 154 192 151 149 191 191 144 143 189 227 139 187 187 221 185 184 218 217 52 180 214 51 50 213 212 50 50 212 49 49 126 213 49 49 126 48 48 126 126 48 126 126 141 139 127 127 133 233 128 127 125 238 131 119 242 243 106 112 246 43 108 58 249 41 104 250 140 40 148 251 39 39 154 130 37 160 161 125 37 167 100 36 13 174 101 14 180 104 103 253 186 106 97 253 103 109 253 253 103 103 253 33 103 106 90 33 107 107 84 33 108 81 80 22 199 76 34 22 101 70 22 194 100 66 22 99 132 21 20 98 77 20 97 96 59 19 95 45 41 49 93 28 24 46 18 15 44 78 10 42 42 28 5 41 40 34 249 40 39 41 86 41 46 85 84 51 53 83 83 57 82 82 2 61 80 3 3 109 79 4 4 77 89 6 57 59 7 8 61 58 9 64 65 54 152 67 52 51 143 69 48 70 134 102 44 69 72 103 113 67 12 38 113 67 11 112 68 31 9 112 31 8 91 111 32 6 72 33 33 84 72 18 33 81 110 15 80 80 110 107 79 110 13 106
69 11 145 144 66 168 140 106 104 160 135 98 148 153 193 91 151 192 192 229 157 190 77 224 54 188 220 163 52 184 215 51 4 129 212 50 5 116 49 50 126 115 49 126 125 162 48 125 125 154 125 125 149 49 126 126 141 228 165 135 132 234 46 127 239 240 45 119 243 43 43 246 247 42 42 248 41 41 143 144 40 39 148 100 39 153 155 100 158 160 100 100 165 167 100 253 172 102 102 253 180 104 253 253 34 108 253 34 34 253 253 34 33 253 33 33 197 253 33 33 198 85 33 198 198 34 34 197 127 127 195 194 129 253 191 131 131 253 185 132 253 253 97 134 253 253 135 54 253 57 59 253 49 65 141 253 72 74 130 43 79 123 121 42 85 116 137 40 35 113 131 91 41 85 120 236 109 84 2 226 83 99 2 215 81 2 206 48 79 4 194 98 4 5 55 98 6 58 60 59 110 62 99 56 74 65 54 111 73 68 50 72 47 47 46 70 37 44 69 69 12 119 68 12 11 75 68 10 10 75 9 9 75 75 7 7 74 24 6 74 74 20 84 73 18 17 79 72 15 81 82 14 13 86 87 13
69 241 135 67 170 241 65 64 162 142 62 155 154 146 59 148 194 151 5 142 192 227 5 125 190 221 134 122 68 216 121 184 62 213 118 59 211 169 116 55 211 49 53 52 171 49 124 172 171 5 124 170 170 5 110 169 6 6 109 166 6 108 132 6 6 107 51 241 106 106 53 245 106 56 57 148 106 60 60 143 62 64 139 138 67 68 133 10 72 129 128 11 105 124 12 13 104 118 14 104 104 15 15 104 104 16 104 103 97 18 103 100 101 192 103 103 103 92 119 105 88 87 122 106 82 22 106 253 77 22 104 74 35 22 253 69 22 184 253 41 20 98 97 46 170 96 59 53 158 94 41 149 146 136 25 137 136 16 253 127 137 9 41 84 137 252 40 32 135 249 91 39 244 242 93 46 235 94 95 108 225 96 108 108 97 97 108 80 87 108 109 85 4 109 109 83 177 110 80 79 167 76 74 160 158 66 63 152 100 54 146 143 102 102 137 102 102 113 127 104 104 113 105 105 113 113 106 112 112 30 108 112 111 31 94 111 31 32 88 110 33 85 84 33 33 82 111 32 81 81 111 31 79 110 110 79
69 68 174 172 66 65 165 196 64 160 157 196 154 151 196 196 146 145 195 230 140 194 193 224 223 191 220 219 52 188 215 214 51 212 212 50 50 210 50 50 124 210 49 49 124 167 48 123 123 161 48 123 155 153 123 124 147 225 124 141 139 232 126 133 236 237 107 125 241 242 44 53 245 43 42 56 248 41 138 249 143 40 143 139 39 9 149 134 37 154 105 129 11 161 102 102 13 104 103 253 14 104 88 253 104 108 93 253 103 96 253 102 103 100 253 33 20 103 92 33 192 104 87 22 192 83 82 22 102 78 22 22 101 73 22 100 100 21 21 98 133 80 97 97 68 253 95 54 50 54 93 37 32 49 25 22 46 45 14 12 43 24 7 41 41 29 30 40 33 34 86 40 40 85 84 93 46 83 83 52 108 82 2 57 81 80 2 108 79 3 3 52 82 4 55 56 79 6 59 60 7 166 63 57 9 66 100 53 151 69 50 49 72 102 46 71 71 103 112 70 13 105 113 69 11 112 112 30 10 112 71 30 98 111 31 7 92 110 32 88 77 110 33 85 111 18 82 82 111 15 81 111 111 107 80 110
11 115 131 132 9 110 135 8 7 138 139 6 153 133 5 5 131 197 5 128 127 81 5 125 125 74 123 123 69 68 121 121 64 166 119 60 59 169 50 56 170 170 5 53 171 5 5 211 172 5 5 171 48 5 111 170 5 5 109 48 6 108 108 48 125 108 50 50 127 107 52 156 106 117 54 151 106 56 249 146 108 60 143 141 9 251 137 9 9 252 37 10 105 253 36 11 105 36 35 167 104 34 15 174 107 34 178 103 109 253 182 112 97 253 186 115 253 96 118 119 253 91 122 253 253 33 125 253 253 34 187 253 35 22 183 37 38 179 99 41 42 171 134 46 165 163 135 53 154 135 136 146 143 136 253 253 137 137 253 253 138 253 253 83 139 252 252 87 250 250 90 90 246 244 93 109 238 94 94 108 99 95 108 108 87 96 108 83 82 108 108 79 79 109 77 77 178 110 74 171 169 75 67 162 160 100 156 154 101 101 147 146 102 112 139 103 103 112 130 104 112 112 77 105 112 30 30 34 112 30 30 112 72 31 96 111 31 32 90 75 33 87 86 77 4 83 112 79 3 81 111 107 1 74 111 106
117 240 68 197 240 132 65 240 239 63 6 238 237 60 149 235 58 57 143 229 56 138 137 54 54 133 193 193 130 130 190 190 127 188 187 210 125 183 182 209 179 178 209 209 174 172 210 49 167 212 213 49 121 217 48 48 122 223 47 123 123 47 47 124 124 46 125 126 128 45 127 123 121 245 130 116 115 247 112 111 249 249 108 107 251 39 105 251 251 37 103 252 37 36 73 253 36 161 163 122 34 167 168 34 15 173 108 33 177 178 111 18 181 114 114 19 103 117 253 20 103 121 253 33 102 103 253 34 126 102 80 35 99 253 75 37 93 71 40 173 83 66 20 165 134 60 19 155 136 18 18 92 137 19 136 90 19 20 89 138 11 88 88 6 253 87 86 4 39 89 3 2 39 92 2 39 40 47 1 41 42 53 43 44 57 58 46 59 60 79 50 61 61 78 4 61 77 77 6 59 76 7 8 75 75 9 67 74 10 11 71 73 11 73 74 46 13 75 76 42 128 77 39 38 118 79 36 71 80 108 32 72 109 29 73 73 110 24 74 6 6 110 77 4 4 109 33 3 77 81 32 82 76 30 1 80
147 198 239 128 9 111 239 132 7 238 135 62 6 237 59 5 145 232 57 5 128 55 55 135 125 53 53 131 193 69 128 121 190 212 126 188 60 209 123 182 207 170 179 177 208 171 173 210 210 49 5 213 214 48 121 218 48 48 121 48 47 122 122 46 47 123 135 46 124 125 127 45 127 122 120 246 130 115 248 248 111 110 250 250 107 251 251 39 105 251 251 37 252 252 36 36 253 253 35 161 162 34 34 167 107 33 171 172 109 33 176 112 113 179 180 115 116 182 118 118 253 253 121 253 253 33 124 253 253 34 100 253 35 36 253 253 38 174 253 41 42 167 253 46 160 158 135 52 151 136 136 18 140 137 137 19 90 138 253 123 88 139 253 87 140 5 252 86 3 250 39 90 2 246 92 108 1 40 94 108 1 42 54 108 44 96 58 108 47 60 108 78 73 61 77 71 5 60 76 66 170 76 75 8 161 75 74 10 69 74 11 11 73 12 12 75 75 44 13 77 41 40 78 79 38 112 80 35 34 72 81 31 30 72 28 27 74 74 24 75 76 6 5 77 78 4 79 80 3 3 78 83 1 77 77 29
198 239 144 199 239 239 200 200 238 63 201 237 237 60 200 234 58 58 141 230 56 137 136 150 54 132 131 156 5 128 193 52 4 126 190 4 124 187 186 5 117 182 207 207 115 176 208 49 113 50 211 48 165 49 172 48 48 219 171 48 47 169 47 5 121 167 6 123 108 163 6 125 126 6 6 106 119 7 7 106 55 7 105 105 59 105 105 62 63 139 105 66 135 133 70 71 129 35 75 125 124 13 80 120 118 15 116 115 16 16 111 17 18 103 103 19 19 103 98 20 103 103 100 21 102 101 101 180 101 100 84 101 98 97 79 78 92 75 74 20 82 69 68 20 253 64 18 19 253 58 18 91 54 64 19 90 70 20 125 88 11 22 87 140 6 114 86 4 3 111 135 2 38 109 123 243 39 111 107 233 41 93 224 221 95 56 212 45 97 108 199 97 61 108 187 98 108 77 99 99 109 60 99 110 110 52 9 110 45 43 150 111 38 11 142 34 33 136 77 31 130 128 106 30 121 120 107 115 113 108 109 111 105 110 111 111 111 111 110 110 112 110 110 33 112 109 33 33 108 108 32 32 107 31 30 81
69 199 238 239 66 200 238 64 63 238 238 61 152 236 59 58 144 232 57 140 138 200 55 134 133 198 131 130 197 196 127 126 193 211 124 191 190 208 187 186 206 206 50 181 206 49 49 207 208 49 48 210 48 48 119 215 48 120 120 48 48 120 120 47 121 121 141 138 122 123 132 239 124 126 125 244 127 119 246 247 106 114 248 40 110 250 250 39 107 251 37 37 144 252 36 36 150 130 35 154 155 125 13 160 107 33 15 165 109 16 169 103 112 253 173 115 94 253 103 118 253 253 102 100 253 33 102 100 89 34 99 98 83 36 95 79 78 21 167 74 42 20 96 68 20 154 135 18 18 92 136 18 18 90 26 18 89 88 15 20 87 10 8 42 86 5 253 40 3 3 38 89 2 38 38 41 1 39 40 47 40 41 52 54 80 44 57 79 79 59 60 78 3 60 77 77 4 60 76 5 6 109 75 7 8 75 48 9 69 70 10 11 73 48 12 76 76 44 136 78 42 41 127 80 38 72 119 108 34 72 83 109 111 73 9 28 110 32 7 110 76 6 5 110 33 4 82 109 32 3 80 32 31 83 79 14
116 237 144 143 112 238 140 108 107 127 62 102 236 60 5 96 137 58 141 141 142 4 135 147 148 4 125 152 4 4 123 158 4 121 121 63 5 119 189 58 118 117 56 205 116 53 52 172 114 51 50 173 50 49 173 173 5 48 172 5 5 171 171 5 109 169 5 5 108 166 5 107 107 45 6 106 106 6 126 106 53 54 106 105 56 148 105 59 59 142 107 63 138 137 106 67 133 10 105 253 128 12 76 253 33 14 104 118 15 164 104 32 17 103 103 32 171 103 95 32 173 103 98 174 174 123 99 92 101 126 253 86 128 95 253 37 131 253 77 41 133 253 44 20 253 253 50 18 253 56 58 138 90 64 131 129 138 71 123 121 140 118 117 141 141 113 113 141 252 110 136 134 249 108 126 244 243 93 108 235 94 94 227 223 95 95 214 96 96 107 200 97 97 108 97 98 108 108 58 108 109 54 53 109 110 47 159 110 42 40 152 110 36 146 144 33 32 139 137 31 133 131 106 106 124 107 108 111 116 109 109 111 84 110 111 111 111 112 110 33 112 110 110 33 20 109 33 33 86 108 32 84 83 84 30 83
178 200 237 237 142 202 237 64 63 105 237 61 61 235 131 59 144 232 57 57 137 142 55 133 132 148 4 129 199 154 4 126 197 210 4 121 193 206 121 118 58 204 117 185 55 204 115 53 206 49 113 50 173 49 49 48 173 48 118 173 172 5 118 171 47 5 108 168 5 120 108 5 5 107 129 6 6 106 51 6 106 106 53 248 105 55 57 146 105 59 60 141 62 63 137 136 67 133 132 11 71 128 126 13 104 123 14 14 104 117 15 104 103 17 17 103 91 19 103 103 95 20 102 97 97 171 102 98 98 91 126 96 87 86 129 92 81 21 86 253 76 20 253 71 19 19 253 65 18 91 253 59 18 89 89 67 126 87 16 20 119 140 8 115 85 142 5 111 140 3 251 109 133 2 38 91 118 242 39 46 99 231 94 52 221 218 95 107 208 96 96 107 195 97 108 108 98 98 108 76 53 109 109 48 7 110 44 42 155 110 37 36 149 34 33 143 141 31 31 136 105 30 130 128 107 37 122 108 109 111 114 110 111 111 111 112 110 110 112 110 110 33 113 110 110 33 89 109 32 32 85 32 32 84 83 30
147 114 174 143 112 111 164 140 107 123 137 103 102 128 205 97 132 134 204 90 138 4 4 224 145 4 4 218 53 4 123 156 52 124 121 51 4 121 119 50 120 118 188 50 118 116 53 203 118 179 51 173 117 173 209 174 168 166 214 48 160 219 221 47 152 226 47 47 231 232 46 5 120 45 45 122 106 44 124 124 120 42 126 127 115 129 130 112 110 133 134 108 251 251 107 106 252 135 106 252 252 34 106 253 33 33 253 253 33 32 253 32 32 162 253 31 31 165 117 31 167 167 120 168 168 123 123 168 167 126 253 166 128 129 253 163 131 253 253 132 133 253 253 46 253 253 50 52 253 56 58 135 253 63 65 127 51 71 121 120 76 77 116 142 81 113 112 142 252 110 138 136 250 108 127 246 245 81 110 238 235 80 1 226 94 77 2 213 95 107 202 48 96 107 51 97 60 108 56 99 108 76 61 57 109 43 67 54 75 38 51 50 74 11 146 74 74 12 139 73 13 13 81 73 12 125 108 11 11 84 110 10 10 86 29 9 86 86 25 76 86 23 22 78 85 19 80 80 18 17 82 32 16 84 85 1
69 176 202 67 169 167 204 65 160 205 205 153 151 205 205 234 205 205 231 230 204 227 226 55 204 221 220 54 75 215 52 52 211 210 51 122 121 51 51 120 192 50 119 118 187 50 118 183 182 5 117 177 176 5 112 171 210 117 111 164 215 48 158 47 222 48 47 227 169 47 47 234 46 5 48 163 45 121 49 159 6 124 156 155 6 105 114 7 7 105 110 8 105 108 61 9 104 106 252 104 104 69 252 104 104 75 125 32 79 80 120 15 83 116 114 16 88 110 18 19 107 105 19 165 101 20 20 101 96 20 100 99 94 21 98 98 89 97 96 83 80 94 94 71 73 92 59 55 66 90 43 60 59 138 27 54 18 18 253 48 20 20 44 80 23 84 41 26 27 83 87 31 82 82 90 108 81 1 92 107 80 1 40 107 81 1 42 79 2 207 46 59 3 49 51 54 184 54 59 49 173 99 58 76 164 100 55 75 101 102 110 75 103 48 110 32 104 111 74 30 111 111 30 13 111 111 30 122 85 30 30 114 86 31 109 107 112 32 101 100 113 97 96 114 114 92 114 115 109 88 114 114 108 32 114 107
202 114 174 171 204 111 164 205 205 236 155 205 235 235 60 206 233 130 58 230 228 56 4 225 223 54 129 218 53 53 125 53 52 123 122 52 51 120 195 194 119 118 191 190 118 188 186 202 117 182 181 204 178 177 206 207 171 210 211 48 164 215 217 48 117 222 47 47 117 229 47 118 118 46 46 120 132 45 121 121 124 43 123 119 118 247 126 114 113 249 111 110 251 251 109 108 251 35 107 252 252 34 69 252 33 33 75 253 32 151 153 120 32 155 157 31 16 159 116 31 161 102 119 19 162 122 122 20 100 125 253 21 99 128 253 37 131 86 253 41 133 253 78 46 67 253 50 18 51 66 57 133 35 58 18 125 139 51 19 118 141 20 21 84 142 23 83 83 3 28 82 137 2 82 81 1 246 81 81 1 38 93 1 1 40 94 1 42 43 57 2 46 58 59 50 51 59 59 55 59 59 76 60 57 57 75 8 54 75 75 10 110 75 11 11 74 74 12 80 74 12 12 82 73 12 84 84 30 11 86 86 32 114 86 29 29 88 113 26 76 88 23 22 78 114 20 79 80 115 17 82 3 3 108 84 1
12 176 204 67 9 167 205 235 160 138 207 235 151 207 100 233 133 207 231 131 130 89 226 56 127 82 143 54 127 75 149 52 123 154 156 4 121 160 4 4 119 165 4 118 117 5 5 116 185 5 5 114 51 203 113 113 49 208 112 48 47 174 111 47 173 173 46 46 171 47 47 169 168 5 47 166 165 5 106 162 5 5 106 42 6 106 105 6 6 105 55 7 104 104 59 8 104 62 63 137 104 67 68 131 108 71 128 126 75 253 123 14 80 119 118 16 253 114 17 17 253 109 19 102 102 32 19 101 93 33 158 99 92 20 156 129 88 153 95 132 80 148 134 70 253 142 135 55 69 18 137 253 61 18 253 253 68 18 253 49 75 116 253 79 22 112 253 84 110 82 140 88 108 133 1 107 107 118 1 107 103 97 233 107 81 77 220 68 65 209 205 57 55 195 97 97 185 182 98 108 174 99 99 108 165 100 109 109 101 101 110 110 103 110 110 31 105 110 30 30 138 111 29 30 131 30 30 125 123 30 30 118 111 31 112 110 113 32 105 113 114 110 98 115 110 110 115 115 109 109 115 108 108 32 115 108
178 68 174 171 205 205 164 206 207 235 155 207 208 234 135 208 232 232 208 208 229 57 206 224 223 55 81 219 54 54 124 212 53 122 121 156 51 120 119 51 4 118 194 50 117 117 189 5 116 185 184 5 114 180 203 204 113 173 207 48 111 47 213 48 161 47 173 48 46 225 170 5 47 168 46 5 118 164 5 119 107 160 5 121 121 6 6 105 115 6 6 105 56 7 104 104 60 104 104 63 64 136 104 67 132 32 71 73 127 32 77 123 121 14 82 118 15 16 114 113 17 18 110 19 19 101 101 19 20 100 92 20 98 98 90 20 96 86 84 94 93 77 82 91 67 63 74 72 52 69 66 17 36 60 59 18 253 53 18 19 253 77 20 83 43 82 24 82 84 27 109 82 2 32 81 128 1 107 80 1 1 107 93 1 39 107 73 217 42 61 58 203 46 52 192 189 97 59 180 55 58 108 170 100 56 75 100 101 109 75 102 103 110 31 103 110 110 30 11 110 30 29 136 111 30 12 128 30 30 123 87 30 117 115 112 31 110 108 114 104 103 114 115 110 97 115 109 109 115 116 109 32 116 108 108 31
104 12 144 107 9 9 141 110 7 138 137 6 6 135 101 5 133 132 95 93 130 90 88 133 128 83 82 141 205 77 146 148 203 209 153 4 67 204 159 4 201 163 50 4 118 168 4 116 116 49 5 115 115 49 115 113 50 49 114 172 48 115 111 165 47 115 159 47 222 172 151 46 170 47 142 234 167 5 238 239 44 5 242 244 42 121 246 40 40 124 105 38 126 127 111 36 130 105 108 133 134 108 65 137 108 108 252 141 109 110 253 111 111 253 253 30 114 253 30 30 253 253 31 153 253 31 32 153 253 32 153 153 35 35 151 150 37 148 147 132 132 144 143 134 253 138 135 136 253 136 137 253 253 138 138 253 68 140 253 253 74 76 253 79 80 111 253 83 110 109 86 87 108 108 89 107 107 121 91 107 107 100 46 107 83 78 222 107 64 211 207 77 53 197 96 47 3 183 97 43 175 57 99 5 166 100 100 7 68 102 109 109 73 49 110 31 104 46 110 30 43 110 74 30 39 111 30 12 35 75 30 120 119 75 10 113 113 76 9 89 114 7 7 90 115 5 90 89 19 4 89 116 16 88 89 15
146 204 11 172 206 234 8 140 208 234 7 137 104 233 135 209 98 231 132 94 229 128 56 88 133 55 4 81 141 54 124 147 148 4 121 153 155 4 121 160 4 4 119 165 4 118 118 56 4 116 53 53 115 115 51 201 114 49 49 175 112 48 48 175 47 47 174 173 5 172 172 5 5 170 169 5 108 167 5 5 107 163 5 107 106 42 5 106 105 5 123 105 54 55 105 110 57 144 105 60 61 138 108 65 135 133 109 69 130 11 73 253 125 13 253 121 30 15 102 116 16 150 102 31 18 101 100 32 151 99 90 34 150 97 88 148 147 130 83 91 132 133 253 84 134 64 253 52 136 253 69 59 138 253 64 18 253 253 71 116 253 76 77 113 83 81 110 110 144 85 109 81 139 107 107 130 1 107 107 111 241 107 95 89 230 78 73 220 215 95 58 205 96 96 194 191 97 97 181 98 98 107 170 99 108 108 100 101 108 108 33 109 109 31 31 110 110 30 143 110 30 30 137 110 30 132 131 30 30 125 111 30 120 118 112 113 113 113 114 110 106 115 115 110 91 116 110 109 116 109 109 33 116 108 108 31
69 12 144 232 66 9 141 65 64 158 138 105 151 148 209 100 143 133 210 230 136 210 89 225 130 208 220 137 207 207 214 53 205 210 208 52 4 204 52 52 117 200 51 4 116 51 50 115 117 50 50 114 186 49 114 114 180 114 114 175 174 206 114 169 211 212 163 161 218 219 154 223 225 47 146 230 46 46 235 237 44 44 118 43 42 119 120 41 41 121 116 39 123 124 112 36 126 110 109 128 130 108 251 133 108 108 252 252 109 252 252 31 111 253 253 30 253 253 30 30 253 30 31 148 253 31 31 148 108 32 148 148 126 35 146 128 129 19 143 132 132 140 91 134 253 136 135 56 253 87 137 253 253 63 29 253 67 69 17 253 74 114 10 45 79 111 42 41 24 109 38 86 30 80 36 34 107 123 118 40 79 102 237 46 78 79 224 78 78 1 209 77 2 2 46 77 3 185 51 4 4 56 99 57 5 62 55 108 67 69 52 75 73 50 49 75 78 46 75 75 43 42 74 74 12 74 74 12 12 75 75 11 89 75 11 10 90 32 9 90 91 8 7 91 21 6 91 91 19 18 91 17 17 83 90 16
205 231 231 67 110 232 65 65 108 107 63 153 104 112 61 144 116 117 4 137 123 58 4 129 210 4 127 127 208 4 126 207 75 4 123 71 205 122 122 65 200 121 62 61 164 118 58 196 169 4 55 172 49 5 174 174 5 114 175 175 5 112 175 5 5 111 175 5 110 110 5 5 109 108 46 108 108 46 46 107 47 47 164 107 48 48 160 121 50 156 155 52 52 151 6 6 147 146 7 105 143 8 8 105 137 9 104 104 31 10 103 103 30 139 103 77 13 142 102 82 119 101 118 85 114 120 87 253 109 124 88 106 19 127 253 100 19 130 253 41 19 253 89 46 135 88 50 17 130 86 57 126 85 139 64 120 84 20 117 116 143 11 113 112 145 253 42 146 145 252 85 142 252 251 88 132 249 90 90 245 243 91 45 235 92 93 106 222 94 106 106 55 95 107 107 45 107 107 41 39 107 107 37 169 108 35 34 161 108 32 156 154 31 31 150 104 104 146 144 105 106 140 107 107 110 134 109 109 110 111 111 111 111 112 111 110 31 32 110 110 33 107 110 34 34 102 109 34 98 97 34 33 94 93 32 92
230 68 174 231 67 66 165 65 64 158 155 62 62 148 211 60 143 141 211 58 136 211 211 131 130 210 221 219 209 208 214 213 207 209 208 53 205 203 202 52 65 199 51 51 197 196 51 114 114 50 50 114 189 49 113 113 183 49 113 179 177 5 113 172 170 5 111 164 214 113 110 46 221 47 150 46 228 46 46 233 45 45 47 239 43 117 48 159 41 119 246 154 6 121 151 36 6 105 110 7 126 105 108 8 104 109 65 9 104 109 252 103 103 73 253 103 77 78 122 30 81 82 118 16 85 115 114 17 87 110 18 18 106 105 18 141 100 18 18 91 94 18 89 89 67 17 87 87 53 86 85 41 37 84 84 26 59 83 18 16 52 144 10 46 45 146 5 41 24 25 252 38 29 30 36 33 34 79 36 39 41 79 92 45 78 78 93 106 77 1 54 106 77 2 45 77 43 3 50 76 4 174 56 35 5 61 100 33 159 68 53 31 153 103 49 75 147 105 45 75 106 107 110 75 108 39 110 30 110 110 75 31 111 111 31 11 110 110 32 112 92 33 33 106 92 34 101 100 117 34 97 117 117 94 94 117
146 111 95 96 110 110 99 65 108 102 103 6 104 108 6 5 134 114 5 4 132 4 4 130 129 4 4 127 82 4 126 126 76 121 124 72 71 118 122 67 157 158 64 62 163 164 59 166 168 4 56 171 171 4 195 173 5 5 198 49 5 113 113 49 5 111 47 5 113 110 46 5 109 153 46 114 108 46 229 114 138 46 166 116 130 240 161 5 122 244 157 5 246 247 38 6 248 149 35 124 250 34 7 127 32 32 129 104 31 31 133 110 70 135 136 112 76 138 114 115 253 140 117 253 253 120 121 253 113 124 253 253 34 18 253 253 37 138 253 40 42 135 253 45 132 131 50 52 127 137 57 124 123 139 64 118 141 141 253 114 143 144 253 145 146 253 253 147 253 253 84 143 252 251 88 250 250 89 90 246 244 91 106 106 92 92 106 106 93 106 106 55 95 106 47 45 107 107 40 39 107 37 36 169 107 34 33 161 101 32 156 154 102 9 150 104 104 10 145 106 110 141 84 108 110 135 109 37 110 30 111 110 110 31 30 110 32 32 27 77 33 110 24 78 34 105 80 80 5 100 81 34 4 92 117 3
68 68 175 229 67 168 165 98 64 158 155 103 6 148 212 61 5 141 212 229 135 132 211 225 130 211 87 219 127 210 215 137 126 76 208 53 124 70 151 52 117 65 158 51 115 163 164 4 114 168 5 4 117 172 4 113 186 4 4 114 180 5 5 113 48 205 111 111 47 175 110 46 46 173 109 45 171 170 46 46 168 45 46 165 164 5 47 161 160 5 106 157 5 5 105 6 6 105 105 6 6 105 58 7 104 104 62 8 104 65 66 133 103 70 130 129 113 75 126 125 78 253 121 15 82 118 117 16 253 113 17 17 253 108 17 93 92 38 18 90 77 42 133 88 67 17 128 136 53 125 84 42 38 120 140 27 62 116 142 253 53 19 145 253 45 21 253 253 83 24 253 38 86 107 251 88 34 106 248 89 106 78 101 92 106 84 1 106 106 63 1 106 52 50 198 106 43 41 184 39 38 175 172 35 168 165 100 100 160 158 101 108 154 103 104 108 148 105 109 109 106 107 110 110 108 110 110 30 110 110 30 31 126 110 31 31 119 32 33 115 113 33 34 109 116 34 105 103 117 101 100 118 118 97 96 118
146 207 228 173 209 109 94 96 211 230 99 6 212 231 105 6 230 230 59 4 228 117 58 131 224 57 4 126 55 56 123 127 209 54 120 208 73 118 117 205 67 116 203 201 195 114 199 194 193 195 195 192 192 49 193 193 49 49 195 196 49 112 199 49 49 112 204 48 112 112 48 48 113 156 47 113 113 148 145 113 141 138 233 114 132 130 238 126 124 242 243 120 244 245 38 115 247 248 36 248 249 33 33 124 250 32 126 127 31 31 129 130 30 131 131 111 30 134 114 114 13 136 117 117 253 99 120 253 253 123 123 253 34 126 253 253 37 80 253 40 41 74 253 45 130 64 87 52 125 124 77 17 121 139 64 17 117 141 17 114 144 144 19 81 146 253 21 80 147 253 79 79 2 252 87 135 1 35 89 1 246 35 42 1 36 92 48 1 38 51 106 40 41 55 106 45 57 57 76 38 57 57 76 4 57 76 76 6 76 76 7 7 75 75 9 75 75 10 10 80 106 11 83 84 40 12 87 37 36 89 89 33 33 91 31 29 77 92 27 26 78 115 24 78 79 7 21 80 5 5 109 82 4 94 83 3
206 178 175 208 228 168 210 210 230 139 211 230 230 136 213 230 61 134 99 228 59 59 94 118 57 128 221 56 56 124 132 55 121 120 140 4 118 208 149 4 116 205 4 4 121 201 193 114 119 58 192 118 193 55 172 116 53 193 174 114 50 175 49 49 49 176 49 111 176 175 4 112 175 174 5 109 172 5 5 108 5 5 107 107 5 5 107 47 5 106 106 49 243 105 50 51 153 105 53 150 148 55 56 145 144 59 142 141 8 63 137 136 9 252 133 10 10 102 128 12 101 101 13 13 99 81 15 98 97 83 16 95 83 82 134 92 81 80 104 131 76 99 97 133 253 91 16 57 253 81 16 253 74 62 16 253 63 17 114 253 73 18 80 80 78 109 80 5 82 108 146 3 107 107 139 1 106 129 125 247 106 109 1 35 92 86 231 37 49 221 216 94 54 205 200 95 106 189 96 97 107 176 98 107 107 99 99 107 76 31 108 108 31 8 108 30 30 147 108 30 30 142 30 30 139 137 30 30 133 110 30 129 128 112 110 123 113 114 110 117 115 110 110 116 117 109 109 117 109 109 34 118 109 108 33 108
206 207 227 227 209 210 228 65 211 229 230 63 213 230 62 61 230 229 60 59 228 59 58 130 129 57 127 126 212 56 123 121 211 120 119 209 208 117 117 207 199 116 204 203 195 52 201 193 192 51 196 191 50 50 191 191 50 49 192 49 49 111 195 49 49 111 176 48 111 111 166 5 111 160 157 112 112 150 222 113 144 142 229 113 135 234 235 107 127 239 41 106 49 243 38 38 51 153 36 119 248 148 33 121 145 32 7 124 141 31 126 103 136 9 128 111 70 10 102 114 252 12 100 78 253 99 98 81 253 96 81 82 115 93 81 110 37 79 78 104 41 129 99 97 17 126 90 88 16 83 80 16 16 82 70 17 81 81 17 18 81 13 19 80 80 7 253 79 4 4 38 79 2 2 36 1 1 35 35 1 34 35 41 1 35 35 46 77 37 50 51 77 39 54 76 76 95 56 76 76 57 107 76 4 56 76 33 5 107 76 7 7 69 31 8 74 76 30 10 80 44 30 141 84 40 138 137 110 37 133 90 33 110 128 113 30 77 77 115 110 78 9 116 109 79 8 109 109 35 6 109 34 34 101 108 32
207 14 144 209 108 10 142 107 228 139 139 105 229 63 103 102 102 61 99 98 109 4 94 114 116 4 89 123 4 4 129 131 4 127 137 4 4 125 208 4 123 122 67 4 121 121 63 120 120 60 59 118 57 56 171 117 54 53 174 5 52 175 176 5 49 176 5 5 201 176 5 5 175 48 5 110 173 5 112 108 46 5 108 107 46 113 107 46 47 114 106 47 160 106 118 50 155 115 51 247 150 111 54 148 32 110 249 143 7 7 251 30 8 103 251 29 9 102 29 29 130 100 29 131 131 118 31 132 96 122 253 132 124 81 253 131 128 253 108 130 131 253 43 133 253 253 50 136 253 55 56 253 253 61 63 116 67 68 113 80 73 74 111 147 77 109 109 148 108 107 147 146 107 107 140 251 106 131 126 248 247 112 244 242 91 89 234 92 92 223 219 93 94 207 95 95 106 191 96 96 106 36 97 107 107 33 99 107 32 32 107 107 31 153 108 30 30 147 108 30 144 143 75 30 139 138 108 12 135 111 111 131 91 112 109 126 114 114 110 93 115 109 109 94 117 109 35 117 20 109 35 34 108 83 33 101
181 207 225 174 143 210 227 164 211 106 228 64 214 229 229 62 101 228 60 60 97 109 59 130 93 117 57 126 123 125 4 121 131 55 119 126 210 4 117 208 71 4 122 205 194 5 121 63 191 120 119 59 189 118 56 56 172 116 53 190 175 5 51 176 49 5 176 176 5 111 176 176 5 110 174 5 5 109 172 5 108 108 5 5 107 46 46 107 107 47 47 106 48 48 158 105 50 50 154 114 52 151 150 55 55 146 6 6 143 142 7 103 139 8 8 102 135 10 101 101 29 11 100 99 30 130 97 78 14 95 123 80 118 92 79 79 112 129 76 107 106 131 71 100 16 134 253 91 16 51 253 58 16 253 72 65 114 80 69 17 111 80 75 110 79 148 80 108 79 4 107 107 145 2 106 138 135 250 34 123 118 246 90 102 240 237 92 79 228 92 93 216 212 94 54 200 95 95 106 185 96 106 106 34 98 107 107 32 107 107 31 31 107 107 31 150 108 30 30 145 30 30 142 141 30 30 138 109 109 134 133 111 112 129 113 113 109 124 114 115 109 116 116 109 109 117 109 109 35 35 109 109 34 104 108 32
78 14 177 144 107 11 142 141 106 160 139 105 105 150 136 103 98 141 215 99 105 133 215 225 113 4 91 221 57 4 216 127 56 4 209 55 4 117 203 54 4 124 53 53 114 121 52 113 113 200 60 112 112 196 188 111 192 191 189 111 187 190 175 182 181 194 176 175 197 199 48 168 203 48 48 111 211 47 47 111 46 46 111 112 44 44 113 132 42 113 113 125 114 114 120 118 115 116 115 245 246 113 112 248 248 110 249 249 31 110 250 250 29 251 251 29 29 251 29 29 127 127 29 29 128 118 30 129 129 122 32 129 124 125 128 128 128 253 127 130 131 253 125 133 253 253 50 135 253 253 56 44 253 61 63 253 253 68 113 253 72 73 110 49 77 109 109 42 81 107 148 147 26 106 142 139 31 78 128 248 105 77 1 243 77 91 1 232 77 1 221 37 93 1 205 94 55 2 44 96 106 3 49 56 106 54 56 55 76 62 54 107 75 69 50 75 31 9 47 75 30 143 75 75 11 139 76 12 12 89 76 12 12 92 12 11 93 93 11 11 94 25 25 95 95 22 109 95 20 20 82 95 18 83 83 17
146 145 106 224 143 142 106 83 140 106 227 89 138 104 93 62 102 101 99 5 99 105 107 4 94 113 4 4 130 121 4 4 128 4 4 127 126 4 125 125 72 5 123 123 67 113 121 64 63 120 120 60 167 168 58 56 171 172 55 174 174 5 52 176 5 5 193 177 5 5 198 48 5 111 110 48 5 110 46 5 111 108 46 111 108 138 46 112 107 47 235 113 124 48 160 114 118 243 156 5 114 246 152 5 247 148 31 6 249 30 6 121 250 29 8 102 28 29 124 101 29 29 126 116 74 127 127 119 253 128 122 123 253 127 126 253 253 128 129 253 108 131 253 253 46 16 253 253 53 119 253 58 59 116 63 65 114 113 69 71 111 146 75 110 109 149 79 108 149 149 253 107 146 252 252 139 136 250 250 125 248 247 89 104 241 239 91 233 230 92 92 219 214 93 105 105 94 95 105 39 96 106 106 35 97 106 33 32 107 107 31 31 107 31 31 150 108 30 146 146 105 30 142 142 107 11 139 109 109 12 134 111 110 131 92 113 109 126 114 27 109 34 115 109 34 35 22 109 35 35 19 82 35 107 17 83
206 68 178 175 210 67 168 211 212 160 157 214 105 150 215 215 228 96 216 216 227 60 215 225 224 58 222 221 58 57 217 215 56 120 210 55 55 117 203 54 116 115 208 53 114 205 205 113 113 202 201 112 199 197 187 111 194 193 187 190 189 188 189 184 183 191 49 49 194 195 48 110 200 48 48 110 206 48 110 111 46 46 111 111 44 111 111 134 133 112 128 127 236 113 122 120 241 105 116 243 244 104 113 246 32 111 55 248 31 110 249 29 29 121 250 29 123 123 137 28 124 124 133 10 126 117 30 12 126 121 13 126 91 124 14 89 127 75 253 86 130 253 106 84 65 253 49 82 55 89 56 45 42 78 63 31 69 66 17 111 57 18 18 79 48 20 108 78 22 22 78 147 25 26 78 2 30 77 77 1 77 77 1 1 33 77 1 34 34 1 1 36 93 1 38 39 54 1 43 43 56 179 48 56 56 53 55 55 76 76 53 52 75 6 50 75 75 8 47 75 9 10 108 75 11 85 76 30 12 89 76 12 133 92 31 11 93 93 28 125 95 25 25 119 95 22 80 115 118 20 82 119 119 108 83 4
69 105 105 75 12 105 78 80 9 160 83 7 7 137 89 6 144 135 5 5 134 216 5 132 132 94 4 131 130 89 120 129 85 84 128 127 80 135 138 75 74 145 147 71 151 153 5 66 158 5 5 187 165 5 5 118 51 5 117 117 5 5 115 53 5 114 114 50 110 113 49 49 110 111 48 176 110 159 46 174 173 46 216 171 5 46 169 168 4 229 166 4 4 236 39 5 105 240 36 5 105 51 34 116 104 54 5 117 110 57 118 103 110 250 120 111 64 251 122 113 251 135 115 115 252 131 11 252 253 31 12 253 253 33 125 253 36 14 124 39 41 123 84 45 46 121 135 51 118 118 137 45 116 139 140 253 113 143 253 253 145 146 253 253 148 253 253 80 150 253 253 83 106 252 84 85 106 251 87 106 106 88 89 105 101 90 105 105 78 92 105 63 59 105 105 48 46 196 42 40 184 180 36 174 171 98 33 164 161 99 5 156 101 101 151 150 103 107 147 104 105 108 108 106 108 108 30 109 109 31 31 34 109 31 31 109 77 33 127 109 34 34 122 116 35 118 117 117 8 114 119 119 6 110 120 108
221 68 179 176 74 67 168 166 212 9 158 214 214 151 148 215 227 142 216 216 226 134 216 225 224 132 216 221 58 215 88 216 57 57 211 129 56 117 204 55 5 115 145 54 114 113 153 5 112 204 161 5 111 199 5 5 118 194 185 110 117 55 186 115 185 52 176 114 50 192 176 112 49 177 48 48 47 175 48 110 174 173 5 110 171 5 5 107 168 5 111 107 5 5 106 122 5 5 105 49 5 105 104 51 246 104 54 54 149 103 57 145 145 60 61 142 141 64 139 138 9 68 135 135 10 252 131 11 11 93 31 12 90 89 13 13 87 74 14 85 84 70 15 83 64 63 120 81 54 52 88 138 42 80 76 141 253 67 17 21 253 56 18 253 49 77 20 253 41 22 107 253 83 26 77 2 86 106 77 1 88 106 113 1 105 77 90 1 105 74 1 222 105 55 1 38 46 44 193 42 55 181 177 96 55 169 166 98 106 160 100 100 107 153 102 107 107 103 104 108 30 30 108 108 30 10 108 30 31 137 109 31 31 133 32 32 130 129 33 33 125 115 34 122 121 117 109 118 118 118 109 113 119 108 108 120
69 17 221 72 13 12 75 76 9 140 80 7 7 138 85 6 136 136 62 6 134 134 98 131 132 95 94 126 216 90 116 130 215 86 125 213 81 132 135 212 76 142 5 209 195 150 5 122 189 53 5 121 163 51 111 119 51 5 110 117 50 110 116 187 50 110 114 51 110 110 176 49 177 170 168 198 176 162 159 206 47 152 212 214 45 142 220 44 43 226 227 41 111 111 39 38 113 105 36 113 113 115 34 114 115 112 116 116 111 111 117 117 111 249 118 111 111 250 28 113 251 251 28 115 252 29 29 252 252 31 31 253 32 33 123 253 36 123 122 39 41 121 121 132 120 119 134 135 118 117 137 253 115 139 140 253 113 142 253 253 146 146 253 75 76 253 253 79 80 253 81 82 106 252 84 85 106 33 87 106 106 33 37 105 102 90 42 105 80 230 105 65 60 215 105 50 202 197 76 40 185 182 76 3 172 97 33 4 55 99 4 156 63 101 107 69 103 48 107 76 104 108 75 82 41 108 30 38 37 76 31 35 34 76 12 132 77 77 11 127 78 11 10 96 79 10 120 97 9 8 97 119 7 97 97 18
206 68 16 177 209 67 11 142 213 9 159 139 215 7 137 216 102 6 135 100 225 134 134 97 224 60 94 93 110 59 90 89 119 5 85 126 128 5 133 135 5 5 143 145 5 124 151 5 5 122 203 5 121 120 61 5 119 118 58 117 117 56 55 116 53 53 176 114 51 51 177 5 49 177 176 5 48 176 5 5 205 174 5 109 172 5 5 108 169 5 107 106 41 5 106 106 47 112 105 49 49 113 104 51 155 104 112 53 151 111 56 248 147 110 59 144 28 112 250 141 8 9 251 29 10 95 252 30 122 92 31 32 122 88 34 122 122 127 38 121 83 130 253 120 133 62 102 118 136 253 91 138 139 253 62 141 253 253 68 145 253 72 74 253 253 77 20 107 80 80 107 77 83 106 106 141 85 106 106 129 106 106 114 109 105 105 92 237 105 75 71 224 220 57 211 207 94 45 194 94 95 182 179 96 96 170 97 98 106 160 100 99 107 31 101 107 107 30 107 107 30 30 108 108 30 141 108 31 31 138 108 31 135 134 32 32 131 131 113 128 127 115 115 124 116 117 109 120 117 118 109 97 119 108 108 98
65 207 208 220 68 211 222 222 66 213 224 65 64 152 225 63 145 143 63 62 137 134 61 131 130 217 60 126 124 216 123 121 216 216 118 118 214 207 205 212 212 200 55 210 195 194 54 207 189 53 53 187 186 52 52 184 51 51 110 183 51 110 110 189 50 110 110 183 110 109 177 176 109 109 170 194 109 163 161 201 110 154 207 209 46 144 215 44 44 47 223 42 41 228 40 39 111 235 37 36 113 158 34 113 114 155 6 114 111 111 7 116 111 248 117 101 111 249 118 113 64 250 97 115 251 251 94 70 252 30 90 72 129 33 121 72 123 37 121 119 116 14 120 110 46 15 81 100 15 116 80 16 16 79 140 253 16 79 25 253 78 78 15 253 78 9 8 43 77 5 253 37 3 3 34 84 2 33 32 32 106 32 32 37 77 32 41 42 76 33 46 76 76 49 50 76 1 52 76 76 1 54 76 2 3 48 76 3 3 55 31 4 61 63 6 6 69 49 7 74 76 45 143 80 42 40 76 86 37 76 76 110 34 76 77 112 109 77 12 27 109 34 11 109 80 35 10 109 36 9 97 98 36 7 98 18
100 64 16 15 220 69 12 11 72 65 9 139 77 7 150 138 102 6 136 135 100 135 134 98 97 128 132 94 106 123 217 90 115 216 216 211 125 5 81 204 56 5 198 142 55 5 192 54 5 122 188 53 111 121 52 52 110 119 51 110 110 192 57 110 116 187 184 109 182 52 186 109 175 189 177 168 167 195 48 160 200 202 47 150 208 45 45 110 217 43 42 110 41 40 111 111 38 111 111 119 35 112 113 114 113 113 112 112 114 114 111 246 247 111 111 248 248 112 249 249 28 113 250 28 28 251 251 29 30 252 31 31 120 120 33 35 120 126 38 120 120 130 118 118 133 133 117 117 135 253 115 138 138 253 113 141 253 253 68 145 253 253 73 14 253 76 78 253 41 80 106 253 82 83 106 33 85 106 106 32 87 105 116 111 38 105 94 238 43 76 72 226 105 76 1 209 76 46 1 192 76 1 180 96 96 3 168 97 106 4 56 99 106 62 64 50 107 70 103 46 75 77 44 107 75 83 40 76 31 11 36 76 12 135 77 77 12 131 77 12 12 95 79 11 10 97 10 9 97 97 8 8 98 19 19 98
217 206 218 219 68 67 221 221 66 163 222 65 65 153 224 64 145 144 63 62 137 217 62 132 130 217 60 126 217 217 219 121 216 216 213 128 215 208 206 213 80 201 56 211 196 194 55 71 190 53 53 111 186 52 111 110 165 52 110 195 170 6 110 190 50 109 115 184 6 109 179 177 6 113 172 190 192 111 163 196 47 109 48 204 46 47 47 171 44 47 218 169 6 47 166 39 6 48 162 6 111 105 159 6 104 113 6 6 103 111 6 102 102 56 7 101 100 59 99 99 62 63 96 96 65 138 138 67 69 134 12 70 131 130 13 70 126 13 14 121 119 15 15 112 14 15 80 80 15 79 79 47 16 79 79 35 111 78 26 23 78 78 16 52 77 10 9 43 77 6 38 37 24 3 34 26 28 251 32 31 32 248 87 36 76 31 89 41 76 90 45 105 76 91 105 76 49 1 105 76 1 185 105 36 2 46 105 33 163 53 32 31 155 61 31 150 149 102 47 146 104 104 107 143 105 41 76 107 108 108 77 109 110 108 32 111 108 108 33 109 109 34 35 127 109 36 124 123 36 36 121 98 36 118 117 119
146 99 63 144 101 101 67 142 102 70 71 102 102 75 77 102 80 82 6 6 86 89 6 134 94 5 5 132 60 5 131 131 5 5 130 87 5 128 128 82 5 127 78 77 141 125 74 148 150 207 69 156 158 203 184 163 6 62 181 169 6 181 172 51 6 116 50 6 109 114 49 6 113 175 49 109 112 49 47 109 160 48 109 109 150 47 109 143 141 214 170 134 220 168 40 127 228 164 6 233 234 34 6 238 239 32 113 242 30 30 114 29 28 115 115 111 28 116 111 112 117 117 113 64 118 116 116 251 118 119 120 252 122 122 252 252 125 253 253 38 39 253 253 43 117 253 48 50 116 253 54 114 113 60 61 112 142 66 110 110 146 147 109 149 149 253 107 151 151 253 150 149 252 252 145 143 252 85 134 250 249 87 1 246 88 88 105 239 89 105 105 90 91 105 105 92 105 105 45 94 105 39 38 54 105 35 34 53 76 33 159 157 75 31 152 101 31 6 147 103 31 144 77 105 9 141 107 39 10 87 109 108 108 91 32 108 33 93 29 108 34 26 109 80 35 23 81 37 9 21 82 37 120 83 84 6
69 69 99 218 68 67 101 66 66 165 221 71 65 154 76 64 7 144 81 6 138 135 217 5 131 218 97 5 132 218 219 5 131 90 214 129 129 86 125 128 82 202 135 56 77 142 55 5 72 151 54 111 157 158 5 110 164 165 6 119 169 6 6 117 6 6 116 115 55 6 114 53 52 113 113 51 188 112 49 49 176 110 48 174 174 48 47 172 172 47 170 169 6 6 167 167 6 106 164 6 6 105 161 6 105 104 31 6 103 52 7 114 102 55 56 101 111 58 147 98 61 61 143 114 64 141 140 117 251 137 11 120 252 132 12 252 128 36 14 82 121 14 117 80 45 15 79 79 51 114 79 47 58 113 140 36 111 111 144 24 109 147 148 253 49 150 9 253 78 151 253 36 81 252 252 84 27 251 250 85 105 248 87 87 105 76 88 105 105 80 90 105 105 61 105 105 50 48 105 43 41 187 105 37 36 172 34 34 164 161 98 32 155 100 100 150 149 102 107 146 103 104 107 143 105 107 107 107 108 108 108 109 108 108 32 33 108 108 34 132 108 34 35 128 36 36 126 125 37 37 123 118 37 120 119 119
146 97 68 181 209 99 173 171 212 101 68 214 214 222 74 216 222 223 63 217 224 85 62 224 223 61 5 222 221 60 123 218 59 59 119 130 58 117 116 214 57 114 213 212 113 113 210 209 112 207 207 187 111 204 203 183 52 199 181 180 51 180 180 51 51 179 179 50 109 181 49 49 109 183 48 108 108 48 48 108 108 159 108 109 152 150 109 145 143 209 109 136 134 218 130 128 223 225 123 122 231 35 118 235 236 32 112 240 30 30 113 243 28 114 114 151 27 115 115 27 9 116 113 28 117 117 116 250 117 119 119 251 86 122 252 252 83 125 252 38 81 65 253 43 132 253 108 50 55 253 54 16 113 86 61 111 111 72 18 110 146 58 19 108 150 20 20 77 151 22 106 77 4 24 77 143 2 31 77 1 249 30 76 1 30 88 0 0 31 90 0 32 33 47 1 34 49 49 76 37 51 52 76 53 53 76 76 53 53 75 3 52 75 75 4 50 75 6 6 75 75 7 75 77 8 9 82 83 10 86 87 35 11 90 91 31 134 93 29 28 95 114 26 80 96 24 23 81 10 22 82 82 9 20 84 7
95 145 97 98 61 143 99 64 64 212 101 68 70 8 222 74 7 7 78 80 6 135 86 5 5 134 93 5 132 132 61 5 131 92 90 118 130 87 86 128 214 83 132 127 79 78 141 210 74 148 151 206 186 157 6 202 182 164 6 120 179 51 7 118 172 51 109 116 50 7 108 114 49 108 113 173 49 108 167 50 108 108 158 49 175 151 148 203 173 141 139 211 42 132 217 219 39 223 225 37 36 230 232 33 111 104 31 31 112 103 29 113 113 111 28 114 114 111 114 115 112 113 116 114 114 249 116 117 117 251 30 120 251 251 33 123 252 36 37 252 253 41 116 253 45 46 115 253 51 114 113 56 57 112 111 141 111 110 144 145 109 109 148 253 108 150 151 253 77 151 253 252 148 147 252 82 84 251 250 85 85 248 86 87 105 244 88 105 105 30 90 105 105 90 47 105 52 92 105 105 42 188 105 37 37 173 105 34 165 162 75 32 156 99 75 4 150 101 31 6 71 103 7 143 78 105 107 83 107 37 107 88 34 108 77 92 31 108 34 28 28 79 35 25 25 81 10 127 81 82 9 124 83 8 122 99
190 204 216 182 208 209 217 172 211 219 219 214 214 221 65 215 222 222 64 217 223 63 63 223 223 62 62 127 61 61 123 122 60 60 119 216 59 117 116 215 5 114 213 213 113 113 211 193 191 209 208 187 186 205 184 183 53 200 180 52 52 62 178 51 51 178 174 50 108 179 50 49 108 178 49 108 108 170 48 108 163 161 7 108 154 196 7 109 144 205 109 108 48 213 107 129 47 221 37 48 227 163 34 49 161 32 7 50 158 30 112 155 155 8 113 152 151 8 98 112 9 115 95 114 10 92 116 64 11 88 65 251 85 84 66 252 82 66 66 126 80 64 63 118 15 59 110 107 16 101 98 17 17 87 84 18 77 73 19 19 77 59 19 77 77 20 21 77 77 7 77 77 4 3 77 2 2 31 76 1 1 29 119 1 29 29 99 0 30 41 42 229 32 45 76 33 91 49 76 36 50 105 76 94 52 76 76 96 105 75 3 98 105 75 4 60 75 31 5 68 31 6 143 75 31 8 80 106 31 139 86 35 32 137 110 32 135 135 112 108 79 113 113 108 80 115 108 108 38 116 108 82 37 108 108 36
214 188 205 95 58 59 209 217 62 11 213 219 66 9 221 71 65 7 222 64 6 138 222 63 6 134 218 62 126 132 95 123 121 217 92 118 118 216 210 116 214 214 203 114 212 197 195 210 209 190 148 54 186 185 54 6 182 53 52 110 179 52 52 109 51 51 108 108 50 50 108 181 49 108 108 175 181 108 168 166 186 108 160 191 192 152 150 198 200 143 204 206 42 134 213 40 39 109 221 37 36 110 34 34 111 111 31 31 111 113 29 112 112 112 27 113 111 111 114 114 112 247 248 114 114 249 249 116 250 250 30 119 251 251 32 66 252 36 36 65 125 40 116 253 116 46 114 133 51 16 113 137 57 111 140 141 18 110 144 145 20 77 148 253 107 77 11 253 78 151 6 252 81 4 252 31 83 2 250 85 30 1 29 86 105 29 29 38 105 30 30 42 76 64 46 47 76 50 49 76 76 1 51 76 37 1 76 76 2 163 75 3 3 54 75 4 4 63 48 6 69 71 44 7 76 41 40 81 83 38 77 87 35 34 77 91 31 78 78 12 28 80 80 12 108 81 11 10 82 82 10 98 83 9 8 99
191 203 68 184 144 208 15 174 210 98 11 141 214 220 8 139 101 221 65 137 100 222 63 99 222 87 62 97 221 62 5 95 102 60 120 109 111 5 117 215 122 5 128 214 5 5 126 210 5 125 124 74 6 123 71 69 122 121 67 179 120 64 63 170 51 60 60 174 7 57 175 176 7 55 177 7 7 177 176 7 112 176 7 7 110 175 7 109 109 48 7 108 107 48 109 107 48 48 106 124 48 165 105 49 49 162 116 50 160 159 8 52 157 8 8 243 153 9 9 151 27 10 94 148 10 115 90 28 12 87 86 30 116 83 65 65 116 81 64 128 116 128 62 119 131 132 253 109 134 52 253 55 138 253 85 62 142 253 66 19 109 253 71 21 77 74 75 107 77 78 106 106 149 81 106 106 142 105 105 133 1 249 105 116 245 28 100 95 238 89 79 230 226 90 61 215 91 91 203 199 93 93 186 93 94 105 105 96 95 105 33 97 105 105 32 105 105 31 31 106 106 31 143 107 31 31 141 107 31 139 139 107 32 137 109 110 135 135 111 112 133 113 113 107 131 115 115 108 98 116 108 108 38 118 108 38
52 25 22 214 68 17 143 143 67 12 141 99 66 158 140 100 150 148 217 100 141 136 218 222 133 218 98 221 127 218 220 98 61 217 216 108 5 212 211 59 5 206 58 58 113 198 57 5 112 56 56 111 124 206 54 110 203 69 110 110 198 178 109 194 193 176 108 189 176 176 184 183 176 177 178 179 179 49 48 182 183 48 108 187 47 47 108 46 45 108 108 43 43 108 134 41 109 109 126 37 109 122 120 226 110 117 231 232 114 114 237 238 112 240 241 27 112 243 244 27 57 246 26 27 114 248 28 114 115 29 29 115 120 31 115 115 123 35 115 126 127 15 114 130 130 114 78 133 253 253 136 47 253 58 140 253 253 65 30 253 69 70 20 253 73 107 12 42 77 106 252 35 24 106 146 81 26 76 137 28 105 76 121 32 76 106 242 37 76 85 233 76 76 0 220 90 0 1 34 92 1 191 36 50 1 39 94 51 2 45 50 105 50 52 49 105 58 47 47 75 31 45 75 76 7 42 76 76 8 77 77 9 10 77 77 10 91 78 11 11 94 35 12 96 96 24 11 97 23 22 98 98 21 21 99 20
192 146 23 22 144 206 95 143 142 97 217 141 141 99 65 139 99 100 71 137 100 76 78 99 99 83 86 98 90 92 5 5 98 5 5 131 109 5 5 130 59 5 128 128 5 5 127 80 5 125 125 76 111 124 72 72 157 122 69 163 164 197 65 168 169 193 176 173 7 59 176 175 8 176 176 49 8 114 48 8 112 112 48 8 111 51 46 108 109 49 7 108 139 48 108 107 131 211 109 126 49 220 165 120 226 163 31 116 232 160 8 236 237 27 9 241 242 26 113 244 26 26 113 27 27 114 114 115 28 114 118 119 115 115 122 64 115 124 125 252 114 127 252 252 130 131 253 253 134 253 253 55 56 253 253 61 110 253 66 67 109 253 71 108 107 74 75 107 151 78 106 106 149 147 106 144 142 250 105 133 130 249 121 117 245 244 102 240 238 88 81 230 227 89 0 216 90 91 105 200 92 105 105 93 94 105 105 95 105 105 34 97 105 33 32 49 105 31 31 46 75 31 144 143 76 31 141 105 31 9 139 107 9 137 109 109 10 135 110 108 11 95 112 107 107 96 24 107 38 115 22 108 38 21 108 84
212 69 189 187 68 68 179 143 67 171 168 212 67 160 214 214 152 149 216 217 221 217 217 221 221 218 218 221 62 218 220 220 62 218 217 61 61 213 212 59 116 207 59 59 114 113 58 112 112 210 56 111 111 206 110 110 204 202 110 200 199 178 109 195 194 176 118 190 175 175 50 184 175 49 49 176 177 49 49 179 48 48 108 183 47 108 108 175 45 108 108 142 7 108 135 133 108 109 128 214 109 123 122 221 104 118 227 229 103 115 233 29 101 52 238 27 27 54 154 26 113 245 151 26 113 148 27 12 114 144 13 114 83 140 14 114 123 15 15 80 127 252 16 78 59 252 78 78 53 105 77 48 46 91 77 39 79 75 31 29 64 69 21 53 50 22 107 42 39 23 76 34 24 24 76 25 26 76 76 28 29 76 1 32 76 76 0 240 76 0 0 29 76 0 30 31 0 0 32 33 1 35 35 49 1 38 39 50 167 43 49 50 75 50 49 75 75 99 47 75 5 45 106 76 6 42 76 31 7 107 77 9 9 107 32 10 90 91 34 135 94 27 36 133 96 25 132 131 114 23 130 98 117 107 127 118
31 146 69 23 185 144 68 16 142 210 67 166 141 98 66 155 215 99 147 145 217 99 75 217 218 221 83 218 221 221 62 218 218 98 61 216 215 60 5 211 209 59 114 204 59 58 113 212 57 111 111 208 56 111 205 205 110 110 201 70 109 198 197 176 108 193 192 175 51 187 174 174 50 174 175 49 49 176 177 48 108 179 47 48 108 184 46 108 108 45 45 108 140 138 108 108 132 130 109 126 125 215 109 121 120 224 118 117 229 230 115 233 235 27 113 238 239 26 112 242 26 26 113 246 26 113 113 147 28 114 114 29 13 114 121 32 114 123 124 251 114 127 128 252 78 131 252 252 77 134 253 54 137 44 253 61 37 253 71 67 27 253 70 22 107 47 75 107 106 37 23 106 149 30 25 106 142 26 27 76 130 29 76 76 1 34 76 97 0 28 76 0 228 29 76 0 31 90 0 1 33 47 1 35 36 49 1 40 49 50 75 46 49 105 75 48 47 75 31 46 45 75 5 43 76 76 7 76 77 7 8 77 77 9 88 89 10 11 92 92 11 94 95 26 11 96 25 24 131 98 23 22 98 117 22 85
211 69 69 212 68 68 181 214 67 172 170 211 67 161 158 214 8 151 216 216 7 141 217 220 135 135 218 220 128 218 97 219 132 218 218 101 61 93 213 60 60 89 119 59 114 86 130 58 112 138 140 6 111 147 7 7 123 156 7 109 122 69 7 120 195 175 8 118 63 174 117 117 60 175 115 57 57 177 114 55 177 177 8 53 176 47 8 175 175 8 108 173 173 9 107 171 8 8 107 9 9 105 105 9 9 104 50 50 103 102 50 51 101 51 52 158 98 53 156 155 113 56 153 152 57 246 149 12 59 146 146 13 83 142 14 15 80 136 16 79 79 39 17 78 58 44 113 77 53 19 111 136 46 92 77 140 37 76 144 29 64 60 148 253 50 23 151 252 39 24 252 252 79 25 252 28 81 105 76 83 28 105 76 85 105 76 103 86 105 88 0 105 105 68 0 105 57 53 205 105 45 44 189 92 39 178 174 94 168 165 95 96 158 156 97 105 151 99 99 105 146 101 106 106 31 103 106 106 32 107 107 32 32 107 33 33 136 107 34 35 135 35 36 134 133 38 38 132 114 115 130 130 116 107 128 117
146 86 88 49 23 91 52 53 16 93 56 13 12 216 61 10 140 218 66 7 138 71 65 137 136 99 6 135 134 98 126 133 97 96 121 132 95 105 117 216 91 115 215 214 204 126 212 84 196 57 6 191 144 56 7 185 55 7 109 180 53 109 121 52 52 108 120 52 108 108 186 50 108 108 180 173 108 174 172 175 168 166 177 178 159 157 182 46 150 186 188 44 141 193 42 42 108 202 39 38 108 36 35 109 109 33 109 109 117 29 109 110 114 110 111 113 113 111 111 113 241 242 113 113 245 26 115 246 247 28 117 248 30 30 249 250 33 34 250 36 37 113 251 41 43 113 131 47 112 112 135 20 111 137 139 110 110 143 253 109 146 147 253 107 150 253 252 75 152 252 77 78 6 252 80 80 251 26 82 105 249 84 84 105 25 86 105 105 26 87 105 78 74 41 104 61 214 44 76 48 198 105 76 1 181 76 37 1 168 75 1 160 45 75 3 50 98 46 3 59 100 105 65 67 42 106 73 75 39 77 80 36 35 78 86 33 78 78 10 30 80 11 134 81 81 11 132 82 11 11 98 84 11 10 99 9
210 47 29 190 49 68 20 143 53 16 172 142 57 11 140 213 9 9 138 216 7 137 137 99 6 136 135 99 82 134 98 97 91 96 96 98 100 94 93 108 5 91 116 119 5 87 126 6 6 135 137 6 125 125 7 7 124 124 7 122 122 71 7 121 121 67 108 119 65 63 118 117 62 175 175 59 58 176 8 57 177 177 8 55 176 8 9 181 175 9 9 188 43 9 108 173 41 108 107 50 9 108 105 49 109 104 119 50 109 102 50 228 110 114 52 160 111 113 238 157 113 113 242 26 12 244 245 27 13 247 28 29 113 248 31 15 80 34 35 113 79 38 113 113 129 56 112 112 133 252 111 136 137 252 110 140 253 253 143 145 253 60 148 253 253 73 151 252 75 77 106 252 79 79 106 80 81 105 105 83 83 105 123 84 105 105 105 105 105 89 84 104 104 69 221 218 58 54 206 202 47 194 189 92 40 178 175 94 169 166 95 95 158 96 97 105 105 98 99 105 32 100 105 105 32 102 106 32 32 106 106 32 138 107 33 34 137 106 34 135 135 110 36 134 134 112 11 132 114 114 11 131 115 107 130 99
198 195 197 210 189 202 212 212 206 207 213 68 210 215 215 67 9 217 66 66 145 219 65 65 137 65 64 131 130 64 127 125 218 63 121 121 217 118 118 216 216 210 115 214 205 204 212 212 198 196 210 192 191 56 207 186 55 55 182 180 54 54 177 53 53 108 108 52 52 108 187 51 108 108 180 8 108 175 173 108 108 167 174 108 160 158 179 180 151 182 184 44 142 189 191 42 50 197 39 38 50 169 36 108 212 167 32 109 165 30 10 109 115 27 110 98 113 11 111 113 54 12 92 113 243 12 87 58 246 84 83 59 248 81 60 60 140 34 60 250 133 17 58 126 42 112 118 115 19 111 104 101 21 77 89 21 22 76 143 22 76 76 24 24 76 18 16 76 76 10 252 76 7 6 28 76 4 3 24 2 2 24 23 30 1 24 33 33 25 25 36 76 27 39 40 76 28 42 76 76 90 45 76 76 46 105 75 1 1 75 35 1 43 75 2 2 50 33 3 56 58 32 4 65 41 32 141 73 39 38 139 105 35 78 85 107 106 79 109 30 80 80 111 107 81 11 112 107 82 11 107 107 40 10 99 40
82 46 31 85 210 49 22 89 51 68 16 213 55 12 12 215 67 9 139 138 66 144 137 98 65 136 136 99 130 128 217 98 124 133 97 217 120 216 95 105 117 215 210 116 5 213 203 59 6 197 195 57 6 189 56 56 110 184 55 7 109 54 54 109 121 194 108 108 190 66 108 108 184 171 108 179 177 171 108 171 172 173 165 163 175 176 156 178 179 46 45 184 44 43 108 191 41 40 108 38 38 108 108 35 34 109 120 31 109 109 116 109 109 115 114 231 110 113 235 236 113 113 240 240 114 243 243 26 115 246 246 28 247 248 30 31 113 33 34 113 113 38 39 113 128 43 112 112 132 50 111 135 136 21 110 139 252 109 76 144 252 252 148 22 252 72 151 252 252 76 9 252 78 79 5 251 80 105 3 23 82 105 23 23 30 105 105 85 104 76 85 37 104 71 66 40 76 55 206 43 76 0 190 76 76 1 176 93 1 1 40 95 1 156 45 46 2 51 98 45 3 59 42 105 66 68 40 77 74 38 37 77 32 35 78 78 9 31 79 80 10 80 81 11 11 81 11 11 97 83 11 11 98 40 10 99
200 192 195 210 198 200 211 211 68 212 212 68 67 214 214 67 158 216 67 66 147 218 66 140 138 73 65 133 217 65 6 126 217 217 123 132 216 216 118 216 216 212 130 214 207 205 129 212 200 58 127 84 192 57 82 187 148 55 109 182 55 8 109 162 53 108 108 169 8 108 187 173 8 117 181 9 9 115 174 171 114 113 57 173 112 159 55 176 110 54 180 175 109 52 174 42 51 51 172 10 51 170 170 10 108 168 10 10 103 165 10 11 101 11 11 99 113 11 95 94 53 13 91 90 55 111 86 56 57 151 83 58 147 146 59 59 141 140 58 136 134 18 57 127 19 19 251 116 20 20 77 53 21 77 76 22 23 76 34 23 76 76 25 107 76 19 17 107 76 11 33 106 149 6 26 25 142 250 24 27 2 248 23 29 245 22 84 33 238 86 35 104 228 87 39 76 88 89 104 76 0 90 104 42 0 105 105 37 169 105 35 1 159 105 33 153 48 33 33 147 56 43 143 143 101 40 141 140 103 106 139 104 105 106 106 107 106 106 108 109 106 36 110 106 107 38 11 107 40 40 132 106 40 131 131 41
208 208 69 195 210 210 68 211 211 68 17 173 213 67 165 141 67 67 154 139 67 145 143 216 66 137 216 217 131 130 217 217 218 217 217 217 217 216 216 214 62 215 211 209 61 206 204 59 59 199 197 58 111 192 57 56 110 109 55 109 109 199 54 109 109 194 108 108 190 189 108 186 185 171 108 179 178 170 115 172 171 171 48 164 172 47 47 175 176 46 108 180 44 44 108 186 41 108 108 172 38 108 108 125 10 108 121 120 109 103 117 220 109 115 115 227 97 114 232 233 93 113 237 25 88 55 242 26 26 57 150 28 112 247 145 17 112 140 34 18 112 133 19 112 77 123 20 111 132 21 21 77 136 252 76 76 39 252 76 76 30 60 76 23 252 46 76 16 37 75 11 9 29 78 6 25 24 27 105 22 27 28 76 22 30 30 76 32 33 76 76 35 37 76 0 39 76 76 0 29 76 0 0 32 76 0 34 35 1 1 38 39 1 42 44 45 2 49 51 44 146 57 42 42 76 101 40 77 77 103 36 77 7 34 106 78 8 31 80 35 9 106 81 10 94 107 39 11 96 97 41 132 98 23 41 131
43 147 192 208 145 145 85 210 144 143 89 52 142 91 92 56 140 94 60 67 96 96 65 8 140 70 72 7 132 77 6 6 134 86 6 6 133 6 6 132 131 6 6 130 92 92 129 129 89 127 128 86 85 138 126 82 146 149 79 78 155 157 76 161 163 8 71 167 8 8 119 172 8 9 117 50 9 116 115 49 9 114 59 10 108 112 56 10 111 151 54 108 109 53 182 174 137 52 172 172 130 196 170 11 124 204 169 11 211 213 29 12 219 27 12 109 98 25 12 94 113 25 111 89 55 25 111 115 56 111 111 117 58 112 119 120 248 112 122 249 249 37 126 250 126 43 251 251 47 21 251 251 54 110 252 58 60 109 63 65 108 108 68 69 107 150 151 107 106 150 150 106 149 147 251 106 142 140 249 134 131 248 247 120 245 243 84 84 238 236 86 104 228 87 87 104 215 88 104 104 89 90 104 43 91 104 105 38 92 105 36 35 159 105 34 33 151 33 33 147 146 32 32 143 100 32 141 140 102 5 139 104 104 7 137 106 106 106 88 108 106 106 109 28 106 39 111 107 83 40 25 106 42 42 23 85
147 69 69 197 146 69 189 187 201 68 178 205 206 212 167 209 93 214 212 213 216 63 214 215 217 66 216 218 218 65 218 218 64 64 218 218 63 120 119 63 63 117 131 61 115 114 212 60 113 113 210 112 111 207 207 111 205 204 185 183 201 199 179 54 196 175 175 53 191 172 52 52 171 170 51 108 169 50 49 108 169 49 108 108 162 48 108 108 153 108 108 147 145 108 108 139 184 108 134 132 192 106 128 198 200 104 122 206 31 30 51 215 28 27 221 164 25 109 228 25 110 110 159 25 111 111 156 15 111 116 116 16 111 118 246 112 79 121 248 112 124 57 250 77 127 251 121 77 51 251 50 76 46 95 57 110 39 77 63 109 64 60 25 107 49 26 26 76 36 26 106 76 27 26 76 144 27 27 76 3 248 76 76 1 245 76 1 1 22 76 1 23 23 1 1 25 87 0 27 28 41 104 30 31 42 75 33 43 43 75 93 44 75 75 43 43 75 2 43 75 76 3 41 76 3 4 65 77 5 5 74 33 6 79 81 7 136 86 31 9 89 90 28 134 93 27 26 133 96 25 84 84 113 24 85 10
46 147 79 80 195 145 83 84 144 201 87 50 142 89 91 54 12 93 57 59 9 215 63 8 8 217 70 7 136 75 65 6 135 83 6 123 133 98 6 132 132 96 117 131 94 93 114 211 91 125 112 209 88 136 207 206 189 146 203 80 183 55 8 179 161 54 108 174 53 8 108 171 52 108 118 51 50 108 116 50 108 108 167 49 108 108 158 171 108 151 56 175 145 144 179 174 138 136 186 39 131 191 193 36 126 199 33 32 108 209 29 109 109 27 27 109 109 25 109 109 113 24 110 110 114 111 111 115 115 111 111 116 243 244 119 120 246 32 122 248 248 36 125 250 41 42 251 251 47 48 251 52 53 110 251 58 109 109 143 63 108 108 147 26 107 150 150 107 106 151 252 106 148 147 251 106 142 250 249 81 131 247 82 82 1 243 83 84 238 21 85 104 228 87 87 104 25 88 104 104 28 41 104 44 42 42 104 38 170 43 75 36 159 105 75 2 151 75 33 2 146 76 3 143 59 77 4 66 102 105 5 75 103 106 80 82 32 106 86 107 30 81 91 28 106 82 27 26 83 41 11 25 85 11 132 86
205 69 69 199 191 193 191 189 198 209 181 203 204 211 170 208 212 213 210 211 214 215 213 215 216 67 215 217 66 66 130 218 65 65 124 64 64 121 120 63 63 117 214 62 116 115 212 61 113 210 209 199 111 207 193 191 126 204 187 184 201 80 181 55 196 176 175 53 73 172 52 52 69 172 51 108 108 175 50 108 171 177 10 108 162 48 10 112 154 10 108 110 145 10 109 140 180 11 107 53 187 38 106 52 195 34 52 51 169 31 52 210 167 12 52 165 25 13 163 162 14 110 90 160 14 86 114 15 15 82 116 16 80 80 56 17 79 78 56 78 77 56 56 77 54 54 122 119 51 49 108 23 46 96 92 24 39 78 25 25 65 60 26 76 49 27 27 76 36 27 76 76 10 27 76 76 5 105 76 3 3 105 76 2 19 76 107 1 20 93 1 21 22 34 1 24 37 38 206 26 40 40 191 89 41 75 31 91 104 75 92 42 105 75 94 105 75 33 2 105 76 2 143 105 32 3 62 105 32 139 71 33 34 137 104 34 136 136 106 36 135 108 108 106 134 110 27 106 111 112 106 84 113 106 106 42
69 204 147 69 198 195 193 82 188 185 200 209 177 204 206 212 208 209 213 213 211 212 214 67 213 216 216 66 7 217 66 65 128 217 64 64 123 64 64 120 118 63 117 116 213 62 114 114 211 113 113 209 208 196 111 205 191 189 202 201 184 56 198 180 178 54 193 175 53 53 172 171 52 51 170 51 51 108 108 50 49 108 167 49 107 107 158 10 107 152 150 107 108 144 176 108 139 137 181 183 133 187 189 36 127 195 33 32 52 204 29 28 52 167 27 109 218 165 25 109 163 24 14 110 114 15 110 84 115 16 111 116 242 18 79 119 245 18 78 56 247 77 124 54 249 77 52 250 116 48 48 105 53 24 43 87 59 109 74 69 26 108 56 52 27 76 41 27 27 76 13 28 76 76 8 27 76 5 4 76 76 3 246 76 2 1 19 76 1 1 20 1 1 22 22 36 23 24 38 38 26 27 40 75 30 41 41 75 32 41 75 75 93 42 75 1 41 105 75 2 2 76 32 3 57 77 3 4 66 33 5 72 74 34 6 80 32 7 136 86 30 81 90 108 28 82 94 27 106 84 112 25 85 85 114 105
207 40 69 201 187 43 32 191 195 68 22 143 202 17 172 142 207 13 141 210 93 214 139 95 215 65 137 97 216 66 98 98 77 65 98 98 86 6 98 94 96 6 117 104 6 6 130 115 6 130 129 7 7 128 206 7 126 126 84 7 125 124 81 124 123 78 77 164 75 74 169 169 71 71 173 9 68 175 176 10 65 176 10 10 167 177 10 10 177 47 10 111 110 10 110 109 56 11 107 107 54 108 106 53 53 108 104 53 170 102 120 52 168 13 52 214 165 13 52 164 24 14 228 161 15 15 234 24 16 82 239 26 111 79 28 29 111 78 56 111 111 124 54 111 77 127 249 111 130 49 251 110 134 251 93 138 139 251 61 143 252 252 67 27 252 70 71 107 251 74 28 106 76 77 106 76 78 105 105 135 80 105 105 121 244 104 108 103 238 104 89 230 227 75 71 218 214 60 206 202 88 49 191 89 90 179 176 91 91 104 92 92 104 105 94 94 105 34 95 105 105 33 105 105 32 32 105 105 33 138 105 34 34 137 137 34 136 135 105 36 135 135 108 134 134 109 109 134 111 111 106 133 112 113 105 43
69 207 180 183 200 198 190 192 190 196 197 209 179 202 210 210 206 207 212 212 68 213 213 67 67 215 215 66 137 216 66 66 129 216 65 125 124 87 64 120 214 64 118 117 213 212 115 211 210 205 113 208 207 198 128 205 193 191 126 85 186 56 198 81 179 55 78 176 165 53 108 172 52 8 108 173 51 108 108 176 9 108 167 177 10 113 158 10 10 111 150 170 110 110 57 174 109 138 55 174 107 54 184 172 53 53 171 33 53 52 170 12 52 168 168 13 109 166 14 14 92 163 15 109 87 16 16 83 115 16 81 80 55 18 79 79 56 78 78 55 55 138 77 54 130 128 52 51 118 23 48 106 102 25 42 89 25 25 251 70 27 26 76 67 27 76 76 28 28 76 14 28 76 76 9 106 76 6 5 105 76 3 17 105 117 2 17 17 99 235 18 31 1 224 85 34 213 22 87 37 198 88 38 75 183 89 39 75 91 91 104 75 1 40 105 34 1 105 75 33 145 105 33 2 141 105 33 139 63 33 33 137 72 33 136 136 104 31 135 105 106 106 134 108 108 105 109 109 106 106 111 111 105 43 113 105
209 39 49 45 146 41 35 31 145 81 24 144 143 85 17 142 88 89 141 141 91 57 140 93 94 63 138 96 67 69 214 98 75 77 6 216 84 6 6 91 94 6 132 101 6 6 131 61 6 130 130 60 7 128 90 59 111 126 87 86 109 199 83 155 124 80 177 163 191 77 167 169 185 170 172 9 179 167 175 9 166 166 49 10 114 177 48 107 112 47 11 107 147 45 107 109 140 42 108 135 55 108 108 130 54 172 126 125 194 170 121 201 203 27 118 210 211 25 216 218 24 24 224 226 24 109 231 24 24 110 81 26 111 111 118 29 111 120 120 111 111 123 124 111 125 126 248 110 129 130 250 132 133 250 251 57 251 251 61 62 251 251 66 107 251 69 70 107 251 73 106 106 75 76 106 106 142 105 105 135 132 105 125 121 244 104 109 104 237 76 90 230 227 76 72 217 86 61 206 202 87 104 190 88 89 104 175 90 104 104 32 92 104 104 37 39 105 34 95 105 105 33 38 105 33 33 140 77 33 138 138 78 34 136 103 79 6 135 105 36 7 87 107 8 133 91 27 105 94 110 26 106 97 25 105 87
204 69 52 205 69 69 198 206 69 190 188 69 68 179 176 68 170 167 206 68 158 155 210 213 148 212 212 214 213 213 215 216 214 214 216 66 214 216 216 65 213 215 63 63 213 212 62 62 114 61 61 113 113 60 111 111 204 58 110 110 200 7 109 197 196 109 109 192 176 108 188 187 171 52 182 169 168 51 175 167 50 50 66 166 49 48 166 177 47 107 167 46 46 107 144 44 108 108 138 12 108 133 131 12 108 127 187 13 103 123 196 108 100 53 205 98 117 53 166 24 53 220 163 24 54 161 24 16 55 158 25 110 154 154 18 111 149 147 20 77 142 21 21 77 53 22 76 128 50 23 76 47 250 76 76 41 251 76 36 35 65 76 30 52 48 24 22 38 35 29 29 27 29 28 21 20 28 76 18 28 28 76 15 28 76 76 28 28 76 1 1 76 76 1 1 76 0 0 22 76 1 1 25 46 0 27 28 40 169 31 39 0 158 35 38 75 38 94 38 76 45 38 105 76 97 36 77 77 99 105 78 4 101 105 34 5 105 105 36 7 84 37 8 134 90 40 9 93 109 42 132 96 26 132 131 112
63 204 39 49 204 205 69 35 145 206 69 186 144 68 69 174 203 68 165 163 207 68 154 209 210 213 144 212 95 214 213 214 215 75 214 216 215 65 213 216 215 64 214 214 63 63 211 210 62 114 114 61 60 112 128 60 111 111 202 58 110 199 198 109 109 194 193 109 190 189 174 173 184 183 170 52 178 168 167 50 166 166 50 49 165 165 48 107 165 47 47 107 167 45 107 107 141 42 108 108 135 108 108 131 129 108 127 126 190 108 122 122 198 100 119 205 207 95 116 214 24 23 220 222 23 109 227 24 24 110 233 25 110 110 153 28 111 111 146 20 111 122 123 21 111 126 247 110 76 129 249 76 133 44 250 76 138 250 75 76 33 251 66 76 27 44 70 107 19 31 29 106 24 23 29 106 19 28 28 76 16 28 105 121 28 28 76 105 29 29 76 1 226 76 76 0 20 76 0 0 23 75 1 25 26 1 0 28 90 0 31 32 38 104 35 37 38 75 40 37 37 76 37 37 77 77 35 35 77 4 34 78 78 4 33 79 5 5 80 81 7 85 86 38 8 90 91 9 133 94 26 10 96 97 25 131
203 69 171 204 69 69 74 205 69 69 79 44 68 182 179 48 69 170 204 68 12 158 208 10 150 139 211 9 140 212 96 8 137 213 215 7 135 98 215 65 134 98 95 64 98 98 106 63 96 114 62 7 94 126 60 111 134 137 7 110 145 147 7 125 195 8 8 123 81 8 122 121 77 9 120 74 74 118 118 71 166 116 68 67 177 49 65 177 177 11 62 177 177 11 176 176 12 12 175 175 12 107 174 12 13 104 173 13 103 103 54 14 100 54 54 108 96 54 54 93 116 54 165 87 54 54 162 114 54 160 158 116 235 155 19 19 240 149 20 77 243 34 22 77 133 22 110 76 44 24 76 76 50 110 76 41 39 109 140 35 65 108 146 28 48 149 149 251 34 149 16 250 74 146 249 19 77 248 248 78 28 105 245 81 105 76 82 82 104 76 83 104 104 78 84 104 104 63 104 104 54 51 104 47 45 179 175 41 39 165 90 37 158 156 92 35 150 93 94 146 145 95 105 141 96 97 105 105 99 105 105 34 100 105 105 34 105 105 36 36 105 105 38 133 105 39 40 133 42 42 132 132 110 44 131 112
69 203 69 69 207 204 69 69 197 69 69 189 186 69 181 177 200 202 168 165 205 210 157 208 209 212 146 211 213 213 212 212 214 214 212 215 215 66 213 215 65 64 120 214 64 63 117 63 63 114 114 61 61 113 205 60 111 111 201 7 110 198 197 185 109 194 180 179 123 189 175 174 185 77 171 52 179 168 167 51 71 165 50 50 68 177 49 107 107 177 46 107 148 45 12 107 141 43 108 108 135 12 108 132 56 13 104 127 185 13 102 54 194 27 98 54 203 25 54 54 167 23 54 217 164 16 54 162 23 17 159 158 18 110 78 153 19 77 120 20 21 77 122 22 76 76 51 23 76 48 48 76 76 44 43 76 40 38 76 61 34 32 57 28 27 44 40 29 251 31 29 29 24 22 29 76 18 29 29 76 15 28 76 76 3 28 76 76 2 104 76 1 1 76 75 0 18 76 0 0 21 52 0 23 24 35 1 27 35 36 162 31 36 75 154 92 36 76 39 94 105 76 95 35 105 77 98 105 77 34 3 105 78 4 135 105 35 5 78 36 37 134 85 38 39 133 107 41 133 132 109 44 132 110 26 104
202 36 68 70 38 69 45 74 41 34 193 43 44 24 182 47 19 18 142 51 13 141 141 11 11 140 209 9 138 138 95 213 137 137 97 76 135 98 98 85 134 99 92 95 99 98 103 6 98 112 114 7 96 123 7 7 128 135 7 7 126 58 7 125 125 8 109 124 83 8 122 122 80 108 120 77 75 173 118 73 175 176 167 70 177 177 159 164 177 11 64 164 46 12 165 176 44 12 168 42 12 108 106 38 13 105 128 34 108 103 55 108 108 121 54 108 108 117 205 109 116 54 213 109 115 219 164 23 115 227 24 18 232 233 26 19 237 28 29 110 241 33 34 110 37 38 110 110 128 45 110 130 132 110 109 135 249 109 140 141 250 108 145 250 251 148 148 251 250 149 250 250 74 74 249 76 77 105 247 78 78 105 79 80 105 104 81 82 104 97 83 104 104 79 84 104 68 64 204 104 55 193 189 48 46 178 175 42 168 165 90 38 158 155 91 1 149 93 93 104 40 95 105 105 96 96 105 34 98 105 105 34 100 105 34 35 30 105 36 37 29 82 38 133 133 83 8 132 108 42 9 132 110 10 131 97
217 160 163 211 209 172 204 202 181 183 205 192 190 206 206 196 197 207 208 69 209 209 68 68 210 68 68 146 212 67 67 137 67 66 131 130 66 66 126 211 65 122 121 210 213 118 210 209 211 115 207 207 206 205 204 202 200 202 196 195 59 198 189 187 57 87 182 56 55 109 164 54 108 108 53 53 108 176 52 108 108 169 50 108 163 161 10 108 155 163 163 112 149 164 164 110 61 166 43 138 59 170 39 58 174 174 35 56 181 32 14 55 172 28 108 97 170 15 108 117 167 15 88 116 17 17 84 115 18 81 116 54 19 79 54 235 78 77 54 239 31 53 53 138 36 51 50 126 24 48 114 110 25 44 96 26 26 81 76 27 76 76 28 28 76 148 29 76 76 20 30 76 76 13 76 76 9 8 76 6 6 13 76 3 3 12 28 2 12 13 28 1 14 29 29 215 16 31 31 18 86 32 75 22 33 104 75 88 34 75 75 1 104 75 1 1 104 76 1 38 104 34 1 44 34 2 138 52 34 2 58 99 31 135 67 30 30 134 102 29 81 133 105 28 83 106 107 104 85 108 105 105 44 110 104 87
65 36 149 68 203 38 173 71 40 41 184 205 43 27 192 206 69 19 207 207 68 14 141 68 12 153 140 68 9 138 210 68 136 137 96 131 129 211 98 125 124 210 213 120 210 209 212 103 208 210 209 62 205 205 124 61 201 199 59 7 194 59 58 110 187 57 56 109 190 55 109 108 184 54 108 179 178 108 108 172 166 108 167 165 163 108 159 163 162 154 152 163 163 46 163 164 44 43 166 167 41 108 170 38 37 108 35 34 108 108 31 30 108 122 27 108 108 119 118 108 117 116 209 109 115 215 217 115 115 223 225 116 229 230 25 117 234 236 29 110 239 32 33 110 243 37 110 110 123 44 109 130 49 25 109 135 55 109 76 141 28 108 145 146 250 76 148 250 250 76 19 249 73 146 12 248 76 9 246 14 78 5 244 79 28 3 11 81 104 104 12 28 104 81 14 29 76 65 30 31 75 54 32 75 75 0 33 75 41 1 27 75 1 154 32 1 1 35 93 1 1 40 33 1 45 47 32 2 53 32 32 59 61 30 30 80 29 29 81 37 28 82 82 6 27 84 84 8 104 85 9 9 86 87 10 96
219 154 157 214 164 167 203 205 176 179 204 69 186 205 205 69 194 206 69 68 84 208 68 160 209 56 68 149 211 68 141 140 67 67 133 131 210 7 127 210 210 7 134 210 213 119 132 208 211 131 207 98 208 130 203 203 128 128 95 196 59 59 92 148 57 109 88 157 8 109 163 164 9 108 169 9 9 119 173 10 108 117 74 10 116 161 71 114 114 68 162 113 112 65 177 111 63 62 176 108 60 176 176 59 58 175 36 13 174 174 14 108 172 14 14 98 171 15 15 93 23 16 88 87 17 17 83 54 18 81 80 54 159 79 54 54 154 77 54 149 146 121 52 140 137 51 243 127 24 48 115 112 25 76 97 26 27 76 58 27 76 76 63 29 76 27 68 107 76 21 30 106 147 15 106 76 141 247 14 135 6 244 12 123 241 11 28 107 234 11 27 227 224 83 28 214 15 84 104 199 85 31 104 49 87 104 75 43 88 104 39 1 104 104 37 1 104 35 35 144 104 34 141 140 95 34 138 137 96 136 136 98 99 134 134 100 104 133 102 102 105 132 104 105 105 105 106 104 42 44 104 104 45 46 104 46
63 201 154 158 202 37 168 170 203 69 179 204 204 69 188 205 69 69 177 206 69 167 164 69 68 156 153 68 148 145 208 68 138 209 209 212 131 209 210 213 210 209 213 213 209 208 212 64 207 211 210 62 205 207 61 61 202 201 60 111 111 59 59 110 110 57 109 109 189 56 109 109 183 108 108 179 177 108 174 172 167 108 167 165 164 50 159 162 162 48 152 162 47 46 65 162 44 44 164 176 42 108 167 39 13 108 174 35 108 108 126 14 108 123 122 15 108 119 195 16 91 117 204 87 85 55 213 82 115 55 162 23 54 227 158 26 54 153 28 110 53 145 33 110 137 134 23 110 124 24 24 76 107 26 109 76 40 27 76 140 35 28 76 30 249 76 76 24 33 76 19 18 22 76 13 18 16 10 8 13 12 29 11 11 28 28 10 11 27 76 11 27 28 76 83 28 76 76 29 29 75 0 0 75 75 0 0 75 0 0 25 75 1 29 30 37 1 33 34 35 143 38 32 1 139 45 31 77 50 97 30 78 59 29 80 80 100 28 81 4 102 105 82 6 27 104 41 7 104 85 44 8 93 46 9 130
83 150 151 71 215 149 68 53 148 174 71 38 146 75 205 145 144 79 46 143 82 84 51 141 86 54 56 11 91 60 62 9 65 67 8 8 72 7 7 135 81 7 7 134 65 6 133 132 99 6 131 99 99 130 130 97 97 129 96 95 138 127 93 145 148 192 90 155 157 187 179 163 8 9 174 169 9 120 172 52 10 118 51 10 108 116 50 10 114 70 48 108 112 67 46 108 143 64 177 108 138 62 175 134 60 169 174 129 173 174 32 126 180 173 15 186 188 25 15 92 197 23 109 87 22 22 109 115 22 109 109 116 24 109 116 117 109 109 118 54 110 120 121 239 138 123 242 243 41 127 244 245 47 246 246 52 54 247 248 58 109 249 63 64 107 249 67 107 107 148 71 106 146 145 106 106 141 139 105 135 132 244 105 123 120 238 112 108 233 231 96 226 223 82 83 213 210 83 104 199 85 85 104 183 86 104 104 87 87 104 104 89 104 104 37 37 104 36 35 144 104 35 35 139 77 35 137 137 78 35 135 97 35 3 134 99 4 132 71 102 104 132 103 105 104 84 105 104 104 90 26 104 45 108 26 104
140 221 219 151 201 202 162 165 202 69 174 203 203 69 185 204 69 69 79 206 69 69 84 51 68 159 156 56 11 148 206 68 9 138 208 8 133 136 208 7 127 208 213 7 134 207 212 6 132 99 210 63 204 99 119 61 97 202 131 60 96 139 59 7 93 150 57 109 157 158 8 109 164 9 9 121 177 9 9 119 79 10 117 117 75 10 116 73 72 114 114 69 161 112 67 67 177 44 64 176 176 12 62 176 176 13 175 175 13 14 174 174 15 99 172 15 15 95 24 16 91 90 56 16 85 55 55 109 81 55 55 79 116 54 159 78 54 54 153 119 53 147 145 121 239 136 23 24 243 122 24 76 108 49 26 76 88 27 109 76 60 28 76 145 65 107 76 25 23 107 147 19 22 106 144 13 15 139 137 245 11 130 5 241 78 117 236 10 80 231 228 81 27 104 216 83 104 75 84 84 104 75 85 104 104 48 87 104 43 42 104 104 39 1 104 37 37 146 33 35 35 141 93 35 138 137 94 35 135 96 97 134 134 98 104 133 100 100 104 104 101 104 104 40 104 104 104 42 104 104 44 45 104 46 47 130
88 152 151 76 150 149 66 59 148 148 70 202 147 73 74 191 187 77 46 46 194 81 50 16 85 207 54 12 89 58 68 10 210 66 9 136 211 67 7 136 135 66 124 134 99 65 120 133 100 118 117 204 99 115 131 201 204 113 199 97 199 196 195 194 146 7 190 187 56 8 182 180 55 8 176 54 54 108 170 52 108 108 51 51 108 116 50 108 108 154 71 108 108 148 160 108 144 142 161 108 139 162 164 135 134 166 37 130 170 171 32 31 177 29 28 108 184 25 24 108 23 22 109 109 22 109 109 115 22 109 109 115 109 109 116 117 227 109 118 231 233 120 120 237 238 123 240 241 40 126 243 45 46 245 246 51 53 247 56 57 109 108 62 63 107 146 66 107 107 147 30 106 146 145 31 106 141 245 105 76 132 242 242 124 5 238 79 109 232 230 81 1 222 82 82 1 11 83 104 0 14 84 104 16 17 28 104 45 87 29 75 40 29 104 38 1 29 76 36 143 29 77 1 139 77 77 1 136 78 2 2 52 97 3 133 61 27 4 68 101 26 75 76 26 104 82 84 26 85 88 26 26 87 47 26 88
200 69 69 221 68 69 215 213 162 69 206 172 174 198 195 183 184 187 189 191 204 174 196 206 206 200 201 207 207 203 208 208 68 68 210 210 67 133 210 66 66 127 83 66 123 122 94 65 119 205 64 6 116 202 202 114 130 199 203 112 196 195 197 127 192 191 190 125 92 185 56 123 88 178 55 86 84 170 53 108 169 52 10 108 176 50 108 116 177 11 108 151 178 12 112 145 12 12 110 140 12 108 107 63 164 105 132 61 175 103 60 173 174 58 58 173 26 57 57 171 16 56 170 170 17 109 168 17 18 80 164 18 79 78 19 20 77 77 21 77 77 53 22 76 76 51 109 76 49 48 119 76 45 105 100 41 40 84 27 36 68 62 28 31 48 29 30 248 33 30 30 248 71 31 76 76 31 106 76 9 30 76 76 5 105 76 4 3 104 76 2 9 104 85 1 10 11 70 200 12 27 0 185 85 28 175 19 86 28 162 87 28 104 152 89 28 76 90 90 104 76 1 104 104 35 1 104 104 35 135 104 35 36 133 104 36 132 132 37 38 131 73 39 131 131 103 26 130 105 105 104 129 107 107 103 108
69 225 200 68 220 218 69 69 212 210 165 205 202 175 177 194 191 184 204 182 190 193 205 170 197 206 206 200 201 207 68 68 208 209 68 68 210 68 67 131 211 66 66 125 66 66 121 120 64 118 118 202 63 116 115 200 206 113 198 197 201 112 194 196 194 191 189 189 187 186 184 182 55 181 177 54 54 85 172 53 52 108 175 51 108 108 50 50 108 154 48 108 108 148 12 108 144 142 12 108 139 161 161 107 135 164 165 104 61 168 33 127 60 174 28 58 180 25 24 57 172 22 108 56 170 21 109 115 167 18 109 115 22 19 78 116 20 109 77 54 21 76 120 52 23 76 50 238 76 76 47 242 45 44 43 96 52 39 38 73 27 34 58 53 29 44 40 30 30 30 26 31 76 76 31 31 76 140 31 76 76 8 30 76 5 5 76 76 3 2 76 2 2 8 76 1 1 11 26 1 12 13 27 0 15 27 27 168 19 28 75 22 28 28 76 27 28 76 76 90 27 77 77 1 104 77 1 1 104 35 1 50 79 36 3 59 36 3 131 68 38 4 74 102 25 130 82 26 25 130 105 26 87 129 107 103
58 33 68 224 200 35 72 216 37 69 55 148 39 43 199 146 42 30 145 187 24 22 143 194 205 142 141 85 206 140 140 89 61 139 92 93 68 95 95 75 77 98 98 84 7 7 91 94 7 119 103 7 7 131 115 6 130 130 7 7 129 128 7 128 127 96 7 126 125 93 158 124 90 89 166 122 87 169 171 84 83 173 10 81 176 176 10 77 177 10 11 160 177 11 12 112 46 12 110 109 43 108 108 65 13 108 105 62 108 103 128 60 108 100 59 176 173 121 58 172 172 118 191 170 17 117 199 21 18 206 208 22 19 215 23 23 109 223 26 21 109 119 29 109 76 51 109 109 124 48 109 109 128 243 109 132 134 245 108 138 246 246 142 144 246 44 65 247 247 68 30 246 70 72 106 245 73 74 106 75 75 105 105 77 78 105 115 111 104 104 99 223 104 87 83 210 104 72 199 195 62 59 184 180 52 173 170 86 45 161 159 87 104 151 88 89 104 89 89 104 104 91 91 104 36 93 104 104 35 94 104 36 36 104 104 37 131 131 38 38 131 130 40 130 130 102 42 129 129 105 7 129 106 106 8 129
69 227 226 69 223 221 145 69 215 156 159 208 206 169 172 198 178 180 203 187 187 189 204 69 193 204 205 69 85 206 69 68 207 207 68 141 208 68 67 133 209 67 128 127 85 66 123 122 203 7 119 202 201 7 131 199 206 114 129 196 202 128 193 97 196 126 189 191 153 125 93 184 56 8 90 167 54 109 86 172 10 108 174 175 10 108 176 10 10 115 178 11 108 148 72 12 111 143 159 109 109 67 160 107 106 64 176 105 63 62 175 102 61 174 174 59 59 173 15 15 172 172 16 108 170 17 18 82 168 18 18 79 19 19 78 77 20 21 77 54 21 76 76 52 143 76 50 50 130 76 47 117 112 129 43 97 91 40 245 74 28 34 58 61 29 76 40 29 30 76 68 31 76 76 72 31 76 13 74 105 76 9 105 105 122 5 105 76 4 227 7 96 2 7 8 80 206 9 25 66 191 11 25 180 176 84 26 167 85 86 104 156 87 26 104 39 89 104 76 37 90 104 36 1 104 104 36 135 104 36 36 133 104 36 131 131 97 38 131 130 100 130 130 101 101 129 129 103 103 129 104 105 103 106 106 103
56 32 33 88 34 34 77 74 36 37 61 149 148 48 44 147 71 34 145 145 76 25 144 79 80 170 142 84 85 141 199 88 60 139 91 207 66 9 94 73 75 8 209 82 7 7 209 92 7 133 210 64 7 132 112 6 116 130 62 7 129 193 99 112 127 97 96 111 186 95 157 110 181 92 165 176 175 176 170 170 172 170 52 163 167 176 51 108 162 50 10 108 160 48 108 112 46 46 108 109 43 108 108 137 40 108 133 133 163 108 130 128 168 126 125 172 174 123 121 180 23 119 186 188 21 192 195 20 21 201 204 21 109 109 22 23 109 109 25 109 109 118 28 109 109 121 109 109 124 125 109 126 128 241 109 132 133 244 53 138 245 245 60 143 246 63 65 246 246 67 107 246 70 71 106 244 73 106 106 136 75 105 105 126 29 105 116 112 104 76 101 221 104 89 85 209 75 74 198 194 75 61 183 84 84 0 169 85 85 160 18 86 104 151 87 25 104 26 89 104 104 31 25 104 36 36 25 104 36 133 24 79 36 132 80 81 2 130 82 39 4 68 83 4 129 76 85 5 82 103 25 7 88 105 103 92
68 230 57 33 87 224 34 35 72 217 37 59 55 148 166 43 199 147 72 31 145 185 77 144 143 80 204 142 141 85 56 140 88 89 62 139 92 68 70 9 95 76 8 8 83 86 7 7 94 7 7 132 106 7 7 131 63 6 130 129 100 7 128 99 98 127 126 97 152 125 95 94 161 123 92 166 167 173 88 171 172 166 169 175 10 10 165 51 10 115 178 11 11 113 47 12 111 111 45 12 109 68 42 108 107 66 13 108 132 63 175 102 127 168 175 124 60 174 174 121 180 172 22 118 188 171 18 195 197 21 18 79 21 21 109 77 23 24 109 118 26 109 109 119 31 109 122 122 109 109 125 46 109 128 130 241 93 134 243 244 56 140 245 245 62 245 245 65 66 246 245 69 106 245 72 72 106 73 74 105 105 131 76 105 123 120 105 104 109 105 104 98 93 215 104 82 78 201 71 68 189 186 59 179 175 84 84 165 163 86 104 155 86 87 104 147 88 104 104 89 89 104 37 91 104 104 36 36 104 36 36 132 104 37 37 131 81 38 130 130 39 40 129 100 42 129 129 102 5 128 103 104 102 128 105 102
112 198 32 91 198 198 69 79 199 199 69 214 200 69 69 204 201 69 195 146 69 69 183 144 69 174 171 193 82 162 197 198 205 151 200 200 207 201 201 208 208 202 202 208 66 202 209 209 65 208 209 65 64 118 208 63 116 116 62 62 113 113 61 112 112 188 59 111 111 184 111 110 180 179 183 175 174 178 176 169 167 172 53 163 168 167 51 156 164 50 50 161 160 48 108 159 46 46 108 108 44 108 108 138 41 108 108 133 14 108 130 129 108 108 126 169 108 123 122 176 91 119 182 184 21 117 190 20 20 57 199 20 20 56 164 22 109 215 159 21 109 153 27 22 109 121 23 109 76 124 24 109 127 44 25 76 132 242 26 76 36 243 76 76 31 45 76 27 26 29 68 22 21 70 31 17 14 73 106 10 9 30 105 8 29 29 76 6 28 27 76 26 26 75 75 2 24 75 1 1 75 75 1 177 75 1 0 13 75 0 16 18 0 0 21 22 0 24 26 23 23 29 31 23 77 35 23 23 78 93 22 79 80 94 23 81 2 22 104 82 3 3 84 41 4 74 85 5 5 82 47 6 86 88 50 127
197 155 115 198 198 154 58 198 69 142 62 37 69 65 200 39 69 200 42 69 33 188 46 69 179 188 50 18 167 194 55 14 141 197 12 147 139 91 9 138 201 95 207 136 97 208 87 135 99 208 65 101 101 107 64 101 116 119 6 101 128 131 7 136 139 7 7 126 150 7 125 125 8 8 123 175 8 122 122 89 9 120 87 86 119 118 83 82 177 80 79 177 178 77 76 178 12 73 178 178 12 158 177 12 13 158 177 13 104 176 34 14 101 100 15 108 97 61 15 92 91 59 108 87 59 58 109 117 58 169 80 115 56 166 115 56 211 161 21 55 155 26 22 225 146 22 109 231 35 24 76 236 41 109 76 46 49 109 76 38 108 108 141 32 108 76 145 244 107 146 24 244 145 145 244 15 141 140 241 74 134 238 237 75 29 232 77 77 104 224 79 104 104 80 80 104 75 81 104 104 66 82 104 104 56 104 104 50 48 158 104 45 151 149 42 41 144 87 39 140 138 89 38 136 91 91 133 133 92 93 132 93 93 103 103 95 103 103 39 97 104 104 41 103 103 43 44 103 103 46 127 102 49 49 127 127
105 197 68 68 197 198 68 69 198 69 69 217 199 69 69 208 69 69 199 197 175 69 187 182 184 178 175 189 203 165 193 194 204 154 197 205 205 199 199 206 206 200 207 207 67 66 207 66 66 124 208 65 65 120 109 64 117 117 121 62 115 191 61 7 113 187 186 112 126 183 192 111 179 186 185 123 173 180 178 121 90 173 53 162 86 168 51 83 165 177 50 108 178 48 11 108 178 46 108 110 177 12 108 138 177 13 106 134 13 14 103 130 14 100 99 63 167 95 61 61 174 90 59 180 172 59 58 171 20 58 58 168 19 56 165 164 20 77 160 21 21 76 152 22 76 76 22 23 76 123 24 76 76 45 25 76 76 40 109 76 37 35 60 33 32 45 41 28 27 29 30 23 21 19 31 18 14 31 31 239 9 30 76 7 76 29 76 76 28 104 76 3 25 75 75 2 104 75 1 1 104 75 1 9 104 55 1 12 23 48 155 16 23 0 147 86 22 142 24 88 22 137 89 21 104 134 90 104 78 92 92 104 80 2 103 103 38 2 103 82 40 128 103 42 4 128 103 45 128 79 47 48 127 104 50 126
196 157 156 55 32 155 57 58 34 80 60 36 37 64 64 39 51 48 41 42 37 192 44 28 26 144 49 21 19 142 16 15 141 141 86 140 139 90 91 138 138 93 75 136 96 97 85 135 99 93 96 198 101 104 7 102 206 117 6 6 126 62 7 129 138 7 7 127 59 7 126 125 58 8 123 95 56 109 122 92 171 109 163 88 175 118 157 167 177 153 81 162 178 148 160 178 12 144 158 45 12 157 157 42 12 106 39 38 108 104 35 14 108 128 30 108 97 124 25 108 121 61 108 108 118 182 109 117 117 191 170 116 198 200 20 115 207 209 22 213 215 25 26 221 28 30 109 228 34 35 109 125 40 109 109 129 47 109 134 136 108 108 141 142 108 144 145 243 107 146 243 243 145 145 242 242 71 241 239 73 74 236 235 75 105 231 76 77 104 77 78 104 104 79 79 104 82 80 104 104 69 66 104 61 58 169 104 52 50 157 75 46 150 148 43 0 143 87 40 139 138 89 104 135 90 90 104 132 91 104 104 41 93 103 38 48 20 103 39 96 21 84 41 21 103 43 44 127 87 47 127 127 88 50 127 104
97 196 196 156 55 197 69 154 58 197 69 220 61 37 69 211 199 40 47 201 42 69 33 146 46 26 180 144 51 19 142 191 15 14 141 195 204 139 139 91 205 138 94 95 79 136 97 206 89 99 99 98 65 101 101 110 7 118 119 122 6 115 131 7 7 128 142 7 126 126 7 7 125 125 8 123 123 94 8 122 121 90 173 119 88 87 176 156 84 177 177 82 81 178 11 78 178 178 12 75 178 12 12 156 177 13 13 105 38 14 103 102 33 108 99 64 15 108 94 62 108 90 120 61 109 84 60 184 171 117 58 169 18 115 200 165 19 116 209 23 21 215 153 26 22 223 30 22 109 230 37 24 76 127 43 109 76 40 109 108 137 36 108 108 143 242 108 146 146 242 107 146 242 241 144 143 240 72 72 238 237 74 30 233 75 76 105 226 77 78 104 78 78 104 104 79 80 104 76 74 104 104 64 175 104 57 55 162 104 49 154 152 45 44 146 144 42 141 140 87 39 136 88 89 104 133 90 91 104 91 91 103 103 93 93 103 39 95 103 103 41 97 103 42 43 103 103 45 127 127 48 49 126 126 52 126
51 237 157 54 32 232 116 56 34 154 131 197 36 143 62 198 39 157 199 41 69 169 200 45 30 185 201 69 22 143 69 69 163 141 69 69 152 195 68 144 142 197 67 136 197 197 131 129 197 206 206 196 196 206 106 194 205 205 63 191 203 203 62 201 201 61 60 197 196 59 112 111 58 58 111 173 56 110 110 167 55 109 162 161 109 109 156 155 109 152 151 163 108 148 160 160 47 144 158 158 45 157 156 43 42 156 156 39 108 157 36 34 108 161 31 108 108 27 26 108 122 121 108 109 119 118 109 117 117 186 109 116 115 196 78 115 202 205 77 55 211 24 25 53 219 29 109 225 33 34 109 231 39 109 109 102 46 109 109 79 26 108 140 57 27 76 145 241 107 76 146 241 76 145 20 240 76 141 238 10 76 12 234 75 9 8 6 76 6 5 5 26 104 5 5 24 104 5 23 22 75 6 21 104 75 21 21 75 52 20 75 76 0 147 76 76 0 19 77 0 0 25 77 0 28 30 1 1 34 19 1 39 40 19 1 46 19 19 82 54 19 20 84 20 20 85 86 20 20 87 5 21 88 88 7 101
159 51 31 31 54 54 33 69 56 34 34 80 60 37 37 65 39 39 53 49 42 41 38 147 146 30 27 145 77 21 143 142 82 16 141 85 86 151 139 89 69 138 93 93 77 136 96 85 88 8 99 96 99 7 205 108 7 7 204 120 7 130 129 61 7 128 61 7 113 126 59 7 125 176 97 111 123 96 95 110 165 93 172 109 159 171 176 155 153 166 177 150 163 162 49 146 160 178 47 108 157 44 12 108 156 41 108 105 39 37 108 131 34 108 108 127 28 108 124 123 167 108 121 61 174 118 118 181 172 117 187 189 19 115 195 198 20 202 204 22 23 211 213 25 109 109 29 31 109 109 35 109 109 126 42 109 130 132 109 109 137 138 108 141 143 241 108 145 145 241 65 145 240 240 68 239 239 71 72 236 235 73 105 232 75 75 105 224 76 104 104 105 78 104 104 90 104 104 79 76 104 70 67 173 104 59 57 160 75 51 153 151 76 46 145 85 86 0 139 86 104 136 25 88 104 132 89 19 104 34 91 103 103 41 18 103 40 48 19 103 41 127 19 85 44 126 86 86 5 126 88 50 6 82 89 7
50 239 93 97 195 235 108 111 196 119 123 197 197 135 139 197 69 69 198 198 69 69 199 69 69 190 199 69 180 177 69 69 167 164 69 158 155 192 193 148 145 194 203 139 195 195 204 195 195 204 205 194 194 205 65 193 204 204 64 190 203 63 62 115 201 61 61 113 60 59 112 112 59 111 111 172 57 111 110 166 8 110 161 160 9 109 156 170 168 117 151 165 50 148 82 160 48 144 158 178 45 76 157 43 43 73 177 40 108 69 177 35 108 129 176 14 108 125 15 15 92 122 16 109 119 61 17 82 117 183 18 79 59 191 19 77 57 165 21 56 55 158 24 54 151 148 22 51 139 33 23 125 121 24 109 104 99 25 76 134 26 26 76 34 27 76 76 30 28 76 26 25 76 76 21 20 76 18 17 9 76 13 7 6 29 9 5 5 28 218 4 26 25 4 4 24 75 5 22 22 75 5 20 75 75 1 20 75 1 1 104 76 1 1 104 45 0 17 77 0 0 23 40 0 27 28 39 131 32 18 18 129 38 17 81 128 93 18 82 51 95 102 84 97 18 102 86 98 102 87 49 101 101 52 6 125
102 30 30 99 237 158 96 94 157 115 88 86 154 59 76 152 152 62 59 150 66 67 148 148 70 45 146 74 75 50 51 79 54 56 17 83 60 62 13 202 67 11 11 74 76 9 136 84 8 8 135 99 8 134 134 101 7 132 102 102 118 130 102 102 115 183 102 142 128 180 196 153 176 99 160 161 8 186 167 8 8 180 172 9 120 173 53 10 117 177 51 109 115 49 10 109 145 48 108 111 141 76 108 139 74 156 108 135 71 177 133 131 157 177 128 159 160 28 125 164 165 23 109 170 21 20 109 176 19 109 109 18 18 109 78 19 109 109 116 21 109 116 117 109 109 119 119 219 121 121 224 226 124 125 230 42 130 233 234 49 236 236 54 56 239 239 60 108 239 63 64 107 107 67 106 106 142 70 106 106 136 106 105 131 128 105 123 120 219 105 111 107 209 75 96 199 195 79 82 185 80 80 174 171 81 104 162 82 82 104 152 83 104 104 13 85 104 104 43 18 104 42 41 17 104 40 131 104 40 40 129 80 39 128 128 81 40 127 93 83 2 126 96 96 3 63 97 101 125 72 19 101 78 101 20 100
68 241 239 90 99 237 100 104 195 231 115 196 196 154 131 196 197 152 62 197 69 156 67 43 69 70 198 69 69 181 51 69 172 169 56 68 160 189 63 13 149 192 11 11 138 192 9 134 136 97 8 135 192 100 203 133 101 203 115 132 102 202 63 103 103 136 61 102 145 147 7 101 155 157 7 161 163 8 8 122 169 8 121 120 9 9 118 90 10 117 116 86 10 115 84 82 113 112 80 79 178 78 76 178 178 74 73 178 13 71 177 177 14 158 176 14 14 161 176 15 92 175 16 16 86 85 17 82 81 61 17 79 60 59 109 77 58 57 109 116 56 160 76 117 53 150 119 51 220 136 22 48 123 38 24 230 101 24 109 234 50 25 76 237 56 108 76 60 62 107 76 25 107 107 144 21 106 141 140 234 106 135 12 6 129 126 223 5 118 115 214 77 105 204 201 78 23 191 79 80 104 177 80 104 104 81 81 104 75 82 104 104 50 84 104 104 45 104 104 43 42 134 42 41 132 131 40 40 129 89 40 128 128 91 40 127 92 93 127 126 94 102 126 95 96 102 101 98 101 101 50 99 101 100 54 100
102 162 30 101 161 160 68 97 158 157 69 230 155 57 81 222 153 61 216 151 149 65 42 149 68 198 46 170 73 49 69 179 199 54 19 185 199 68 15 200 200 68 11 139 67 67 138 137 66 133 135 191 65 127 134 101 123 122 188 102 120 118 185 201 116 182 181 199 144 178 196 195 59 173 192 58 57 187 186 56 8 181 55 54 110 175 53 53 109 52 52 109 109 148 109 109 145 144 109 109 142 157 108 140 139 156 108 136 155 155 133 132 156 157 33 158 159 29 27 162 25 24 109 167 21 20 109 19 19 109 109 18 18 109 115 18 109 109 116 199 109 116 116 207 109 118 214 216 120 121 221 223 124 226 227 40 129 231 232 48 38 234 53 54 108 47 59 108 108 30 63 107 145 66 29 106 143 69 106 76 138 29 106 132 11 224 76 122 218 215 75 5 207 77 75 3 193 79 2 2 4 79 2 5 81 19 1 6 82 104 76 9 17 104 48 12 17 77 45 17 17 77 42 16 78 78 1 16 79 1 1 80 80 1 127 40 2 2 45 93 2 2 54 16 3 60 62 17 67 69 18 18 76 78 19 90
74 102 163 83 50 99 160 96 195 158 158 55 195 155 155 58 37 153 61 62 40 58 65 43 43 43 69 46 33 31 50 51 24 174 55 19 18 142 62 15 140 140 12 11 138 138 93 137 136 96 96 135 135 99 101 134 101 101 113 132 102 122 126 184 103 135 7 103 197 146 7 7 154 59 7 124 162 7 8 123 56 8 121 120 54 110 119 92 53 109 116 88 178 115 147 84 178 112 82 159 178 141 78 178 178 138 156 178 12 134 156 36 13 156 156 31 14 96 27 26 109 91 23 16 109 119 20 109 81 117 109 109 116 60 109 109 115 192 109 116 116 201 159 117 207 210 26 119 215 218 32 221 223 36 38 227 42 43 109 231 49 51 108 140 55 108 108 145 60 107 146 146 107 107 145 235 106 142 141 232 106 137 228 226 130 128 221 219 75 214 211 76 76 202 199 78 104 188 79 79 104 80 80 104 104 80 81 104 59 81 104 104 52 51 104 48 47 137 104 45 134 133 77 43 131 130 42 1 129 88 41 128 127 90 103 126 92 92 102 126 93 102 102 54 95 101 48 97 16 100 51 99 100 89 56 19
